#include "stdosl.h"

shader gabor(  
 point Pos = P,  
 int anisotropic = 0,  
 vector direction = vector(1,0,0),  
 int do_filter = 1,  
 float bandwidth = 1.0,  
 float impulses = 16,  
 output float Noise = 0  
){  
 Noise = noise("gabor",Pos,  
 "anisotropic", anisotropic,  
 "direction", direction,  
 "do_filter", do_filter,  
 "bandwidth", bandwidth,  
 "impulses", impulses);  
}
