/*----------------------------------------- */
/*   Copyright (C) Cogumelo Softworks - ToonKit for Cycles v1.1
/*   Rim Light
/*------------------------------------------*/

shader Rim(
    float Hardness = 0.0,
    float Size = 0.0,
    normal Normal = N,
    output float Rim=0)
{   

    float dif = 1 - (dot(I,normalize(Normal)));
    float value = smoothstep(Hardness + Size,1-Hardness + Size,dif);
    Rim = value;
}