/*----------------------------------------- */
/*   Cycles NPR Kit
/*   Cogumelo Softworks 2017
/*   Directional Shadow
/*------------------------------------------*/

shader Shadow(
    vector Direction = vector(0, 0, 1),
    float bias = 0.1,
    output float Shadow=1)
{    
    float d = dot(N,Direction);
    if(d > bias){
        Shadow=(1-trace(P,Direction));
    }
}