All_In_One/Enrich_Colormaster/colormanagement/luts/film_response/70s.cube
#Created by: Denver Riddle
#Copyright: (C) Copyright Color Grading Central LLC
#LUT Size
LUT_3D_SIZE 5
0.172503 0.156893 0.152895
0.391241 0.149111 0.152468
0.684306 0.153109 0.141405
0.896468 0.21088 0.206577
0.964706 0.235294 0.223499
0.180926 0.321279 0.149004
0.356466 0.310323 0.145907
0.667308 0.305608 0.168185
0.868391 0.318853 0.215366
0.957565 0.320592 0.235294
0.227497 0.613489 0.210651
0.344747 0.597742 0.208957
0.61857 0.589593 0.235203
0.846082 0.58822 0.262837
0.961807 0.584955 0.274998
0.271733 0.808438 0.253513
0.343038 0.791791 0.253849
0.615106 0.795911 0.273274
0.819669 0.788266 0.287175
0.992203 0.791043 0.304555
0.294102 0.945098 0.286305
0.351141 0.942229 0.287343
0.592493 0.946624 0.294957
0.811414 0.949004 0.312078
0.980407 0.956893 0.329397
0.173144 0.157519 0.335683
0.389456 0.14847 0.318059
0.687633 0.153796 0.305791
0.881621 0.204883 0.319982
0.968597 0.234745 0.319936
0.173571 0.319112 0.292165
0.344579 0.306722 0.282475
0.649805 0.29865 0.27953
0.855268 0.313558 0.29723
0.968536 0.326802 0.312688
0.226856 0.605554 0.298863
0.334051 0.587716 0.288243
0.624949 0.584192 0.298054
0.832029 0.586816 0.309926
0.975265 0.586618 0.325582
0.268666 0.79559 0.308507
0.342916 0.792523 0.306706
0.607126 0.786709 0.310201
0.824201 0.794583 0.325063
0.987411 0.780789 0.333822
0.2934 0.939086 0.322683
0.349966 0.935241 0.317601
0.574609 0.938247 0.327169
0.808057 0.952178 0.332967
0.986175 0.950881 0.347127
0.180255 0.149004 0.65713
0.380209 0.149004 0.643687
0.679332 0.163409 0.613535
0.871397 0.217304 0.607477
0.968444 0.2392 0.6121
0.175158 0.311803 0.611826
0.341238 0.302098 0.603494
0.647776 0.299062 0.58912
0.85359 0.316014 0.576059
0.968322 0.322469 0.583108
0.234287 0.594598 0.574578
0.340291 0.594217 0.554101
0.611276 0.58088 0.558831
0.829267 0.581872 0.552254
0.973953 0.577401 0.554223
0.268513 0.803861 0.544991
0.340581 0.785779 0.532937
0.595712 0.78529 0.529839
0.820569 0.77966 0.532326
0.982879 0.777722 0.542779
0.309575 0.944717 0.532769
0.349813 0.941436 0.524132
0.57496 0.932525 0.510979
0.806821 0.946593 0.521675
0.988418 0.954528 0.51809
0.168597 0.149004 0.862593
0.377539 0.147539 0.843839
0.666743 0.174945 0.82092
0.87274 0.227512 0.807935
0.970016 0.250996 0.811337
0.172992 0.304738 0.820661
0.339269 0.296239 0.821607
0.646937 0.300404 0.803967
0.850278 0.316014 0.783429
0.962264 0.327672 0.78088
0.234089 0.591058 0.781567
0.337072 0.57702 0.780194
0.616144 0.581125 0.771038
0.826169 0.569757 0.777996
0.973648 0.567407 0.774289
0.277378 0.808927 0.765759
0.344244 0.794522 0.77232
0.592981 0.787732 0.753811
0.815961 0.790173 0.751537
0.9841 0.789883 0.747326
0.302556 0.936049 0.751156
0.349004 0.944457 0.74519
0.573175 0.939055 0.746975
0.804761 0.954528 0.744411
0.973144 0.958144 0.743206
0.180407 0.145098 0.921599
0.376791 0.154574 0.927123
0.673442 0.185824 0.914549
0.879225 0.232837 0.898436
0.972503 0.254902 0.890196
0.180407 0.308125 0.91754
0.335927 0.295399 0.910658
0.642786 0.299336 0.904692
0.840162 0.319066 0.903685
0.971405 0.327382 0.891875
0.246082 0.59205 0.884932
0.333059 0.582147 0.881621
0.608286 0.569955 0.895582
0.820127 0.569482 0.899138
0.975891 0.567452 0.900832
0.275181 0.793545 0.898344
0.344045 0.79205 0.892378
0.597192 0.775219 0.912108
0.813504 0.785641 0.907378
0.981231 0.786297 0.913695
0.302007 0.929397 0.909804
0.350454 0.940612 0.902861
0.570001 0.944701 0.913695
0.796567 0.941299 0.909712
0.980407 0.968597 0.917601
