All_In_One/Enrich_Colormaster/colormanagement/luts/film_response/70s.cube
#Created by: Denver Riddle
#Copyright: (C) Copyright Color Grading Central LLC
#LUT Size
LUT_3D_SIZE 9
0.172503 0.156893 0.152895
0.268376 0.150912 0.147097
0.391241 0.149111 0.152468
0.569177 0.151095 0.139101
0.684306 0.153109 0.141405
0.780636 0.17377 0.1664
0.896468 0.21088 0.206577
0.964706 0.235294 0.223499
0.964706 0.235294 0.223499
0.176074 0.221256 0.149004
0.257328 0.218723 0.155657
0.375494 0.210941 0.139025
0.54583 0.204501 0.138796
0.68336 0.211078 0.153063
0.790692 0.221912 0.171191
0.880827 0.243748 0.201007
0.970916 0.26183 0.226963
0.972503 0.26041 0.227497
0.180926 0.321279 0.149004
0.241733 0.310399 0.137697
0.356466 0.310323 0.145907
0.518868 0.308644 0.150896
0.667308 0.305608 0.168185
0.763226 0.310323 0.183215
0.868391 0.318853 0.215366
0.94902 0.328405 0.235874
0.957565 0.320592 0.235294
0.192203 0.474006 0.164553
0.239185 0.461738 0.16025
0.335058 0.453544 0.163485
0.491646 0.444282 0.179797
0.638804 0.447303 0.196902
0.747921 0.444358 0.213413
0.849119 0.443519 0.234836
0.942107 0.443107 0.254688
0.964706 0.447868 0.254902
0.227497 0.613489 0.210651
0.259648 0.606241 0.2094
0.344747 0.597742 0.208957
0.47274 0.602029 0.222034
0.61857 0.589593 0.235203
0.733059 0.598367 0.2448
0.846082 0.58822 0.262837
0.937102 0.592309 0.271427
0.961807 0.584955 0.274998
0.249195 0.702861 0.235599
0.278035 0.707149 0.235508
0.341314 0.696788 0.234714
0.465629 0.708553 0.242329
0.608362 0.704387 0.253315
0.728267 0.699077 0.264195
0.830304 0.704433 0.274479
0.925063 0.696757 0.28072
0.976501 0.697566 0.290196
0.271733 0.808438 0.253513
0.28603 0.79469 0.251926
0.343038 0.791791 0.253849
0.443809 0.793515 0.262013
0.615106 0.795911 0.273274
0.73077 0.777813 0.274617
0.819669 0.788266 0.287175
0.90988 0.790585 0.294438
0.992203 0.791043 0.304555
0.297169 0.912917 0.275517
0.300587 0.903273 0.27422
0.351278 0.882811 0.274784
0.450004 0.877119 0.277897
0.606149 0.867933 0.286641
0.72015 0.877226 0.290028
0.824323 0.880064 0.300725
0.92134 0.872404 0.309758
0.976501 0.881956 0.313298
0.294102 0.945098 0.286305
0.297017 0.946853 0.285725
0.351141 0.942229 0.287343
0.438621 0.935195 0.283818
0.592493 0.946624 0.294957
0.700679 0.938064 0.302388
0.811414 0.949004 0.312078
0.903655 0.953185 0.314534
0.980407 0.956893 0.329397
0.183688 0.16141 0.227634
0.268605 0.151583 0.213062
0.38146 0.154528 0.216129
0.56144 0.144732 0.203357
0.686259 0.157794 0.206012
0.783246 0.172 0.211902
0.885786 0.208621 0.235981
0.977371 0.233127 0.257923
0.97995 0.232486 0.25536
0.187289 0.216754 0.212543
0.250004 0.216663 0.200946
0.363821 0.209812 0.19762
0.543038 0.207721 0.196307
0.673671 0.209049 0.196124
0.780209 0.218082 0.211673
0.881682 0.242542 0.238178
0.962234 0.260685 0.254246
0.96553 0.259861 0.252064
0.177035 0.323278 0.197086
0.243107 0.309743 0.192615
0.348394 0.306386 0.188556
0.515999 0.299565 0.19266
0.659251 0.297887 0.197314
0.768917 0.310399 0.21471
0.855131 0.316594 0.23801
0.952636 0.328099 0.255085
0.966247 0.329381 0.256016
0.186267 0.45742 0.200488
0.236011 0.443259 0.193515
0.333745 0.460136 0.197604
0.490318 0.44564 0.20473
0.632715 0.448569 0.220966
0.745281 0.437675 0.234318
0.844602 0.44654 0.254475
0.940002 0.441733 0.268055
0.971313 0.440269 0.269352
0.222614 0.589364 0.226688
0.255818 0.594842 0.226993
0.335561 0.588815 0.229023
0.471977 0.587884 0.233051
0.622751 0.591531 0.24976
0.733455 0.580591 0.259846
0.837507 0.581537 0.269261
0.937774 0.589395 0.283192
0.969711 0.578302 0.282902
0.249668 0.710506 0.252094
0.277287 0.709163 0.252308
0.34107 0.701579 0.252461
0.457298 0.702556 0.257267
0.613581 0.698497 0.263279
0.730312 0.706828 0.274281
0.827314 0.688396 0.281544
0.92076 0.70074 0.289509
0.977218 0.694255 0.294987
0.267063 0.802075 0.267002
0.287541 0.792081 0.266056
0.344106 0.795148 0.268025
0.452064 0.785336 0.267384
0.602029 0.788174 0.275975
0.72726 0.787533 0.280919
0.818006 0.789319 0.29012
0.910445 0.791241 0.296056
0.991699 0.789624 0.304891
0.287419 0.889906 0.278767
0.298512 0.890394 0.277531
0.349477 0.879774 0.277668
0.445975 0.876539 0.280674
0.60235 0.864561 0.286946
0.717388 0.876219 0.289754
0.822354 0.878187 0.299901
0.920913 0.8719 0.309163
0.976501 0.881392 0.312749
0.295033 0.946029 0.287236
0.295918 0.946227 0.28632
0.350027 0.94168 0.286793
0.436698 0.934096 0.282994
0.589731 0.946899 0.294408
0.698756 0.937514 0.302113
0.810025 0.949004 0.311803
0.902007 0.952895 0.313695
0.980407 0.956893 0.329397
0.173144 0.157519 0.335683
0.266804 0.150378 0.320134
0.389456 0.14847 0.318059
0.557275 0.14725 0.30692
0.687633 0.153796 0.305791
0.79678 0.177432 0.307378
0.881621 0.204883 0.319982
0.968444 0.235294 0.322286
0.968597 0.234745 0.319936
0.172625 0.216785 0.307744
0.255604 0.211536 0.309209
0.367834 0.208988 0.302129
0.531258 0.203571 0.291249
0.675608 0.209873 0.294606
0.772854 0.21738 0.296727
0.868589 0.244114 0.31284
0.960143 0.261234 0.31902
0.962402 0.26009 0.315404
0.173571 0.319112 0.292165
0.242756 0.311955 0.296132
0.344579 0.306722 0.282475
0.505043 0.299077 0.284321
0.649805 0.29865 0.27953
0.760372 0.307546 0.289693
0.855268 0.313558 0.29723
0.957961 0.323003 0.307393
0.968536 0.326802 0.312688
0.187274 0.466392 0.282506
0.236362 0.460319 0.279759
0.330678 0.449485 0.278111
0.489906 0.447654 0.280995
0.635233 0.440345 0.292073
0.74818 0.446235 0.295857
0.85008 0.440497 0.302983
0.935988 0.440467 0.315236
0.962646 0.439048 0.313481
0.226856 0.605554 0.298863
0.259922 0.592599 0.287404
0.334051 0.587716 0.288243
0.475547 0.590021 0.293538
0.624949 0.584192 0.298054
0.740734 0.590173 0.309361
0.832029 0.586816 0.309926
0.93138 0.583932 0.319585
0.975265 0.586618 0.325582
0.252552 0.708263 0.301854
0.277424 0.706538 0.303273
0.337514 0.692485 0.297795
0.465278 0.697215 0.305318
0.6056 0.702449 0.302602
0.735607 0.691325 0.312825
0.836973 0.69749 0.320241
0.927047 0.699077 0.323491
0.974411 0.682307 0.33022
0.268666 0.79559 0.308507
0.288716 0.797375 0.309926
0.342916 0.792523 0.306706
0.453574 0.795453 0.308629
0.607126 0.786709 0.310201
0.719051 0.785046 0.318761
0.824201 0.794583 0.325063
0.910338 0.790585 0.330358
0.987411 0.780789 0.333822
0.286519 0.88925 0.318761
0.295598 0.883741 0.315068
0.354025 0.877012 0.313664
0.44123 0.87454 0.312108
0.586938 0.870375 0.320104
0.713588 0.882551 0.322972
0.809262 0.870848 0.328283
0.90695 0.872374 0.337911
0.970993 0.868498 0.3402
0.2934 0.939086 0.322683
0.292897 0.937118 0.320073
0.349966 0.935241 0.317601
0.436088 0.93077 0.321447
0.574609 0.938247 0.327169
0.708675 0.956207 0.336996
0.808057 0.952178 0.332967
0.897948 0.939223 0.345678
0.986175 0.950881 0.347127
0.172641 0.152895 0.509453
0.263325 0.152972 0.488762
0.377493 0.149004 0.489799
0.543023 0.150805 0.470985
0.694957 0.160037 0.466651
0.781689 0.178622 0.463325
0.872435 0.210208 0.465522
0.955261 0.231403 0.469093
0.957824 0.231403 0.461997
0.181628 0.214023 0.475685
0.250462 0.211597 0.477226
0.368551 0.206104 0.467277
0.53254 0.204166 0.454063
0.671031 0.211261 0.451896
0.778027 0.221454 0.442298
0.876509 0.249104 0.442451
0.975464 0.265324 0.446082
0.982742 0.265187 0.43975
0.177859 0.309926 0.451804
0.240284 0.303792 0.443549
0.343633 0.299886 0.438666
0.508568 0.300282 0.425284
0.649348 0.299428 0.440436
0.752682 0.306523 0.412665
0.857771 0.317296 0.42446
0.95494 0.325795 0.431525
0.965667 0.325597 0.425025
0.194034 0.461524 0.424491
0.238453 0.467201 0.418341
0.330648 0.446662 0.416495
0.487007 0.438041 0.408789
0.638514 0.43508 0.415229
0.745068 0.441291 0.409979
0.835782 0.426184 0.402853
0.935622 0.440528 0.416083
0.977325 0.437705 0.417624
0.227756 0.596689 0.417182
0.257176 0.600473 0.409934
0.330587 0.578836 0.406256
0.46862 0.575067 0.391516
0.618219 0.590097 0.401251
0.733074 0.577722 0.408743
0.838209 0.580331 0.406012
0.929824 0.588968 0.412192
0.970962 0.582055 0.409857
0.254749 0.706996 0.414145
0.272572 0.694499 0.404242
0.338476 0.703029 0.407767
0.46215 0.696483 0.397101
0.598291 0.688945 0.400793
0.723339 0.705089 0.406577
0.839704 0.687037 0.398733
0.921477 0.694942 0.408789
0.969451 0.684245 0.403616
0.26978 0.798016 0.402625
0.284077 0.792645 0.397726
0.344076 0.792554 0.38761
0.446586 0.783566 0.387778
0.599542 0.78436 0.390677
0.71989 0.78471 0.401938
0.811612 0.789532 0.402701
0.913207 0.79234 0.404547
0.986908 0.791531 0.411322
0.288624 0.887373 0.399039
0.294804 0.887633 0.397696
0.346151 0.873472 0.395285
0.446571 0.875654 0.393759
0.597955 0.874815 0.396033
0.714855 0.869902 0.391897
0.814481 0.871275 0.401282
0.911818 0.869368 0.399985
0.990631 0.872618 0.402609
0.297993 0.945098 0.392111
0.297993 0.945098 0.388968
0.34789 0.929366 0.391653
0.436561 0.933288 0.390051
0.577798 0.935699 0.394125
0.700114 0.945663 0.395789
0.803464 0.943343 0.394049
0.899779 0.946883 0.397421
0.977264 0.945861 0.401526
0.180255 0.149004 0.65713
0.259083 0.149981 0.640513
0.380209 0.149004 0.643687
0.549966 0.152361 0.630396
0.679332 0.163409 0.613535
0.786145 0.186892 0.605509
0.871397 0.217304 0.607477
0.967193 0.2392 0.614618
0.968444 0.2392 0.6121
0.171939 0.213519 0.634974
0.248203 0.211154 0.620447
0.36405 0.205936 0.621912
0.531182 0.206851 0.608316
0.669642 0.211002 0.590646
0.771664 0.226734 0.598978
0.863874 0.248585 0.590646
0.956924 0.265064 0.590494
0.963653 0.263951 0.586603
0.175158 0.311803 0.611826
0.241428 0.302525 0.605158
0.341238 0.302098 0.603494
0.509941 0.293828 0.5906
0.647776 0.299062 0.58912
0.760769 0.305119 0.577188
0.85359 0.316014 0.576059
0.940658 0.325444 0.571908
0.968322 0.322469 0.583108
0.186007 0.462837 0.568399
0.238239 0.447242 0.575006
0.336339 0.442176 0.57792
0.480217 0.437385 0.569451
0.626291 0.434699 0.565759
0.742672 0.434669 0.564858
0.844221 0.438804 0.57232
0.927855 0.432532 0.567132
0.962264 0.440131 0.564797
0.234287 0.594598 0.574578
0.25594 0.588022 0.56495
0.340291 0.594217 0.554101
0.467582 0.58555 0.561486
0.611276 0.58088 0.558831
0.722667 0.581369 0.558221
0.829267 0.581872 0.552254
0.92488 0.580728 0.552697
0.973953 0.577401 0.554223
0.262379 0.712474 0.567376
0.277607 0.703777 0.55787
0.338735 0.696239 0.545785
0.465644 0.700908 0.539452
0.607324 0.689418 0.54464
0.724544 0.692134 0.557183
0.829648 0.686931 0.534279
0.92871 0.687938 0.540352
0.979385 0.698405 0.544182
0.268513 0.803861 0.544991
0.292134 0.795605 0.545144
0.340581 0.785779 0.532937
0.44889 0.783566 0.541924
0.595712 0.78529 0.529839
0.718044 0.789014 0.535378
0.820569 0.77966 0.532326
0.918685 0.783062 0.532982
0.982879 0.777722 0.542779
0.28893 0.895384 0.540475
0.294224 0.888594 0.537865
0.347509 0.873335 0.534066
0.442451 0.8719 0.529686
0.579232 0.88542 0.528725
0.710948 0.872526 0.532357
0.808423 0.876631 0.53164
0.898787 0.859785 0.519203
0.986145 0.880003 0.528084
0.309575 0.944717 0.532769
0.307637 0.941497 0.528267
0.349813 0.941436 0.524132
0.434211 0.933471 0.52134
0.57496 0.932525 0.510979
0.695689 0.945754 0.513329
0.806821 0.946593 0.521675
0.890166 0.941955 0.510552
0.988418 0.954528 0.51809
0.169375 0.159655 0.765148
0.255909 0.150271 0.748562
0.375509 0.152102 0.744152
0.54464 0.153094 0.736858
0.675944 0.172778 0.732723
0.778485 0.193484 0.723918
0.875456 0.221546 0.720226
0.968597 0.245212 0.719905
0.968597 0.243915 0.716045
0.17293 0.210468 0.754192
0.24445 0.209049 0.749767
0.357168 0.201816 0.737987
0.52781 0.207706 0.732418
0.658824 0.214618 0.718318
0.764416 0.232166 0.713466
0.86247 0.250965 0.704097
0.960342 0.265614 0.699229
0.970077 0.264286 0.700801
0.173892 0.308919 0.731014
0.23592 0.300923 0.720409
0.337881 0.29659 0.725353
0.494408 0.293233 0.708949
0.644587 0.29482 0.703746
0.753429 0.307317 0.702403
0.857237 0.315251 0.687526
0.939529 0.324239 0.682078
0.975006 0.328984 0.683742
0.197665 0.448493 0.708797
0.241398 0.443702 0.697917
0.339025 0.443168 0.698421
0.481025 0.42948 0.695018
0.625284 0.434073 0.691356
0.741695 0.436912 0.682231
0.831601 0.439826 0.683375
0.937072 0.437125 0.685222
0.967056 0.440665 0.681514
0.232212 0.598032 0.686198
0.262287 0.588754 0.678355
0.333883 0.586984 0.676936
0.463004 0.588693 0.676341
0.612894 0.578851 0.683467
0.731609 0.579385 0.676997
0.842649 0.575662 0.671061
0.928344 0.58143 0.672236
0.965957 0.576135 0.67306
0.264012 0.6972 0.687633
0.279652 0.707866 0.680446
0.338521 0.702678 0.673411
0.464332 0.696437 0.674174
0.606607 0.691539 0.666621
0.723552 0.695506 0.66894
0.824186 0.69398 0.667857
0.914885 0.680339 0.670756
0.963256 0.683726 0.667826
0.275654 0.796704 0.672389
0.286015 0.792706 0.666102
0.343206 0.787182 0.661738
0.445716 0.781811 0.656901
0.602243 0.786847 0.664073
0.717494 0.781674 0.663478
0.817777 0.78201 0.66009
0.91252 0.78088 0.656596
0.980209 0.789303 0.652689
0.291585 0.884123 0.677836
0.294255 0.877668 0.673014
0.346654 0.879011 0.653346
0.441993 0.880018 0.646784
0.588144 0.875914 0.653086
0.705379 0.876219 0.647211
0.813474 0.871351 0.658274
0.903166 0.877287 0.661463
0.987823 0.871733 0.652552
0.302449 0.939941 0.652964
0.301152 0.938003 0.647807
0.347845 0.933364 0.646769
0.43476 0.941039 0.647425
0.585519 0.934279 0.652262
0.703578 0.936965 0.653986
0.792874 0.941039 0.641672
0.893294 0.952453 0.642359
0.990021 0.947112 0.6336
0.168597 0.149004 0.862593
0.255116 0.146532 0.848997
0.377539 0.147539 0.843839
0.542611 0.157061 0.842588
0.666743 0.174945 0.82092
0.778164 0.205356 0.816938
0.87274 0.227512 0.807935
0.971145 0.250935 0.814572
0.970016 0.250996 0.811337
0.171283 0.209644 0.847181
0.244511 0.208057 0.845273
0.35552 0.204303 0.828214
0.515419 0.207538 0.818448
0.661097 0.217426 0.807965
0.764157 0.237842 0.798703
0.84828 0.252598 0.800946
0.958236 0.270817 0.795209
0.970275 0.271382 0.788739
0.172992 0.304738 0.820661
0.237324 0.305318 0.82707
0.339269 0.296239 0.821607
0.508095 0.300801 0.808362
0.646937 0.300404 0.803967
0.747478 0.307485 0.786313
0.850278 0.316014 0.783429
0.94197 0.324926 0.778225
0.962264 0.327672 0.78088
0.19527 0.439536 0.803189
0.244327 0.450782 0.80325
0.330175 0.449668 0.792538
0.476524 0.430091 0.780438
0.620233 0.437217 0.782162
0.733639 0.430976 0.771847
0.835859 0.443885 0.78793
0.934295 0.436149 0.774182
0.95584 0.426108 0.767315
0.234089 0.591058 0.781567
0.267735 0.587198 0.779568
0.337072 0.57702 0.780194
0.467475 0.585901 0.784344
0.616144 0.581125 0.771038
0.728817 0.576211 0.76846
0.826169 0.569757 0.777996
0.922057 0.581262 0.765118
0.973648 0.567407 0.774289
0.256275 0.697643 0.779034
0.282368 0.701137 0.767773
0.341695 0.697292 0.76495
0.456733 0.68658 0.768963
0.602029 0.688762 0.75668
0.731594 0.693828 0.769665
0.817365 0.694697 0.770764
0.916533 0.689754 0.773556
0.964797 0.685924 0.768734
0.277378 0.808927 0.765759
0.290776 0.807889 0.762295
0.344244 0.794522 0.77232
0.446082 0.793072 0.750576
0.592981 0.787732 0.753811
0.708186 0.781476 0.764294
0.815961 0.790173 0.751537
0.909499 0.782818 0.753246
0.9841 0.789883 0.747326
0.294041 0.884092 0.769863
0.297353 0.881163 0.761486
0.345617 0.879011 0.75523
0.443824 0.879393 0.754177
0.585641 0.869307 0.762524
0.709911 0.866194 0.750896
0.809796 0.872053 0.751659
0.903456 0.873808 0.746136
0.978225 0.865385 0.74078
0.302556 0.936049 0.751156
0.302007 0.933608 0.744793
0.349004 0.944457 0.74519
0.441306 0.938994 0.750088
0.573175 0.939055 0.746975
0.703105 0.958282 0.750256
0.804761 0.954528 0.744411
0.90042 0.968383 0.743984
0.973144 0.958144 0.743206
0.180407 0.145098 0.921599
0.250996 0.152895 0.925505
0.378088 0.154833 0.927382
0.536553 0.164706 0.917922
0.67538 0.186099 0.914
0.771313 0.211398 0.893904
0.880796 0.233097 0.899214
0.970031 0.254292 0.889555
0.969665 0.253956 0.887343
0.178286 0.209689 0.930892
0.243626 0.208148 0.924498
0.352361 0.20415 0.922179
0.520882 0.208591 0.907927
0.652705 0.222705 0.900649
0.767849 0.243229 0.891234
0.862089 0.258167 0.882353
0.957244 0.276814 0.884047
0.971496 0.277852 0.873991
0.180514 0.310719 0.917449
0.24036 0.300374 0.911269
0.336583 0.296345 0.904952
0.491066 0.29929 0.905364
0.637751 0.301564 0.882887
0.752911 0.312642 0.876707
0.844663 0.320348 0.870604
0.944274 0.335042 0.883131
0.966827 0.334432 0.872084
0.210712 0.451728 0.891661
0.249454 0.445701 0.883421
0.332631 0.438682 0.869551
0.479011 0.429343 0.880201
0.623758 0.431891 0.870665
0.737057 0.429374 0.86566
0.836164 0.430747 0.865232
0.932784 0.438071 0.874083
0.955825 0.438315 0.865522
0.239963 0.598581 0.865995
0.270909 0.597253 0.868925
0.338445 0.580194 0.867567
0.462989 0.575433 0.864118
0.60296 0.583749 0.86041
0.722576 0.562249 0.857557
0.831449 0.577218 0.876783
0.930907 0.579232 0.847181
0.975219 0.575982 0.856504
0.264088 0.710719 0.859144
0.285206 0.705638 0.863981
0.340536 0.691447 0.857572
0.46041 0.684001 0.86273
0.604913 0.69662 0.859998
0.723079 0.695827 0.857389
0.818769 0.69041 0.850721
0.91223 0.688365 0.858289
0.978622 0.700191 0.8486
0.281483 0.789715 0.859434
0.292744 0.793591 0.850172
0.342626 0.789471 0.842054
0.441779 0.783932 0.848417
0.599664 0.778302 0.844404
0.711666 0.786526 0.853819
0.807828 0.787991 0.847105
0.913725 0.78024 0.850599
0.97557 0.78146 0.855238
0.298787 0.88101 0.858793
0.30071 0.876448 0.858274
0.345434 0.868955 0.846799
0.442237 0.872328 0.851698
0.584253 0.863752 0.849592
0.702403 0.877852 0.846204
0.806943 0.874784 0.841947
0.905562 0.862776 0.843641
0.988647 0.873564 0.846021
0.303716 0.947921 0.842023
0.302419 0.94728 0.841382
0.348913 0.939361 0.834592
0.430106 0.930388 0.837308
0.572869 0.944183 0.838346
0.699458 0.955367 0.835538
0.80502 0.957717 0.83624
0.892164 0.951659 0.837949
0.993835 0.950637 0.835691
0.180407 0.145098 0.921599
0.250172 0.152621 0.92578
0.376791 0.154574 0.927123
0.534615 0.164706 0.918746
0.673442 0.185824 0.914549
0.76965 0.210849 0.893629
0.879225 0.232837 0.898436
0.969589 0.254322 0.890776
0.972503 0.254902 0.890196
0.177249 0.208652 0.931151
0.242832 0.207004 0.924376
0.349874 0.202365 0.922957
0.517708 0.207553 0.90753
0.649378 0.221378 0.903639
0.767651 0.241947 0.893309
0.87219 0.260288 0.897322
0.954955 0.277348 0.909804
0.971511 0.280339 0.909804
0.180407 0.308125 0.91754
0.239124 0.2981 0.915099
0.335927 0.295399 0.910658
0.49427 0.296269 0.911696
0.642786 0.299336 0.904692
0.756359 0.313115 0.906767
0.840162 0.319066 0.903685
0.946166 0.331258 0.891142
0.971405 0.327382 0.891875
0.208118 0.453834 0.904051
0.250065 0.448936 0.899306
0.329549 0.434028 0.898573
0.463859 0.444007 0.891157
0.620691 0.430228 0.890135
0.732158 0.433356 0.898955
0.830808 0.432364 0.89839
0.936996 0.43093 0.908553
0.960494 0.437675 0.915236
0.246082 0.59205 0.884932
0.268528 0.583307 0.889799
0.333059 0.582147 0.881621
0.465431 0.56936 0.899397
0.608286 0.569955 0.895582
0.736904 0.56965 0.903563
0.820127 0.569482 0.899138
0.935164 0.574075 0.906737
0.975891 0.567452 0.900832
0.258717 0.70544 0.890196
0.28658 0.700969 0.893095
0.339086 0.685115 0.895201
0.458595 0.68954 0.89836
0.599603 0.688701 0.904616
0.71548 0.686137 0.903273
0.832593 0.690318 0.902022
0.908446 0.671763 0.905409
0.976501 0.689113 0.904631
0.275181 0.793545 0.898344
0.287663 0.786023 0.897993
0.344045 0.79205 0.892378
0.444251 0.796643 0.909514
0.597192 0.775219 0.912108
0.708904 0.783062 0.907362
0.813504 0.785641 0.907378
0.917617 0.782742 0.923888
0.981231 0.786297 0.913695
0.297246 0.879866 0.906737
0.299992 0.876356 0.909346
0.350835 0.867735 0.910903
0.432364 0.881743 0.90486
0.581949 0.867521 0.905409
0.710781 0.87126 0.913527
0.805875 0.866178 0.918547
0.914183 0.875547 0.901396
0.973785 0.868879 0.921157
0.302007 0.929397 0.909804
0.302007 0.929397 0.909804
0.350454 0.940612 0.902861
0.437751 0.951736 0.924727
0.570001 0.944701 0.913695
0.693217 0.949004 0.9234
0.796567 0.941299 0.909712
0.880629 0.945098 0.923506
0.980407 0.968597 0.917601
