All_In_One/Enrich_Colormaster/colormanagement/luts/film_response/70s.cube
#Created by: Denver Riddle
#Copyright: (C) Copyright Color Grading Central LLC
#LUT Size
LUT_3D_SIZE 33
0.172503 0.156893 0.152895
0.213214 0.15642 0.151949
0.228244 0.154818 0.145098
0.248798 0.156512 0.146517
0.268376 0.150912 0.147097
0.299916 0.152895 0.145098
0.330938 0.158663 0.145098
0.353994 0.15407 0.13846
0.391241 0.149111 0.152468
0.426947 0.14548 0.148241
0.468254 0.14815 0.140352
0.519295 0.147753 0.137301
0.569177 0.151095 0.139101
0.590524 0.149004 0.141207
0.614206 0.151736 0.143938
0.643046 0.156207 0.145098
0.684306 0.153109 0.141405
0.711452 0.157168 0.149828
0.737057 0.1608 0.161547
0.757809 0.163241 0.164706
0.780636 0.17377 0.1664
0.809232 0.180407 0.170779
0.843595 0.188418 0.180514
0.873716 0.198444 0.190631
0.896468 0.21088 0.206577
0.910353 0.211978 0.211978
0.925551 0.216358 0.215702
0.950759 0.22414 0.21796
0.964706 0.235294 0.223499
0.964706 0.235294 0.223499
0.964706 0.235294 0.223499
0.964706 0.235294 0.223499
0.964706 0.235294 0.223499
0.176822 0.180728 0.152895
0.203586 0.180026 0.149126
0.22565 0.171893 0.148379
0.247532 0.174777 0.144366
0.269093 0.17293 0.143267
0.2907 0.172351 0.143587
0.31725 0.172366 0.145678
0.344625 0.168872 0.148623
0.37644 0.165621 0.145281
0.419394 0.163241 0.143908
0.462547 0.16556 0.140887
0.512764 0.15935 0.137301
0.558724 0.160784 0.139925
0.591348 0.160479 0.143328
0.61619 0.16173 0.14342
0.643565 0.162631 0.146212
0.68069 0.161944 0.144579
0.709545 0.164538 0.149874
0.737972 0.167758 0.163241
0.759701 0.168795 0.165515
0.779187 0.175784 0.165866
0.805737 0.182986 0.170825
0.837964 0.18912 0.17995
0.870039 0.198795 0.190249
0.893828 0.210101 0.204761
0.908797 0.211948 0.211414
0.922332 0.215824 0.215702
0.948089 0.221988 0.216892
0.964706 0.235294 0.223499
0.964706 0.235294 0.223499
0.964706 0.235294 0.223499
0.964706 0.235294 0.223499
0.964706 0.235294 0.223499
0.187564 0.193057 0.153124
0.198306 0.188983 0.146349
0.219165 0.187778 0.141512
0.241306 0.187381 0.144732
0.26421 0.186923 0.142779
0.288792 0.186465 0.14934
0.310964 0.184512 0.14844
0.339666 0.183719 0.146517
0.369177 0.181918 0.142992
0.418708 0.180606 0.141207
0.459449 0.17908 0.143572
0.508873 0.175738 0.144045
0.554055 0.175708 0.140475
0.589624 0.178637 0.143755
0.620829 0.180453 0.142885
0.649058 0.178668 0.146304
0.681361 0.180438 0.149554
0.71043 0.183902 0.152407
0.745052 0.186618 0.165072
0.77145 0.191562 0.166384
0.787167 0.192447 0.166583
0.802243 0.196765 0.173648
0.828824 0.205035 0.184741
0.862364 0.21387 0.196155
0.89044 0.224521 0.207797
0.913436 0.230823 0.209033
0.931594 0.238285 0.218341
0.945556 0.238361 0.223285
0.968261 0.242435 0.230716
0.968109 0.24213 0.230411
0.967941 0.241794 0.230076
0.967788 0.241489 0.22977
0.96762 0.241154 0.229419
0.176501 0.208774 0.156252
0.198764 0.205585 0.153735
0.214405 0.203906 0.143114
0.238193 0.199649 0.148501
0.253758 0.202609 0.144549
0.282887 0.200549 0.142275
0.308202 0.195651 0.144823
0.338979 0.197162 0.14406
0.376303 0.196551 0.138674
0.41561 0.193606 0.140322
0.453712 0.191196 0.140108
0.505165 0.188037 0.143801
0.549905 0.187625 0.141207
0.582635 0.191485 0.140826
0.612528 0.193668 0.140948
0.650599 0.193301 0.146639
0.685573 0.194949 0.151797
0.711238 0.196902 0.156451
0.744549 0.19762 0.159991
0.774182 0.205203 0.162982
0.790616 0.208072 0.169955
0.804028 0.20853 0.181155
0.825681 0.216083 0.182055
0.862379 0.227054 0.192615
0.893706 0.237934 0.207355
0.918135 0.240009 0.216678
0.9346 0.242542 0.222507
0.950927 0.249866 0.223484
0.972274 0.250538 0.227726
0.972107 0.250202 0.227893
0.971954 0.249882 0.228046
0.971801 0.249577 0.228199
0.971633 0.249241 0.228367
0.176074 0.221256 0.149004
0.192233 0.220798 0.146593
0.217456 0.220066 0.147799
0.236423 0.219303 0.145815
0.257328 0.218723 0.155657
0.286351 0.217777 0.144717
0.303258 0.213123 0.144137
0.336446 0.212879 0.141955
0.375494 0.210941 0.139025
0.411749 0.209812 0.142672
0.449195 0.211643 0.145861
0.491707 0.208499 0.139925
0.54583 0.204501 0.138796
0.577356 0.203113 0.141131
0.604334 0.208469 0.141024
0.647044 0.208896 0.150088
0.68336 0.211078 0.153063
0.705577 0.213336 0.157763
0.734966 0.214221 0.162097
0.767361 0.220142 0.168124
0.790692 0.221912 0.171191
0.806058 0.223651 0.184268
0.823835 0.227893 0.183963
0.851804 0.235935 0.196445
0.880827 0.243748 0.201007
0.910292 0.251911 0.213397
0.936065 0.257862 0.219776
0.956786 0.258915 0.222522
0.970916 0.26183 0.226963
0.972503 0.26183 0.227497
0.972503 0.261372 0.227497
0.972503 0.260868 0.227497
0.972503 0.26041 0.227497
0.173037 0.238422 0.147967
0.186725 0.239231 0.145464
0.210788 0.238178 0.145571
0.231907 0.238254 0.149004
0.258122 0.235599 0.143023
0.27779 0.234195 0.138155
0.29958 0.232975 0.141436
0.334432 0.229587 0.138476
0.370336 0.230396 0.143786
0.405798 0.228519 0.147921
0.441581 0.228992 0.14464
0.481605 0.228672 0.141222
0.540261 0.225269 0.139818
0.578561 0.222232 0.147478
0.607645 0.226719 0.14786
0.647684 0.226535 0.150866
0.677226 0.229099 0.150973
0.698924 0.230655 0.154482
0.727123 0.231739 0.163256
0.759136 0.231662 0.171084
0.778912 0.234409 0.170794
0.799756 0.239033 0.182528
0.823499 0.24387 0.189151
0.844968 0.250599 0.197757
0.866438 0.254749 0.204196
0.88809 0.261616 0.208652
0.925872 0.26743 0.22089
0.951995 0.273396 0.224979
0.965515 0.274449 0.229297
0.96878 0.273945 0.23122
0.968933 0.273487 0.231067
0.9691 0.272984 0.2309
0.969253 0.272511 0.230747
0.177752 0.263203 0.142443
0.186664 0.263188 0.144411
0.212696 0.262867 0.146212
0.232288 0.261784 0.147509
0.253651 0.260075 0.147662
0.274372 0.254826 0.144793
0.296391 0.2533 0.141466
0.330358 0.25539 0.147158
0.361334 0.254322 0.140337
0.405447 0.250263 0.149844
0.438499 0.250874 0.141772
0.482658 0.251575 0.139727
0.533318 0.248554 0.145373
0.574594 0.246265 0.146212
0.604395 0.248737 0.150103
0.645274 0.248295 0.151141
0.679179 0.251225 0.152087
0.702937 0.250751 0.160983
0.731807 0.251331 0.168261
0.758053 0.251789 0.173297
0.774792 0.255863 0.177081
0.799268 0.258747 0.182223
0.823102 0.262348 0.19205
0.853681 0.267979 0.202564
0.865202 0.267887 0.206058
0.871244 0.274769 0.211933
0.906096 0.279118 0.213428
0.939864 0.285237 0.221561
0.962142 0.288991 0.229938
0.968597 0.289891 0.231403
0.968597 0.289281 0.231403
0.968597 0.288609 0.231403
0.968597 0.287999 0.231403
0.184298 0.291432 0.149004
0.187671 0.290272 0.149371
0.208499 0.287633 0.151659
0.224598 0.283955 0.145983
0.244068 0.2851 0.141405
0.267903 0.28069 0.145098
0.292912 0.282948 0.139178
0.316732 0.283574 0.14789
0.360342 0.282368 0.150576
0.393011 0.274174 0.143465
0.433066 0.274327 0.14342
0.472557 0.278477 0.140795
0.529351 0.278767 0.146609
0.569818 0.277256 0.153689
0.603601 0.276005 0.153735
0.643198 0.276677 0.155016
0.67422 0.277424 0.157122
0.702831 0.27805 0.165881
0.728771 0.276219 0.174243
0.750439 0.278874 0.175418
0.770153 0.281575 0.182269
0.79263 0.285496 0.187198
0.820844 0.285283 0.195514
0.845975 0.290867 0.208911
0.861769 0.292058 0.212573
0.87837 0.297597 0.212909
0.900145 0.29839 0.216815
0.925978 0.301595 0.223056
0.951965 0.306538 0.235294
0.964645 0.309895 0.235294
0.964828 0.309194 0.235172
0.964996 0.308339 0.235004
0.965148 0.307576 0.234852
0.180926 0.321279 0.149004
0.18233 0.319722 0.148775
0.206348 0.312917 0.142077
0.224125 0.308843 0.140307
0.241733 0.310399 0.137697
0.267384 0.309972 0.141451
0.289937 0.305196 0.142504
0.315007 0.307301 0.144335
0.356466 0.310323 0.145907
0.39147 0.305013 0.141207
0.432837 0.303899 0.14226
0.460487 0.305364 0.145708
0.518868 0.308644 0.150896
0.566644 0.308461 0.152789
0.603281 0.307973 0.153887
0.638346 0.306386 0.158022
0.667308 0.305608 0.168185
0.699443 0.306371 0.16878
0.721874 0.304204 0.177127
0.744472 0.309285 0.181613
0.763226 0.310323 0.183215
0.784344 0.315084 0.194018
0.807309 0.316503 0.20174
0.833921 0.317433 0.207477
0.868391 0.318853 0.215366
0.887297 0.319142 0.21799
0.904921 0.325887 0.226184
0.92784 0.326116 0.229999
0.94902 0.328405 0.235874
0.957031 0.322698 0.235569
0.956954 0.321508 0.235294
0.957259 0.32105 0.235294
0.957565 0.320592 0.235294
0.169543 0.356603 0.148058
0.169375 0.355261 0.148226
0.204273 0.343557 0.147631
0.22237 0.34136 0.142702
0.242267 0.338323 0.145541
0.260334 0.339239 0.146548
0.286534 0.346929 0.148974
0.315236 0.342535 0.144045
0.34934 0.336065 0.144228
0.384787 0.336904 0.147662
0.418158 0.3393 0.147723
0.447532 0.335256 0.143648
0.507485 0.338094 0.155184
0.552697 0.335851 0.153521
0.591699 0.336675 0.157473
0.6224 0.337469 0.165118
0.657176 0.336126 0.170703
0.6878 0.333059 0.172442
0.718822 0.333486 0.18024
0.7449 0.345586 0.188342
0.763943 0.341497 0.192676
0.781125 0.34313 0.199634
0.79855 0.343313 0.2038
0.82501 0.344961 0.208988
0.860426 0.344274 0.217288
0.887816 0.346609 0.226108
0.906783 0.352255 0.237201
0.93846 0.352255 0.236866
0.949386 0.350027 0.243259
0.961776 0.35462 0.243595
0.961105 0.353445 0.243259
0.960723 0.352285 0.242954
0.960555 0.350942 0.242618
0.172503 0.388861 0.147204
0.172503 0.387518 0.146868
0.200992 0.384771 0.144411
0.21973 0.378088 0.149584
0.238636 0.366186 0.151888
0.263523 0.373754 0.145159
0.282872 0.382559 0.146685
0.307774 0.37792 0.145129
0.34255 0.37052 0.143603
0.373861 0.372015 0.150576
0.405127 0.369146 0.149462
0.454551 0.366888 0.147616
0.501717 0.361059 0.157122
0.541115 0.365103 0.158312
0.577386 0.36582 0.161501
0.610178 0.368414 0.172305
0.646967 0.364508 0.175509
0.675669 0.363058 0.17499
0.708278 0.368658 0.191485
0.73817 0.376013 0.195987
0.764324 0.371313 0.20238
0.782055 0.369238 0.208194
0.794202 0.370871 0.205463
0.823423 0.371344 0.212772
0.854536 0.371054 0.218357
0.875761 0.374258 0.22533
0.893278 0.374395 0.230671
0.937636 0.376867 0.242954
0.958389 0.38349 0.244999
0.975784 0.383215 0.251347
0.976135 0.381872 0.251179
0.97644 0.380652 0.251026
0.975952 0.379431 0.250721
0.178347 0.426917 0.155245
0.177508 0.42472 0.15491
0.200671 0.427329 0.156329
0.219989 0.421363 0.155764
0.239124 0.410712 0.153445
0.257527 0.406683 0.146944
0.28101 0.414511 0.151278
0.313191 0.405844 0.158358
0.344457 0.410376 0.156573
0.371023 0.410636 0.15494
0.407904 0.404898 0.158633
0.458228 0.402426 0.158999
0.500114 0.399603 0.169177
0.535317 0.402319 0.169146
0.563882 0.400458 0.165942
0.604959 0.406775 0.181033
0.644312 0.402487 0.188403
0.668391 0.398199 0.189014
0.694392 0.404532 0.200504
0.73138 0.403311 0.206134
0.757748 0.401266 0.205768
0.777401 0.397848 0.213489
0.793622 0.39852 0.213397
0.818921 0.398947 0.219959
0.84683 0.40177 0.226566
0.867155 0.404028 0.228977
0.886656 0.403586 0.232929
0.927581 0.405341 0.243748
0.956573 0.408484 0.254215
0.968154 0.415793 0.254902
0.968307 0.41442 0.254902
0.96846 0.413046 0.254902
0.968658 0.411551 0.254871
0.192203 0.474006 0.164553
0.192203 0.472633 0.164096
0.205463 0.471244 0.161227
0.226673 0.470314 0.16672
0.239185 0.461738 0.16025
0.259342 0.459037 0.162097
0.277195 0.447822 0.159136
0.304356 0.45272 0.164157
0.335058 0.453544 0.163485
0.369375 0.458625 0.168002
0.410712 0.45391 0.169894
0.447745 0.449012 0.168612
0.491646 0.444282 0.179797
0.531823 0.442847 0.181857
0.558984 0.437888 0.177295
0.601678 0.44358 0.187747
0.638804 0.447303 0.196902
0.669169 0.442161 0.20209
0.694072 0.443549 0.208362
0.725536 0.442679 0.211917
0.747921 0.444358 0.213413
0.772992 0.445212 0.22237
0.799802 0.441367 0.226291
0.821805 0.440787 0.227207
0.849119 0.443519 0.234836
0.869856 0.442908 0.238621
0.89456 0.439506 0.243961
0.921538 0.440543 0.246296
0.942107 0.443107 0.254688
0.96286 0.451606 0.255055
0.964706 0.451087 0.254902
0.964706 0.449546 0.254902
0.964706 0.447868 0.254902
0.196262 0.513024 0.176608
0.195804 0.51133 0.176135
0.20853 0.508614 0.174319
0.229358 0.507866 0.173968
0.244404 0.499886 0.172427
0.264759 0.495781 0.174166
0.279667 0.498116 0.177218
0.304814 0.496834 0.17348
0.333913 0.498665 0.175296
0.37496 0.497414 0.182773
0.411734 0.49572 0.183139
0.44686 0.493797 0.184405
0.490791 0.491554 0.190723
0.53344 0.486931 0.199222
0.564477 0.478126 0.190204
0.598062 0.486076 0.202792
0.632349 0.489433 0.205249
0.66215 0.48452 0.211078
0.691554 0.484703 0.216388
0.718257 0.487739 0.219516
0.73846 0.493172 0.225437
0.76643 0.493935 0.235172
0.801663 0.488685 0.237034
0.833631 0.494697 0.241825
0.851057 0.493339 0.242359
0.869551 0.485481 0.244236
0.893446 0.484108 0.250233
0.91458 0.486305 0.256443
0.936004 0.488426 0.262547
0.95903 0.491829 0.258839
0.963699 0.491356 0.256428
0.964034 0.489662 0.255909
0.96434 0.488136 0.255451
0.211246 0.552941 0.188724
0.210483 0.55172 0.188266
0.217914 0.547662 0.18854
0.238376 0.541268 0.188357
0.251408 0.536431 0.186343
0.269215 0.535012 0.188434
0.290806 0.537423 0.187304
0.312779 0.535805 0.189441
0.336034 0.52755 0.189181
0.373144 0.531167 0.191379
0.415106 0.534829 0.204456
0.448341 0.532464 0.203098
0.491814 0.534798 0.200916
0.526497 0.53196 0.203525
0.556954 0.522515 0.20206
0.593744 0.521843 0.212955
0.631235 0.533257 0.21912
0.65304 0.529732 0.218021
0.682048 0.527001 0.223606
0.706981 0.53019 0.229938
0.731914 0.534874 0.23592
0.759182 0.530694 0.241138
0.790234 0.522362 0.24152
0.825269 0.525704 0.246876
0.852811 0.532357 0.250263
0.865553 0.524086 0.251835
0.882612 0.524544 0.250767
0.907423 0.524361 0.257069
0.930632 0.522255 0.258274
0.952651 0.527962 0.264073
0.958114 0.529778 0.266697
0.957778 0.528603 0.266697
0.957473 0.527535 0.266697
0.225116 0.583566 0.199237
0.224948 0.582483 0.198932
0.228031 0.580209 0.200473
0.242924 0.574624 0.204623
0.255528 0.573114 0.197971
0.270588 0.572641 0.196551
0.288319 0.573251 0.202152
0.311223 0.565911 0.204364
0.340215 0.563546 0.207584
0.373739 0.558999 0.204562
0.401175 0.569192 0.207782
0.434653 0.569726 0.209995
0.473472 0.570642 0.216007
0.509407 0.567666 0.215763
0.548577 0.554849 0.2159
0.586343 0.553658 0.21828
0.628122 0.556542 0.228504
0.647959 0.559289 0.225544
0.67454 0.565118 0.234867
0.697185 0.565942 0.239567
0.728954 0.569085 0.242451
0.757763 0.566186 0.245563
0.785107 0.557321 0.247105
0.813611 0.556573 0.249607
0.848081 0.558633 0.255818
0.863462 0.559686 0.256413
0.875944 0.562188 0.25742
0.906874 0.557778 0.26392
0.931945 0.552285 0.264515
0.95642 0.55642 0.26688
0.963989 0.557946 0.268132
0.964157 0.556771 0.267796
0.964309 0.555688 0.267491
0.227497 0.613489 0.210651
0.227497 0.612268 0.21004
0.228962 0.610712 0.209628
0.24828 0.607248 0.212192
0.259648 0.606241 0.2094
0.275685 0.602304 0.208698
0.288975 0.600473 0.206485
0.315923 0.59733 0.208942
0.344747 0.597742 0.208957
0.363546 0.597345 0.215396
0.404822 0.600458 0.223239
0.430076 0.600092 0.220035
0.47274 0.602029 0.222034
0.511696 0.600977 0.22385
0.550835 0.592416 0.22948
0.585702 0.592615 0.235584
0.61857 0.589593 0.235203
0.647593 0.582513 0.233356
0.671229 0.590402 0.236698
0.701122 0.597238 0.24535
0.733059 0.598367 0.2448
0.758083 0.598566 0.249989
0.784482 0.593088 0.252064
0.815854 0.592447 0.256641
0.846082 0.58822 0.262837
0.868269 0.588968 0.262272
0.880293 0.594919 0.268116
0.916014 0.596857 0.269444
0.937102 0.592309 0.271427
0.953994 0.592325 0.275471
0.962448 0.587839 0.275319
0.962112 0.586328 0.275151
0.961807 0.584955 0.274998
0.232853 0.642145 0.219593
0.232349 0.641123 0.219593
0.231891 0.640208 0.219593
0.255436 0.632654 0.211765
0.266407 0.630411 0.212467
0.281666 0.62829 0.217685
0.296391 0.622202 0.216999
0.315831 0.616632 0.216739
0.343282 0.619272 0.218647
0.362615 0.618769 0.220157
0.400381 0.620478 0.220188
0.428931 0.616114 0.223728
0.474449 0.62089 0.229129
0.523934 0.630365 0.237995
0.556451 0.628458 0.238315
0.58439 0.624765 0.238941
0.61265 0.614878 0.238987
0.642267 0.611276 0.240574
0.668055 0.615335 0.246006
0.69688 0.623896 0.249729
0.735653 0.61941 0.246693
0.757336 0.626688 0.253346
0.786068 0.620432 0.255482
0.820661 0.61912 0.260914
0.851682 0.616739 0.267536
0.869215 0.619623 0.266423
0.89041 0.62916 0.268513
0.918364 0.631937 0.273045
0.935088 0.633417 0.277302
0.954772 0.628519 0.278645
0.970459 0.622126 0.279332
0.970138 0.621057 0.279179
0.969833 0.619974 0.279026
0.244923 0.660609 0.221485
0.244404 0.660105 0.221317
0.243946 0.659648 0.221164
0.255314 0.65951 0.219715
0.272465 0.657008 0.223438
0.289082 0.65304 0.224628
0.300908 0.645335 0.223865
0.318624 0.636393 0.222919
0.338354 0.63743 0.222705
0.364141 0.643183 0.225864
0.394324 0.644938 0.230671
0.431846 0.651026 0.235035
0.46746 0.647074 0.23154
0.51136 0.650111 0.239719
0.547951 0.650416 0.242771
0.577554 0.650339 0.243961
0.616327 0.644388 0.247425
0.646845 0.640803 0.24712
0.675013 0.643153 0.249775
0.694926 0.647456 0.253422
0.730556 0.647074 0.252308
0.757885 0.653635 0.255772
0.785458 0.649866 0.261509
0.821485 0.648524 0.262776
0.846525 0.645426 0.267628
0.869505 0.646937 0.268421
0.889616 0.653742 0.268193
0.907012 0.653376 0.272786
0.933898 0.651164 0.277089
0.95491 0.652613 0.281056
0.975448 0.647211 0.283421
0.975616 0.646601 0.283268
0.975784 0.645914 0.283101
0.248997 0.678721 0.227543
0.249165 0.677714 0.227207
0.249317 0.676799 0.226902
0.259251 0.680751 0.224674
0.279255 0.687358 0.233173
0.290684 0.678935 0.231113
0.307408 0.672663 0.230732
0.320424 0.664134 0.230564
0.340139 0.664424 0.22948
0.366995 0.668009 0.234012
0.396674 0.670146 0.233631
0.430289 0.674418 0.237461
0.470405 0.682124 0.242649
0.510002 0.674098 0.235401
0.547906 0.68011 0.240864
0.576059 0.677684 0.249424
0.611719 0.679896 0.248554
0.643671 0.672862 0.25066
0.676158 0.66894 0.254414
0.697871 0.671229 0.25539
0.727703 0.674647 0.259556
0.75642 0.675608 0.257511
0.781903 0.6822 0.266392
0.814023 0.681956 0.264103
0.838849 0.675334 0.268147
0.862196 0.673136 0.272389
0.882139 0.677501 0.272206
0.89926 0.673991 0.277317
0.930373 0.669413 0.280735
0.953445 0.67422 0.286076
0.973663 0.667872 0.287434
0.973495 0.666651 0.287282
0.973327 0.665293 0.287114
0.249195 0.702861 0.235599
0.249027 0.701854 0.235264
0.24889 0.700938 0.234958
0.260441 0.701427 0.23357
0.278035 0.707149 0.235508
0.290394 0.703777 0.236606
0.305058 0.702205 0.240238
0.322789 0.702251 0.234516
0.341314 0.696788 0.234714
0.363653 0.701747 0.237537
0.391043 0.703273 0.241382
0.42063 0.702663 0.239551
0.465629 0.708553 0.242329
0.505745 0.706554 0.249958
0.548577 0.705165 0.250629
0.579049 0.697444 0.251377
0.608362 0.704387 0.253315
0.635569 0.703899 0.252186
0.668849 0.698253 0.256382
0.698512 0.697902 0.260044
0.728267 0.699077 0.264195
0.755886 0.70071 0.268894
0.782162 0.708873 0.266773
0.803601 0.713832 0.273732
0.830304 0.704433 0.274479
0.855528 0.700572 0.277913
0.874525 0.702586 0.27718
0.897627 0.698436 0.280324
0.925063 0.696757 0.28072
0.952667 0.696971 0.284001
0.975357 0.699916 0.289906
0.976501 0.698909 0.290196
0.976501 0.697566 0.290196
0.253193 0.72697 0.241398
0.25304 0.726055 0.241245
0.252888 0.725124 0.241093
0.262592 0.725002 0.241596
0.280888 0.722744 0.23711
0.293309 0.721843 0.235264
0.303426 0.727108 0.241062
0.321019 0.734905 0.245319
0.346807 0.733471 0.246387
0.365011 0.728237 0.246891
0.394095 0.728328 0.244175
0.422034 0.727855 0.243809
0.458991 0.722881 0.245548
0.500252 0.72491 0.247303
0.543328 0.725429 0.253758
0.575967 0.727855 0.254719
0.603784 0.731716 0.258793
0.638483 0.736278 0.261311
0.668818 0.729534 0.26276
0.706111 0.727016 0.265446
0.727886 0.727687 0.266285
0.753185 0.724208 0.270268
0.77818 0.731609 0.274083
0.80148 0.73991 0.278202
0.823697 0.731304 0.278691
0.849805 0.728664 0.282048
0.868345 0.727016 0.281025
0.89189 0.724392 0.284123
0.919448 0.725368 0.284794
0.947448 0.720989 0.285939
0.971298 0.724117 0.291615
0.97528 0.72517 0.292576
0.975448 0.724666 0.292241
0.264164 0.75346 0.245457
0.263554 0.752392 0.245304
0.262867 0.751217 0.245136
0.269154 0.750942 0.247288
0.284077 0.747341 0.246769
0.29514 0.7449 0.242786
0.308171 0.747372 0.243244
0.327993 0.752911 0.250935
0.344991 0.752148 0.244221
0.368444 0.747311 0.251545
0.397223 0.752605 0.249851
0.425986 0.749264 0.25095
0.451286 0.741924 0.246204
0.490074 0.73901 0.252201
0.539849 0.740658 0.252262
0.579248 0.744183 0.260761
0.617227 0.751492 0.266102
0.644907 0.75877 0.26659
0.677897 0.755856 0.269612
0.709072 0.749065 0.270939
0.732723 0.74902 0.274144
0.759457 0.748882 0.275929
0.779644 0.754788 0.277668
0.804288 0.758816 0.280537
0.822629 0.753536 0.280858
0.846769 0.745708 0.28011
0.869444 0.7467 0.281086
0.888106 0.750851 0.286625
0.914992 0.752499 0.291066
0.940337 0.749187 0.292012
0.966598 0.741543 0.29575
0.973816 0.739727 0.296727
0.973663 0.738964 0.29688
0.268193 0.779202 0.2495
0.268345 0.778286 0.249348
0.268513 0.777279 0.24918
0.272038 0.775876 0.249516
0.284611 0.77145 0.25153
0.295918 0.768536 0.250019
0.311513 0.768719 0.250538
0.328786 0.770169 0.253254
0.343389 0.766125 0.249042
0.369009 0.770443 0.254734
0.401251 0.774319 0.255497
0.426398 0.771801 0.253712
0.456413 0.768078 0.256901
0.485527 0.767681 0.259129
0.531975 0.768536 0.261448
0.577905 0.768826 0.26276
0.614176 0.771191 0.269139
0.652415 0.778576 0.270314
0.680003 0.780789 0.277256
0.711177 0.767514 0.274006
0.739193 0.76025 0.275731
0.756573 0.76231 0.277104
0.773938 0.768505 0.275578
0.797726 0.774594 0.282109
0.822293 0.769558 0.284901
0.845533 0.759136 0.283268
0.871443 0.764324 0.283162
0.891279 0.772671 0.290517
0.912779 0.771405 0.292775
0.939651 0.772656 0.294804
0.969253 0.76762 0.297337
0.982086 0.764065 0.298299
0.98146 0.762829 0.297841
0.271733 0.808438 0.253513
0.271427 0.807218 0.253361
0.271092 0.805859 0.253193
0.272282 0.803754 0.252811
0.28603 0.79469 0.251926
0.29659 0.791547 0.254582
0.313375 0.792584 0.254826
0.329458 0.794858 0.25565
0.343038 0.791791 0.253849
0.368292 0.794644 0.255528
0.395178 0.801434 0.260487
0.422583 0.795102 0.262699
0.443809 0.793515 0.262013
0.482994 0.800137 0.261845
0.529458 0.80174 0.268605
0.577447 0.798596 0.27068
0.615106 0.795911 0.273274
0.65214 0.801358 0.277348
0.67715 0.798856 0.271672
0.697459 0.785687 0.274495
0.73077 0.777813 0.274617
0.749767 0.781109 0.276005
0.767605 0.784863 0.278706
0.792737 0.791241 0.281971
0.819669 0.788266 0.287175
0.844907 0.784543 0.288746
0.864485 0.783963 0.288579
0.894865 0.792828 0.294469
0.90988 0.790585 0.294438
0.939422 0.791394 0.297002
0.973312 0.791653 0.301503
0.992203 0.791806 0.304402
0.992203 0.791043 0.304555
0.277119 0.827527 0.257527
0.276967 0.82707 0.257374
0.276799 0.826566 0.257206
0.276646 0.826093 0.257053
0.289433 0.819409 0.256947
0.301595 0.814969 0.25568
0.312901 0.816617 0.255314
0.331044 0.823087 0.262119
0.345251 0.825849 0.261799
0.366476 0.823651 0.260853
0.392233 0.822599 0.265705
0.413474 0.813519 0.262898
0.448402 0.815183 0.264149
0.474617 0.822263 0.265354
0.528145 0.82562 0.271397
0.570947 0.823056 0.27248
0.605814 0.822126 0.274464
0.641077 0.825727 0.27715
0.667185 0.825833 0.28101
0.695552 0.810605 0.278248
0.723232 0.800626 0.284489
0.749218 0.799893 0.281605
0.775845 0.79939 0.284794
0.801572 0.805707 0.285267
0.82443 0.806943 0.287816
0.841276 0.809308 0.293553
0.862776 0.813107 0.296895
0.888838 0.817472 0.297902
0.908461 0.812528 0.298039
0.936904 0.81355 0.300252
0.965499 0.812451 0.303395
0.984115 0.811933 0.306798
0.984894 0.81117 0.30634
0.278401 0.842374 0.261524
0.278401 0.841703 0.261357
0.278401 0.841093 0.261204
0.278401 0.840482 0.261051
0.291737 0.84181 0.264683
0.301137 0.835233 0.262547
0.316167 0.835798 0.261479
0.332418 0.840192 0.266209
0.347372 0.841474 0.266239
0.365805 0.843122 0.26685
0.390845 0.839628 0.267842
0.41854 0.838865 0.265232
0.446296 0.834363 0.270954
0.483024 0.83592 0.270985
0.531838 0.845243 0.277577
0.571527 0.844358 0.276371
0.606119 0.839216 0.272648
0.634531 0.847532 0.276646
0.662837 0.845075 0.283589
0.689372 0.832471 0.282933
0.722316 0.825223 0.27953
0.749462 0.823682 0.288899
0.784146 0.819638 0.286778
0.803342 0.824689 0.290898
0.827558 0.827665 0.292943
0.844892 0.830549 0.295659
0.865934 0.838117 0.29984
0.888472 0.842268 0.300206
0.913634 0.837354 0.300237
0.941588 0.837827 0.302037
0.960525 0.841901 0.306508
0.972503 0.837232 0.312001
0.972503 0.836011 0.312139
0.2813 0.875578 0.265614
0.281132 0.873899 0.265431
0.28098 0.872358 0.265278
0.280812 0.87068 0.26511
