All_In_One/Enrich_Colormaster/colormanagement/luts/film_response/ApocalypseThisVeryMoment.cube
TITLE "Generate by Resolve"
LUT_3D_SIZE 9
0.0425574 0.0385443 0.035462
0.0934768 0.0528115 0.0356146
0.0866712 0.0531167 0.0410163
0.0560006 0.0493935 0.0470588
0.0598611 0.0551919 0.0523232
0.0639506 0.0615854 0.0582742
0.0713817 0.0697337 0.0663005
0.0822156 0.079881 0.0763714
0.0989548 0.0933852 0.0895552
0.0501717 0.0565194 0.0476081
0.0805524 0.0745403 0.044007
0.0745098 0.0729229 0.0694591
0.0797436 0.0779736 0.0745098
0.0919661 0.0876326 0.0839399
0.106523 0.100267 0.096025
0.126818 0.118074 0.112673
0.144884 0.136278 0.129641
0.167407 0.158373 0.150164
0.0732128 0.0873274 0.0688945
0.075349 0.0910506 0.06981
0.132677 0.131685 0.0755016
0.160876 0.152117 0.144289
0.179217 0.170825 0.161837
0.195132 0.185077 0.17528
0.217823 0.20383 0.192981
0.241962 0.225696 0.213581
0.279759 0.256641 0.242756
0.109804 0.131273 0.103273
0.115084 0.146914 0.105562
0.154421 0.188724 0.101183
0.225757 0.22089 0.187686
0.302708 0.274159 0.259159
0.341558 0.308141 0.290761
0.375143 0.336416 0.316777
0.402808 0.361089 0.339193
0.440665 0.394781 0.369497
0.205051 0.205142 0.189288
0.205447 0.22504 0.190921
0.239948 0.266728 0.201801
0.308522 0.320989 0.220157
0.397803 0.359838 0.333242
0.466468 0.418097 0.390143
0.514717 0.46186 0.428458
0.550912 0.494179 0.456657
0.598886 0.537377 0.493294
0.369757 0.331823 0.312627
0.413001 0.370306 0.347463
0.435645 0.403479 0.365988
0.475059 0.446616 0.390661
0.532204 0.487114 0.43772
0.58706 0.526574 0.484443
0.637049 0.571221 0.52134
0.679637 0.6094 0.550607
0.724727 0.650309 0.579126
0.516457 0.46331 0.429786
0.560449 0.502617 0.463981
0.603235 0.541329 0.496498
0.643305 0.576699 0.525841
0.682918 0.612467 0.552819
0.719799 0.645899 0.576196
0.757824 0.679576 0.598062
0.793561 0.710384 0.619928
0.833005 0.743313 0.643412
0.682246 0.609781 0.545296
0.711421 0.637003 0.566613
0.743954 0.666438 0.587396
0.77348 0.69308 0.60708
0.806943 0.721813 0.628351
0.839323 0.748318 0.64773
0.868879 0.772061 0.666743
0.897688 0.793484 0.68304
0.933623 0.817288 0.702068
0.786511 0.704234 0.615564
0.838376 0.742779 0.638727
0.851637 0.758312 0.655848
0.881498 0.78201 0.673762
0.907698 0.800458 0.689174
0.934035 0.81857 0.703471
0.956756 0.832776 0.716136
0.978561 0.846036 0.727855
0.999268 0.858335 0.740353
0.0431678 0.0382696 0.0382239
0.0877241 0.0493172 0.0483406
0.120592 0.0584878 0.0484016
0.0968795 0.058854 0.0516518
0.0611734 0.0564889 0.0534829
0.0648966 0.062974 0.0596628
0.0731365 0.071519 0.0680858
0.0862135 0.0830091 0.0794232
0.102113 0.0962081 0.0922408
0.0560006 0.059556 0.0534981
0.0974136 0.0803998 0.0458686
0.203677 0.0942092 0.0461585
0.20473 0.0974136 0.0529641
0.169787 0.107942 0.0773327
0.117769 0.10695 0.1019
0.130877 0.12163 0.116091
0.14902 0.140627 0.133623
0.171771 0.16286 0.15436
0.0843214 0.0984207 0.0797284
0.0790723 0.0964828 0.0739452
0.17377 0.14757 0.0528878
0.268956 0.193393 0.113527
0.191608 0.176303 0.160967
0.187076 0.178088 0.168673
0.215595 0.202106 0.191318
0.244633 0.228153 0.215869
0.287114 0.262165 0.247974
0.119326 0.14313 0.112123
0.120851 0.156588 0.110384
0.134768 0.183337 0.103929
0.325628 0.262119 0.0378271
0.34107 0.309575 0.232837
0.344228 0.310491 0.292912
0.372686 0.334386 0.314946
0.400229 0.358846 0.337133
0.438025 0.392401 0.367391
0.185016 0.20296 0.17641
0.179706 0.225147 0.166522
0.176883 0.252064 0.151522
0.290593 0.331151 0.0917372
0.458534 0.395224 0.145159
0.472343 0.440986 0.346303
0.52105 0.467567 0.433448
0.556085 0.498863 0.460685
0.601221 0.539452 0.495079
0.377066 0.339269 0.318929
0.302052 0.328618 0.282032
0.30013 0.359686 0.267781
0.372686 0.434836 0.235752
0.503304 0.501152 0.232898
0.63212 0.555413 0.321065
0.644633 0.588678 0.470893
0.687251 0.616464 0.555444
0.730098 0.655177 0.582528
0.526146 0.472038 0.437339
0.569162 0.510552 0.470787
0.534691 0.523369 0.443503
0.549187 0.560647 0.420981
0.616648 0.609796 0.411719
0.719417 0.658106 0.448173
0.768338 0.688762 0.532113
0.801114 0.716747 0.624811
0.839155 0.748241 0.647639
0.669352 0.600046 0.543984
0.708782 0.635889 0.569039
0.745968 0.669108 0.59147
0.780758 0.699214 0.611872
0.812238 0.727947 0.628885
0.847395 0.754513 0.652277
0.877226 0.778149 0.670634
0.90341 0.797406 0.686519
0.937301 0.820661 0.705043
0.793744 0.710475 0.62002
0.849073 0.749691 0.643503
0.871305 0.769696 0.661799
0.894499 0.789242 0.677806
0.917998 0.806302 0.693385
0.939864 0.822156 0.706249
0.961654 0.835737 0.718914
0.983398 0.848875 0.730343
1 0.860471 0.742596
0.0403601 0.0378576 0.0436255
0.0683757 0.0538186 0.0647593
0.108614 0.0599832 0.0792554
0.10573 0.0625315 0.0685893
0.0720989 0.061677 0.059205
0.0667277 0.0648814 0.0615396
0.0751965 0.0737011 0.0702373
0.0902724 0.0862135 0.0825513
0.10605 0.0998245 0.095613
0.0659495 0.0635996 0.0645151
0.069276 0.0630655 0.0637522
0.16672 0.0838026 0.0948043
0.25005 0.097322 0.0932479
0.247532 0.111833 0.100496
0.180636 0.12488 0.117327
0.135241 0.125658 0.119905
0.153964 0.14551 0.138125
0.175647 0.167269 0.158511
0.0999008 0.103563 0.0955215
0.0926986 0.101823 0.0883803
0.229664 0.165118 0.0590372
0.383825 0.174746 0.0657054
0.407736 0.178546 0.107134
0.396445 0.205066 0.146624
0.290196 0.227207 0.188754
0.251804 0.234363 0.221744
0.298222 0.27071 0.25594
0.140169 0.152392 0.133745
0.136721 0.165591 0.128115
0.135561 0.179202 0.12256
0.342519 0.269566 0.0272068
0.568612 0.329915 0.115282
0.597498 0.351019 0.208469
0.535653 0.364385 0.272206
0.415198 0.370245 0.336828
0.441306 0.395346 0.370001
0.198032 0.212085 0.18912
0.196796 0.235645 0.185
0.190585 0.256352 0.170596
0.24329 0.326207 0.117082
0.519097 0.414069 0.0630503
0.722759 0.487129 0.2121
0.770138 0.528374 0.33872
0.618891 0.519081 0.39266
0.601373 0.539574 0.49514
0.312535 0.313085 0.288777
0.288685 0.325536 0.274495
0.277028 0.347112 0.256718
0.291691 0.392889 0.235203
0.471107 0.495964 0.150805
0.70837 0.568124 0.192966
0.849882 0.628443 0.342611
0.837949 0.648508 0.439643
0.736461 0.660746 0.586267
0.535546 0.480552 0.444755
0.487098 0.476951 0.425254
0.419364 0.460487 0.383597
0.44358 0.509499 0.365484
0.5402 0.589319 0.308354
0.705501 0.651255 0.305058
0.858289 0.70692 0.38674
0.932876 0.746426 0.50454
0.854902 0.755306 0.62771
0.678218 0.608148 0.549706
0.716686 0.643076 0.574029
0.719768 0.663935 0.577859
0.690669 0.674159 0.542016
0.723003 0.709667 0.504311
0.801602 0.746151 0.498558
0.887114 0.780301 0.546304
0.93846 0.806577 0.627787
0.946258 0.825299 0.708644
0.801816 0.717281 0.625254
0.835187 0.74519 0.645029
0.865339 0.768978 0.664424
0.894362 0.790951 0.680674
0.896925 0.805631 0.669139
0.922911 0.820722 0.668803
0.960266 0.837476 0.692134
0.993225 0.852888 0.731472
1 0.86276 0.744991
0.04094 0.0386053 0.0448615
0.0523995 0.045243 0.0568399
0.0797131 0.062089 0.0755932
0.0897383 0.0662852 0.0785229
0.0765545 0.0649271 0.064271
0.068513 0.0667277 0.0633555
0.0775464 0.0759594 0.0724956
0.0964218 0.0907912 0.0870222
0.116899 0.108217 0.103532
0.0663005 0.0628824 0.0695048
0.0632486 0.0596628 0.0731365
0.115343 0.0901198 0.113436
0.211017 0.101228 0.15993
0.252583 0.114168 0.150835
0.223713 0.129747 0.143618
0.156771 0.138125 0.132174
0.159854 0.151125 0.143328
0.182528 0.173495 0.164401
0.10631 0.102739 0.103685
0.116976 0.112261 0.115404
0.144503 0.129046 0.130388
0.297368 0.157778 0.191455
0.421134 0.169314 0.190417
0.447761 0.190799 0.196292
0.410605 0.230137 0.217639
0.311376 0.267643 0.251194
0.307393 0.278386 0.263096
0.157351 0.158206 0.150774
0.173846 0.178012 0.166339
0.176638 0.185367 0.168841
0.390005 0.297108 0.151095
0.581704 0.301366 0.168017
0.628138 0.303822 0.208225
0.648829 0.331304 0.255573
0.629313 0.376272 0.310597
0.464927 0.411826 0.37998
0.216098 0.220844 0.206775
0.23238 0.24921 0.221912
0.234531 0.267033 0.222705
0.238178 0.293324 0.220447
0.512245 0.421302 0.143725
0.767803 0.477516 0.204074
0.817853 0.492638 0.286152
0.824414 0.519738 0.357382
0.71783 0.552682 0.4271
0.321874 0.323217 0.300389
0.311284 0.334157 0.29723
0.306004 0.350134 0.290364
0.304189 0.378637 0.282551
0.434852 0.494514 0.222904
0.719341 0.575219 0.19292
0.893629 0.624002 0.292561
0.94078 0.649821 0.389212
0.91252 0.68162 0.494835
0.572793 0.510063 0.469383
0.431357 0.44596 0.40174
0.400626 0.443107 0.38172
0.390539 0.460838 0.368353
0.47718 0.559701 0.34049
0.668467 0.64773 0.271214
0.878645 0.708202 0.317296
0.982651 0.745449 0.420493
0.99765 0.77438 0.540337
0.708812 0.633249 0.560571
0.724758 0.650339 0.579385
0.646082 0.62446 0.547173
0.602335 0.619608 0.511254
0.630671 0.667185 0.472847
0.737331 0.725917 0.417029
0.874372 0.77052 0.428687
0.985901 0.807309 0.511543
0.993576 0.833402 0.663127
0.831724 0.735866 0.63241
0.842069 0.750515 0.649531
0.872175 0.774487 0.668406
0.824918 0.770275 0.645945
0.816083 0.778439 0.609506
0.858228 0.801587 0.579065
0.926696 0.824277 0.579065
0.996689 0.846998 0.620447
1 0.867704 0.739528
0.0464332 0.0416571 0.042359
0.0533303 0.0475013 0.0519265
0.0633402 0.054902 0.0599832
0.072755 0.0614939 0.064683
0.0696727 0.062562 0.0609751
0.0703288 0.068574 0.0651713
0.0802014 0.0783398 0.0748608
0.0996109 0.0935225 0.089662
0.124392 0.114229 0.109163
0.0640269 0.0608835 0.0655833
0.0636912 0.0599985 0.0762646
0.10219 0.0855116 0.109026
0.154665 0.110353 0.152056
0.207294 0.125917 0.180041
0.212619 0.138689 0.172045
0.170596 0.147158 0.142107
0.164996 0.156069 0.147997
0.19321 0.182162 0.17261
0.103059 0.0986801 0.102266
0.118074 0.11194 0.1243
0.130526 0.123629 0.139086
0.226444 0.175219 0.213062
0.353994 0.182864 0.278904
0.435401 0.196643 0.281285
0.441398 0.230762 0.275761
0.380118 0.272908 0.276463
0.315648 0.285786 0.269947
0.161028 0.157382 0.155535
0.193652 0.18732 0.188663
0.211872 0.20415 0.207477
0.268788 0.241718 0.241337
0.451545 0.28867 0.339147
0.60914 0.300221 0.342687
0.659419 0.32314 0.342092
0.67071 0.364111 0.356603
0.587564 0.419715 0.377493
0.227604 0.227481 0.21828
0.262211 0.262013 0.251484
0.284794 0.286229 0.272908
0.30277 0.309026 0.289738
0.472709 0.43122 0.318624
0.731884 0.452171 0.335653
0.799969 0.456107 0.359854
0.834257 0.484565 0.3906
0.81912 0.531456 0.425177
0.364813 0.345815 0.324514
0.338399 0.347555 0.32372
0.351507 0.366552 0.336049
0.363699 0.390906 0.347265
0.416892 0.450828 0.370565
0.694072 0.584817 0.31487
0.908476 0.624628 0.362432
0.95256 0.634379 0.411322
0.94844 0.653712 0.459602
0.573831 0.512154 0.471611
0.438468 0.449577 0.412818
0.42594 0.450385 0.407004
0.427512 0.466621 0.407797
0.456092 0.511086 0.417121
0.625986 0.647684 0.368383
0.877989 0.715587 0.353841
1 0.746258 0.422629
1 0.76231 0.494377
0.725567 0.645808 0.565988
0.730724 0.656886 0.585031
0.599008 0.591287 0.531548
0.532158 0.562432 0.492866
0.576791 0.611566 0.49987
0.670207 0.702235 0.450095
0.849104 0.765515 0.404929
0.997589 0.804425 0.454887
1 0.835828 0.580652
0.847471 0.745632 0.63859
0.848951 0.756039 0.654063
0.841901 0.766308 0.669612
0.77409 0.732601 0.640635
0.750896 0.732982 0.610986
0.78616 0.772931 0.562509
0.881712 0.810162 0.52398
0.985519 0.837461 0.539681
1 0.865446 0.644968
0.0467994 0.0414893 0.0399329
0.0488594 0.0435798 0.0419013
0.0564736 0.0499428 0.0484474
0.0605631 0.0554055 0.0530861
0.0643015 0.0621042 0.058793
0.0722057 0.070573 0.0671397
0.0843214 0.0815442 0.0779889
0.10251 0.0961318 0.0922103
0.13051 0.119326 0.11397
0.0626841 0.0590982 0.0564279
0.0709087 0.0673228 0.0735332
0.094316 0.0847944 0.0975204
0.129793 0.109316 0.126406
0.162829 0.130892 0.150469
0.174304 0.143252 0.152575
0.167102 0.147311 0.142626
0.170291 0.161212 0.15285
0.200702 0.188739 0.178759
0.0924849 0.0903792 0.0893111
0.117205 0.111192 0.122484
0.133486 0.126284 0.14461
0.20766 0.174273 0.201785
0.287861 0.204028 0.269841
0.376684 0.218524 0.315206
0.419074 0.24538 0.319417
0.393576 0.283162 0.307668
0.324193 0.293217 0.27689
0.152819 0.150851 0.146944
0.195331 0.187396 0.192859
0.218402 0.208392 0.219455
0.26006 0.240681 0.251438
0.381888 0.309026 0.340642
0.537728 0.318288 0.425071
0.632258 0.333425 0.431617
0.672786 0.366934 0.427375
0.652277 0.420264 0.421027
0.234989 0.232319 0.221408
0.272618 0.266941 0.263066
0.305974 0.297826 0.296361
0.333791 0.324926 0.323278
0.454337 0.400137 0.391348
0.627726 0.445228 0.487907
0.774884 0.456291 0.494057
0.827985 0.476509 0.48687
0.84625 0.518914 0.486458
0.417792 0.374456 0.351232
0.358465 0.360678 0.343465
0.383703 0.384176 0.367895
0.40885 0.410971 0.391775
0.444755 0.448341 0.420722
0.644755 0.58703 0.500267
0.858 0.609796 0.487053
0.935958 0.618524 0.501167
0.952712 0.633738 0.509178
0.573953 0.513649 0.473259
0.479179 0.473503 0.440253
0.454231 0.465003 0.434607
0.466636 0.481392 0.446296
0.481987 0.507698 0.460594
0.626535 0.623529 0.522942
0.852232 0.725017 0.467735
1 0.75108 0.504631
1 0.753277 0.52401
0.723705 0.646677 0.570275
0.742168 0.665827 0.589502
0.600305 0.589563 0.540307
0.524758 0.550408 0.501564
0.545373 0.572457 0.510491
0.656489 0.668025 0.548348
0.80502 0.76434 0.477745
0.996567 0.809522 0.484306
1 0.833631 0.552193
0.85333 0.750698 0.643198
0.855909 0.761593 0.65861
0.838224 0.761929 0.680018
0.7514 0.708278 0.64094
0.717266 0.693828 0.617533
0.747982 0.734264 0.612177
0.831876 0.798398 0.554208
0.96669 0.834958 0.530251
1 0.860594 0.58204
0.0473182 0.0419776 0.0403906
0.0499275 0.0446326 0.0428321
0.0560616 0.0502327 0.0479591
0.060914 0.0570382 0.0538949
0.0654459 0.0636301 0.0603037
0.0741741 0.0726329 0.0691844
0.0882734 0.0846265 0.0810101
0.105669 0.0992599 0.0951095
0.136645 0.124544 0.118944
0.0637064 0.0607156 0.057496
0.0687877 0.0670024 0.0636149
0.0847639 0.0800031 0.0800641
0.113359 0.101152 0.103273
0.135805 0.11899 0.12015
0.148882 0.131853 0.129198
0.152392 0.143984 0.136706
0.174472 0.165972 0.157305
0.207599 0.19469 0.184375
0.100374 0.0946212 0.0907454
0.115572 0.110414 0.110445
0.138857 0.131716 0.142184
0.191577 0.16936 0.184985
0.256001 0.209064 0.238834
0.315862 0.238987 0.286015
0.361074 0.266682 0.310796
0.362844 0.296559 0.303197
0.333867 0.30161 0.284688
0.170199 0.161151 0.152789
0.189746 0.183764 0.184588
0.222492 0.212512 0.222583
0.260624 0.243427 0.256184
0.368215 0.311559 0.331411
0.471595 0.343542 0.418067
0.583505 0.3579 0.46894
0.648615 0.384802 0.477348
0.65658 0.430411 0.464714
0.283513 0.259388 0.245365
0.274632 0.269734 0.264576
0.314153 0.304128 0.305776
0.343526 0.331502 0.335622
0.449409 0.399603 0.399222
0.570001 0.465583 0.489464
0.712612 0.472404 0.562142
0.799405 0.485756 0.566308
0.846387 0.521508 0.557717
0.427787 0.383368 0.359258
0.371359 0.370504 0.352697
0.403281 0.3991 0.38761
0.432013 0.425757 0.415747
0.460929 0.455741 0.443107
0.655268 0.57084 0.549035
0.804608 0.611902 0.621515
0.919188 0.619501 0.617899
0.951522 0.631037 0.601175
0.576684 0.517357 0.47657
0.57911 0.530449 0.494026
0.475654 0.480827 0.455512
0.494347 0.497597 0.473625
0.517861 0.523888 0.495903
0.659739 0.617838 0.577371
0.809293 0.723812 0.625025
0.971664 0.739147 0.60592
1 0.740826 0.603006
0.724987 0.648966 0.574441
0.751141 0.673747 0.594476
0.664927 0.62623 0.580285
0.551644 0.565057 0.526604
0.556359 0.573022 0.531823
0.656825 0.642954 0.586557
0.794049 0.757366 0.62649
0.982605 0.820005 0.580468
1 0.837995 0.601175
0.847837 0.75082 0.646006
0.863691 0.767849 0.663676
0.856901 0.772503 0.692485
0.763622 0.710628 0.655329
0.706691 0.678264 0.623941
0.740185 0.706325 0.63917
0.814282 0.779583 0.650095
0.932708 0.837064 0.591577
1 0.862699 0.590341
0.047013 0.041825 0.040238
0.0512245 0.0458228 0.0439002
0.0573434 0.0516823 0.0492714
0.0616922 0.0584115 0.0550851
0.0674601 0.0656443 0.0623026
0.0762646 0.0747692 0.0713054
0.0921492 0.0877546 0.084062
0.1093 0.102754 0.0983444
0.130358 0.120974 0.115465
0.0657511 0.0627909 0.0595712
0.0706798 0.0689555 0.0655528
0.0810712 0.0790112 0.0755169
0.098146 0.0927596 0.0889296
0.117311 0.109758 0.104875
0.137591 0.128237 0.122255
0.157794 0.149248 0.141558
0.179873 0.171466 0.162448
0.213718 0.200122 0.189487
0.104448 0.0983291 0.0942245
0.124407 0.115923 0.110643
0.143801 0.134874 0.129427
0.173342 0.160647 0.163058
0.231998 0.203006 0.207309
0.283101 0.241032 0.246021
0.319936 0.271794 0.270726
0.338766 0.292622 0.281437
0.343435 0.309865 0.292332
0.174441 0.165942 0.157244
0.203082 0.191791 0.181567
0.222766 0.21442 0.215351
0.270344 0.251698 0.259129
0.360464 0.312016 0.322225
0.434958 0.356435 0.385519
0.526329 0.384146 0.454856
0.603769 0.409735 0.488212
0.62414 0.448554 0.483528
0.29575 0.268788 0.254154
0.334569 0.302251 0.285267
0.317357 0.308461 0.306203
0.351095 0.338231 0.341268
0.454566 0.405234 0.406073
0.555978 0.469886 0.477852
0.665904 0.497063 0.564858
0.763607 0.508827 0.602106
0.825666 0.537636 0.606104
0.438025 0.392401 0.367391
0.481758 0.43183 0.402304
0.414237 0.409186 0.39588
0.443778 0.435904 0.427619
0.500572 0.477882 0.468284
0.655802 0.57232 0.555932
0.759197 0.62768 0.631327
0.877897 0.627924 0.676036
0.93608 0.638636 0.673106
0.586938 0.526406 0.484337
0.629038 0.564004 0.515496
0.541726 0.521874 0.493874
0.512642 0.512444 0.49163
0.540673 0.538491 0.517067
0.686168 0.628687 0.600351
0.829801 0.715679 0.680934
0.948684 0.739635 0.710552
1 0.740856 0.699855
0.72253 0.64828 0.577874
0.760357 0.681758 0.599268
0.742733 0.673014 0.624048
0.604028 0.598367 0.56257
0.58146 0.589685 0.55668
0.687144 0.655009 0.616022
0.832029 0.749386 0.697856
0.950118 0.826368 0.702708
1 0.832105 0.686824
0.851713 0.754986 0.650202
0.870909 0.773617 0.667872
0.892088 0.793164 0.688212
0.810544 0.738293 0.686122
0.735332 0.693004 0.647562
0.748898 0.704051 0.656352
0.834501 0.764797 0.703288
0.916594 0.838773 0.706142
1 0.871168 0.662135
0.0474403 0.042237 0.0406348
0.0525216 0.047013 0.0449683
0.0586709 0.0532998 0.0506905
0.0627451 0.0598764 0.0565499
0.0694438 0.0676432 0.0642557
0.0787518 0.0771191 0.0736706
0.0958114 0.0907607 0.0870069
0.114183 0.107012 0.102327
0.134218 0.12462 0.118944
0.0644694 0.0623484 0.0590372
0.0725109 0.0708782 0.0674449
0.0852064 0.0822156 0.078645
0.102007 0.0961013 0.0921492
0.122194 0.113985 0.108827
0.141634 0.132799 0.126452
0.163455 0.154635 0.146639
0.186831 0.177813 0.168429
0.220798 0.206287 0.195285
0.108598 0.102113 0.0977493
0.129015 0.119966 0.114504
0.148013 0.139559 0.132647
0.171191 0.162203 0.153765
0.198032 0.187503 0.177554
0.235966 0.218509 0.207721
0.26862 0.247959 0.234623
0.314366 0.284642 0.26891
0.353811 0.318578 0.300404
0.17937 0.170993 0.16199
0.21146 0.198718 0.188113
0.243702 0.227344 0.215106
0.287709 0.262379 0.256489
0.353704 0.311025 0.309895
0.418921 0.358618 0.360861
0.48069 0.3991 0.411994
0.541863 0.432685 0.457008
0.560784 0.468437 0.46006
0.30602 0.27718 0.261952
0.344411 0.310735 0.293126
0.383383 0.344976 0.327626
0.39588 0.365713 0.360113
0.471946 0.418967 0.415702
0.553063 0.474296 0.472892
0.63798 0.51693 0.545602
0.72697 0.537285 0.602548
0.798032 0.564248 0.624811
0.448875 0.40209 0.376013
0.492409 0.441566 0.410819
0.51664 0.467536 0.442634
0.481041 0.460563 0.447196
0.553948 0.509194 0.497169
0.662531 0.578241 0.562524
0.748959 0.632883 0.623011
0.844617 0.646235 0.687572
0.916487 0.654078 0.703517
0.597772 0.536385 0.492515
0.639063 0.572931 0.522789
0.655818 0.588785 0.550958
0.590311 0.559823 0.534813
0.599008 0.572992 0.550774
0.719814 0.646998 0.620951
0.830579 0.715923 0.684916
0.914992 0.747402 0.739635
0.993591 0.746975 0.748455
0.735683 0.659525 0.583902
0.772763 0.691585 0.604959
0.807034 0.720775 0.626215
0.752026 0.68452 0.643137
0.70045 0.658091 0.623331
0.748287 0.689982 0.654414
0.859174 0.760739 0.719524
0.947951 0.817929 0.769253
1 0.831724 0.762737
0.84831 0.755596 0.653513
0.878584 0.779644 0.672007
0.905867 0.799191 0.688045
0.864942 0.773068 0.718441
0.800122 0.731624 0.687465
0.794537 0.7299 0.687175
0.857877 0.772534 0.725231
0.941192 0.832227 0.772061
1 0.881346 0.756558
