All_In_One/Enrich_Colormaster/colormanagement/luts/film_response/ApocalypseThisVeryMoment.cube
TITLE "Generate by Resolve"
LUT_3D_SIZE 5
0.0425574 0.0385443 0.035462
0.0866712 0.0531167 0.0410163
0.0598611 0.0551919 0.0523232
0.0713817 0.0697337 0.0663005
0.0989548 0.0933852 0.0895552
0.0732128 0.0873274 0.0688945
0.132677 0.131685 0.0755016
0.179217 0.170825 0.161837
0.217823 0.20383 0.192981
0.279759 0.256641 0.242756
0.205051 0.205142 0.189288
0.239948 0.266728 0.201801
0.397803 0.359838 0.333242
0.514717 0.46186 0.428458
0.598886 0.537377 0.493294
0.516457 0.46331 0.429786
0.603235 0.541329 0.496498
0.682918 0.612467 0.552819
0.757824 0.679576 0.598062
0.833005 0.743313 0.643412
0.786511 0.704234 0.615564
0.851637 0.758312 0.655848
0.907698 0.800458 0.689174
0.956756 0.832776 0.716136
0.999268 0.858335 0.740353
0.0403601 0.0378576 0.0436255
0.108614 0.0599832 0.0792554
0.0720989 0.061677 0.059205
0.0751965 0.0737011 0.0702373
0.10605 0.0998245 0.095613
0.0999008 0.103563 0.0955215
0.229664 0.165118 0.0590372
0.407736 0.178546 0.107134
0.290196 0.227207 0.188754
0.298222 0.27071 0.25594
0.198032 0.212085 0.18912
0.190585 0.256352 0.170596
0.519097 0.414069 0.0630503
0.770138 0.528374 0.33872
0.601373 0.539574 0.49514
0.535546 0.480552 0.444755
0.419364 0.460487 0.383597
0.5402 0.589319 0.308354
0.858289 0.70692 0.38674
0.854902 0.755306 0.62771
0.801816 0.717281 0.625254
0.865339 0.768978 0.664424
0.896925 0.805631 0.669139
0.960266 0.837476 0.692134
1 0.86276 0.744991
0.0464332 0.0416571 0.042359
0.0633402 0.054902 0.0599832
0.0696727 0.062562 0.0609751
0.0802014 0.0783398 0.0748608
0.124392 0.114229 0.109163
0.103059 0.0986801 0.102266
0.130526 0.123629 0.139086
0.353994 0.182864 0.278904
0.441398 0.230762 0.275761
0.315648 0.285786 0.269947
0.227604 0.227481 0.21828
0.284794 0.286229 0.272908
0.472709 0.43122 0.318624
0.799969 0.456107 0.359854
0.81912 0.531456 0.425177
0.573831 0.512154 0.471611
0.42594 0.450385 0.407004
0.456092 0.511086 0.417121
0.877989 0.715587 0.353841
1 0.76231 0.494377
0.847471 0.745632 0.63859
0.841901 0.766308 0.669612
0.750896 0.732982 0.610986
0.881712 0.810162 0.52398
1 0.865446 0.644968
0.0473182 0.0419776 0.0403906
0.0560616 0.0502327 0.0479591
0.0654459 0.0636301 0.0603037
0.0882734 0.0846265 0.0810101
0.136645 0.124544 0.118944
0.100374 0.0946212 0.0907454
0.138857 0.131716 0.142184
0.256001 0.209064 0.238834
0.361074 0.266682 0.310796
0.333867 0.30161 0.284688
0.283513 0.259388 0.245365
0.314153 0.304128 0.305776
0.449409 0.399603 0.399222
0.712612 0.472404 0.562142
0.846387 0.521508 0.557717
0.576684 0.517357 0.47657
0.475654 0.480827 0.455512
0.517861 0.523888 0.495903
0.809293 0.723812 0.625025
1 0.740826 0.603006
0.847837 0.75082 0.646006
0.856901 0.772503 0.692485
0.706691 0.678264 0.623941
0.814282 0.779583 0.650095
1 0.862699 0.590341
0.0474403 0.042237 0.0406348
0.0586709 0.0532998 0.0506905
0.0694438 0.0676432 0.0642557
0.0958114 0.0907607 0.0870069
0.134218 0.12462 0.118944
0.108598 0.102113 0.0977493
0.148013 0.139559 0.132647
0.198032 0.187503 0.177554
0.26862 0.247959 0.234623
0.353811 0.318578 0.300404
0.30602 0.27718 0.261952
0.383383 0.344976 0.327626
0.471946 0.418967 0.415702
0.63798 0.51693 0.545602
0.798032 0.564248 0.624811
0.597772 0.536385 0.492515
0.655818 0.588785 0.550958
0.599008 0.572992 0.550774
0.830579 0.715923 0.684916
0.993591 0.746975 0.748455
0.84831 0.755596 0.653513
0.905867 0.799191 0.688045
0.800122 0.731624 0.687465
0.857877 0.772534 0.725231
1 0.881346 0.756558
