All_In_One/Enrich_Colormaster/colormanagement/luts/film_response/ApocalypseThisVeryMoment.cube
TITLE "Generate by Resolve"
LUT_3D_SIZE 33
0.0425574 0.0385443 0.035462
0.0582437 0.0454719 0.0350958
0.0822309 0.0501411 0.0347143
0.0895094 0.0517281 0.0343633
0.0934768 0.0528115 0.0356146
0.0927443 0.0525521 0.0365454
0.0919661 0.0527962 0.0374304
0.090547 0.053193 0.0385595
0.0866712 0.0531167 0.0410163
0.0794995 0.0525521 0.0436713
0.0652781 0.0513313 0.0465553
0.0567788 0.0492409 0.0468452
0.0560006 0.0493935 0.0470588
0.0559396 0.0501259 0.0478676
0.0574655 0.0518502 0.0494087
0.0589151 0.0536355 0.0509804
0.0598611 0.0551919 0.0523232
0.0608072 0.0568399 0.053727
0.061677 0.058381 0.0550546
0.0628214 0.059968 0.0566415
0.0639506 0.0615854 0.0582742
0.0650492 0.0631876 0.0598764
0.0671397 0.0653239 0.0619821
0.0693675 0.0675975 0.06421
0.0713817 0.0697337 0.0663005
0.0735027 0.071931 0.0684825
0.075639 0.0741588 0.0707103
0.0783093 0.0766918 0.073228
0.0822156 0.079881 0.0763714
0.0867628 0.0834363 0.0798505
0.090898 0.086717 0.0830549
0.0949569 0.0900893 0.0863355
0.0989548 0.0933852 0.0895552
0.0431983 0.040177 0.0366674
0.0483406 0.0443427 0.0383917
0.0738689 0.0519265 0.0368811
0.0893111 0.0557412 0.0373541
0.0956436 0.0580453 0.0396277
0.0979629 0.058854 0.04065
0.0971084 0.0586252 0.0417792
0.0965744 0.0587778 0.0432441
0.0959335 0.0593271 0.0452735
0.0910964 0.0592813 0.0479896
0.0787823 0.0576181 0.050248
0.0629435 0.0547951 0.0515145
0.0610971 0.0543069 0.0512551
0.0608225 0.0558938 0.052842
0.0611887 0.0575265 0.0543069
0.0621958 0.0590982 0.0557717
0.0633097 0.0606851 0.0573434
0.0644083 0.0622721 0.0589609
0.06598 0.0641642 0.0608377
0.068101 0.0663005 0.0629435
0.0702678 0.0684977 0.0651102
0.0722972 0.0706798 0.0672313
0.0743877 0.0728618 0.0694133
0.0769207 0.0753643 0.0719005
0.0796216 0.0778821 0.0744335
0.084184 0.0814069 0.0778668
0.0886397 0.0849317 0.0813153
0.0926223 0.0881361 0.0844434
0.0965438 0.0913863 0.087602
0.10042 0.094667 0.0907912
0.104662 0.0985275 0.0944228
0.10927 0.102708 0.0983139
0.114687 0.107424 0.102724
0.0442512 0.0437781 0.0390478
0.0477455 0.0450294 0.0401465
0.0551766 0.0519417 0.0409705
0.0826123 0.0597391 0.0387732
0.0950332 0.0651102 0.0433814
0.0899825 0.0650339 0.0484016
0.0684825 0.059617 0.0500649
0.06215 0.0552529 0.0511788
0.0627298 0.0556954 0.0518959
0.0638285 0.057023 0.0530251
0.0648814 0.0585794 0.0543526
0.0657206 0.0601053 0.0558175
0.0658579 0.0613107 0.0572213
0.0640879 0.0615854 0.0580606
0.0649424 0.0630503 0.0597391
0.0670024 0.0652171 0.0618601
0.0690929 0.0673228 0.0639353
0.0711223 0.0694285 0.0659953
0.073228 0.0716411 0.0681926
0.0753185 0.0738537 0.0703899
0.0780194 0.0764172 0.0729534
0.0817273 0.0795148 0.0760052
0.0861067 0.0829175 0.0793469
0.0904097 0.0863355 0.0826886
0.0943923 0.0895857 0.0858473
0.0982376 0.0928206 0.0889906
0.102235 0.0963149 0.0923323
0.106493 0.100206 0.0959945
0.111528 0.104692 0.10016
0.116854 0.109331 0.104494
0.122011 0.113863 0.108721
0.127214 0.118425 0.113024
0.132509 0.123095 0.117479
0.0453193 0.0493477 0.0426032
0.0476081 0.0493782 0.0429084
0.0543832 0.0539406 0.0446632
0.0656901 0.0630045 0.042771
0.0880598 0.0715801 0.0442664
0.0799573 0.0714427 0.0528267
0.069276 0.065095 0.0586709
0.0671397 0.0637369 0.0590219
0.0651255 0.0629892 0.0594034
0.0652934 0.0634623 0.0601511
0.0664073 0.0645914 0.061265
0.0677653 0.0659648 0.0626078
0.0692912 0.0675059 0.0641337
0.070985 0.0693065 0.0658885
0.0727245 0.071107 0.0676585
0.0746014 0.0730907 0.0696422
0.0769207 0.0753643 0.0719005
0.079408 0.0777295 0.0742657
0.0837568 0.0811017 0.0775616
0.0881819 0.0845502 0.0809339
0.0921492 0.0877546 0.084062
0.0962234 0.0910964 0.0873274
0.0999924 0.0943313 0.0904555
0.104112 0.0980087 0.0939193
0.108751 0.102235 0.0978866
0.113817 0.106722 0.102052
0.118959 0.111192 0.106218
0.124361 0.115923 0.110643
0.129412 0.120333 0.114839
0.134432 0.124788 0.119097
0.138689 0.129458 0.123384
0.142885 0.134142 0.127687
0.147845 0.139345 0.132464
0.0501717 0.0565194 0.0476081
0.0499428 0.0552834 0.046891
0.0538338 0.0572824 0.0479133
0.0603189 0.0628672 0.0495155
0.0805524 0.0745403 0.044007
0.0943923 0.0832074 0.0529183
0.0796521 0.0766308 0.0662852
0.0738384 0.0717632 0.0677653
0.0745098 0.0729229 0.0694591
0.0756237 0.0741588 0.0706951
0.0771344 0.0755627 0.0721141
0.0783551 0.0767224 0.0732738
0.0797436 0.0779736 0.0745098
0.0825818 0.0801862 0.0766613
0.0854505 0.0824292 0.0788434
0.0887465 0.0850233 0.0813916
0.0919661 0.0876326 0.0839399
0.0954452 0.0904707 0.086717
0.0988022 0.0932937 0.0894636
0.102617 0.0966812 0.0926833
0.106523 0.100267 0.096025
0.111254 0.104463 0.0999466
0.11632 0.108858 0.104067
0.121462 0.11339 0.108278
0.126818 0.118074 0.112673
0.131716 0.122393 0.116808
0.136278 0.126787 0.120943
0.140505 0.131533 0.125277
0.144884 0.136278 0.129641
0.149767 0.141314 0.134264
0.155337 0.146853 0.139361
0.161166 0.152514 0.144625
0.167407 0.158373 0.150164
0.0547494 0.0628367 0.0519265
0.054078 0.0617227 0.0513313
0.053727 0.0611429 0.0508278
0.0615091 0.0666819 0.0532998
0.0680858 0.0732586 0.0535439
0.0911116 0.0856641 0.0494087
0.093019 0.0902113 0.0635996
0.0905318 0.0851148 0.0795453
0.0908827 0.0862898 0.0826276
0.093019 0.0883497 0.0846418
0.0955673 0.0905928 0.0868238
0.098146 0.0927596 0.0889296
0.0999008 0.0942092 0.0903639
0.10193 0.0960555 0.0920882
0.104112 0.0980087 0.0939193
0.106294 0.100053 0.0958267
0.109483 0.102876 0.0984665
0.112917 0.105882 0.101289
0.117174 0.109636 0.104768
0.121324 0.113268 0.108156
0.125963 0.117296 0.11194
0.130343 0.121157 0.115633
0.13492 0.125368 0.119631
0.138796 0.12958 0.123491
0.142641 0.133883 0.127443
0.147356 0.138872 0.132021
0.152392 0.143984 0.136706
0.15819 0.14966 0.141924
0.163729 0.154849 0.146868
0.169543 0.16051 0.152148
0.174334 0.165805 0.157107
0.179644 0.171206 0.162219
0.186831 0.177813 0.168429
0.0594186 0.0692302 0.056199
0.0587472 0.0680095 0.0556344
0.0588388 0.068101 0.0556344
0.0610666 0.0704509 0.0567483
0.0709697 0.0785687 0.0588388
0.0894179 0.0904097 0.0530861
0.107942 0.0992447 0.0555886
0.104402 0.100816 0.0831006
0.109651 0.101503 0.0972763
0.116167 0.107378 0.102754
0.119493 0.110689 0.105821
0.123064 0.114031 0.108934
0.125414 0.116365 0.111086
0.126787 0.117922 0.112535
0.128923 0.119921 0.114443
0.131106 0.121859 0.116304
0.133608 0.124102 0.118425
0.136049 0.126528 0.120699
0.138354 0.129091 0.123049
0.1411 0.132189 0.125902
0.144244 0.135607 0.129015
0.148257 0.139818 0.132876
0.152514 0.14406 0.136782
0.157473 0.148898 0.141238
0.162387 0.153643 0.145693
0.167987 0.158999 0.150744
0.17261 0.163806 0.155261
0.176913 0.168582 0.159731
0.183047 0.174472 0.16527
0.18999 0.180652 0.171099
0.198138 0.187686 0.177691
0.206928 0.195056 0.184634
0.216373 0.202747 0.191913
0.0664683 0.0781262 0.0627604
0.0654307 0.0771496 0.0617227
0.0648051 0.0766766 0.0610819
0.0656901 0.0780804 0.061738
0.0718547 0.0833906 0.0642863
0.0865644 0.0959029 0.0627298
0.109224 0.10721 0.0556344
0.124712 0.117128 0.0649729
0.128542 0.118196 0.107881
0.135302 0.123537 0.117983
0.140581 0.128893 0.123079
0.143862 0.133181 0.126955
0.145754 0.136019 0.129488
0.146502 0.137743 0.131014
0.149371 0.140902 0.133883
0.152697 0.144274 0.136995
0.155459 0.146929 0.139437
0.15845 0.149874 0.142138
0.161486 0.152819 0.1449
0.164462 0.155627 0.14757
0.168032 0.158984 0.150744
0.171405 0.162432 0.153979
0.174578 0.166033 0.157366
0.1785 0.170092 0.161166
0.183764 0.175021 0.165805
0.189746 0.180453 0.170886
0.196796 0.186542 0.176638
0.204318 0.192813 0.182544
0.213169 0.200092 0.189395
0.221729 0.207019 0.195972
0.229023 0.213672 0.202213
0.235782 0.220081 0.20827
0.24329 0.226886 0.214694
0.0732128 0.0873274 0.0688945
0.0729381 0.0873426 0.0685588
0.0725261 0.0871443 0.0681163
0.0728313 0.0879225 0.0683146
0.075349 0.0910506 0.06981
0.0865492 0.101198 0.071397
0.105455 0.115053 0.0634318
0.125673 0.124987 0.0624247
0.132677 0.131685 0.0755016
0.140749 0.130083 0.121767
0.14609 0.137179 0.130495
0.153979 0.145418 0.138033
0.160876 0.152117 0.144289
0.166812 0.157839 0.149676
0.171801 0.162936 0.154437
0.175113 0.166629 0.157931
0.179217 0.170825 0.161837
0.183017 0.174395 0.165209
0.187076 0.178088 0.168673
0.191272 0.181827 0.172198
0.195132 0.185077 0.17528
0.200031 0.189288 0.179217
0.205066 0.193439 0.183124
0.211154 0.198428 0.187854
0.217823 0.20383 0.192981
0.224216 0.209186 0.198032
0.230015 0.214481 0.203021
0.235477 0.21976 0.20798
0.241962 0.225696 0.213581
0.249073 0.231968 0.219501
0.257267 0.23888 0.226032
0.268086 0.247593 0.234226
0.279759 0.256641 0.242756
0.0809949 0.0977798 0.0759747
0.0807355 0.0986343 0.0754559
0.0810559 0.0998703 0.0755627
0.0817884 0.101335 0.0760967
0.0833753 0.103822 0.0770581
0.0906996 0.111315 0.0787671
0.104524 0.124147 0.0760662
0.121462 0.134768 0.0695201
0.133806 0.141833 0.0733349
0.14052 0.147326 0.09691
0.157061 0.147951 0.139895
0.168643 0.159579 0.151308
0.177035 0.168658 0.159823
0.185687 0.176837 0.167498
0.194018 0.184176 0.174395
0.202197 0.191089 0.180911
0.209598 0.197162 0.186648
0.217075 0.203265 0.192432
0.223163 0.20824 0.197116
0.228214 0.212863 0.20145
0.232273 0.216693 0.205066
0.235782 0.220081 0.20827
0.24007 0.224048 0.211994
0.244633 0.228153 0.215869
0.249485 0.232425 0.219898
0.255833 0.23772 0.224918
0.262638 0.24332 0.230182
0.270863 0.249638 0.236194
0.280034 0.256809 0.242924
0.290623 0.264805 0.250431
0.301167 0.272892 0.258
0.310399 0.281071 0.265599
0.319432 0.289097 0.273045
0.0899062 0.108248 0.0843977
0.0899977 0.110506 0.0840009
0.0906386 0.112581 0.0842603
0.0915389 0.114672 0.0848249
0.0926375 0.117159 0.0855268
0.098146 0.123629 0.0868696
0.10959 0.135164 0.0867781
0.12694 0.149096 0.0813001
0.138109 0.156329 0.0793469
0.152102 0.16466 0.082826
0.161288 0.166751 0.126238
0.1776 0.169238 0.160342
0.193408 0.183642 0.173907
0.209598 0.197162 0.186648
0.222843 0.207935 0.196841
0.231296 0.215717 0.204181
0.23801 0.222156 0.210208
0.245029 0.228458 0.216175
0.251804 0.234363 0.221744
0.259174 0.240528 0.227543
0.265949 0.245899 0.232654
0.273777 0.251911 0.238331
0.281071 0.257603 0.243656
0.288853 0.263432 0.249165
0.296696 0.269474 0.254795
0.303288 0.274723 0.259693
0.309071 0.279835 0.264469
0.31519 0.285298 0.269535
0.321569 0.290974 0.274784
0.329015 0.297505 0.280842
0.336736 0.304067 0.286976
0.346639 0.31252 0.29482
0.3579 0.321981 0.303563
0.0991379 0.119432 0.0930495
0.100328 0.122621 0.0937667
0.101595 0.125368 0.0946517
0.102708 0.128527 0.0952163
0.103944 0.131655 0.0958724
0.107897 0.137118 0.0967727
0.117418 0.147463 0.0975357
0.131716 0.161379 0.0933394
0.144259 0.171954 0.0888228
0.160433 0.181811 0.0857862
0.178546 0.191302 0.101366
0.190982 0.19234 0.156298
0.209781 0.197269 0.186755
0.229007 0.213535 0.202106
0.242344 0.226001 0.213886
0.255146 0.237186 0.224384
0.26743 0.247089 0.233753
0.279789 0.256657 0.242786
0.291005 0.265095 0.250721
0.301961 0.273579 0.258625
0.308766 0.279637 0.264271
0.315755 0.285908 0.270069
0.321859 0.291218 0.275013
0.32842 0.296925 0.280354
0.334569 0.302251 0.285267
0.3411 0.30779 0.29044
0.347906 0.313634 0.295842
0.354452 0.319112 0.300923
0.362112 0.325536 0.306828
0.369543 0.331777 0.312551
0.378592 0.339422 0.319539
0.388235 0.34815 0.327413
0.399588 0.358282 0.336599
0.109804 0.131273 0.103273
0.111009 0.135363 0.103822
0.112444 0.13904 0.104692
0.11368 0.142809 0.10518
0.115084 0.146914 0.105562
0.11722 0.151461 0.106157
0.127337 0.162737 0.106416
0.139025 0.175219 0.104753
0.154421 0.188724 0.101183
0.168307 0.198047 0.0979629
0.189334 0.209491 0.102998
0.209216 0.219501 0.129717
0.225757 0.22089 0.187686
0.243015 0.226596 0.21442
0.261891 0.242634 0.229572
0.283513 0.259388 0.245365
0.302708 0.274159 0.259159
0.313939 0.284306 0.268574
0.323644 0.292744 0.276448
0.333135 0.301015 0.284123
0.341558 0.308141 0.290761
0.350286 0.315663 0.297704
0.358557 0.32253 0.304051
0.366964 0.32958 0.310567
0.375143 0.336416 0.316777
0.382452 0.342947 0.322698
0.389136 0.348959 0.328145
0.396033 0.355093 0.333715
0.402808 0.361089 0.339193
0.409857 0.367453 0.344915
0.417945 0.374624 0.351385
0.428611 0.384054 0.359899
0.440665 0.394781 0.369497
0.125582 0.14403 0.119097
0.125826 0.148577 0.118669
0.126833 0.15288 0.11902
0.126986 0.157595 0.118074
0.127977 0.162493 0.117388
0.132738 0.169848 0.118471
0.137118 0.176455 0.119356
0.150515 0.190127 0.119844
0.167926 0.205371 0.119448
0.186374 0.218753 0.119249
0.203326 0.228428 0.122057
0.22472 0.239338 0.132219
0.237934 0.246571 0.161059
0.262608 0.250004 0.220737
0.285878 0.261128 0.246998
0.308156 0.279057 0.263722
0.325185 0.294163 0.277745
0.340505 0.307286 0.289967
0.353628 0.318471 0.300313
0.366278 0.329 0.310018
0.377264 0.338277 0.318471
0.386389 0.346426 0.325887
0.394598 0.353796 0.332555
0.403204 0.361517 0.339544
0.411017 0.368505 0.34583
0.41915 0.375708 0.352361
0.426551 0.382269 0.358267
0.434333 0.389181 0.364477
0.441627 0.395636 0.37026
0.449622 0.402823 0.376638
0.458137 0.410513 0.383444
0.469459 0.420752 0.392538
0.482368 0.432471 0.402853
0.144411 0.159121 0.137621
0.145541 0.164385 0.138247
0.147646 0.169406 0.13959
0.148028 0.174624 0.13901
0.14818 0.179477 0.13814
0.150149 0.185107 0.138491
0.160235 0.196262 0.140993
0.170809 0.207568 0.143191
0.184329 0.220752 0.146075
0.204715 0.237522 0.146715
0.226642 0.252094 0.147539
0.243015 0.261601 0.15259
0.260166 0.270863 0.164736
0.274403 0.278111 0.198001
0.305074 0.284932 0.25481
0.328466 0.297032 0.2804
0.347219 0.313008 0.295277
0.366629 0.32929 0.310307
0.383597 0.343984 0.323644
0.396674 0.355657 0.334234
0.408042 0.36582 0.34345
0.418967 0.375601 0.352239
0.428412 0.383932 0.359747
0.437827 0.392279 0.367239
0.446403 0.399939 0.374075
0.45565 0.40827 0.381415
0.463264 0.415106 0.387549
0.471458 0.422614 0.394141
0.479133 0.429572 0.400259
0.487282 0.436912 0.406744
0.496071 0.444953 0.413748
0.509102 0.456657 0.424033
0.523857 0.470085 0.435599
0.167712 0.178454 0.159258
0.168582 0.18349 0.160113
0.17171 0.189212 0.162478
0.171511 0.193896 0.162203
0.172366 0.199344 0.162203
0.174563 0.205463 0.163119
0.177447 0.211704 0.164752
0.192065 0.225605 0.169619
0.209857 0.242222 0.17322
0.228092 0.258488 0.174487
0.246601 0.272877 0.176593
0.265904 0.285466 0.179126
0.281712 0.29485 0.186923
0.2972 0.303609 0.205097
0.317861 0.312398 0.245258
0.349828 0.320333 0.292927
0.372335 0.334081 0.314656
0.390478 0.350103 0.329213
0.408042 0.36582 0.34345
0.424231 0.380255 0.356451
0.438544 0.392966 0.367849
0.450813 0.40383 0.377554
0.46183 0.41387 0.386419
0.471473 0.422553 0.39411
0.480735 0.431022 0.401526
0.489967 0.439399 0.408896
0.498329 0.447013 0.415549
0.507271 0.455055 0.422599
0.51577 0.46276 0.429297
0.524666 0.470832 0.436271
0.533867 0.478981 0.443412
0.547066 0.490867 0.453696
0.56202 0.504097 0.465248
0.205051 0.205142 0.189288
0.202365 0.208377 0.188891
0.207218 0.214984 0.192538
0.204593 0.219196 0.190967
0.205447 0.22504 0.190921
0.210117 0.233082 0.192477
0.218097 0.243244 0.1953
0.227527 0.253971 0.198093
0.239948 0.266728 0.201801
0.255909 0.281544 0.205524
0.276905 0.298863 0.207431
0.29572 0.312596 0.211734
0.308522 0.320989 0.220157
0.324529 0.330922 0.233295
0.343999 0.341146 0.257084
0.368414 0.350011 0.297414
0.397803 0.359838 0.333242
0.416098 0.372976 0.349905
0.433234 0.388235 0.363638
0.450813 0.40383 0.377554
0.466468 0.418097 0.390143
0.480415 0.430732 0.401282
0.493172 0.442313 0.411444
0.504143 0.452293 0.420157
0.514717 0.46186 0.428458
0.524285 0.470527 0.435966
0.533654 0.478859 0.443275
0.542123 0.486336 0.449821
0.550912 0.494179 0.456657
0.559579 0.501991 0.463386
0.569162 0.510552 0.470787
0.582589 0.52253 0.481056
0.598886 0.537377 0.493294
0.260609 0.241688 0.228656
0.255085 0.243076 0.227588
0.257679 0.248508 0.230671
0.249912 0.250172 0.227085
0.245029 0.25333 0.224506
0.246906 0.259785 0.224979
0.254673 0.269993 0.228199
0.266453 0.282856 0.232822
0.28069 0.297398 0.237079
0.297139 0.312932 0.239963
0.311528 0.325811 0.244999
0.329503 0.340246 0.251926
0.348318 0.353475 0.260594
0.361013 0.361349 0.272541
0.376425 0.370718 0.288808
0.39649 0.380621 0.314687
0.42153 0.389838 0.347341
0.446174 0.400046 0.373724
0.461204 0.413306 0.385916
0.477623 0.428168 0.399069
0.493812 0.442908 0.411963
0.509102 0.456657 0.424033
0.523369 0.469673 0.435264
0.536004 0.480934 0.44506
0.546517 0.490242 0.453239
0.556588 0.499321 0.461112
0.566598 0.508263 0.468803
0.575601 0.51632 0.475731
0.584924 0.524712 0.482841
0.593622 0.532525 0.489342
0.603754 0.541802 0.496925
0.616892 0.553353 0.5066
0.632334 0.566918 0.517906
0.301625 0.273304 0.258381
0.311284 0.281895 0.266361
0.32079 0.290272 0.274144
0.320989 0.29485 0.275822
0.316167 0.298024 0.273304
0.313817 0.303059 0.27216
0.314885 0.310369 0.272221
0.320104 0.319371 0.274403
0.328634 0.330282 0.277943
0.339193 0.342031 0.282002
0.353536 0.355657 0.287633
0.370642 0.370138 0.294514
0.386999 0.383001 0.30454
0.403357 0.394598 0.317067
0.416312 0.402731 0.330053
0.43328 0.412924 0.347372
0.452461 0.421958 0.369558
0.474769 0.431052 0.394247
0.493233 0.442344 0.411505
0.507408 0.455238 0.422721
0.522698 0.469062 0.434745
0.53785 0.482658 0.446555
0.552468 0.495659 0.457923
0.56553 0.50724 0.467964
0.577539 0.518044 0.477211
0.588983 0.528328 0.485893
0.599191 0.537728 0.493584
0.609125 0.546532 0.500938
0.617884 0.554284 0.507332
0.626734 0.562036 0.513832
0.635447 0.569726 0.520165
0.648707 0.581537 0.529656
0.664668 0.595819 0.540871
0.33341 0.301259 0.284337
0.344228 0.310491 0.292943
0.354971 0.319509 0.301305
0.366629 0.32929 0.310307
0.376181 0.338064 0.317815
0.371328 0.341833 0.316228
0.371267 0.348089 0.316686
0.37496 0.356283 0.318563
0.383322 0.367483 0.322271
0.391394 0.37763 0.326162
0.401419 0.388785 0.331472
0.414496 0.401068 0.339223
0.429358 0.413901 0.348226
0.445991 0.426917 0.359899
0.459159 0.435523 0.371542
0.474006 0.44509 0.385519
0.490562 0.455131 0.401541
0.509102 0.463859 0.420645
0.528176 0.473976 0.439017
0.540368 0.484825 0.448478
0.553567 0.496605 0.458717
0.567452 0.508965 0.469444
0.581857 0.521996 0.480537
0.595193 0.534035 0.490578
0.608438 0.545998 0.500404
0.619471 0.555566 0.508476
0.629633 0.564721 0.515953
0.63946 0.573343 0.523079
0.648585 0.58143 0.529625
0.657954 0.589685 0.536263
0.667185 0.598138 0.542489
0.680491 0.610239 0.551263
0.695796 0.624231 0.560845
0.369757 0.331823 0.312627
0.38146 0.342 0.321874
0.391959 0.351431 0.330419
0.402731 0.361135 0.339178
0.413001 0.370306 0.347463
0.423148 0.379248 0.35555
0.429282 0.387472 0.360937
0.431235 0.394675 0.362921
0.435645 0.403479 0.365988
0.442222 0.413245 0.370047
0.451789 0.42414 0.375799
0.462577 0.435386 0.382422
0.475059 0.446616 0.390661
0.489662 0.458686 0.401038
0.50341 0.468849 0.411872
0.517327 0.478019 0.42417
0.532204 0.487114 0.43772
0.548608 0.496666 0.452873
0.563409 0.505409 0.466346
0.574639 0.51545 0.474983
0.58706 0.526574 0.484443
0.599725 0.538155 0.493965
0.612421 0.549493 0.503319
0.624933 0.560449 0.512505
0.637049 0.571221 0.52134
0.648478 0.581277 0.529534
0.6598 0.591318 0.53756
0.669749 0.60029 0.544228
0.679637 0.6094 0.550607
0.688975 0.617914 0.556588
0.698192 0.626291 0.56231
0.709987 0.637034 0.569818
0.724727 0.650309 0.579126
0.405768 0.36376 0.341573
0.416907 0.373648 0.35053
0.427787 0.383368 0.359258
0.439063 0.393378 0.368231
0.44979 0.402945 0.37673
0.460487 0.412589 0.385321
0.47097 0.422156 0.393729
0.4813 0.431434 0.401984
0.490822 0.441535 0.409689
0.495659 0.45008 0.413352
0.503212 0.46009 0.418662
0.51194 0.469642 0.424659
0.522713 0.479942 0.43212
0.535592 0.4907 0.441581
0.548074 0.500298 0.451286
0.561502 0.509773 0.462394
0.576028 0.519127 0.475029
0.589426 0.528786 0.486229
0.600046 0.538445 0.494209
0.61059 0.547875 0.501976
0.621332 0.557321 0.509926
0.632029 0.566842 0.517708
0.643717 0.577111 0.526146
0.6551 0.587076 0.534234
0.666667 0.597589 0.542199
0.678523 0.608438 0.549905
0.689204 0.618173 0.556634
0.699077 0.627207 0.562997
0.708354 0.635554 0.568978
0.717174 0.643473 0.574563
0.726909 0.652201 0.580453
0.738933 0.662852 0.587396
0.753933 0.676127 0.59556
0.442313 0.396155 0.370748
0.453895 0.40647 0.379919
0.464897 0.416602 0.388815
0.47599 0.426719 0.397742
0.486442 0.43621 0.406088
0.497246 0.44596 0.414664
0.508324 0.456107 0.423423
0.518883 0.465583 0.431708
0.530251 0.475807 0.440589
0.540581 0.485161 0.448676
0.551354 0.494636 0.457008
0.561807 0.503975 0.46511
0.572534 0.513542 0.47332
0.583032 0.523079 0.4813
0.593622 0.532525 0.489342
0.604715 0.542687 0.497658
0.614649 0.551385 0.504997
0.624933 0.560449 0.512505
0.634745 0.569223 0.519677
0.644923 0.57818 0.527016
0.654978 0.587106 0.534173
0.665202 0.596368 0.541161
0.675975 0.606088 0.548333
0.686564 0.615793 0.555016
0.697322 0.62562 0.561944
0.707332 0.634699 0.568338
0.717113 0.643473 0.574411
0.727535 0.652888 0.580972
0.73698 0.66125 0.58645
0.746822 0.670054 0.592004
0.756283 0.678218 0.597101
0.767727 0.687984 0.603342
0.780865 0.69929 0.611658
0.479438 0.429786 0.400427
0.490776 0.440024 0.409461
0.501793 0.449989 0.418204
0.513298 0.460502 0.427314
0.52401 0.470192 0.435691
0.53521 0.480201 0.444404
0.545266 0.489128 0.452262
0.555657 0.498421 0.460334
0.566369 0.507927 0.468605
0.576898 0.517479 0.476722
0.587701 0.527153 0.484916
0.598306 0.536797 0.492897
0.609354 0.546792 0.501076
0.619211 0.555444 0.508263
0.629053 0.564141 0.51548
0.639063 0.572931 0.522789
0.648783 0.581537 0.529763
0.659175 0.590768 0.537118
0.668757 0.599496 0.543587
0.679026 0.608835 0.55021
0.688609 0.617655 0.556283
0.697978 0.626215 0.56228
0.707332 0.634699 0.568338
0.716625 0.642969 0.574212
0.726711 0.652079 0.580346
0.736461 0.660746 0.586267
0.747112 0.670314 0.592157
0.756939 0.678843 0.597467
0.766217 0.686702 0.60264
0.775051 0.694408 0.608225
0.783413 0.701564 0.613581
0.793912 0.710552 0.620127
0.807248 0.721981 0.628229
0.516457 0.46331 0.429786
0.528313 0.474022 0.439002
0.539162 0.483589 0.447425
0.550118 0.493446 0.456001
0.560449 0.502617 0.463981
0.57145 0.512505 0.47248
0.581918 0.521874 0.480461
0.592477 0.531456 0.488426
0.603235 0.541329 0.496498
0.613016 0.549889 0.503777
0.623407 0.559167 0.511452
0.632944 0.567452 0.518334
0.643305 0.576699 0.525841
0.653284 0.585595 0.532906
0.663111 0.594278 0.539727
0.673304 0.603769 0.546532
0.682918 0.612467 0.552819
0.692699 0.621363 0.558801
0.701549 0.62945 0.564599
0.710857 0.637812 0.570581
0.719799 0.645899 0.576196
0.729274 0.654383 0.581903
0.738445 0.662516 0.587411
0.74818 0.671199 0.592737
0.757824 0.679576 0.598062
0.767102 0.687449 0.603082
0.775982 0.695155 0.60882
0.784527 0.702586 0.614298
0.793561 0.710384 0.619928
0.802045 0.71751 0.625254
0.810697 0.72488 0.630411
0.821088 0.733791 0.636515
0.833005 0.743313 0.643412
0.553155 0.496101 0.458335
0.564401 0.506203 0.467048
0.57557 0.516243 0.475608
0.586709 0.526207 0.484077
0.596948 0.535622 0.491844
0.607538 0.54519 0.499733
0.617258 0.553613 0.506905
0.627543 0.562676 0.514397
0.637354 0.571481 0.521553
0.647196 0.580194 0.528572
0.657572 0.58941 0.535927
0.667185 0.598138 0.542489
0.677424 0.607477 0.549203
0.686946 0.61619 0.555261
0.696422 0.624689 0.561242
0.70544 0.632914 0.56701
0.714473 0.641093 0.572869
0.723659 0.649287 0.578576
0.73286 0.657588 0.584192
0.742412 0.666087 0.589517
0.751675 0.674266 0.594644
0.761212 0.682353 0.599954
0.769711 0.689784 0.604776
0.778454 0.697414 0.610422
0.786603 0.704372 0.615625
0.795056 0.711589 0.620844
0.803906 0.719081 0.62652
0.812528 0.726452 0.631495
0.821546 0.734112 0.636759
0.829816 0.74081 0.641535
0.837797 0.747143 0.646723
0.846006 0.753765 0.652003
0.856199 0.761898 0.658808
0.589624 0.528893 0.486366
0.600855 0.539101 0.494713
0.612284 0.549172 0.503136
0.62208 0.557916 0.510369
0.63154 0.566262 0.517327
0.641596 0.575235 0.52462
0.651453 0.583978 0.531609
0.661723 0.593072 0.538796
0.671443 0.601968 0.545373
0.681651 0.611353 0.551919
0.691066 0.619928 0.557794
0.699901 0.627955 0.563531
0.709178 0.636316 0.569512
0.718105 0.644373 0.575158
0.727718 0.652995 0.581079
0.736751 0.66099 0.586435
0.746441 0.669657 0.591775
0.755779 0.677852 0.596857
