All_In_One/Enrich_Colormaster/colormanagement/luts/film_response/arri_aces.cube
TITLE "Generate by Resolve"
LUT_3D_SIZE 6
0.000000 0.000000 0.000000
0.108278 0.000061 0.000061
0.447730 0.000061 0.000061
0.999603 0.000000 0.000000
1.000000 0.642237 0.224689
1.000000 0.945327 0.782071
0.000061 0.124804 0.000061
0.083040 0.127535 0.000061
0.457969 0.050324 0.000000
0.996414 0.024704 0.000000
1.000000 0.668620 0.216327
1.000000 0.946151 0.781735
0.000061 0.475486 0.000061
0.000000 0.475029 0.000000
0.416205 0.471794 0.000000
0.975906 0.487739 0.000000
1.000000 0.751141 0.199603
1.000000 0.949599 0.780194
0.000000 0.918517 0.000000
0.000000 0.917067 0.000000
0.187381 0.910369 0.000000
0.888167 0.891188 0.000000
1.000000 0.906172 0.242084
1.000000 0.965789 0.771160
0.750469 1.000000 0.426154
0.760296 1.000000 0.426719
0.796262 1.000000 0.429221
0.904158 0.998672 0.445411
1.000000 0.994278 0.540734
1.000000 0.996277 0.816037
0.968566 1.000000 0.887694
0.968841 1.000000 0.887724
0.969985 1.000000 0.887846
0.976394 1.000000 0.888609
0.996216 1.000000 0.893400
1.000000 1.000000 0.919173
0.000061 0.000061 0.115740
0.085496 0.000061 0.115084
0.444129 0.000000 0.112932
0.999893 0.000000 0.139406
1.000000 0.636515 0.312032
1.000000 0.945113 0.791241
0.000061 0.100160 0.102678
0.099565 0.099565 0.099565
0.447745 0.015473 0.102098
0.996414 0.000000 0.120974
1.000000 0.663676 0.304540
1.000000 0.945953 0.790906
0.000000 0.466316 0.000000
0.000000 0.467491 0.000000
0.426307 0.463890 0.000000
0.975128 0.481453 0.000000
1.000000 0.748684 0.273350
1.000000 0.949401 0.789487
0.000000 0.917891 0.000000
0.000000 0.916411 0.000000
0.207309 0.909728 0.000000
0.889143 0.890745 0.000000
1.000000 0.905974 0.241428
1.000000 0.965652 0.780743
0.751965 1.000000 0.426047
0.761700 1.000000 0.426612
0.797314 1.000000 0.429114
0.904494 0.998657 0.445319
1.000000 0.994263 0.540719
1.000000 0.996262 0.815991
0.968612 1.000000 0.887694
0.968887 1.000000 0.887709
0.970031 1.000000 0.887831
0.976410 1.000000 0.888609
0.996216 1.000000 0.893400
1.000000 1.000000 0.919173
0.000061 0.000061 0.443687
0.000000 0.000000 0.441398
0.436927 0.000000 0.439719
1.000000 0.000000 0.452338
1.000000 0.608927 0.542687
1.000000 0.944198 0.824002
0.000000 0.000000 0.437919
0.000000 0.000000 0.438285
0.454047 0.000000 0.436362
0.998306 0.000000 0.448768
1.000000 0.639506 0.538949
1.000000 0.945052 0.823743
0.000000 0.413413 0.409766
0.000000 0.415442 0.410300
0.412192 0.412192 0.412192
0.972595 0.433921 0.424796
1.000000 0.734844 0.524605
1.000000 0.948577 0.822614
0.000000 0.914870 0.234730
0.000000 0.913420 0.236896
0.187060 0.906722 0.245106
0.886885 0.887739 0.293858
1.000000 0.903899 0.469276
1.000000 0.965103 0.815839
0.758373 1.000000 0.425605
0.767681 1.000000 0.426169
0.801816 1.000000 0.428672
0.905913 0.998596 0.444923
1.000000 0.994202 0.540642
1.000000 0.996246 0.815808
0.968780 1.000000 0.887663
0.969055 1.000000 0.887694
0.970199 1.000000 0.887816
0.976547 1.000000 0.888579
0.996262 1.000000 0.893385
1.000000 1.000000 0.919173
0.000000 0.000000 0.912398
0.000000 0.000000 0.912428
0.000000 0.000000 0.911894
0.999222 0.000000 0.901091
1.000000 0.229450 0.901686
1.000000 0.938476 0.914992
0.000000 0.000000 0.912154
0.000000 0.000000 0.912184
0.000000 0.000000 0.911376
1.000000 0.000000 0.900816
1.000000 0.363485 0.899657
1.000000 0.939467 0.914870
0.000000 0.000000 0.911040
0.000000 0.000000 0.911070
0.157229 0.000000 0.909285
1.000000 0.000000 0.899504
1.000000 0.594629 0.891447
1.000000 0.943481 0.914321
0.000000 0.890410 0.863462
0.000000 0.889525 0.863401
0.000000 0.883436 0.862989
0.862287 0.862287 0.862287
1.000000 0.888334 0.870268
1.000000 0.961975 0.911452
0.729915 1.000000 0.815366
0.740154 1.000000 0.815457
0.777478 1.000000 0.815885
0.888792 0.997726 0.818799
0.996262 0.992447 0.838148
1.000000 0.995468 0.899596
0.969909 1.000000 0.887541
0.970169 1.000000 0.887572
0.971267 1.000000 0.887694
0.977386 1.000000 0.888457
0.996521 1.000000 0.893278
1.000000 1.000000 0.919158
0.000000 0.000000 1.000000
0.000000 0.000000 1.000000
0.000000 0.000000 1.000000
0.642100 0.000000 1.000000
1.000000 0.000000 1.000000
1.000000 0.861784 0.996948
0.000000 0.000000 1.000000
0.000000 0.000000 1.000000
0.000000 0.000000 1.000000
0.658366 0.000000 1.000000
1.000000 0.000000 1.000000
1.000000 0.866148 0.996887
0.000000 0.000000 1.000000
0.000000 0.000000 1.000000
0.000000 0.000000 1.000000
0.720394 0.000000 1.000000
1.000000 0.000000 1.000000
1.000000 0.882124 0.996612
0.000000 0.000000 1.000000
0.000000 0.000000 1.000000
0.000000 0.000000 1.000000
0.883818 0.000000 1.000000
1.000000 0.209995 1.000000
1.000000 0.934417 0.993454
0.205646 1.000000 0.988663
0.247501 1.000000 0.988571
0.519020 1.000000 0.988174
0.832334 0.994537 0.987213
0.986831 0.986831 0.986831
1.000000 0.992233 0.988479
0.962798 1.000000 0.977142
0.963073 1.000000 0.977142
0.964248 1.000000 0.977157
0.970748 1.000000 0.977249
0.990982 1.000000 0.977829
1.000000 1.000000 0.981781
0.000000 0.293767 1.000000
0.000000 0.293767 1.000000
0.000000 0.293767 1.000000
0.000000 0.293797 1.000000
1.000000 0.000000 1.000000
1.000000 0.693568 1.000000
0.000000 0.293751 1.000000
0.000000 0.293767 1.000000
0.000000 0.293767 1.000000
0.000000 0.293797 1.000000
1.000000 0.000000 1.000000
1.000000 0.693629 1.000000
0.000000 0.293721 1.000000
0.000000 0.293721 1.000000
0.000000 0.293721 1.000000
0.000000 0.293751 1.000000
1.000000 0.000000 1.000000
1.000000 0.693935 1.000000
0.000000 0.293477 1.000000
0.000000 0.293477 1.000000
0.000000 0.293477 1.000000
0.000000 0.293507 1.000000
1.000000 0.049134 1.000000
1.000000 0.695354 1.000000
0.000000 0.291798 1.000000
0.000000 0.291798 1.000000
0.000000 0.291798 1.000000
0.000000 0.291829 1.000000
1.000000 0.107454 1.000000
1.000000 0.811048 1.000000
0.900786 1.000000 1.000000
0.901991 1.000000 1.000000
0.906920 1.000000 1.000000
0.930938 1.000000 1.000000
0.980774 1.000000 1.000000
1.000000 1.000000 1.000000
