All_In_One/Enrich_Colormaster/colormanagement/luts/film_response/arri_aces.cube
TITLE "Generate by Resolve"
LUT_3D_SIZE 21
0.000000 0.000000 0.000000
0.001877 0.000122 0.000122
0.009400 0.000061 0.000061
0.046677 0.000061 0.000061
0.108278 0.000061 0.000061
0.171527 0.000061 0.000061
0.245457 0.000061 0.000061
0.335164 0.000061 0.000061
0.447730 0.000061 0.000061
0.587411 0.000061 0.000061
0.743450 0.000046 0.000046
0.896056 0.000015 0.000015
0.999603 0.000000 0.000000
1.000000 0.000000 0.000000
1.000000 0.270039 0.070741
1.000000 0.475334 0.134783
1.000000 0.642237 0.224689
1.000000 0.771984 0.358755
1.000000 0.855299 0.510857
1.000000 0.908675 0.659815
1.000000 0.945327 0.782071
0.000122 0.004135 0.000122
0.002365 0.004547 0.000198
0.012024 0.005051 0.000061
0.052323 0.004837 0.000061
0.112779 0.004227 0.000061
0.175753 0.003296 0.000061
0.249622 0.001633 0.000061
0.337942 0.001083 0.000061
0.449012 0.000687 0.000061
0.588754 0.000259 0.000046
0.744686 0.000031 0.000015
0.896147 0.000000 0.000000
0.998962 0.000000 0.000000
1.000000 0.000000 0.000000
1.000000 0.296452 0.058854
1.000000 0.487358 0.131151
1.000000 0.648325 0.222644
1.000000 0.774701 0.357748
1.000000 0.856382 0.510430
1.000000 0.909117 0.659617
1.000000 0.945525 0.781994
0.000061 0.024414 0.000061
0.002487 0.025788 0.000061
0.012848 0.027543 0.000061
0.053880 0.027237 0.000061
0.113848 0.024598 0.000061
0.177966 0.018738 0.000061
0.253132 0.007767 0.000061
0.340566 0.001175 0.000061
0.450462 0.000244 0.000046
0.590799 0.000046 0.000015
0.745892 0.000000 0.000000
0.896193 0.000000 0.000000
0.998276 0.000000 0.000000
1.000000 0.082002 0.000000
1.000000 0.321431 0.030808
1.000000 0.498894 0.127443
1.000000 0.654963 0.220630
1.000000 0.777340 0.356771
1.000000 0.857542 0.509987
1.000000 0.909606 0.659419
1.000000 0.945724 0.781903
0.000061 0.072007 0.000061
0.001923 0.074098 0.000061
0.008759 0.076295 0.000061
0.041794 0.076631 0.000061
0.104799 0.074098 0.000061
0.174807 0.066529 0.000061
0.253712 0.046830 0.000061
0.342260 0.004791 0.000046
0.453452 0.000076 0.000015
0.593408 0.000000 0.000000
0.747021 0.000000 0.000000
0.896056 0.000000 0.000000
0.997421 0.000000 0.000000
1.000000 0.139696 0.000000
1.000000 0.343481 0.027405
1.000000 0.510048 0.123598
1.000000 0.661082 0.218601
1.000000 0.780072 0.355734
1.000000 0.858579 0.509575
1.000000 0.910079 0.659205
1.000000 0.945907 0.781842
0.000061 0.124804 0.000061
0.001511 0.126421 0.000061
0.003891 0.128054 0.000061
0.022583 0.128496 0.000061
0.083040 0.127535 0.000061
0.164736 0.124102 0.000061
0.250858 0.116365 0.000046
0.344457 0.099840 0.000015
0.457969 0.050324 0.000000
0.596689 0.000000 0.000000
0.748531 0.000000 0.000000
0.895766 0.000000 0.000000
0.996414 0.024704 0.000000
1.000000 0.180133 0.000000
1.000000 0.367712 0.018341
1.000000 0.523934 0.118364
1.000000 0.668620 0.216327
1.000000 0.783322 0.354482
1.000000 0.860014 0.509010
1.000000 0.910643 0.658946
1.000000 0.946151 0.781735
0.000061 0.185992 0.000061
0.001404 0.186954 0.000061
0.001907 0.187762 0.000061
0.006455 0.187778 0.000061
0.042710 0.187106 0.000061
0.142458 0.185153 0.000046
0.240177 0.180575 0.000015
0.343328 0.172061 0.000000
0.463462 0.155917 0.000000
0.602136 0.125780 0.000000
0.750927 0.064988 0.000000
0.895521 0.000015 0.000000
0.994430 0.122362 0.000000
1.000000 0.264897 0.000000
1.000000 0.403922 0.000000
1.000000 0.544030 0.109911
1.000000 0.680430 0.213687
1.000000 0.788357 0.352468
1.000000 0.862181 0.508141
1.000000 0.911604 0.658518
1.000000 0.946548 0.781567
0.000061 0.262684 0.000061
0.001282 0.262791 0.000061
0.001190 0.262654 0.000061
0.001053 0.261814 0.000061
0.001740 0.260594 0.000046
0.043671 0.259419 0.000015
0.213748 0.257404 0.000000
0.331716 0.252476 0.000000
0.465766 0.243091 0.000000
0.608667 0.230442 0.000000
0.754726 0.214878 0.000000
0.893904 0.213474 0.000000
0.991180 0.254414 0.000000
1.000000 0.340764 0.000000
1.000000 0.450889 0.000000
1.000000 0.574411 0.093751
1.000000 0.696315 0.210819
1.000000 0.795789 0.349355
1.000000 0.865339 0.506813
1.000000 0.913008 0.657877
1.000000 0.947173 0.781292
0.000061 0.357214 0.000061
0.001053 0.356756 0.000061
0.000748 0.355734 0.000061
0.000229 0.354116 0.000046
0.000046 0.353613 0.000015
0.000000 0.353399 0.000000
0.096071 0.352743 0.000000
0.300221 0.350744 0.000000
0.453254 0.345769 0.000000
0.609644 0.338888 0.000000
0.758099 0.333593 0.000000
0.891463 0.339940 0.000000
0.985901 0.369192 0.000000
1.000000 0.429374 0.000000
1.000000 0.513222 0.000000
1.000000 0.616205 0.053559
1.000000 0.720638 0.205509
1.000000 0.806302 0.344701
1.000000 0.870314 0.504646
1.000000 0.915221 0.656840
1.000000 0.948119 0.780865
0.000061 0.475486 0.000061
0.000687 0.475364 0.000061
0.000229 0.474983 0.000046
0.000046 0.474891 0.000015
0.000000 0.475029 0.000000
0.000000 0.475212 0.000000
0.000000 0.475181 0.000000
0.202869 0.474418 0.000000
0.416205 0.471794 0.000000
0.591134 0.467018 0.000000
0.753643 0.462760 0.000000
0.885023 0.467079 0.000000
0.975906 0.487739 0.000000
1.000000 0.528008 0.000000
1.000000 0.591134 0.000000
1.000000 0.670954 0.000000
1.000000 0.751141 0.199603
1.000000 0.821942 0.343069
1.000000 0.877028 0.501472
1.000000 0.918593 0.655161
1.000000 0.949599 0.780194
0.000061 0.609644 0.000061
0.000259 0.610208 0.000046
0.000046 0.610468 0.000015
0.000000 0.610590 0.000000
0.000000 0.610636 0.000000
0.000000 0.610651 0.000000
0.000000 0.610376 0.000000
0.000000 0.609491 0.000000
0.338674 0.607202 0.000000
0.550912 0.603357 0.000000
0.730648 0.598718 0.000000
0.869307 0.599176 0.000000
0.960311 0.611337 0.000000
1.000000 0.638376 0.000000
1.000000 0.678431 0.000000
1.000000 0.733242 0.000000
1.000000 0.787869 0.194385
1.000000 0.841596 0.344350
1.000000 0.887190 0.496376
1.000000 0.923232 0.652720
1.000000 0.951858 0.779141
0.000046 0.746075 0.000046
0.000031 0.746670 0.000015
0.000000 0.746853 0.000000
0.000000 0.746777 0.000000
0.000000 0.746639 0.000000
0.000000 0.746365 0.000000
0.000000 0.745754 0.000000
0.000000 0.744457 0.000000
0.203601 0.741970 0.000000
0.488807 0.738048 0.000000
0.691096 0.732937 0.000000
0.838499 0.729976 0.000000
0.935592 0.733455 0.000000
0.993988 0.745922 0.000000
1.000000 0.767178 0.000000
1.000000 0.795193 0.000000
1.000000 0.829694 0.192767
1.000000 0.866224 0.349401
1.000000 0.900313 0.494636
1.000000 0.930373 0.648508
1.000000 0.955062 0.777493
0.000015 0.849332 0.000015
0.000000 0.849332 0.000000
0.000000 0.849149 0.000000
0.000000 0.848920 0.000000
0.000000 0.848585 0.000000
0.000000 0.848051 0.000000
0.000000 0.846983 0.000000
0.000000 0.845258 0.000000
0.111040 0.842374 0.000000
0.450980 0.837964 0.000000
0.662120 0.832151 0.000000
0.807935 0.826947 0.000000
0.909499 0.824979 0.000000
0.973449 0.827741 0.000000
1.000000 0.836149 0.000000
1.000000 0.850874 0.000000
1.000000 0.868833 0.206485
1.000000 0.892073 0.360800
1.000000 0.915953 0.502525
1.000000 0.939086 0.644160
1.000000 0.959731 0.774823
0.000000 0.918517 0.000000
0.000000 0.918196 0.000000
0.000000 0.917861 0.000000
0.000000 0.917540 0.000000
0.000000 0.917067 0.000000
0.000000 0.916350 0.000000
0.000000 0.915160 0.000000
0.000000 0.913298 0.000000
0.187381 0.910369 0.000000
0.467094 0.906020 0.000000
0.659220 0.900359 0.000000
0.791394 0.895048 0.000000
0.888167 0.891188 0.000000
0.954116 0.889921 0.000000
0.994797 0.891585 0.000000
1.000000 0.897017 0.022538
1.000000 0.906172 0.242084
1.000000 0.918502 0.380850
1.000000 0.934096 0.515999
1.000000 0.949981 0.650401
1.000000 0.965789 0.771160
0.000000 0.960830 0.000000
0.000000 0.960479 0.000000
0.000000 0.960113 0.000000
0.000000 0.959762 0.000000
0.000000 0.959289 0.000000
0.000000 0.958602 0.000000
0.000000 0.957443 0.000000
0.160143 0.955673 0.000000
0.340978 0.952972 0.000000
0.545266 0.949081 0.000000
0.686122 0.944350 0.000000
0.792615 0.939757 0.000000
0.878141 0.935821 0.000000
0.939666 0.933242 0.000000
0.984482 0.932357 0.017075
1.000000 0.933623 0.170352
1.000000 0.937301 0.297337
1.000000 0.943679 0.415824
1.000000 0.951949 0.537621
1.000000 0.962264 0.663890
1.000000 0.973129 0.773587
0.158526 0.986374 0.000000
0.166354 0.986038 0.000000
0.171801 0.985733 0.000000
0.176989 0.985412 0.000000
0.242771 0.985016 0.000000
0.333989 0.984390 0.000000
0.396704 0.983413 0.000000
0.472724 0.981964 0.000000
0.556848 0.979797 0.000000
0.641428 0.977020 0.020249
0.732479 0.973510 0.029267
0.809461 0.969970 0.045777
0.878126 0.966552 0.059449
0.932296 0.963851 0.074952
0.973892 0.961990 0.151217
1.000000 0.961334 0.273487
1.000000 0.962142 0.368261
1.000000 0.964706 0.466377
1.000000 0.969039 0.572686
1.000000 0.974365 0.683619
1.000000 0.981155 0.782818
0.585351 1.000000 0.242374
0.592050 1.000000 0.242634
0.598535 1.000000 0.242893
0.604822 1.000000 0.243153
0.612757 0.999863 0.243488
0.624292 0.999481 0.244007
0.641886 0.998856 0.244862
0.666255 0.997955 0.246204
0.698817 0.996674 0.248386
0.739773 0.994949 0.251942
0.787839 0.992782 0.257389
0.839170 0.990234 0.266331
0.887572 0.987686 0.279789
0.931579 0.985275 0.299977
0.967788 0.983322 0.329351
0.996323 0.981933 0.377142
1.000000 0.981414 0.449500
1.000000 0.981842 0.531777
1.000000 0.983398 0.621912
1.000000 0.985885 0.714580
1.000000 0.989212 0.796246
0.750469 1.000000 0.426154
0.752636 1.000000 0.426276
0.755138 1.000000 0.426429
0.757443 1.000000 0.426551
0.760296 1.000000 0.426719
0.764935 1.000000 0.426993
0.771267 1.000000 0.427420
0.781826 1.000000 0.428122
0.796262 1.000000 0.429221
0.815885 1.000000 0.430976
0.842130 1.000000 0.433829
0.870588 0.999695 0.438163
0.904158 0.998672 0.445411
0.936568 0.997894 0.456382
0.965911 0.996674 0.473167
0.990936 0.995239 0.498558
1.000000 0.994278 0.540734
1.000000 0.993851 0.607355
1.000000 0.994034 0.681056
1.000000 0.994812 0.751522
1.000000 0.996277 0.816037
0.848386 1.000000 0.587106
0.849241 1.000000 0.587182
0.850095 1.000000 0.587243
0.850996 1.000000 0.587335
0.852079 1.000000 0.587427
0.853803 1.000000 0.587594
0.856458 1.000000 0.587839
0.860395 1.000000 0.588235
0.866728 1.000000 0.588907
0.875547 1.000000 0.589914
0.888273 1.000000 0.591562
0.904601 1.000000 0.594171
0.924041 1.000000 0.598169
0.946166 1.000000 0.604822
0.967742 1.000000 0.614771
0.987732 1.000000 0.630228
0.999359 1.000000 0.652949
1.000000 1.000000 0.689555
1.000000 1.000000 0.742550
1.000000 1.000000 0.793347
1.000000 1.000000 0.841031
0.906737 1.000000 0.727016
0.907088 1.000000 0.727047
0.907469 1.000000 0.727092
0.907820 1.000000 0.727123
0.908309 1.000000 0.727169
0.909056 1.000000 0.727260
0.910170 1.000000 0.727367
0.912001 1.000000 0.727581
0.914626 1.000000 0.727886
0.918837 1.000000 0.728389
0.924910 1.000000 0.729198
0.933074 1.000000 0.730449
0.944213 1.000000 0.732494
0.957229 1.000000 0.735485
0.972107 1.000000 0.740520
0.986618 1.000000 0.748058
0.998123 1.000000 0.758785
1.000000 1.000000 0.774670
1.000000 1.000000 0.798947
1.000000 1.000000 0.833753
1.000000 1.000000 0.868254
0.943954 1.000000 0.823133
0.944106 1.000000 0.823148
0.944274 1.000000 0.823178
0.944442 1.000000 0.823178
0.944625 1.000000 0.823209
0.944961 1.000000 0.823240
0.945449 1.000000 0.823285
0.946227 1.000000 0.823377
0.947463 1.000000 0.823499
0.949233 1.000000 0.823697
0.952193 1.000000 0.824048
0.956161 1.000000 0.824567
0.961837 1.000000 0.825406
0.969253 1.000000 0.826749
0.977768 1.000000 0.828733
0.987716 1.000000 0.832135
0.996704 1.000000 0.836957
1.000000 1.000000 0.844297
1.000000 1.000000 0.854856
1.000000 1.000000 0.870832
1.000000 1.000000 0.893980
0.968566 1.000000 0.887694
0.968627 1.000000 0.887709
0.968704 1.000000 0.887709
0.968765 1.000000 0.887709
0.968841 1.000000 0.887724
0.968963 1.000000 0.887739
0.969177 1.000000 0.887770
0.969497 1.000000 0.887785
0.969985 1.000000 0.887846
0.970779 1.000000 0.887922
0.971954 1.000000 0.888060
0.973785 1.000000 0.888273
0.976394 1.000000 0.888609
0.980011 1.000000 0.889143
0.984771 1.000000 0.889998
0.990341 1.000000 0.891295
0.996216 1.000000 0.893400
1.000000 1.000000 0.896574
1.000000 1.000000 0.901320
1.000000 1.000000 0.908202
1.000000 1.000000 0.919173
0.000122 0.000122 0.004028
0.002045 0.000198 0.004105
0.009964 0.000061 0.004196
0.047791 0.000061 0.004166
0.109163 0.000061 0.004150
0.172686 0.000061 0.004059
0.246189 0.000061 0.003357
0.334569 0.000061 0.002289
0.446113 0.000061 0.000793
0.586343 0.000046 0.000259
0.743191 0.000015 0.000031
0.896086 0.000000 0.000000
0.999573 0.000000 0.000000
1.000000 0.000000 0.000000
1.000000 0.266835 0.080552
1.000000 0.473640 0.148287
1.000000 0.641062 0.244831
1.000000 0.771405 0.374029
1.000000 0.855055 0.519905
1.000000 0.908568 0.664912
1.000000 0.945266 0.784268
0.000198 0.003937 0.003952
0.003738 0.003738 0.003738
0.014481 0.004715 0.004425
0.057496 0.004273 0.004013
0.116655 0.003601 0.003815
0.177935 0.002487 0.003372
0.249668 0.001144 0.002029
0.336141 0.000671 0.000839
0.446403 0.000305 0.000305
0.587488 0.000061 0.000061
0.744137 0.000000 0.000000
0.895933 0.000000 0.000000
0.998932 0.000000 0.000000
1.000000 0.000000 0.000000
1.000000 0.293797 0.067918
1.000000 0.485786 0.143709
1.000000 0.647196 0.242603
1.000000 0.774136 0.373083
1.000000 0.856138 0.519509
1.000000 0.909010 0.664714
1.000000 0.945480 0.784207
0.000061 0.022843 0.003861
0.003662 0.022873 0.004273
0.016464 0.024430 0.004669
0.060945 0.024887 0.003693
0.119203 0.021683 0.003159
0.180697 0.014466 0.002335
0.252857 0.003708 0.000824
0.338140 0.000443 0.000290
0.448096 0.000061 0.000046
0.589456 0.000000 0.000000
0.745083 0.000000 0.000000
0.895872 0.000000 0.000000
0.998230 0.000000 0.000000
1.000000 0.072602 0.000000
1.000000 0.319127 0.039597
1.000000 0.497429 0.139315
1.000000 0.653910 0.239948
1.000000 0.776791 0.372137
1.000000 0.857298 0.519066
1.000000 0.909483 0.664515
1.000000 0.945663 0.784115
0.000061 0.069047 0.003388
0.002228 0.071122 0.003372
0.011139 0.073075 0.003250
0.048325 0.073182 0.002853
0.110872 0.070344 0.001984
0.178210 0.062425 0.000885
0.254154 0.043839 0.000305
0.340505 0.001129 0.000046
0.451209 0.000015 0.000015
0.591760 0.000000 0.000000
0.746029 0.000000 0.000000
0.895674 0.000000 0.000000
0.997345 0.000000 0.000000
1.000000 0.135592 0.000000
1.000000 0.341436 0.032547
1.000000 0.508675 0.134554
1.000000 0.660060 0.237476
1.000000 0.779538 0.371160
1.000000 0.858351 0.518669
1.000000 0.909957 0.664302
1.000000 0.945861 0.784039
0.000061 0.122271 0.002441
0.001572 0.123796 0.002319
0.004257 0.125200 0.002045
0.025223 0.125277 0.001480
0.092805 0.123827 0.000839
0.170657 0.120424 0.000275
0.253574 0.112764 0.000061
0.344137 0.096040 0.000000
0.455863 0.047150 0.000000
0.594797 0.000000 0.000000
0.747326 0.000000 0.000000
0.895308 0.000000 0.000000
0.996338 0.022904 0.000000
1.000000 0.177188 0.000000
1.000000 0.365927 0.021515
1.000000 0.522698 0.127886
1.000000 0.667674 0.234333
1.000000 0.782788 0.369985
1.000000 0.859785 0.518120
1.000000 0.910521 0.664057
1.000000 0.946105 0.783932
0.000061 0.183917 0.001740
0.001328 0.184695 0.001526
0.001556 0.185168 0.001205
0.003937 0.184771 0.000748
0.046128 0.183795 0.000275
0.151446 0.182269 0.000031
0.244770 0.177386 0.000000
0.345235 0.168811 0.000000
0.462257 0.152956 0.000000
0.600244 0.122057 0.000000
0.749523 0.054063 0.000000
0.894957 0.000015 0.000000
0.994324 0.115099 0.000000
1.000000 0.262226 0.000000
1.000000 0.402396 0.000000
1.000000 0.542931 0.117494
1.000000 0.679606 0.228870
1.000000 0.787869 0.368078
1.000000 0.861952 0.517281
1.000000 0.911498 0.663630
1.000000 0.946502 0.783764
0.000061 0.260761 0.001297
0.001038 0.260426 0.001053
0.000778 0.259754 0.000671
0.000504 0.258793 0.000305
0.000534 0.258076 0.000061
0.046555 0.257191 0.000000
0.219593 0.255085 0.000000
0.335439 0.250019 0.000000
0.467048 0.240604 0.000000
0.607630 0.228290 0.000000
0.753368 0.212665 0.000000
0.893263 0.210803 0.000000
0.991043 0.251881 0.000000
1.000000 0.338903 0.000000
1.000000 0.449638 0.000000
1.000000 0.573587 0.094179
1.000000 0.695644 0.222904
1.000000 0.795331 0.365148
1.000000 0.865125 0.515969
1.000000 0.912902 0.663005
1.000000 0.947127 0.783505
0.000061 0.355047 0.001053
0.000671 0.353887 0.000671
0.000336 0.352575 0.000290
0.000061 0.351705 0.000046
0.000000 0.351659 0.000000
0.000000 0.351553 0.000000
0.126909 0.350851 0.000000
0.304845 0.348775 0.000000
0.455970 0.343648 0.000000
0.610300 0.336919 0.000000
0.757336 0.331899 0.000000
0.890867 0.338277 0.000000
0.985733 0.367605 0.000000
1.000000 0.428046 0.000000
1.000000 0.512215 0.000000
1.000000 0.615488 0.054002
1.000000 0.720119 0.213916
1.000000 0.805890 0.360739
1.000000 0.870115 0.513863
1.000000 0.915114 0.661982
1.000000 0.948074 0.783093
0.000061 0.473899 0.000687
0.000305 0.473625 0.000290
0.000061 0.473289 0.000046
0.000015 0.473426 0.000015
0.000000 0.473610 0.000000
0.000000 0.473777 0.000000
0.000000 0.473716 0.000000
0.212085 0.472923 0.000000
0.419608 0.470268 0.000000
0.593011 0.465522 0.000000
0.754177 0.461402 0.000000
0.884703 0.465950 0.000000
0.975738 0.486717 0.000000
1.000000 0.527092 0.000000
1.000000 0.590372 0.000000
1.000000 0.670405 0.000000
1.000000 0.750835 0.200626
1.000000 0.821653 0.353475
1.000000 0.876860 0.510781
1.000000 0.918502 0.660349
1.000000 0.949554 0.782437
0.000046 0.609216 0.000259
0.000076 0.609415 0.000061
0.000000 0.609552 0.000000
0.000000 0.609644 0.000000
0.000000 0.609689 0.000000
0.000000 0.609689 0.000000
0.000000 0.609400 0.000000
0.014084 0.608515 0.000000
0.343236 0.606210 0.000000
0.553109 0.602365 0.000000
0.731884 0.597757 0.000000
0.869581 0.598337 0.000000
0.960250 0.610636 0.000000
1.000000 0.637766 0.000000
1.000000 0.677928 0.000000
1.000000 0.732891 0.000000
1.000000 0.787655 0.194339
1.000000 0.841459 0.346685
1.000000 0.887022 0.505669
1.000000 0.923140 0.657938
1.000000 0.951812 0.781384
0.000015 0.746151 0.000031
0.000000 0.746319 0.000000
0.000000 0.746288 0.000000
0.000000 0.746197 0.000000
0.000000 0.746059 0.000000
0.000000 0.745800 0.000000
0.000000 0.745174 0.000000
0.000000 0.743877 0.000000
0.209079 0.741390 0.000000
0.491218 0.737453 0.000000
0.692393 0.732357 0.000000
0.839063 0.729473 0.000000
0.935760 0.733013 0.000000
0.994003 0.745586 0.000000
1.000000 0.766903 0.000000
1.000000 0.794995 0.000000
1.000000 0.829557 0.192660
1.000000 0.866133 0.349340
1.000000 0.900206 0.500282
1.000000 0.930297 0.653803
1.000000 0.955032 0.779782
0.000000 0.849287 0.000000
0.000000 0.849104 0.000000
0.000000 0.848890 0.000000
0.000000 0.848661 0.000000
0.000000 0.848310 0.000000
0.000000 0.847791 0.000000
0.000000 0.846708 0.000000
0.000000 0.844984 0.000000
0.122240 0.842100 0.000000
0.453376 0.837705 0.000000
0.663249 0.831891 0.000000
0.808454 0.826734 0.000000
0.909743 0.824781 0.000000
0.973526 0.827573 0.000000
1.000000 0.836011 0.000000
1.000000 0.850752 0.000000
1.000000 0.868757 0.206348
1.000000 0.892012 0.360723
1.000000 0.915908 0.502480
1.000000 0.939025 0.647913
1.000000 0.959701 0.777157
0.000000 0.918379 0.000000
0.000000 0.918059 0.000000
0.000000 0.917723 0.000000
0.000000 0.917388 0.000000
0.000000 0.916915 0.000000
0.000000 0.916213 0.000000
0.000000 0.915007 0.000000
0.000000 0.913146 0.000000
0.192599 0.910216 0.000000
0.469139 0.905867 0.000000
0.660182 0.900236 0.000000
0.791821 0.894942 0.000000
0.888395 0.891081 0.000000
0.954223 0.889830 0.000000
0.994812 0.891508 0.000000
1.000000 0.896971 0.022477
1.000000 0.906126 0.241947
1.000000 0.918471 0.380774
1.000000 0.934081 0.515953
1.000000 0.949950 0.650462
1.000000 0.965759 0.773114
0.000000 0.960754 0.000000
0.000000 0.960388 0.000000
0.000000 0.960037 0.000000
0.000000 0.959670 0.000000
0.000000 0.959213 0.000000
0.000000 0.958495 0.000000
0.000000 0.957351 0.000000
0.166659 0.955566 0.000000
0.342931 0.952880 0.000000
0.546609 0.949004 0.000000
0.686839 0.944289 0.000000
0.792966 0.939712 0.000000
0.878325 0.935775 0.000000
0.939773 0.933196 0.000000
0.984527 0.932326 0.017014
1.000000 0.933577 0.170275
1.000000 0.937285 0.297246
1.000000 0.943664 0.415747
1.000000 0.951934 0.537560
1.000000 0.962249 0.663859
1.000000 0.973129 0.773571
0.159731 0.986297 0.000000
0.167452 0.985977 0.000000
0.172839 0.985656 0.000000
0.177981 0.985351 0.000000
0.252384 0.984955 0.000000
0.337469 0.984329 0.000000
0.399100 0.983368 0.000000
0.474464 0.981903 0.000000
0.558038 0.979751 0.000000
0.642222 0.976974 0.020066
0.732921 0.973480 0.029160
0.809720 0.969940 0.045716
0.878279 0.966537 0.059403
0.932357 0.963836 0.074922
0.973922 0.961959 0.151202
1.000000 0.961318 0.273472
1.000000 0.962127 0.368215
1.000000 0.964706 0.466316
1.000000 0.969024 0.572641
1.000000 0.974365 0.683589
1.000000 0.981140 0.782818
0.586358 1.000000 0.242329
0.593011 1.000000 0.242588
0.599481 1.000000 0.242847
0.605753 1.000000 0.243107
0.613626 0.999832 0.243442
0.625101 0.999435 0.243946
0.642634 0.998810 0.244816
0.666896 0.997925 0.246159
0.699351 0.996658 0.248341
0.740169 0.994934 0.251881
0.788128 0.992752 0.257343
0.839338 0.990219 0.266285
0.887678 0.987671 0.279744
0.931624 0.985260 0.299931
0.967819 0.983307 0.329320
0.996338 0.981918 0.377127
1.000000 0.981414 0.449500
1.000000 0.981826 0.531762
1.000000 0.983383 0.621897
1.000000 0.985885 0.714549
1.000000 0.989212 0.796231
0.750790 1.000000 0.426123
0.752956 1.000000 0.426261
0.755459 1.000000 0.426398
0.757748 1.000000 0.426535
0.760601 1.000000 0.426703
0.765240 1.000000 0.426978
0.771542 1.000000 0.427390
0.782086 1.000000 0.428107
0.796490 1.000000 0.429191
0.816068 1.000000 0.430945
0.842268 1.000000 0.433814
0.870695 0.999695 0.438148
0.904234 0.998672 0.445396
0.936629 0.997879 0.456352
0.965942 0.996674 0.473152
0.990951 0.995224 0.498543
1.000000 0.994278 0.540734
1.000000 0.993835 0.607340
1.000000 0.994034 0.681041
1.000000 0.994812 0.751507
1.000000 0.996277 0.816037
0.848524 1.000000 0.587091
0.849378 1.000000 0.587167
0.850233 1.000000 0.587243
0.851118 1.000000 0.587320
0.852201 1.000000 0.587411
0.853925 1.000000 0.587579
0.856580 1.000000 0.587839
0.860502 1.000000 0.588220
0.866835 1.000000 0.588876
0.875639 1.000000 0.589899
0.888350 1.000000 0.591546
0.904646 1.000000 0.594156
0.924086 1.000000 0.598154
0.946197 1.000000 0.604807
0.967758 1.000000 0.614755
0.987732 1.000000 0.630213
0.999359 1.000000 0.652934
1.000000 1.000000 0.689555
1.000000 1.000000 0.742550
1.000000 1.000000 0.793347
1.000000 1.000000 0.841016
0.906783 1.000000 0.727001
0.907149 1.000000 0.727047
0.907530 1.000000 0.727077
0.907866 1.000000 0.727108
0.908354 1.000000 0.727169
0.909102 1.000000 0.727245
0.910231 1.000000 0.727367
0.912062 1.000000 0.727565
0.914672 1.000000 0.727871
0.918883 1.000000 0.728389
0.924941 1.000000 0.729198
0.933104 1.000000 0.730434
0.944244 1.000000 0.732494
0.957229 1.000000 0.735485
0.972122 1.000000 0.740505
0.986633 1.000000 0.748058
0.998123 1.000000 0.758770
1.000000 1.000000 0.774670
1.000000 1.000000 0.798947
1.000000 1.000000 0.833753
1.000000 1.000000 0.868254
0.943984 1.000000 0.823133
0.944137 1.000000 0.823148
0.944289 1.000000 0.823163
0.944457 1.000000 0.823178
0.944640 1.000000 0.823209
0.944976 1.000000 0.823240
0.945464 1.000000 0.823285
0.946242 1.000000 0.823377
0.947494 1.000000 0.823499
0.949248 1.000000 0.823697
0.952209 1.000000 0.824048
0.956176 1.000000 0.824567
0.961837 1.000000 0.825391
0.969268 1.000000 0.826749
0.977768 1.000000 0.828733
0.987716 1.000000 0.832135
0.996719 1.000000 0.836957
1.000000 1.000000 0.844297
1.000000 1.000000 0.854856
1.000000 1.000000 0.870832
1.000000 1.000000 0.893980
0.968582 1.000000 0.887694
0.968643 1.000000 0.887709
0.968704 1.000000 0.887709
0.968765 1.000000 0.887709
0.968856 1.000000 0.887724
0.968978 1.000000 0.887739
0.969192 1.000000 0.887755
0.969512 1.000000 0.887785
0.970001 1.000000 0.887846
0.970794 1.000000 0.887922
0.971969 1.000000 0.888060
0.973785 1.000000 0.888273
0.976394 1.000000 0.888609
0.980026 1.000000 0.889128
0.984771 1.000000 0.889998
0.990341 1.000000 0.891295
0.996216 1.000000 0.893400
1.000000 1.000000 0.896574
1.000000 1.000000 0.901320
1.000000 1.000000 0.908202
1.000000 1.000000 0.919173
0.000061 0.000061 0.023346
0.001999 0.000061 0.023392
0.009247 0.000061 0.023438
0.045106 0.000061 0.023407
0.105669 0.000061 0.023453
