All_In_One/Enrich_Colormaster/colormanagement/luts/film_response/Aspen.cube
TITLE "Generate by Resolve"
LUT_3D_SIZE 9
0.00476081 0.00784314 0.00476081
0.0871901 0.0296483 0
0.425284 0.0659495 0
0.579202 0.119005 0
0.603922 0.129412 0.0156863
0.603922 0.129412 0.0156863
0.603922 0.129412 0.0156863
0.603922 0.129412 0.0156863
0.603922 0.129412 0.0156863
0 0.0480964 0.0235294
0.0381018 0.0428168 0.0185397
0.340337 0.0720073 0
0.564477 0.114778 0
0.607233 0.132998 0.00851453
0.604013 0.129442 0.0156252
0.603922 0.129412 0.0156863
0.603922 0.129412 0.0156863
0.60824 0.130846 0.0128023
0 0.16524 0.0673381
0 0.13109 0.0518196
0.139315 0.128328 0
0.603189 0.200214 0.0062562
0.673518 0.202777 0.0295109
0.678538 0.194644 0
0.666362 0.180011 0
0.658457 0.170123 0
0.660975 0.173266 0
0.00390631 0.378012 0.187442
0 0.349416 0.170428
0 0.306432 0.120775
0.446052 0.358602 0
0.745418 0.352255 0.0220645
0.759731 0.330816 0.0080415
0.747066 0.308659 0.0305791
0.739025 0.293751 0.0326085
0.735225 0.286152 0.027863
0 0.464271 0.226658
0 0.456367 0.224018
0.0220645 0.44387 0.219852
0.0962692 0.483803 0
0.742107 0.617166 0.00743114
0.84828 0.55726 0.0259709
0.858854 0.544396 0.0188449
0.847135 0.513924 0.0118105
0.840436 0.499382 0.0084535
0 0.494972 0.241611
0 0.490181 0.2392
0 0.486961 0.235981
0.000137331 0.534249 0.157168
0.569314 0.699046 0.0128023
0.886976 0.748867 0.05626
0.927504 0.729152 0.0497139
0.932418 0.723415 0.060914
0.926589 0.710323 0.0492714
0 0.532052 0.249683
0 0.523476 0.247532
0 0.513298 0.247059
0.0605325 0.564553 0.176867
0.467918 0.69218 0.002121
0.847669 0.800092 0.0606546
0.941344 0.799969 0.0823529
0.95845 0.799268 0.076936
0.957153 0.796658 0.0787213
0 0.568627 0.254902
0 0.56379 0.253697
0 0.562814 0.220615
0.102464 0.607935 0
0.539254 0.727764 0
0.838102 0.811276 0.0569009
0.940948 0.818357 0.0879683
0.965087 0.820829 0.0914321
0.972549 0.823529 0.0941176
0 0.568627 0.254902
0 0.570031 0.246448
0 0.605646 0.0389715
0.389685 0.686931 0
0.694514 0.781064 0.0112917
0.88394 0.82324 0.07364
0.95491 0.83122 0.0951247
0.991943 0.843549 0.049546
1 0.861662 0.225086
0 0.0511025 0.14728
0.123156 0.00972 0.131807
0.500908 0 0.0530709
0.604852 0.00392157 0
0.617716 0.0660563 0
0.61268 0.104295 0.0120089
0.608804 0.12459 0.027512
0.607843 0.129412 0.0310979
0.607843 0.129412 0.031342
0 0.0454414 0.0489204
0.026688 0.0400092 0.0353552
0.216464 0.0474861 0
0.531014 0.0953231 0
0.601328 0.129274 0.00544747
0.603922 0.129412 0.0156863
0.603922 0.129412 0.0156863
0.603922 0.129412 0.0156863
0.603922 0.129412 0.0156863
0 0.120821 0.0490425
0 0.100862 0.0388495
0.115801 0.110582 0
0.539925 0.172122 0
0.648676 0.184741 0
0.67953 0.195834 0
0.667506 0.181399 0
0.659373 0.171283 0
0.653193 0.163546 0
0 0.314961 0.149096
0 0.2934 0.135363
0 0.272389 0.104555
0.393042 0.317296 0
0.720684 0.32726 0.0132601
0.74786 0.311864 0.00747692
0.746761 0.30811 0.0308232
0.740505 0.296696 0.0344549
0.737377 0.29044 0.0305486
0.0159915 0.446906 0.220859
0.0261387 0.441047 0.219089
0.0363165 0.431952 0.216251
0.0649271 0.458335 0.000823987
0.711559 0.589593 0.00759899
0.835142 0.53257 0.0264286
0.852491 0.528237 0.0155795
0.844755 0.508751 0.0106203
0.841459 0.501579 0.00895705
0 0.487449 0.236469
0 0.485206 0.235294
0 0.481315 0.235294
0.0106508 0.527291 0.162219
0.547814 0.689357 0.01561
0.875822 0.737713 0.0433967
0.923644 0.721004 0.0420386
0.928923 0.715557 0.0539254
0.924941 0.7066 0.0459602
0 0.514336 0.247059
0 0.508034 0.247059
0 0.503639 0.245945
0.0572824 0.561959 0.16437
0.46247 0.68838 0.0039826
0.840452 0.797772 0.0586709
0.939391 0.798108 0.0823529
0.957336 0.797787 0.0761273
0.956634 0.795392 0.0784314
0 0.555703 0.251667
0 0.550179 0.25098
0 0.560723 0.202914
0.11284 0.606195 4.57771e-05
0.545281 0.728252 0
0.837186 0.810483 0.0563058
0.939223 0.817624 0.0869154
0.965881 0.820279 0.0908827
0.975662 0.826612 0.0980087
0.0188144 0.573587 0.278157
0.0387274 0.594339 0.257359
0.0141756 0.618753 0.00254826
0.383978 0.698207 0.000183108
0.685557 0.784726 0
0.894835 0.835096 0.00697337
0.990936 0.858488 0.0658122
1 0.876844 0.243885
1 0.893172 0.417044
0 0.223743 0.439643
0.109224 0 0.450614
0.560571 0 0.496422
0.663096 0 0.466041
0.654383 0 0.379629
0.645335 0 0.294682
0.638331 0 0.222492
0.630762 0 0.150729
0.627451 0 0.10631
0 0.183612 0.334554
0 0.14995 0.304128
0.270558 0 0.267475
0.57377 0 0.20119
0.620325 0 0.148348
0.627451 0 0.102327
0.625666 0 0.0587167
0.623529 0.00151064 0.0216526
0.623529 0.00344854 0.00427253
0 0.166735 0.202731
0 0.12491 0.148745
0.0732128 0.101061 0.100755
0.434607 0.0991836 0.0407263
0.653483 0.0863203 0
0.686351 0.10692 0.0055848
0.680003 0.120333 0.00106813
0.669749 0.125429 0.00215152
0.663218 0.134737 0.000366217
0 0.324498 0.209613
0 0.270588 0.162005
0 0.241428 0.100664
0.344854 0.277836 0
0.694179 0.310842 0.0028687
0.745144 0.301885 0.0147402
0.759365 0.304494 0.0134737
0.75378 0.291875 0.0156863
0.751217 0.286305 0.0186465
0.0352636 0.44889 0.240742
0.0172885 0.427726 0.224201
0.00209049 0.414282 0.202243
0.0415351 0.432258 0.00181582
0.680232 0.561822 0.0052491
0.82324 0.511208 0.0157778
0.843778 0.509239 0.017319
0.848066 0.509941 0.00363165
0.851423 0.510521 0.011017
0.00643931 0.48864 0.24921
0 0.480888 0.240055
0.00697337 0.4757 0.230259
0.0213779 0.522301 0.146136
0.526177 0.677317 0.0162966
0.865202 0.727047 0.029572
0.919478 0.712505 0.0320745
0.926772 0.710704 0.0484016
0.931548 0.711589 0.04448
0 0.508232 0.261677
0 0.502724 0.255192
0.0169833 0.516503 0.244266
0.0417334 0.559411 0.121386
0.463203 0.686488 0.00563058
0.833692 0.795499 0.0568856
0.93817 0.796292 0.0826734
0.958679 0.798032 0.0801862
0.967422 0.801617 0.0819104
0.00671397 0.561196 0.32343
0.00663767 0.555444 0.318639
0.00404364 0.591562 0.270298
0.0513619 0.618082 0.0295567
0.531746 0.728649 0.00796521
0.836683 0.814191 0.0354925
0.951019 0.827604 0.0841993
0.986206 0.83711 0.0994736
0.999741 0.849531 0.161547
0 0.629358 0.45275
0.0229038 0.665019 0.451041
0 0.68809 0.380804
0.326406 0.747066 0.332967
0.668544 0.820661 0.32726
0.885924 0.868132 0.340688
0.98999 0.894072 0.391028
1 0.910475 0.484779
1 0.926955 0.592279
0 0.278431 0.529412
0.0493324 0.140566 0.559991
0.578622 0 0.647364
0.706966 0 0.655131
0.696071 0 0.629358
0.686275 0 0.601801
0.678843 0 0.566354
0.667903 0 0.487114
0.657053 0 0.403616
0 0.287007 0.533989
0 0.26717 0.513664
0.25037 0 0.534981
0.61854 0 0.551339
0.675822 0 0.536004
0.666224 0 0.475319
0.658137 0 0.413397
0.652033 0 0.358526
0.647074 0 0.313863
0 0.325765 0.51957
0 0.295171 0.482567
0 0.232395 0.472374
0.490715 0.0115511 0.460746
0.678828 0 0.384237
0.704128 0 0.329992
0.698955 0 0.281483
0.68983 0 0.242985
0.682658 0 0.214191
0.0269169 0.424521 0.493843
0.0232395 0.376837 0.44567
7.62951e-05 0.332753 0.388388
0.26331 0.271046 0.298665
0.655894 0.26302 0.254414
0.774029 0.212467 0.207095
0.800259 0.221714 0.190021
0.795544 0.20943 0.169024
0.791867 0.196231 0.151217
0.0109407 0.513664 0.440711
0.00422675 0.485969 0.405921
0.00653086 0.481437 0.375891
0 0.459556 0.2112
0.644053 0.526162 0
0.85185 0.491981 0.00318914
0.891798 0.485023 0.041413
0.913832 0.502068 0.0730602
0.914366 0.501137 0.1084
0.0059205 0.541955 0.403311
0.00712596 0.532067 0.384726
0.0229801 0.53669 0.356863
0.0298466 0.571878 0.267475
0.481773 0.661067 0
0.866316 0.73164 0.049012
0.932021 0.714366 0.0425269
0.964752 0.721782 0.00294499
0.988495 0.738048 0.0203708
0.0167697 0.56347 0.41883
0.018616 0.55874 0.408286
0.00314336 0.581476 0.385809
0.0446021 0.618936 0.307927
0.396017 0.689281 0.00164797
0.82948 0.800229 0.0228885
0.957412 0.81207 0.0711528
0.993347 0.817823 0.0189364
1 0.837903 0.172549
0.0209506 0.615228 0.503502
0.00730907 0.6177 0.500618
0.0178073 0.662135 0.48455
0.00616464 0.684642 0.380575
0.482506 0.766232 0.261372
0.825132 0.83534 0.148089
0.98613 0.867765 0.185306
1 0.878141 0.315908
1 0.89424 0.438392
0.000122072 0.683391 0.621454
0 0.724346 0.621042
0 0.750546 0.596384
0.321218 0.801678 0.567178
0.668681 0.8645 0.573068
0.875196 0.905272 0.581979
0.977325 0.927886 0.616983
1 0.941848 0.675364
1 0.957061 0.752255
0 0.278431 0.529412
0.00622568 0.22678 0.553826
0.535576 0 0.642802
0.713252 0 0.670115
0.721569 0 0.682353
0.721569 0 0.682353
0.721569 0 0.682353
0.702052 0 0.647181
0.686275 0 0.600015
0 0.327672 0.575311
0 0.31133 0.570993
0.222919 0 0.604578
0.644083 0 0.653529
0.721569 0 0.682353
0.70518 0 0.651347
0.693324 0 0.621942
0.686275 0 0.595972
0.679149 0 0.56759
0 0.372503 0.614832
0 0.354849 0.598077
0 0.313954 0.609171
0.458274 0 0.673365
0.702525 0 0.658488
0.721019 0 0.634791
0.70837 0 0.58587
0.704784 0 0.542947
0.699718 0 0.503502
0 0.476936 0.663874
0 0.44448 0.63386
0 0.418433 0.62208
0.17348 0.289708 0.64303
0.681865 0.241047 0.646876
0.77995 0.190356 0.583047
0.802136 0.224384 0.547463
0.798428 0.216648 0.515679
0.795987 0.210101 0.492607
0.0428931 0.583825 0.669001
0.0424048 0.56228 0.644434
0.0278477 0.557763 0.631785
0.00199893 0.548638 0.602564
0.564187 0.551873 0.56022
0.832639 0.542473 0.530434
0.891142 0.517571 0.506752
0.912169 0.541375 0.510765
0.912718 0.54165 0.508873
0 0.62681 0.643168
0 0.617868 0.625772
0 0.636942 0.621607
0.0151369 0.676081 0.598505
0.40238 0.712856 0.473396
0.86508 0.75761 0.347036
0.968643 0.755398 0.419059
0.984985 0.775692 0.495384
0.991119 0.797925 0.542458
0 0.638804 0.630243
0 0.634226 0.622599
0 0.675395 0.630091
0 0.719478 0.606516
0.332876 0.768307 0.490593
0.798795 0.837873 0.399573
0.98764 0.862043 0.358114
1 0.872984 0.451698
1 0.897948 0.577066
0 0.665309 0.665232
0 0.688182 0.675822
0 0.732647 0.686229
0 0.769085 0.651789
0.48658 0.834806 0.614954
0.802487 0.889158 0.584573
0.964706 0.914199 0.575631
1 0.926574 0.609461
1 0.937499 0.683406
0 0.726452 0.73959
0 0.767788 0.756649
0 0.801587 0.756512
0.381155 0.858 0.761959
0.692546 0.909499 0.775036
0.872709 0.940246 0.778119
0.966583 0.958679 0.793408
0.999374 0.969314 0.827802
1 0.979049 0.872084
0 0.278431 0.529412
0 0.251011 0.550576
0.496391 0 0.635157
0.707713 0 0.665629
0.721569 0 0.682353
0.721569 0 0.682353
0.721569 0 0.682353
0.721569 0 0.682353
0.721569 0 0.682353
0 0.32105 0.570901
0 0.306935 0.562203
0.188067 0 0.586786
0.62118 0 0.65098
0.719722 0 0.678645
0.721569 0 0.682353
0.721569 0 0.682353
0.721569 0 0.682353
0.721569 0 0.682353
0 0.383154 0.625605
0 0.364828 0.615747
0 0.345968 0.638514
0.432135 0.0670939 0.717128
0.719585 0 0.726421
0.755581 0 0.735103
0.740902 0 0.709102
0.718578 0 0.669825
0.709606 0 0.64686
0 0.486671 0.700557
0 0.456611 0.68159
0 0.438392 0.678538
0.107912 0.313451 0.744183
0.652064 0.242725 0.786572
0.785748 0.129839 0.771267
0.797665 0.146777 0.758953
0.795651 0.141405 0.735546
0.795468 0.158846 0.710536
0.0331426 0.595438 0.743145
0.03122 0.573602 0.725643
0.0201419 0.571786 0.730571
0.00668345 0.585397 0.76585
0.510277 0.563973 0.812863
0.834333 0.529137 0.807614
0.886137 0.516106 0.772091
0.905989 0.554238 0.756436
0.908141 0.560433 0.745892
0.00192264 0.654368 0.756588
0.00294499 0.644663 0.74461
0 0.668467 0.75433
0.00729381 0.720241 0.780407
0.424628 0.766873 0.777264
0.817243 0.810468 0.77966
0.939818 0.809888 0.769467
0.971359 0.816312 0.769177
0.983871 0.835828 0.78024
0.0416876 0.669963 0.747005
0.0292668 0.666926 0.741436
0.00894179 0.719646 0.769482
0 0.779461 0.788464
0.426459 0.846052 0.783749
0.781582 0.898161 0.770062
0.960647 0.914488 0.731334
0.998169 0.924422 0.774411
1 0.938979 0.82504
0 0.682277 0.755978
0 0.717205 0.775326
0.000183108 0.768612 0.802029
0.0489509 0.823926 0.818418
0.564675 0.895918 0.834455
0.814511 0.93518 0.829282
0.947936 0.953353 0.807935
0.99855 0.961227 0.818448
1 0.971954 0.859892
0.00111391 0.744488 0.806012
0 0.786954 0.832792
0 0.830167 0.856107
0.455222 0.894621 0.881621
0.738766 0.942397 0.900557
0.884367 0.967559 0.908019
0.961563 0.979248 0.911025
0.993912 0.986313 0.923064
1 0.992004 0.942672
0 0.278431 0.529412
0 0.271321 0.545892
0.418128 0 0.626322
0.695766 0 0.662745
0.721569 0 0.682353
0.721569 0 0.682353
0.721569 0 0.682353
0.721569 0 0.682353
0.721569 0 0.682353
0 0.315908 0.566888
0 0.297978 0.551492
0.159228 0 0.57319
0.596628 0 0.649943
0.715572 0 0.672435
0.721569 0 0.682353
0.721569 0 0.682353
0.721569 0 0.682353
0.721569 0 0.682353
0 0.376043 0.621347
0 0.359152 0.610132
0 0.343633 0.629786
0.396521 0.0473793 0.707942
0.706432 0 0.721706
0.751766 0 0.728756
0.741329 0 0.71136
0.733425 0 0.698192
0.729198 0 0.692531
0 0.485786 0.699199
0 0.458076 0.681712
0 0.436805 0.676463
0.0628214 0.34229 0.744518
0.629862 0.27425 0.807721
0.791699 0.204623 0.805768
0.814481 0.220493 0.81146
0.808545 0.188144 0.803677
0.795987 0.129839 0.785077
0.00468452 0.596841 0.756069
0 0.579171 0.748425
0.00169375 0.575616 0.754131
0 0.581155 0.794018
0.470756 0.557031 0.878019
0.812085 0.523278 0.886717
0.878691 0.49192 0.878614
0.890501 0.509361 0.875074
0.893126 0.517403 0.868025
0 0.658686 0.78819
0.00796521 0.651698 0.78323
0 0.673716 0.800244
0.03682 0.723156 0.839734
0.327779 0.777462 0.897215
0.790738 0.818112 0.918273
0.932952 0.806775 0.916365
0.963973 0.814313 0.907317
0.975998 0.844373 0.904723
0.0141604 0.679545 0.790448
0.0285801 0.679927 0.788861
0.00848402 0.730175 0.822187
0.000915541 0.794629 0.86183
0.432746 0.869947 0.900374
0.809934 0.923537 0.914717
0.940124 0.939529 0.919234
0.982956 0.947173 0.921889
0.997757 0.956847 0.930388
0 0.688167 0.792874
0.00567636 0.730388 0.82034
0.00541695 0.780301 0.852689
0.113359 0.849592 0.895811
0.616342 0.920989 0.926223
0.848829 0.959777 0.937575
0.94583 0.975296 0.939513
0.990753 0.980682 0.93576
1 0.987121 0.953857
0.0276036 0.754894 0.838911
0.00593576 0.796872 0.867796
0.0124361 0.84741 0.90602
0.530388 0.917586 0.937972
0.783475 0.960311 0.954437
0.907973 0.979706 0.964523
0.964477 0.989715 0.96791
0.992493 0.993851 0.969741
1 0.997269 0.976501
0 0.278431 0.529412
0 0.27451 0.538689
0.287678 0 0.605447
0.652811 0 0.654902
0.721569 0 0.682353
0.721569 0 0.682353
0.721569 0 0.682353
0.721569 0 0.682353
0.721569 0 0.682353
0 0.31397 0.56495
0 0.298482 0.552087
0.12755 0.0053254 0.567224
0.574166 0 0.64683
0.711589 0 0.668452
0.721569 0 0.682353
0.721569 0 0.682353
0.721569 0 0.682353
0.721569 0 0.682353
0 0.367651 0.617151
0 0.353445 0.604425
0 0.343023 0.625681
0.363073 0.0307164 0.696834
0.690349 0 0.715846
0.747143 0 0.721645
0.738109 0 0.706004
0.730159 0 0.693812
0.724697 0 0.686519
0 0.475364 0.692699
0 0.448096 0.673167
0 0.429892 0.669718
0.0471809 0.342901 0.729
0.606195 0.263249 0.800855
0.783734 0.193866 0.801404
0.812085 0.209339 0.80827
0.806531 0.172915 0.800855
0.803357 0.151781 0.796628
0 0.591333 0.752667
0 0.574975 0.747219
0.0087892 0.570031 0.751934
0 0.577081 0.793851
0.444327 0.549615 0.880583
0.798886 0.530144 0.897566
0.876478 0.497765 0.892958
0.894728 0.517983 0.89865
0.892958 0.511315 0.89688
0.00686656 0.6598 0.794125
0.0223087 0.653193 0.7897
0 0.674144 0.810178
0.0115816 0.715953 0.85034
0.207523 0.761852 0.926406
0.765896 0.810132 0.954192
0.922621 0.803769 0.958328
0.96083 0.80798 0.957946
0.967315 0.823468 0.958267
0 0.679454 0.80087
0.00914015 0.680888 0.801526
0.00834669 0.731991 0.838972
0.0281071 0.793011 0.885435
0.37113 0.873396 0.945876
0.786496 0.926925 0.962417
0.931517 0.944854 0.971313
0.983276 0.951354 0.972549
0.995468 0.959762 0.973632
0.00114443 0.693629 0.807355
0.00505074 0.736934 0.837644
0.0321813 0.785489 0.872023
0.0870222 0.859297 0.928512
0.634882 0.931289 0.959197
0.858061 0.966415 0.970504
0.952972 0.981613 0.978195
0.985183 0.987549 0.980636
0.99971 0.991623 0.983688
0.0124056 0.762112 0.855787
0.021973 0.801892 0.884123
0.0781872 0.859861 0.930098
0.569345 0.928649 0.963195
0.811978 0.969146 0.977829
0.922499 0.985565 0.984436
0.973297 0.994064 0.988205
0.991089 0.996643 0.991012
1 1 0.993133
0 0.278431 0.529412
0 0.272572 0.535302
0.199664 0 0.584222
0.579583 0 0.647501
0.705882 0 0.664714
0.721569 0 0.682353
0.721569 0 0.682353
0.721569 0 0.682353
0.721569 0 0.682353
0 0.313283 0.564263
0 0.302281 0.556725
0.0725261 0.0918898 0.564996
0.494179 0 0.634974
0.695918 0 0.662745
0.721569 0 0.682353
0.721569 0 0.682353
0.721569 0 0.682353
0.721569 0 0.682353
0 0.36231 0.613291
0 0.351003 0.60264
0 0.340261 0.619135
0.33193 0.0140536 0.686732
0.675547 0 0.710307
0.740948 0 0.714031
0.735546 0 0.701717
0.72755 0 0.690318
0.722164 0 0.683146
0 0.456245 0.68014
0 0.437812 0.664332
0 0.424445 0.664637
0.0340734 0.343328 0.715129
0.58323 0.251774 0.793606
0.775662 0.182849 0.798657
0.810391 0.198657 0.806012
0.80473 0.160967 0.798474
0.801602 0.140139 0.794308
0 0.585443 0.750698
0 0.569177 0.745281
0.00846876 0.56173 0.746181
0 0.567987 0.787442
0.426963 0.534234 0.875242
0.785275 0.520104 0.893706
0.873075 0.49279 0.89134
0.893202 0.512245 0.897124
0.891295 0.505119 0.895216
0.0122225 0.657511 0.792584
0.0268101 0.651255 0.788418
0 0.669337 0.806409
0.00103761 0.710216 0.846632
0.176287 0.75555 0.925185
0.755611 0.804929 0.957122
0.91635 0.803281 0.961196
0.9561 0.805722 0.963699
0.966506 0.819745 0.966506
0 0.681804 0.803372
0 0.683284 0.804852
0.0438697 0.735225 0.845747
0.00367742 0.789685 0.890303
0.289525 0.86952 0.957351
0.766995 0.924468 0.979553
0.926299 0.944823 0.986572
0.978515 0.949828 0.98854
0.994095 0.959533 0.990997
0.00936904 0.696208 0.811688
0.0159304 0.738689 0.843641
0.0153353 0.789425 0.880186
0.0607309 0.861402 0.940566
0.634318 0.933974 0.97322
0.854276 0.969696 0.985626
0.948043 0.983307 0.992264
0.98471 0.98996 0.994232
0.999268 0.994781 0.995377
0.0292973 0.764981 0.86183
0.0504616 0.805585 0.892546
0.111391 0.866255 0.940948
0.58703 0.93489 0.972107
0.817014 0.971725 0.986282
0.928817 0.987457 0.993149
0.97583 0.995636 0.995636
0.993194 1 0.997467
1 1 1
