All_In_One/Enrich_Colormaster/colormanagement/luts/film_response/Aspen.cube
TITLE "Generate by Resolve"
LUT_3D_SIZE 5
0.00476081 0.00784314 0.00476081
0.425284 0.0659495 0
0.603922 0.129412 0.0156863
0.603922 0.129412 0.0156863
0.603922 0.129412 0.0156863
0 0.16524 0.0673381
0.139315 0.128328 0
0.673518 0.202777 0.0295109
0.666362 0.180011 0
0.660975 0.173266 0
0 0.464271 0.226658
0.0220645 0.44387 0.219852
0.742107 0.617166 0.00743114
0.858854 0.544396 0.0188449
0.840436 0.499382 0.0084535
0 0.532052 0.249683
0 0.513298 0.247059
0.467918 0.69218 0.002121
0.941344 0.799969 0.0823529
0.957153 0.796658 0.0787213
0 0.568627 0.254902
0 0.605646 0.0389715
0.694514 0.781064 0.0112917
0.95491 0.83122 0.0951247
1 0.861662 0.225086
0 0.223743 0.439643
0.560571 0 0.496422
0.654383 0 0.379629
0.638331 0 0.222492
0.627451 0 0.10631
0 0.166735 0.202731
0.0732128 0.101061 0.100755
0.653483 0.0863203 0
0.680003 0.120333 0.00106813
0.663218 0.134737 0.000366217
0.0352636 0.44889 0.240742
0.00209049 0.414282 0.202243
0.680232 0.561822 0.0052491
0.843778 0.509239 0.017319
0.851423 0.510521 0.011017
0 0.508232 0.261677
0.0169833 0.516503 0.244266
0.463203 0.686488 0.00563058
0.93817 0.796292 0.0826734
0.967422 0.801617 0.0819104
0 0.629358 0.45275
0 0.68809 0.380804
0.668544 0.820661 0.32726
0.98999 0.894072 0.391028
1 0.926955 0.592279
0 0.278431 0.529412
0.535576 0 0.642802
0.721569 0 0.682353
0.721569 0 0.682353
0.686275 0 0.600015
0 0.372503 0.614832
0 0.313954 0.609171
0.702525 0 0.658488
0.70837 0 0.58587
0.699718 0 0.503502
0.0428931 0.583825 0.669001
0.0278477 0.557763 0.631785
0.564187 0.551873 0.56022
0.891142 0.517571 0.506752
0.912718 0.54165 0.508873
0 0.638804 0.630243
0 0.675395 0.630091
0.332876 0.768307 0.490593
0.98764 0.862043 0.358114
1 0.897948 0.577066
0 0.726452 0.73959
0 0.801587 0.756512
0.692546 0.909499 0.775036
0.966583 0.958679 0.793408
1 0.979049 0.872084
0 0.278431 0.529412
0.418128 0 0.626322
0.721569 0 0.682353
0.721569 0 0.682353
0.721569 0 0.682353
0 0.376043 0.621347
0 0.343633 0.629786
0.706432 0 0.721706
0.741329 0 0.71136
0.729198 0 0.692531
0.00468452 0.596841 0.756069
0.00169375 0.575616 0.754131
0.470756 0.557031 0.878019
0.878691 0.49192 0.878614
0.893126 0.517403 0.868025
0.0141604 0.679545 0.790448
0.00848402 0.730175 0.822187
0.432746 0.869947 0.900374
0.940124 0.939529 0.919234
0.997757 0.956847 0.930388
0.0276036 0.754894 0.838911
0.0124361 0.84741 0.90602
0.783475 0.960311 0.954437
0.964477 0.989715 0.96791
1 0.997269 0.976501
0 0.278431 0.529412
0.199664 0 0.584222
0.705882 0 0.664714
0.721569 0 0.682353
0.721569 0 0.682353
0 0.36231 0.613291
0 0.340261 0.619135
0.675547 0 0.710307
0.735546 0 0.701717
0.722164 0 0.683146
0 0.585443 0.750698
0.00846876 0.56173 0.746181
0.426963 0.534234 0.875242
0.873075 0.49279 0.89134
0.891295 0.505119 0.895216
0 0.681804 0.803372
0.0438697 0.735225 0.845747
0.289525 0.86952 0.957351
0.926299 0.944823 0.986572
0.994095 0.959533 0.990997
0.0292973 0.764981 0.86183
0.111391 0.866255 0.940948
0.817014 0.971725 0.986282
0.97583 0.995636 0.995636
1 1 1
