All_In_One/Enrich_Colormaster/colormanagement/luts/film_response/Aspen.cube
TITLE "Generate by Resolve"
LUT_3D_SIZE 33
0.00476081 0.00784314 0.00476081
0.0179294 0.0117647 0.00784314
0.0307317 0.0156863 0.00424201
0.0539254 0.0235294 0
0.0871901 0.0296483 0
0.148287 0.0352941 0
0.236591 0.0396887 0
0.336126 0.0485084 0
0.425284 0.0659495 0
0.493721 0.0862745 0
0.537438 0.094255 0
0.562249 0.110536 0
0.579202 0.119005 0
0.594049 0.127382 0.0116426
0.60238 0.129412 0.0156863
0.603922 0.129412 0.0156863
0.603922 0.129412 0.0156863
0.603922 0.129412 0.0156863
0.603922 0.129412 0.0156863
0.603922 0.129412 0.0156863
0.603922 0.129412 0.0156863
0.603922 0.129412 0.0156863
0.603922 0.129412 0.0156863
0.603922 0.129412 0.0156863
0.603922 0.129412 0.0156863
0.603922 0.129412 0.0156863
0.603922 0.129412 0.0156863
0.603922 0.129412 0.0156863
0.603922 0.129412 0.0156863
0.603922 0.129412 0.0156863
0.603922 0.129412 0.0156863
0.603922 0.129412 0.0156863
0.603922 0.129412 0.0156863
0 0.0171817 0.0105592
0.0121309 0.0150912 0.00865187
0.0264897 0.0183719 0.00941482
0.0471046 0.0226749 0.00077821
0.0723583 0.0260319 0
0.116213 0.0345312 0
0.192615 0.0392157 0
0.284443 0.0439612 0
0.377966 0.0541085 0
0.45948 0.0795911 0
0.515312 0.0862745 0
0.550973 0.104417 0
0.568658 0.113741 0
0.585199 0.122011 0.000885023
0.596872 0.129412 0.0156863
0.603922 0.129412 0.0156863
0.603922 0.129412 0.0156863
0.603922 0.129412 0.0156863
0.603922 0.129412 0.0156863
0.603922 0.129412 0.0156863
0.603922 0.129412 0.0156863
0.603922 0.129412 0.0156863
0.603922 0.129412 0.0156863
0.603922 0.129412 0.0156863
0.603922 0.129412 0.0156863
0.603922 0.129412 0.0156863
0.603922 0.129412 0.0156863
0.603922 0.129412 0.0156863
0.603922 0.129412 0.0156863
0.603922 0.129412 0.0156863
0.603922 0.129412 0.0156863
0.603922 0.129412 0.0156863
0.603922 0.129412 0.0156863
0 0.0264439 0.0171359
0 0.0238956 0.0158694
0.0187839 0.0229038 0.0135958
0.0417639 0.0262913 0.0108949
0.0716564 0.0300145 0
0.107668 0.0368811 0
0.171511 0.0398871 0
0.255482 0.0438544 0
0.345739 0.0518044 0
0.426398 0.0663157 0
0.491691 0.0862745 0
0.534371 0.0926833 0
0.55993 0.109377 0
0.576104 0.117464 0
0.592172 0.125505 0.00787366
0.600137 0.129412 0.0156863
0.603922 0.129412 0.0156863
0.603922 0.129412 0.0156863
0.603922 0.129412 0.0156863
0.603922 0.129412 0.0156863
0.603922 0.129412 0.0156863
0.603922 0.129412 0.0156863
0.603922 0.129412 0.0156863
0.603922 0.129412 0.0156863
0.603922 0.129412 0.0156863
0.603922 0.129412 0.0156863
0.603922 0.129412 0.0156863
0.603922 0.129412 0.0156863
0.603922 0.129412 0.0156863
0.603922 0.129412 0.0156863
0.603922 0.129412 0.0156863
0.603922 0.129412 0.0156863
0.603922 0.129412 0.0156863
0 0.0354162 0.0196689
0 0.0343938 0.0196078
0.00216678 0.0334783 0.0196078
0.0276036 0.0303349 0.0184329
0.0602121 0.0362249 0.00390631
0.100649 0.043122 0
0.166201 0.0448768 0
0.248035 0.0503395 0
0.341695 0.059968 0
0.425422 0.0758526 0
0.487556 0.0944839 0
0.531136 0.0984512 0
0.559136 0.107988 0
0.571664 0.114763 0
0.584375 0.121599 6.10361e-05
0.596002 0.129335 0.0155337
0.603693 0.129412 0.0156863
0.603922 0.129412 0.0156863
0.603922 0.129412 0.0156863
0.603922 0.129412 0.0156863
0.603922 0.129412 0.0156863
0.603922 0.129412 0.0156863
0.603922 0.129412 0.0156863
0.603922 0.129412 0.0156863
0.603922 0.129412 0.0156863
0.603922 0.129412 0.0156863
0.603922 0.129412 0.0156863
0.603922 0.129412 0.0156863
0.603922 0.129412 0.0156863
0.603922 0.129412 0.0156863
0.603922 0.129412 0.0156863
0.603922 0.129412 0.0156863
0.603922 0.129412 0.0156863
0 0.0480964 0.0235294
0 0.046479 0.0235294
0 0.0435035 0.0235294
0.00239567 0.0433509 0.0216831
0.0381018 0.0428168 0.0185397
0.0823224 0.0473182 0
0.14786 0.0540322 0
0.241443 0.0607309 0
0.340337 0.0720073 0
0.430503 0.0903182 0
0.493263 0.103059 0
0.537499 0.118013 0.00187686
0.564477 0.114778 0
0.582635 0.117494 0
0.594644 0.123995 0
0.602304 0.130022 0.000762951
0.607233 0.132998 0.00851453
0.611917 0.132082 0.0103609
0.609201 0.131167 0.0121614
0.606592 0.130297 0.0139162
0.604013 0.129442 0.0156252
0.603922 0.129412 0.0156863
0.603922 0.129412 0.0156863
0.603922 0.129412 0.0156863
0.603922 0.129412 0.0156863
0.603922 0.129412 0.0156863
0.603922 0.129412 0.0156863
0.603922 0.129412 0.0156863
0.603922 0.129412 0.0156863
0.603922 0.129412 0.0156863
0.604013 0.129442 0.0156252
0.606088 0.130129 0.0142519
0.60824 0.130846 0.0128023
0 0.0654154 0.028336
0 0.0631571 0.0275883
0 0.0594797 0.0263676
0 0.0548714 0.0245975
0.00488289 0.0538338 0.0235294
0.053727 0.0548562 0.016083
0.108873 0.0616159 0
0.204913 0.0711223 0
0.322774 0.0861677 0
0.426902 0.101396 0
0.500603 0.120867 0
0.549187 0.135027 0.014374
0.576242 0.138064 0.00421149
0.594675 0.132937 0
0.606256 0.136355 0
0.616022 0.137591 0
0.620417 0.138064 0
0.624628 0.138354 0
0.622583 0.136782 0.000946059
0.62092 0.135958 0.00260929
0.619333 0.135149 0.00419623
0.617777 0.134371 0.00575265
0.616236 0.133608 0.00729381
0.614313 0.132876 0.00875868
0.612146 0.132158 0.0102083
0.610132 0.131487 0.0115511
0.609522 0.131273 0.0119478
0.611276 0.131868 0.0107881
0.613062 0.132464 0.00958267
0.614954 0.133089 0.00833143
0.616449 0.133715 0.00708019
0.617777 0.134371 0.00575265
0.61912 0.135042 0.00440986
0 0.0868238 0.0344549
0 0.084062 0.0337682
0 0.0798352 0.0327001
0 0.0739605 0.0311894
0 0.070161 0.0292973
0.0118715 0.0683452 0.0233921
0.0722972 0.0737926 0.00418097
0.151492 0.0847791 0
0.274693 0.0971237 0
0.403128 0.11516 0
0.500435 0.129763 0
0.56112 0.147341 0
0.592889 0.160739 0.0170443
0.609094 0.152468 0
0.61915 0.155077 0.00030518
0.629435 0.155215 0
0.636805 0.15494 0
0.640101 0.154574 0
0.63946 0.152148 0
0.636393 0.149844 0
0.633875 0.147601 0
0.631662 0.145388 0
0.629557 0.143282 0
0.627527 0.141253 0
0.625544 0.139284 0
0.623667 0.137392 0
0.6224 0.13669 0.00112917
0.621698 0.136339 0.00183108
0.622766 0.136873 0.000762951
0.624079 0.137804 0
0.625834 0.139559 0
0.627619 0.141344 0
0.62945 0.143191 0
0 0.121172 0.0468605
0 0.11722 0.0448768
0 0.111513 0.0424048
0 0.103609 0.039765
0 0.0935073 0.0363928
0 0.0897993 0.0306706
0.0142519 0.0914931 0.0115969
0.102953 0.0999619 0
0.205615 0.10898 0
0.350805 0.132509 0
0.477058 0.150927 0
0.556985 0.16321 0
0.606851 0.176593 0.00244144
0.625589 0.174624 0.000671397
0.635523 0.170657 0
0.646891 0.178973 0.0184176
0.656031 0.177829 0.0129549
0.659022 0.177172 0.00289921
0.660792 0.173037 0
0.657786 0.169284 0
0.654963 0.165759 0
0.652201 0.16231 0
0.649577 0.159731 0
0.647059 0.157839 0
0.644602 0.156008 0
0.642344 0.154299 0
0.64007 0.152605 0
0.637995 0.151049 0
0.635966 0.149523 0
0.637751 0.150851 0
0.639826 0.152422 0
0.641978 0.154025 0
0.644236 0.155734 0
0 0.16524 0.0673381
0 0.159594 0.0648356
0 0.151873 0.0614023
0 0.14139 0.056733
0 0.13109 0.0518196
0 0.124544 0.0454414
0 0.117189 0.0314336
0.0341802 0.116762 0
0.139315 0.128328 0
0.275792 0.148455 0
0.427482 0.172549 0
0.541482 0.189044 0
0.603189 0.200214 0.0062562
0.639994 0.202213 0.00817884
0.653666 0.195804 0
0.66302 0.194553 0.00337224
0.673518 0.202777 0.0295109
0.681163 0.20325 0.0225223
0.684688 0.202274 0.00331121
0.681987 0.198779 0
0.678538 0.194644 0
0.675166 0.1906 0
0.672023 0.186831 0
0.669047 0.183246 0
0.666362 0.180011 0
0.66421 0.177325 0
0.662135 0.174731 0
0.660227 0.172351 0
0.658457 0.170123 0
0.656733 0.167987 0
0.656992 0.168292 0
0.658946 0.170748 0
0.660975 0.173266 0
0 0.217441 0.0954299
0 0.210712 0.0917525
0 0.203021 0.0875105
0 0.193637 0.0823072
0 0.181781 0.0757153
0 0.16759 0.0683757
0 0.157366 0.0551003
0 0.148363 0.0137789
0.0715648 0.153536 0
0.202945 0.173968 0
0.354604 0.195468 0
0.496376 0.216953 0
0.590738 0.228977 0
0.643473 0.232303 0.0112459
0.669978 0.225788 0.00491341
0.683085 0.22182 0.0039826
0.688945 0.219821 0.00129702
0.69366 0.225925 0.0208896
0.698253 0.226459 0.0116274
0.699596 0.22562 0
0.697398 0.222461 0
0.695369 0.219089 0
0.693492 0.215946 0
0.691783 0.213107 0
0.690181 0.210437 0
0.68867 0.207904 0
0.687236 0.205524 0
0.68574 0.203281 0
0.683665 0.200793 0
0.681758 0.198505 0
0.679988 0.196384 0
0.678386 0.194461 0
0.680537 0.197024 0
0 0.274571 0.125521
0 0.268589 0.12253
0 0.261097 0.118776
0 0.251438 0.113954
0 0.238514 0.10692
0 0.222843 0.0983749
0 0.209659 0.0851453
0 0.201846 0.0668345
0.000366217 0.189944 0.00808728
0.121996 0.20032 0
0.269734 0.222004 0
0.433265 0.250782 0
0.563729 0.266789 0
0.64065 0.270359 0.00434882
0.680232 0.26421 0.00694286
0.697398 0.257511 0.00926223
0.706432 0.257755 0.0247501
0.711971 0.253605 0.0102083
0.714397 0.254108 0.0160372
0.716838 0.252827 0.0100404
0.714397 0.247257 0.00459297
0.711513 0.242222 0.00170901
0.709163 0.238361 0
0.707408 0.236027 0
0.705806 0.23389 0
0.704387 0.231983 0
0.703044 0.230213 0
0.701808 0.22855 0
0.700664 0.227024 0
0.699641 0.225681 0
0.698726 0.224445 0
0.697902 0.223301 0
0.697124 0.222004 0
0 0.330129 0.15874
0 0.323735 0.154665
0 0.315816 0.14963
0 0.306035 0.14342
0 0.294072 0.135805
0 0.280858 0.128664
0 0.266148 0.121309
0 0.256641 0.105119
0 0.247028 0.0681468
0 0.235309 0.00294499
0.187945 0.259617 0
0.357504 0.289448 0
0.513802 0.31133 0
0.621622 0.314427 0.00318914
0.682506 0.313298 0.0071107
0.711727 0.307195 0.0186618
0.72462 0.299062 0.023743
0.732555 0.295048 0.0348516
0.733562 0.289113 0.0140993
0.735195 0.286824 0.0174868
0.735912 0.287495 0.0287022
0.732723 0.281132 0.0247196
0.7299 0.275486 0.0211948
0.727382 0.270466 0.0180667
0.725185 0.266133 0.0153811
0.723217 0.262699 0.0134127
0.721508 0.259693 0.0117037
0.719921 0.256916 0.0101167
0.718502 0.254444 0.00869764
0.717281 0.252293 0.00747692
0.716121 0.250263 0.00631724
0.715129 0.248539 0.0053254
0.714275 0.247044 0.00447089
0.00390631 0.378012 0.187442
0.000991836 0.373938 0.185107
0 0.367803 0.18146
0 0.35938 0.17641
0 0.349416 0.170428
0 0.337621 0.163363
0 0.323217 0.154345
0 0.310979 0.143191
0 0.306432 0.120775
0 0.295171 0.0563363
0.0773327 0.296574 0
0.270604 0.328511 0
0.446052 0.358602 0
0.58526 0.373739 0
0.669795 0.372045 0.0177005
0.720317 0.360891 0.00349432
0.745418 0.352255 0.0220645
0.752026 0.340719 0.0387579
0.757336 0.336202 0.0297246
0.758358 0.330419 0.004654
0.759731 0.330816 0.0080415
0.757336 0.327123 0.0223697
0.753506 0.320241 0.0254215
0.750057 0.314031 0.0281834
0.747066 0.308659 0.0305791
0.744472 0.30396 0.0326543
0.742245 0.299962 0.0344396
0.740444 0.296574 0.0343786
0.739025 0.293751 0.0326085
0.737865 0.291417 0.0311589
0.736828 0.289342 0.0298619
0.735973 0.287617 0.0287785
0.735225 0.286152 0.027863
0.0295415 0.411582 0.206622
0.0261387 0.407614 0.204349
0.0221866 0.403006 0.201709
0.0177768 0.397421 0.198535
0.0131685 0.390997 0.194858
0.00773632 0.383383 0.190509
0.0015259 0.374701 0.185534
0 0.36228 0.177874
0 0.359792 0.160586
0 0.352682 0.122774
0 0.340948 0.0129091
0.171557 0.363485 0
0.368383 0.403815 0
0.532647 0.431388 0
0.651606 0.438834 0.00538643
0.720745 0.426352 0.0267796
0.757214 0.41062 0
0.773602 0.399771 0.0135958
0.780636 0.39115 0.0248722
0.781598 0.384207 0.0171969
0.783123 0.378561 0
0.787778 0.3776 0
0.783948 0.368078 0.00030518
0.779446 0.361318 0.0040589
0.775586 0.355535 0.00727855
0.772183 0.350423 0.0101167
0.769238 0.346014 0.0125582
0.766659 0.342153 0.0147097
0.764553 0.338979 0.0164645
0.762707 0.336233 0.0180056
0.761242 0.33402 0.0192264
0.760098 0.332097 0.0201572
0.759258 0.330571 0.0208286
0.0314183 0.43682 0.218036
0.0343328 0.434501 0.217441
0.0374762 0.431983 0.216815
0.0412146 0.428977 0.216068
0.0401923 0.424018 0.213718
0.034226 0.417044 0.209735
0.0273289 0.409003 0.205142
0.019791 0.400214 0.200122
0 0.398337 0.191714
0.00505074 0.403418 0.172335
0 0.397528 0.0957351
0.07393 0.400504 3.0518e-05
0.278935 0.441108 0
0.466316 0.478676 0
0.614572 0.5019 0.00178531
0.708949 0.499657 0.00888075
0.760571 0.482979 0.0109712
0.786633 0.462806 0
0.799649 0.44976 0.0171359
0.804273 0.441337 0.0135042
0.808515 0.434028 0.00177005
0.809857 0.433234 0
0.810742 0.432044 0
0.806683 0.422309 0
0.803082 0.413657 0
0.799939 0.406134 0
0.797253 0.399695 0
0.794965 0.394171 0
0.793042 0.389578 0
0.79144 0.385718 0
0.790143 0.382605 0
0.789136 0.380209 0
0.788296 0.37818 0
0.00653086 0.451637 0.222446
0.00993362 0.449943 0.221881
0.0136873 0.448051 0.221241
0.0180209 0.445899 0.220523
0.0228885 0.443458 0.219715
0.0276646 0.439826 0.218784
0.0329442 0.435599 0.217731
0.0388495 0.430884 0.216541
0.0268101 0.426825 0.211093
0.0204623 0.437644 0.201541
0.00128176 0.440253 0.167437
0 0.431983 0.0142214
0.179644 0.464469 0
0.385809 0.516106 0
0.558267 0.55169 0
0.681392 0.56257 0.00538643
0.759045 0.55404 0.00450141
0.8009 0.537697 0.00248722
0.816052 0.515373 0
0.823438 0.501884 0.0306554
0.82742 0.494072 0.0175021
0.833844 0.492073 0.0153811
0.8365 0.491463 0.00831617
0.834836 0.487236 0.00564584
0.830243 0.477287 0.00335698
0.8262 0.468513 0.00132753
0.822766 0.460914 0
0.82031 0.455024 0
0.818173 0.449882 0
0.81648 0.445838 0
0.81503 0.442344 0
0.813962 0.439765 0
0.813107 0.437751 0
0 0.464271 0.226658
0 0.462577 0.226093
0 0.460746 0.225467
0 0.458717 0.224796
0 0.456367 0.224018
0.00239567 0.453712 0.223133
0.00827039 0.450767 0.222156
0.0148013 0.447501 0.221057
0.0220645 0.44387 0.219852
0.00129702 0.455039 0.2121
0.0324254 0.469413 0.199557
0 0.468757 0.104555
0.0962692 0.483803 0
0.301976 0.532464 0
0.489113 0.580819 0
0.641733 0.614557 0
0.742107 0.617166 0.00743114
0.802319 0.60621 0.00202945
0.833402 0.588281 0.0114748
0.844877 0.57084 0.00543221
0.84828 0.55726 0.0259709
0.85153 0.547433 0.0174563
0.858274 0.550179 0.0307317
0.860517 0.550118 0.0231022
0.858854 0.544396 0.0188449
0.855253 0.535027 0.0166781
0.85211 0.526864 0.0148013
0.849439 0.519905 0.0131838
0.847135 0.513924 0.0118105
0.844846 0.508949 0.0106661
0.842924 0.504768 0.00968948
0.84155 0.501778 0.00900282
0.840436 0.499382 0.0084535
0 0.476356 0.233921
0 0.474662 0.232776
0 0.472877 0.231586
0 0.470893 0.230274
0 0.46865 0.228763
0 0.466163 0.227283
0 0.463355 0.226352
0 0.460319 0.22533
0 0.457023 0.224231
0.00164797 0.467063 0.222614
0.00773632 0.480491 0.210208
0.0252079 0.492302 0.183429
0.0209049 0.497322 0.00514229
0.217197 0.541573 0
0.415991 0.599191 9.15541e-05
0.582254 0.641245 0
0.708354 0.66212 0.00375372
0.788663 0.656992 0.00376898
0.834394 0.647425 0.011017
0.860792 0.63566 0.0207065
0.873167 0.621744 0.00833143
0.87718 0.612497 0.0065156
0.877714 0.603998 0.0169375
0.881468 0.603052 0.0328679
0.883116 0.602106 0.0140993
0.880537 0.595209 0.0152132
0.877241 0.587961 0.0171817
0.874403 0.58172 0.0188907
0.87187 0.576165 0.0204013
0.86981 0.571618 0.0216526
0.868116 0.56791 0.0226596
0.866743 0.564874 0.0234836
0.865751 0.56231 0.0229801
0 0.484718 0.235294
0 0.483604 0.235294
0 0.482414 0.235294
0 0.481132 0.235294
0 0.479683 0.235294
0 0.477974 0.234989
0 0.475349 0.233234
0 0.472496 0.231342
0 0.469429 0.229282
0.0182193 0.477394 0.227161
0.0116426 0.492988 0.219287
0.0211337 0.503548 0.196139
0.0108492 0.513726 0.0556039
0.141161 0.544213 0
0.347768 0.600473 0
0.524254 0.651576 0.00668345
0.669184 0.68893 0
0.771374 0.702464 0.0134585
0.830762 0.696101 0.000503548
0.866346 0.68571 0.0236973
0.884596 0.675853 0.024445
0.893538 0.664408 0.0110628
0.897795 0.658259 0.0130922
0.900252 0.65333 0.0186923
0.902358 0.651835 0.0317693
0.905272 0.653437 0.000366217
0.9019 0.64535 0.00239567
0.898985 0.638361 0.0041352
0.896391 0.632105 0.00569162
0.894163 0.62678 0.00703441
0.892332 0.62237 0.00813306
0.890867 0.618875 0.00900282
0.889723 0.616114 0.00968948
0 0.489143 0.238163
0 0.488579 0.237598
0 0.487984 0.237003
0 0.487373 0.236393
0 0.486671 0.235691
0 0.485603 0.235294
0 0.48394 0.235294
0 0.48217 0.235294
0 0.480232 0.235294
0.0124819 0.482948 0.232517
0.0350042 0.502083 0.227176
0.0102693 0.513619 0.204532
0.0197452 0.527657 0.129595
0.0830396 0.547784 0.0010071
0.279011 0.59736 0
0.465873 0.655848 0.00830091
0.614725 0.698817 0.00749218
0.734874 0.725856 0.0196231
0.810025 0.726558 0.0349279
0.859831 0.722225 0.0250858
0.889479 0.718318 0.0363317
0.905196 0.710597 0.0281529
0.912734 0.705806 0.0163729
0.915251 0.699321 0.0306859
0.917189 0.693141 0.0317082
0.916838 0.692943 0.0464485
0.918135 0.691295 0.0323491
0.916182 0.685786 0.027451
0.914611 0.681102 0.0232853
0.913237 0.676966 0.0196078
0.912093 0.673518 0.0165408
0.911116 0.670619 0.0139773
0.910384 0.668406 0.0120089
0 0.494972 0.241611
0 0.493874 0.241047
0 0.492714 0.240467
0 0.491478 0.239857
0 0.490181 0.2392
0 0.489464 0.238483
0 0.488701 0.23772
0 0.487846 0.236866
0 0.486961 0.235981
0.000686656 0.488701 0.233738
0.029572 0.506523 0.228885
0.0310826 0.522988 0.212604
0.000137331 0.534249 0.157168
0.0369879 0.552285 0.0325475
0.227909 0.594919 0
0.414954 0.650187 0
0.569314 0.699046 0.0128023
0.697124 0.735912 0.00723278
0.794949 0.755627 0.0367285
0.850538 0.753323 0.0511177
0.886976 0.748867 0.05626
0.906859 0.74287 0.0538796
0.91902 0.736019 0.0484169
0.926528 0.73228 0.039353
0.927504 0.729152 0.0497139
0.929992 0.726894 0.0474098
0.931853 0.727565 0.0547341
0.933913 0.72723 0.0633249
0.932418 0.723415 0.060914
0.930571 0.71928 0.0572366
0.928985 0.715694 0.0540475
0.927642 0.712673 0.0513466
0.926589 0.710323 0.0492714
0 0.501503 0.244862
0 0.500404 0.244312
0 0.49926 0.243748
0 0.49807 0.243153
0 0.496818 0.242527
0 0.49543 0.24184
0 0.493965 0.241093
0 0.492409 0.240314
0 0.490715 0.239475
0 0.492821 0.237339
0.00927749 0.511925 0.229633
0.0186618 0.524834 0.212863
0.0314336 0.541222 0.180468
0.00154116 0.554696 0.0348363
0.189929 0.593729 0.00155642
0.378927 0.650248 0
0.530556 0.695323 0.00106813
0.659709 0.736492 0.0137331
0.763928 0.764141 0.0308537
0.834745 0.772107 0.0522011
0.877852 0.768139 0.064744
0.906004 0.7682 0.0703746
0.923232 0.764462 0.0684977
0.931365 0.760906 0.0667277
0.936477 0.756756 0.066392
0.939269 0.754635 0.0676585
0.940642 0.752575 0.0667124
0.941604 0.752773 0.0680705
0.942031 0.751598 0.0714427
0.941115 0.748837 0.0705272
0.940322 0.746441 0.0697337
0.939651 0.744427 0.0690623
0.939132 0.742855 0.0685283
0 0.509438 0.247059
0 0.507286 0.247059
0 0.505486 0.24686
0 0.504326 0.246281
0 0.50309 0.24567
0 0.501778 0.244999
0 0.500404 0.244312
0 0.498924 0.24358
0 0.497368 0.242802
0.00444038 0.499474 0.240558
0.00839246 0.518471 0.230976
0.00117494 0.527886 0.210636
0.0568704 0.550271 0.18938
0.00509651 0.559442 0.0356451
0.166522 0.595819 0.00607309
0.343481 0.645624 0
0.497581 0.691325 0.0062562
0.626993 0.734035 0.00386053
0.736996 0.76701 0.0286412
0.818784 0.786282 0.0507973
0.871672 0.787793 0.066804
0.901778 0.784573 0.0753338
0.920516 0.781491 0.0762188
0.933074 0.77818 0.0753643
0.942 0.775006 0.0753338
0.946151 0.775296 0.0794842
0.947219 0.773571 0.0753948
0.948745 0.773037 0.0784314
0.949966 0.774792 0.0784314
0.949523 0.77406 0.0784314
0.949142 0.772915 0.0784314
0.948592 0.771267 0.0780041
0.948074 0.769696 0.0774853
0 0.52108 0.247059
0 0.518929 0.247059
0 0.516793 0.247059
0 0.514519 0.247059
0 0.5122 0.247059
0 0.509682 0.247059
0 0.507042 0.247059
0 0.505089 0.246662
0 0.503609 0.24593
0.00981155 0.507774 0.243107
0.0231937 0.526436 0.231861
0.00192264 0.538109 0.207019
0.0577859 0.557061 0.18439
0.0125429 0.565805 0.0413062
0.152789 0.599512 0
0.330846 0.644877 0
0.478096 0.690227 0.00723278
0.605142 0.73254 0.00668345
0.716594 0.767742 0.0144045
0.80238 0.787961 0.0467384
0.858915 0.796674 0.0648356
0.895552 0.796597 0.0754864
0.919432 0.79498 0.0798352
0.934737 0.793439 0.0823529
0.942245 0.791791 0.0821698
0.94844 0.789181 0.0817731
0.951507 0.790326 0.0826276
0.952224 0.787869 0.0770581
0.954192 0.785718 0.0783856
0.953841 0.78703 0.0784314
0.953475 0.785916 0.0784314
0.95317 0.785 0.0784314
0.952911 0.784222 0.0784314
0 0.532052 0.249683
0 0.529961 0.249165
0 0.527886 0.248631
0 0.525673 0.248081
0 0.523476 0.247532
0 0.52108 0.247059
0 0.518624 0.247059
0 0.515999 0.247059
0 0.513298 0.247059
0.0113375 0.517525 0.242405
0.0348363 0.535683 0.230961
0.00601205 0.546136 0.203891
0.0605325 0.564553 0.176867
0.0129854 0.572488 0.0384222
0.155459 0.60293 0
0.322621 0.647623 0
0.467918 0.69218 0.002121
0.591806 0.732158 0.0107271
0.702388 0.769436 0.000183108
0.787167 0.791012 0.0400092
0.847669 0.800092 0.0606546
0.888533 0.804288 0.0747082
0.915709 0.802762 0.0825818
0.933104 0.801312 0.0830091
0.941344 0.799969 0.0823529
0.949889 0.799954 0.0836194
0.954467 0.801038 0.0878004
0.955062 0.800305 0.084535
0.95845 0.799268 0.076936
0.958022 0.798413 0.0795911
0.957687 0.797726 0.0792554
0.957397 0.797147 0.0789654
0.957153 0.796658 0.0787213
0 0.542458 0.25098
0 0.540383 0.25098
0 0.538354 0.25098
0 0.536278 0.250736
0 0.534127 0.250202
0 0.531868 0.249638
0 0.529534 0.249058
0 0.527138 0.248447
0 0.524453 0.247776
0.00384527 0.528191 0.234028
0.0244907 0.547738 0.214557
0.00578317 0.55639 0.172305
0.0510567 0.572335 0.135164
0.0186618 0.580819 0.0227359
0.167681 0.611231 0
0.331182 0.654124 0
0.468223 0.695445 0
0.586877 0.733394 0.00572213
0.690227 0.768566 0.00131228
0.776181 0.791867 0.0332799
0.838544 0.802075 0.0577249
0.884184 0.80972 0.0725414
0.910307 0.809018 0.0811627
0.92845 0.808362 0.085832
0.94313 0.80763 0.0861677
0.951034 0.809186 0.0855879
0.956146 0.809308 0.0894789
0.95906 0.808301 0.090135
0.960784 0.807355 0.082826
0.962081 0.806531 0.0816052
0.961746 0.805859 0.0831617
0.961501 0.805356 0.0830701
0.961273 0.804898 0.0828412
0 0.55227 0.25098
0 0.55024 0.25098
0 0.548287 0.25098
0 0.546258 0.25098
0 0.544244 0.25098
0 0.542092 0.25098
0 0.539956 0.25098
0 0.537682 0.25098
0 0.535393 0.248875
0.00436408 0.54313 0.226322
0.00891127 0.55877 0.19884
0 0.567147 0.117556
0.0532692 0.582513 0.0789197
0.0628824 0.595071 0.00376898
0.213779 0.626062 0
0.357107 0.663767 0
0.480919 0.701808 0
0.591089 0.739055 0.000366217
0.689632 0.770489 0.000183108
0.772107 0.793866 0.0293889
0.834806 0.806302 0.0557107
0.880415 0.813214 0.070985
0.90753 0.812589 0.0783093
0.927489 0.811978 0.0823529
0.94229 0.811948 0.0868086
0.951492 0.814313 0.0893263
0.956405 0.814328 0.0897383
0.960266 0.81387 0.0917678
0.962539 0.813443 0.0895247
0.964904 0.813077 0.0849928
0.965713 0.812772 0.0850996
0.965469 0.812528 0.0870375
0.965286 0.812345 0.0868544
0 0.562127 0.253285
0 0.560113 0.252766
0 0.558083 0.252262
0 0.556069 0.251759
0 0.553979 0.25124
0 0.551904 0.25098
0 0.549813 0.25098
0 0.547677 0.25098
0 0.548012 0.237629
