All_In_One/Enrich_Colormaster/colormanagement/luts/film_response/BBoyz2.cube
TITLE "Generate by Resolve"
LUT_3D_SIZE 5
0 0 0
0.149203 0 0
0.195468 0 0
0.203677 0 0
0.278889 0 0
0 0.0849622 0
0 0.0814221 0
0.241718 0.0399481 0
0.316396 0.0688792 0.00753796
0.390173 0.122316 0.0716259
0 0.224109 0
0 0.29897 0
0.230396 0.346426 0
0.538109 0.398062 0.174166
0.666499 0.511757 0.360754
0.154421 0.573129 0.238529
0.355718 0.665629 0.362615
0.523095 0.749416 0.405829
0.737896 0.785122 0.492622
0.842191 0.828214 0.554101
0.432975 0.910719 0.514794
0.556252 0.941939 0.560418
0.707774 0.949905 0.608286
0.856626 0.958633 0.623514
0.939803 0.982666 0.656718
0 0 0.120165
0 0 0.171435
0.218616 0 0.0622721
0.228382 0 0.00256352
0.279103 0 0.029984
0 0.0586252 0.0820478
0 0.0898146 0.164248
0.332097 0.0150301 0.0497139
0.398901 0.0601511 0.0812695
0.415488 0.14052 0.154314
0 0.239139 0.096849
0 0.329992 0.0856489
0.253971 0.382025 0.050309
0.623423 0.423804 0.234546
0.770275 0.531929 0.394659
0.163485 0.619471 0.334905
0.366064 0.706386 0.44509
0.495628 0.794324 0.435874
0.741604 0.816999 0.450828
0.865202 0.845472 0.536782
0.420035 0.934493 0.585901
0.55082 0.958419 0.628931
0.710887 0.962356 0.669444
0.85066 0.976272 0.637385
0.945678 0.99498 0.687877
0 0 0.108721
0 0 0.224033
0.123995 0 0.257343
0.245106 0 0.13933
0.282353 0 0.139162
0 0.0357977 0.22916
0 0.0527047 0.302907
0.241001 0.0293126 0.390082
0.441962 0.0523232 0.278935
0.499001 0.138888 0.300694
0 0.244114 0.267231
0.0464027 0.316609 0.340154
0.19942 0.408118 0.499718
0.732235 0.425483 0.461433
0.874174 0.533562 0.564721
0.150896 0.660929 0.491691
0.345113 0.744945 0.580911
0.463661 0.826764 0.573419
0.729305 0.841077 0.494636
0.889357 0.856229 0.566781
0.381521 0.955856 0.711818
0.513008 0.97789 0.741512
0.680507 0.981491 0.757031
0.789715 1 0.629343
0.927871 1 0.651453
0 0 0.273564
0 0 0.267903
0.0356603 0 0.235096
0.181277 0 0.240131
0.270268 0 0.270329
0 0.0288243 0.385885
0 0.0525673 0.385122
0.14345 0.0753033 0.39144
0.360479 0.0907759 0.447562
0.464485 0.175891 0.463279
0 0.247578 0.473259
0.100404 0.319875 0.543679
0.34757 0.401328 0.635065
0.697292 0.45565 0.828168
0.876768 0.547845 0.874907
0.16228 0.681727 0.711498
0.342473 0.760449 0.790478
0.521508 0.810483 0.840208
0.680659 0.833509 0.948241
0.97261 0.820066 0.867094
0.357565 0.958785 0.905531
0.479118 0.981918 0.928328
0.646372 0.987472 0.932799
0.660471 1 0.813214
0.895125 1 0.805982
0 0 0.35555
0 0 0.350042
0.0484321 0 0.315038
0.187594 0 0.302129
0.274937 0 0.332265
0 0.0346532 0.468299
0 0.0600443 0.467811
0.152316 0.0907912 0.43679
0.327443 0.135836 0.450431
0.458473 0.219867 0.515297
0 0.267292 0.578927
0.130373 0.347799 0.656077
0.384421 0.437324 0.719081
0.676143 0.50782 0.898329
0.860426 0.587289 0.967147
0.19089 0.709285 0.826429
0.362158 0.780133 0.897307
0.560296 0.815427 0.931899
0.745403 0.818509 1
0.948486 0.82356 1
0.364187 0.965499 0.999313
0.483543 0.986893 1
0.650034 0.991684 1
0.723476 1 1
0.890578 1 1
