All_In_One/Enrich_Colormaster/colormanagement/luts/film_response/BBoyz2.cube
TITLE "Generate by Resolve"
LUT_3D_SIZE 33
0 0 0
0 0 0
0 0 0
0 0 0
0.0324559 0 0
0.0789197 0 0
0.112856 0 0
0.134813 0 0
0.149203 0 0
0.158923 0 0
0.165423 0 0
0.169085 0 0
0.169482 0 0
0.165957 0 0
0.169909 0 0
0.184634 0 0
0.195468 0 0
0.208774 0 0
0.215045 0 0
0.210941 0 0
0.199832 0 0
0.184756 0 0
0.175006 0 0
0.190219 0 0
0.203677 0 0
0.216648 0 0
0.228885 0 0
0.240558 0 0
0.251759 0 0
0.262562 0 0
0.271748 0 0
0.277226 0 0
0.278889 0 0
0 0 0
0 0 0
0 0 0
0 0 0
0 0 0
0.0455482 0 0
0.0893416 0 0
0.119524 0 0
0.140551 0 0
0.155398 0 0
0.165988 0 0
0.173114 0 0
0.176562 0 0
0.17557 0 0
0.175906 0 0
0.19292 0 0
0.205661 0 0
0.219455 0 0
0.228656 0 0
0.227405 0 0
0.21883 0 0
0.206043 0 0
0.192432 0 0
0.201663 0 0
0.215671 0 0
0.228443 0 0
0.240345 0 0
0.251621 0 0
0.262516 0 0
0.273121 0 0
0.282216 0 0
0.28777 0 0
0.289631 0 0
0 0 0
0 0 0
0 0 0
0 0 0
0 0 0
0 0 0
0.0547951 0 0
0.0946059 0 0
0.123064 0 0
0.144228 0 0
0.160098 0 0
0.171725 0 0
0.179278 0 0
0.181888 0 0
0.179995 0 0
0.19968 0 0
0.214649 0 0
0.228931 0 0
0.241062 0 0
0.243061 0 0
0.237446 0 0
0.227268 0 0
0.215259 0 0
0.212909 0 0
0.226566 0 0
0.239048 0 0
0.250751 0 0
0.26183 0 0
0.272526 0 0
0.283009 0 0
0.292134 0 0
0.297963 0 0
0.300145 0 0
0 0 0
0 0 0
0 0 0
0 0 0
0 0 0
0 0 0
0 0 0
0.0558022 0 0
0.0971237 0 0
0.125902 0 0
0.147814 0 0
0.164874 0 0
0.17734 0 0
0.184726 0 0
0.185946 0 0
0.205066 0 0
0.222965 0 0
0.238254 0 0
0.253605 0 0
0.258122 0 0
0.254643 0 0
0.246357 0 0
0.236042 0 0
0.225345 0 0
0.236942 0 0
0.249241 0 0
0.260822 0 0
0.271824 0 0
0.282475 0 0
0.292927 0 0
0.302129 0 0
0.308385 0 0
0.311086 0.00215152 0
0 0.0110323 0
0 0.0180209 0
0 0.0133974 0
0 0 0
0 0 0
0 0 0
0 0 0
0.000610361 0 0
0.0546426 0 0
0.0970016 0 0
0.129213 0 0
0.152804 0 0
0.171191 0 0
0.184314 0 0
0.190951 0 0
0.209827 0 0
0.230213 0 0
0.24593 0 0
0.263874 0 0
0.271031 0 0
0.269871 0 0
0.2636 0 0
0.255009 0 0
0.245808 0 0
0.247013 0 0
0.259251 0 0
0.270787 0 0
0.281819 0.000671397 0
0.292546 0.00428778 0
0.303105 0.00799573 0
0.31252 0.0120089 0
0.31931 0.0167544 0
0.322652 0.0225071 0.00376898
0 0.0287327 0
0 0.0383307 0
0 0.0380102 0
0 0.027924 0
0 0.0143587 0
0 0.00808728 0
0 0.00416571 0
0 0 0
0.00663767 0 0
0.0572061 0 0
0.10013 0 0
0.135088 0 0
0.161334 0 0
0.180377 0 0
0.192325 0 0
0.21181 0 0
0.235096 0 0
0.252049 0 0
0.272374 0 0
0.282155 0 0
0.283421 0 0
0.279316 0 0
0.272572 0 0
0.264912 0.00218204 0
0.257374 0.0104067 0
0.269306 0.0137026 0
0.280934 0.0171206 0
0.292058 0.020737 0
0.30309 0.0247044 0
0.313893 0.028687 0.00015259
0.32369 0.0329747 0.00468452
0.331121 0.0379034 0.0102083
0.335286 0.0439765 0.0173648
0 0.0470588 0
0 0.0569162 0
0 0.0606088 0
0 0.0587625 0
0 0.0493172 0
0 0.039704 0
0 0.0348516 0
0 0.0300755 0
0 0.0241398 0
0.0251164 0.0177615 0
0.0698253 0.0115358 0
0.110079 0.00588998 0
0.144366 0.0012665 0
0.171557 0 0
0.189761 0 0
0.211521 0 0
0.238209 0 0
0.257877 0 0
0.2795 0 0
0.291844 0 0
0.295323 0 0
0.293187 0.00569161 0
0.288151 0.0130465 0
0.282032 0.0208133 0
0.275685 0.028809 0
0.280888 0.0341039 0
0.292836 0.0378424 4.57771e-05
0.30425 0.0417639 0.00410468
0.31545 0.0458991 0.00839246
0.326665 0.050309 0.0129549
0.337163 0.0551156 0.0180362
0.345693 0.0604257 0.0240177
0.352148 0.0664378 0.0310674
0 0.06421 0
0 0.0744793 0
0 0.0800946 0
0 0.0795453 0
0 0.0755779 0
0 0.0684215 0
0 0.0623178 0
0 0.0588388 0
0 0.0546426 0
0 0.0496529 0
0.0395666 0.0437629 0
0.0829938 0.0374914 0
0.123186 0.0314183 0
0.158404 0.0260471 0
0.184421 0.0226291 0
0.209918 0.0197757 0
0.240238 0.0162966 0
0.262806 0.015198 0
0.286213 0.0142519 0
0.301366 0.0156558 0
0.307439 0.0196841 0
0.307637 0.0255589 0
0.304738 0.0325628 0
0.300511 0.0401312 0
0.295811 0.0479744 0
0.292714 0.0556954 0.00959792
0.305074 0.0599069 0.0139773
0.316991 0.0643931 0.0186313
0.328649 0.0690318 0.0234531
0.340383 0.073991 0.0285954
0.351675 0.0795148 0.0344396
0.361456 0.0856336 0.0412757
0.36907 0.0923629 0.0491646
0 0.0849622 0
0 0.0938125 0
0 0.0992599 0
0 0.100099 0
0 0.0968948 0
0 0.0920424 0
0 0.0868849 0
0 0.0843061 0
0 0.0814221 0
0 0.0776532 0
0.0156863 0.0728466 0
0.0590829 0.0670329 0
0.10222 0.0605631 0
0.143328 0.0538643 0
0.176898 0.0486305 0
0.207462 0.0444648 0
0.241718 0.0399481 0
0.267445 0.0379797 0
0.292775 0.0366064 0
0.310796 0.0374304 0
0.319509 0.0409857 0
0.322072 0.0464637 0
0.321477 0.0533761 0
0.319295 0.0609293 0
0.316396 0.0688792 0.00753796
0.313603 0.0770275 0.0209354
0.31931 0.0837415 0.0300145
0.332006 0.0890516 0.0355383
0.344503 0.0945907 0.0412909
0.357 0.100374 0.0472877
0.369314 0.106828 0.0541238
0.380728 0.114199 0.0622263
0.390173 0.122316 0.0716259
0 0.104753 0
0 0.112108 0
0 0.117006 0
0 0.119005 0
0 0.117708 0
0 0.113787 0
0 0.109377 0
0 0.107301 0
0 0.105867 0
0 0.103487 0
0 0.0999466 0
0.0399023 0.0951095 0
0.08365 0.0890669 0
0.128313 0.0819409 0
0.168093 0.0754864 0
0.204593 0.0700999 0
0.242847 0.0648203 0
0.272175 0.0621195 0
0.299718 0.0603647 0
0.320668 0.0608072 0
0.33225 0.0641337 0
0.337407 0.0694438 0
0.338949 0.0761578 0
0.338979 0.0838941 0.00402838
0.338399 0.0922713 0.0193332
0.33753 0.100938 0.0339666
0.336736 0.110033 0.0483864
0.349813 0.116579 0.0553902
0.363684 0.123568 0.062623
0.377539 0.13077 0.0700999
0.391089 0.138415 0.0781415
0.404074 0.146975 0.0874952
0.415473 0.156619 0.0985122
0 0.123156 0
0 0.129488 0
0 0.133959 0
0 0.136751 0
0 0.137255 0
0 0.135225 0
0 0.131609 0
0 0.129549 0
0 0.129091 0
0 0.128069 0
0 0.125978 0
0.0240635 0.122469 0
0.0675364 0.117388 0
0.114122 0.110597 0
0.158434 0.103593 0
0.200473 0.0973373 0
0.243183 0.0914931 0
0.276463 0.0883192 0
0.306905 0.086305 0
0.331044 0.0864271 0
0.345724 0.0897383 0
0.353918 0.0952468 0
0.358114 0.10219 0
0.360601 0.110307 0.0169985
0.362615 0.119463 0.0338598
0.364446 0.129229 0.0502937
0.366155 0.139269 0.0662547
0.37203 0.148989 0.0798352
0.387243 0.157397 0.0885481
0.402731 0.166323 0.0977798
0.417853 0.175479 0.107408
0.432288 0.185229 0.117952
0.445289 0.195972 0.130144
0 0.139452 0
0 0.146624 0
0 0.151019 0
0 0.154177 0
0 0.156008 0
0 0.156039 0
0 0.154192 0
0 0.152575 0
0 0.152224 0
0 0.152453 0
0 0.151736 0
0.0111086 0.149752 0
0.0525673 0.146166 0
0.100114 0.140368 0
0.148013 0.133562 0
0.19527 0.126848 0
0.242588 0.120806 0
0.280171 0.117433 0
0.313985 0.11548 0
0.341924 0.115465 0
0.360327 0.119097 0
0.372122 0.125216 0
0.379767 0.132982 0.0142519
0.385183 0.141817 0.0331884
0.389944 0.151736 0.0516518
0.394705 0.1626 0.0698558
0.399222 0.173983 0.0878462
0.403677 0.185672 0.10547
0.415 0.196414 0.118853
0.431739 0.206638 0.129442
0.448325 0.217243 0.140536
0.464195 0.228138 0.152285
0.478676 0.239872 0.16553
0 0.155535 0
0 0.163394 0
0 0.168856 0
0 0.172351 0
0 0.175128 0
0 0.176928 0
0 0.177234 0
0 0.17702 0
0 0.177142 0
0 0.178042 0
0 0.178729 0
0.00274662 0.178271 0
0.0408484 0.176394 0
0.0870222 0.172335 0
0.137209 0.166644 0
0.189212 0.160235 0
0.240284 0.154223 0
0.283223 0.150927 0
0.321523 0.149538 0
0.353933 0.149981 0
0.376303 0.153735 0
0.391913 0.160372 0.00906386
0.403357 0.169085 0.0312352
0.412253 0.178912 0.0522469
0.419883 0.189593 0.0723583
0.427237 0.201175 0.0920729
0.434501 0.213504 0.111681
0.441489 0.2262 0.130999
0.448341 0.239261 0.150225
0.463676 0.251331 0.164096
0.48159 0.263233 0.176562
0.499001 0.275456 0.189685
0.514961 0.288167 0.203952
0 0.171633 0
0 0.180072 0
0 0.186877 0
0 0.192004 0
0 0.19585 0
0 0.198825 0
0 0.200839 0
0 0.202609 0
0 0.204166 0
0 0.205936 0
0 0.207996 0
0 0.2094 0
0.0326238 0.20943 0
0.0757458 0.207568 0
0.125795 0.204044 0
0.181277 0.199252 0
0.236057 0.194232 0
0.284337 0.191226 0
0.328161 0.190204 0
0.365652 0.191348 0
0.392798 0.195575 0.00114443
0.412604 0.202487 0.025803
0.427771 0.211627 0.0498817
0.440238 0.222217 0.0728618
0.451041 0.233585 0.0946975
0.461143 0.245731 0.115892
0.471092 0.258778 0.137026
0.480873 0.27245 0.158114
0.490394 0.286397 0.178912
0.499657 0.300786 0.199969
0.517006 0.314076 0.214893
0.53579 0.327474 0.229252
0.553307 0.341207 0.244617
0 0.187762 0
0 0.196857 0
0 0.204837 0
0 0.211551 0
0 0.217182 0
0 0.221958 0
0 0.225971 0
0 0.229694 0
0 0.233082 0
0 0.236378 0
0 0.240055 0
0 0.243626 0
0.0306249 0.24622 0
0.0704509 0.246891 0
0.119234 0.246082 0
0.17409 0.243839 0
0.231083 0.240787 0
0.283757 0.238651 0
0.333684 0.237705 0
0.376104 0.23917 0
0.408057 0.243793 0.0179294
0.432288 0.250904 0.0442206
0.451347 0.260258 0.0699931
0.46746 0.271382 0.0948196
0.481773 0.283528 0.118563
0.494926 0.2963 0.141314
0.507561 0.309789 0.163806
0.520043 0.324025 0.186221
0.532158 0.338735 0.208652
0.543893 0.353658 0.230991
0.555566 0.368872 0.253208
0.573449 0.383169 0.269764
0.592035 0.397452 0.285756
0 0.204547 0
0 0.214542 0
0 0.223789 0
0 0.232059 0
0 0.239582 0
0 0.246326 0
0 0.252522 0
0 0.25864 0
0 0.264622 0
0 0.270283 0
0 0.275807 0
0.00686656 0.281407 0
0.0372168 0.286702 0
0.0744335 0.290394 0
0.119524 0.292088 0
0.171496 0.292393 0
0.227985 0.291676 0
0.282979 0.291096 0
0.338079 0.290486 0
0.385336 0.292241 0.0108186
0.421973 0.297307 0.038056
0.450675 0.30486 0.0658579
0.473671 0.314443 0.0929732
0.493339 0.325902 0.119341
0.510887 0.338476 0.144549
0.527047 0.351781 0.168734
0.542275 0.365545 0.19234
0.557473 0.380346 0.216083
0.571786 0.395117 0.239322
0.58555 0.410178 0.262638
0.599054 0.425345 0.285557
0.612711 0.440665 0.308049
0.629816 0.4551 0.325948
0 0.224109 0
0 0.234958 0
0 0.245319 0
0 0.254994 0
0 0.264454 0
0 0.273518 0
0 0.282032 0
0 0.290425 0
0 0.29897 0
0 0.307378 0
0.00112917 0.315328 0
0.0250095 0.323049 0
0.0530098 0.33048 0
0.0872663 0.336873 0
0.128603 0.341497 0
0.176638 0.344518 0
0.230396 0.346426 0
0.287327 0.347631 0
0.344488 0.348409 0.0140383
0.394827 0.350866 0.0366217
0.435798 0.356207 0.0641489
0.468544 0.364157 0.0930037
0.495201 0.37406 0.12108
0.517876 0.385473 0.148089
0.538109 0.398062 0.174166
0.556817 0.411475 0.199191
0.574411 0.425361 0.22356
0.591104 0.439536 0.247364
0.607034 0.45391 0.270848
0.622293 0.468452 0.294316
0.63714 0.483101 0.317449
0.651743 0.497627 0.339925
0.666499 0.511757 0.360754
0 0.241321 0.0306859
0 0.255253 0.0231937
0 0.269017 0.0155184
0 0.2813 0.0101015
0 0.293294 0.00654612
0 0.304784 0.00424201
0 0.315557 0.00207523
0 0.325978 0.00141909
0 0.336751 0.00259403
0.0114137 0.347341 0.00477607
0.0309453 0.357641 0.0075227
0.0528725 0.367437 0.0104372
0.0786145 0.376944 0.0137331
0.109987 0.385687 0.0164797
0.14789 0.393179 0.0186618
0.19202 0.399054 0.0225834
0.243381 0.403235 0.0272679
0.299825 0.406241 0.0351263
0.356359 0.408957 0.0496529
0.407782 0.412573 0.0710613
0.451225 0.418311 0.0976272
0.487129 0.426307 0.126909
0.516564 0.436301 0.155505
0.541665 0.447684 0.182681
0.563912 0.459983 0.208759
0.584192 0.472908 0.233707
0.603204 0.486229 0.257923
0.62121 0.499855 0.281544
0.638224 0.513481 0.304707
0.654261 0.526955 0.32755
0.669596 0.540383 0.350042
0.684672 0.553765 0.371939
0.699596 0.566796 0.392386
0 0.278355 0.0427405
0 0.284047 0.0537728
0.000900282 0.29073 0.0646677
0 0.306172 0.058854
0.00140383 0.32079 0.054551
0.0069276 0.335088 0.0517433
0.0151827 0.349142 0.0495308
0.0259861 0.362448 0.0491035
0.0390173 0.375387 0.0502022
0.0543526 0.388296 0.0527047
0.0719463 0.401129 0.0560311
0.0918898 0.413443 0.0594339
0.115068 0.425116 0.0626841
0.143526 0.435981 0.0652781
0.178485 0.445686 0.0672618
0.220111 0.45388 0.0689403
0.26833 0.460182 0.0722667
0.321263 0.465202 0.0798962
0.375357 0.469505 0.0935073
0.4262 0.47425 0.113649
0.470237 0.480491 0.13872
0.507973 0.488823 0.167193
0.539025 0.498314 0.195895
0.565393 0.509209 0.222934
0.588724 0.520943 0.248371
0.609964 0.533272 0.27274
0.629419 0.545556 0.295933
0.647761 0.558053 0.318502
0.665156 0.570611 0.340749
0.681453 0.58291 0.362692
0.696788 0.594827 0.383841
0.711604 0.606577 0.404456
0.726284 0.618204 0.423941
0 0.320073 0.0609598
0 0.32697 0.073228
0.0229953 0.334295 0.0866255
0.0456855 0.342641 0.0991989
0.0678569 0.3514 0.111543
0.0748455 0.366506 0.11165
0.0800946 0.383246 0.108873
0.0884718 0.399344 0.108202
0.0991379 0.414786 0.108904
0.111971 0.429938 0.110735
0.127077 0.445014 0.113375
0.144579 0.4598 0.116121
0.16492 0.473884 0.118425
0.189776 0.486931 0.119707
0.220752 0.498619 0.12079
0.258534 0.508736 0.122515
0.303075 0.51693 0.125704
0.352193 0.523415 0.132601
0.402914 0.528862 0.144961
0.451652 0.53431 0.163439
0.494865 0.540856 0.186786
0.532067 0.548592 0.212955
0.563409 0.557488 0.24007
0.590082 0.567391 0.266819
0.613535 0.57818 0.291722
0.634653 0.58941 0.314794
0.653941 0.600549 0.336645
0.671794 0.611582 0.35758
0.688701 0.62269 0.378332
0.704829 0.633707 0.398795
0.719905 0.644312 0.418647
0.734173 0.654475 0.437766
0.748974 0.664469 0.453742
0.000320439 0.364996 0.0853437
0.0244755 0.373053 0.0987259
0.0496834 0.381872 0.113558
0.0736858 0.391562 0.127459
0.0972457 0.401709 0.141192
0.120714 0.412085 0.155123
0.145006 0.422889 0.169665
0.159655 0.437949 0.17615
0.168353 0.455665 0.176654
0.178866 0.472892 0.17789
0.191455 0.489754 0.17966
0.20618 0.506325 0.181338
0.223499 0.522332 0.182422
0.244694 0.537301 0.182071
0.271351 0.550652 0.181231
0.304509 0.562066 0.18146
0.344869 0.571389 0.18381
0.390082 0.578912 0.18967
0.437217 0.585061 0.200473
0.482918 0.590646 0.216876
0.524147 0.596841 0.238178
0.560143 0.604105 0.262287
0.590753 0.612299 0.287282
0.616785 0.621073 0.312154
0.639506 0.630396 0.336278
0.659922 0.640345 0.35845
0.67863 0.650355 0.378958
0.69572 0.660105 0.398352
0.711727 0.669673 0.417121
0.727077 0.679255 0.435935
0.741588 0.688609 0.45449
0.756542 0.697536 0.467536
0.771618 0.706065 0.47776
0.0308537 0.413474 0.115846
0.0562753 0.422934 0.130556
0.082063 0.432532 0.145998
0.107012 0.443229 0.160891
0.131777 0.454582 0.17583
0.15642 0.466117 0.190921
0.181491 0.477668 0.20621
0.206058 0.489723 0.221805
0.230365 0.502144 0.237675
0.250874 0.516152 0.249943
0.261036 0.534356 0.250782
0.272801 0.552163 0.251072
0.286656 0.569207 0.250355
0.303838 0.585382 0.247852
0.326085 0.599985 0.244648
0.354894 0.612696 0.242863
0.390402 0.622446 0.243183
0.43122 0.630213 0.247288
0.474556 0.636561 0.256275
0.517174 0.642252 0.270695
0.555749 0.647791 0.289601
0.589868 0.654002 0.311788
0.619074 0.66128 0.334768
0.644022 0.669078 0.357519
0.665675 0.677104 0.379812
0.684977 0.685496 0.401404
0.702693 0.694255 0.420844
0.718929 0.702876 0.438682
0.733928 0.711131 0.455711
0.748135 0.719234 0.47245
0.763241 0.727626 0.481788
0.777981 0.735576 0.490745
0.79202 0.742901 0.499733
0.0677348 0.464836 0.152544
0.094255 0.475563 0.168414
0.120912 0.486259 0.184756
0.146532 0.497719 0.200336
0.171878 0.509682 0.2159
0.197177 0.521889 0.231647
0.222797 0.534005 0.247486
0.247639 0.546319 0.26334
0.271977 0.55874 0.27921
0.296101 0.571176 0.295079
0.320424 0.583505 0.310964
0.340444 0.59736 0.321386
0.350973 0.614816 0.318807
0.363958 0.631403 0.313756
0.381735 0.646494 0.307866
0.405631 0.659327 0.303075
0.436484 0.669291 0.300893
0.472923 0.676799 0.302785
0.512215 0.682841 0.309438
0.551385 0.688029 0.321416
0.587289 0.693004 0.33785
0.619211 0.698161 0.357656
0.64686 0.704173 0.379187
0.670542 0.710964 0.400198
0.691066 0.717952 0.420523
0.709148 0.724987 0.440314
0.725673 0.73228 0.459144
0.740917 0.739773 0.475959
0.755581 0.747433 0.487556
0.769635 0.754665 0.495781
0.783429 0.761746 0.503807
0.797086 0.768597 0.511772
0.810483 0.775174 0.519768
0.109682 0.518624 0.194186
0.13666 0.530022 0.210575
0.163806 0.541466 0.227436
0.189822 0.553414 0.243442
0.215305 0.565545 0.259159
0.240528 0.577707 0.274846
0.266041 0.589731 0.290593
0.290745 0.601907 0.30631
0.314702 0.613947 0.321782
0.338155 0.625711 0.33695
0.361685 0.637201 0.35201
0.385809 0.648325 0.367025
0.410712 0.658625 0.381689
0.422095 0.674098 0.376852
0.435294 0.688991 0.367926
0.454719 0.701778 0.36025
0.481254 0.711757 0.355474
0.513817 0.718883 0.355306
0.549142 0.724285 0.359442
0.584939 0.728893 0.368902
0.618219 0.733288 0.382956
0.647944 0.737621 0.400275
0.673716 0.742382 0.419577
0.696101 0.747906 0.439597
0.715496 0.753857 0.458625
0.732464 0.759854 0.476631
0.747768 0.76582 0.494118
0.762249 0.772747 0.50222
0.776028 0.779507 0.509697
0.789151 0.785794 0.51693
0.801831 0.791745 0.523781
0.81445 0.797528 0.530648
0.826871 0.803098 0.537652
0.154421 0.573129 0.238529
0.181247 0.584695 0.254826
0.208087 0.596155 0.271443
0.233921 0.608042 0.287297
0.259174 0.619989 0.3028
0.283925 0.631693 0.318029
0.308614 0.642924 0.332967
0.332494 0.654307 0.347875
0.355718 0.665629 0.362615
0.378607 0.676814 0.377218
0.400885 0.687037 0.391012
0.423713 0.696834 0.4047
0.447547 0.706004 0.41825
0.473304 0.714153 0.431571
0.485649 0.727291 0.424002
0.500664 0.739666 0.413291
0.523095 0.749416 0.405829
0.552148 0.756222 0.403693
0.5841 0.760983 0.405798
0.616526 0.764782 0.412711
0.64712 0.768475 0.424323
0.674754 0.772137 0.439307
0.698741 0.775982 0.456291
0.71957 0.780285 0.474449
0.737896 0.785122 0.492622
0.753918 0.790188 0.509667
0.768139 0.795987 0.517678
0.781506 0.801907 0.523171
0.794324 0.807691 0.529488
0.806699 0.813214 0.535897
0.818647 0.818418 0.541955
0.830442 0.823377 0.547906
0.842191 0.828214 0.554101
0.200427 0.627558 0.284108
0.226825 0.63888 0.300038
0.252857 0.649821 0.315892
0.277775 0.660945 0.330861
0.30219 0.672145 0.345571
0.326101 0.68307 0.359976
0.349783 0.693339 0.373922
0.372351 0.703426 0.387533
0.394339 0.713527 0.401038
0.415839 0.723339 0.414267
0.437034 0.732479 0.426963
0.458503 0.740887 0.439261
0.481056 0.74873 0.451499
0.505562 0.755535 0.463539
0.531533 0.76112 0.474861
0.542794 0.772869 0.461769
0.561151 0.782162 0.451469
0.586847 0.788586 0.447288
0.615976 0.792874 0.447807
0.645563 0.795941 0.452735
0.673518 0.79884 0.461997
0.699077 0.801862 0.474754
0.721569 0.805142 0.489906
0.740856 0.808515 0.505821
0.757885 0.812284 0.522332
0.772732 0.817075 0.533196
0.786297 0.82266 0.537743
0.798856 0.827832 0.542306
0.810895 0.832837 0.547463
0.822614 0.837705 0.553063
0.834073 0.84242 0.558556
0.84535 0.84683 0.563882
0.856535 0.851072 0.56939
0.244907 0.679774 0.328176
0.270466 0.690394 0.343313
0.295537 0.700557 0.358251
0.319219 0.710582 0.37203
0.342245 0.720485 0.385382
0.364965 0.730297 0.398627
0.387549 0.739528 0.411505
0.408835 0.748379 0.423835
0.429358 0.757046 0.435889
0.449607 0.765591 0.447852
0.469688 0.773632 0.459449
0.489952 0.780804 0.470512
0.511086 0.787182 0.481315
0.534371 0.792691 0.492088
0.55938 0.797177 0.502403
0.581735 0.802304 0.506584
0.596384 0.811048 0.493782
0.618616 0.817029 0.487236
0.645136 0.820874 0.486305
0.672312 0.823423 0.489723
0.697902 0.825544 0.497093
0.721416 0.827848 0.507881
0.742229 0.830488 0.520867
0.760357 0.833356 0.535149
0.776165 0.836637 0.54873
0.789593 0.841535 0.552132
0.802365 0.846433 0.555673
0.814404 0.851133 0.559487
0.82591 0.855619 0.563729
0.837095 0.859968 0.568658
0.848112 0.864225 0.573648
0.859083 0.868299 0.578332
0.870481 0.872389 0.581216
0.279744 0.731411 0.362875
0.301411 0.742153 0.373983
0.324742 0.751659 0.386877
0.347768 0.760845 0.39968
0.369726 0.769284 0.411643
0.391302 0.777554 0.423423
0.413016 0.785504 0.43508
0.433707 0.793362 0.446494
0.453193 0.80061 0.457206
