All_In_One/Enrich_Colormaster/colormanagement/luts/film_response/BBoyz2.cube
TITLE "Generate by Resolve"
LUT_3D_SIZE 9
0 0 0
0.0324559 0 0
0.149203 0 0
0.169482 0 0
0.195468 0 0
0.199832 0 0
0.203677 0 0
0.251759 0 0
0.278889 0 0
0 0.0110323 0
0 0 0
0.0546426 0 0
0.171191 0 0
0.230213 0 0
0.269871 0 0
0.247013 0 0
0.292546 0.00428778 0
0.322652 0.0225071 0.00376898
0 0.0849622 0
0 0.0968948 0
0 0.0814221 0
0.10222 0.0605631 0
0.241718 0.0399481 0
0.319509 0.0409857 0
0.316396 0.0688792 0.00753796
0.344503 0.0945907 0.0412909
0.390173 0.122316 0.0716259
0 0.155535 0
0 0.175128 0
0 0.177142 0
0.0408484 0.176394 0
0.240284 0.154223 0
0.376303 0.153735 0
0.419883 0.189593 0.0723583
0.448341 0.239261 0.150225
0.514961 0.288167 0.203952
0 0.224109 0
0 0.264454 0
0 0.29897 0
0.0530098 0.33048 0
0.230396 0.346426 0
0.435798 0.356207 0.0641489
0.538109 0.398062 0.174166
0.607034 0.45391 0.270848
0.666499 0.511757 0.360754
0.000320439 0.364996 0.0853437
0.0972457 0.401709 0.141192
0.168353 0.455665 0.176654
0.223499 0.522332 0.182422
0.344869 0.571389 0.18381
0.524147 0.596841 0.238178
0.639506 0.630396 0.336278
0.711727 0.669673 0.417121
0.771618 0.706065 0.47776
0.154421 0.573129 0.238529
0.259174 0.619989 0.3028
0.355718 0.665629 0.362615
0.447547 0.706004 0.41825
0.523095 0.749416 0.405829
0.64712 0.768475 0.424323
0.737896 0.785122 0.492622
0.794324 0.807691 0.529488
0.842191 0.828214 0.554101
0.315648 0.77734 0.398505
0.401953 0.80911 0.443702
0.480247 0.835401 0.484184
0.554147 0.855726 0.520302
0.649622 0.863218 0.550637
0.743511 0.870314 0.560967
0.807889 0.882856 0.572305
0.854688 0.898268 0.584344
0.894957 0.91107 0.609644
0.432975 0.910719 0.514794
0.498573 0.926696 0.540856
0.556252 0.941939 0.560418
0.618769 0.951339 0.584848
0.707774 0.949905 0.608286
0.796567 0.950423 0.614679
0.856626 0.958633 0.623514
0.900221 0.971222 0.634699
0.939803 0.982666 0.656718
0 0 0.0832074
0 0 0.0980087
0.12343 0 0.0669566
0.190723 0 0.0113527
0.212085 0 0
0.236805 0 0
0.199069 0 0
0.246296 0 0
0.2757 0 0
0 0 0.00514229
0 0 0.0629892
0.0908827 0 0
0.230991 0 0
0.255955 0 0
0.303883 0 0
0.29041 0 6.10361e-05
0.287556 0.0105287 0.0238041
0.320714 0.0289921 0.0421454
0 0.0682231 0
0 0.111162 0
0 0.0849165 0
0.172656 0.0434119 0
0.278157 0.0309148 0
0.353079 0.0360571 0
0.361334 0.0637369 0.0359655
0.357839 0.099733 0.0791028
0.398291 0.131716 0.113085
0 0.148089 0.00422675
0 0.185168 0
0 0.197528 0
0.0415503 0.185138 0
0.276814 0.152972 0
0.412604 0.156146 0.0341192
0.468971 0.192889 0.104143
0.504952 0.243992 0.173953
0.54313 0.302129 0.245884
0 0.225788 0.0515908
0 0.271748 0.0314183
0 0.31632 0.0111543
0.042649 0.351583 0.00953689
0.243198 0.364233 0.0139773
0.465644 0.371588 0.0966506
0.582498 0.411749 0.19408
0.657938 0.4663 0.283757
0.720256 0.522347 0.368673
0.000183108 0.383963 0.12874
0.100511 0.422492 0.183108
0.173373 0.478019 0.220386
0.220249 0.548577 0.222507
0.340352 0.59791 0.214481
0.533211 0.620233 0.24596
0.660914 0.649439 0.325765
0.739391 0.684764 0.398367
0.800351 0.717357 0.465537
0.159625 0.596384 0.285451
0.265019 0.642557 0.346487
0.362356 0.686198 0.403326
0.455253 0.723568 0.456214
0.508675 0.773022 0.413901
0.640314 0.788922 0.412497
0.740856 0.802121 0.463371
0.802976 0.819547 0.515206
0.851591 0.836118 0.562951
0.324361 0.791241 0.447761
0.408087 0.821622 0.488411
0.481193 0.848295 0.520775
0.555032 0.866819 0.553216
0.648447 0.873533 0.575357
0.731746 0.88603 0.546075
0.808103 0.892012 0.578317
0.858976 0.902586 0.61944
0.899031 0.915221 0.643656
0.427482 0.923003 0.549645
0.488518 0.940078 0.568689
0.551614 0.951766 0.59118
0.616495 0.95964 0.614893
0.710109 0.95584 0.639338
0.800809 0.954604 0.64889
0.86067 0.962646 0.657557
0.904051 0.975036 0.668803
0.943725 0.986603 0.689998
0 0 0.120165
0 0 0.191211
0 0 0.171435
0.144839 0 0.144274
0.218616 0 0.0622721
0.25507 0 0.00961318
0.228382 0 0.00256352
0.249531 0 0.0150454
0.279103 0 0.029984
0 0 0.0992142
0 0 0.18645
0 0 0.196567
0.232792 0 0.156283
0.274403 0 0.0750744
0.325078 0 0.0419013
0.321614 0 0.0436713
0.30576 0.0108339 0.0599832
0.325048 0.0341039 0.0785229
0 0.0586252 0.0820478
0 0.0773938 0.111711
0 0.0898146 0.164248
0.211322 0.0197299 0.0644846
0.332097 0.0150301 0.0497139
0.379324 0.0321813 0.0613107
0.398901 0.0601511 0.0812695
0.402838 0.0975814 0.114168
0.415488 0.14052 0.154314
0 0.137972 0.0825818
0 0.174777 0.0823529
0 0.2121 0.0363622
0.0281682 0.191089 0.00205997
0.345937 0.14168 0.0116732
0.444511 0.158907 0.102602
0.512688 0.196872 0.155047
0.555993 0.249653 0.215976
0.598276 0.309667 0.282383
0 0.239139 0.096849
0 0.272221 0.105837
0 0.329992 0.0856489
0.0253452 0.374182 0.0674296
0.253971 0.382025 0.050309
0.497551 0.384085 0.145541
0.623423 0.423804 0.234546
0.705104 0.477501 0.316457
0.770275 0.531929 0.394659
0.000198367 0.403662 0.176699
0.103075 0.444511 0.229404
0.188098 0.49749 0.275242
0.221027 0.572992 0.274922
0.337621 0.622629 0.254932
0.539849 0.641291 0.270726
0.679316 0.665705 0.333425
0.764019 0.697215 0.398413
0.82977 0.726589 0.46038
0.163485 0.619471 0.334905
0.268818 0.664698 0.392264
0.366064 0.706386 0.44509
0.459785 0.741161 0.494148
0.495628 0.794324 0.435874
0.632074 0.807431 0.416693
0.741604 0.816999 0.450828
0.810315 0.831479 0.493507
0.865202 0.845472 0.536782
0.322728 0.808621 0.490578
0.408148 0.836011 0.529595
0.483848 0.859297 0.562066
0.554971 0.87744 0.588296
0.627771 0.891905 0.578592
0.713634 0.903853 0.52987
0.799878 0.907301 0.549172
0.858305 0.915526 0.584772
0.904646 0.925811 0.610697
0.420035 0.934493 0.585901
0.488884 0.946731 0.609461
0.55082 0.958419 0.628931
0.612055 0.968261 0.645457
0.710887 0.962356 0.669444
0.779767 0.971832 0.627512
0.85066 0.976272 0.637385
0.902464 0.984344 0.666087
0.945678 0.99498 0.687877
0 0 0.113771
0 0 0.197375
0 0 0.220584
0.0641337 0 0.219074
0.200229 0 0.153399
0.261784 0 0.0766613
0.248096 0 0.0520027
0.252476 0 0.0558633
0.282353 0 0.0690166
0 0 0.124666
0 0 0.223499
0 0 0.291386
0.109239 0 0.275517
0.270176 0 0.189563
0.336019 0 0.119203
0.344289 0 0.100847
0.335637 0.00701915 0.105333
0.335973 0.0375219 0.118914
0 0.0463874 0.144106
0 0.0635691 0.213107
0 0.0599985 0.289387
0.0942397 0.0411383 0.298695
0.358526 0.00254826 0.194781
0.396536 0.0289616 0.146822
0.428916 0.0573434 0.145052
0.441688 0.0963912 0.166918
0.459541 0.142016 0.200473
0 0.13521 0.156634
0 0.160662 0.189456
0 0.178683 0.213657
0 0.196826 0.277012
0.413336 0.123308 0.160967
0.483421 0.157549 0.190967
0.550851 0.200229 0.227848
0.601801 0.254643 0.277913
0.648936 0.316457 0.336507
0 0.248814 0.157855
0 0.278111 0.178088
0 0.333059 0.18851
0.00610361 0.395575 0.167208
0.262425 0.400778 0.105959
0.544732 0.391485 0.209369
0.662959 0.434165 0.300908
0.749737 0.486091 0.371756
0.817655 0.538552 0.440284
0 0.422705 0.232868
0.103532 0.466499 0.284047
0.208423 0.514473 0.338643
0.239582 0.589609 0.345525
0.330282 0.647486 0.297642
0.548257 0.659571 0.303365
0.695491 0.679728 0.362921
0.787152 0.707195 0.419379
0.857954 0.732967 0.473976
0.164401 0.641428 0.390509
0.26862 0.686046 0.443671
0.365255 0.726085 0.491997
0.459617 0.758938 0.536233
0.48127 0.814267 0.473198
0.620615 0.824613 0.439399
0.73962 0.830625 0.456764
0.815808 0.8421 0.49041
0.877775 0.853437 0.528084
0.317968 0.825116 0.539147
0.401679 0.850889 0.573495
0.478264 0.871672 0.603128
0.552178 0.887098 0.62829
0.605966 0.908537 0.596796
0.692103 0.920485 0.531838
0.788373 0.921553 0.537545
0.854719 0.92784 0.563073
0.908614 0.935607 0.589639
0.409628 0.945541 0.627863
0.478126 0.957259 0.648203
0.543221 0.96701 0.667277
0.608087 0.974807 0.68423
0.70837 0.969375 0.701305
0.752865 0.989364 0.616739
0.832914 0.992187 0.61474
0.892332 0.998978 0.635081
0.943481 1 0.657023
0 0 0.108721
0 0 0.148852
0 0 0.224033
0 0 0.266453
0.123995 0 0.257343
0.236133 0 0.188083
0.245106 0 0.13933
0.251667 0 0.129046
0.282353 0 0.139162
0 0 0.175006
0 0 0.186282
0 0 0.273411
0.0335393 0 0.33521
0.186984 0 0.326543
0.312627 0 0.254353
0.344762 0 0.210422
0.350179 0.00233463 0.197726
0.35964 0.0328222 0.199619
0 0.0357977 0.22916
0 0.0447852 0.244541
0 0.0527047 0.302907
0.0518807 0.0518959 0.390997
0.241001 0.0293126 0.390082
0.386648 0.026276 0.309743
0.441962 0.0523232 0.278935
0.470192 0.0916152 0.281437
0.499001 0.138888 0.300694
0 0.122866 0.259373
0 0.135775 0.282002
0.00254826 0.150301 0.318227
0.0597238 0.164981 0.435737
0.298329 0.146731 0.465553
0.503883 0.15227 0.391272
0.57908 0.199039 0.388281
0.643946 0.254108 0.417029
0.700679 0.316701 0.457572
0 0.244114 0.267231
0 0.278172 0.301503
0.0464027 0.316609 0.340154
0.0778058 0.373434 0.406058
0.19942 0.408118 0.499718
0.644266 0.370443 0.409476
0.732235 0.425483 0.461433
0.80177 0.482734 0.517296
0.874174 0.533562 0.564721
0 0.43743 0.337987
0.0925002 0.484337 0.386694
0.187045 0.537438 0.436057
0.273182 0.59353 0.47744
0.286961 0.674571 0.431128
0.547723 0.675822 0.367117
0.732982 0.680995 0.435004
0.828275 0.704601 0.497246
0.895109 0.729458 0.55378
0.150896 0.660929 0.491691
0.251453 0.705516 0.539101
0.345113 0.744945 0.580911
0.437827 0.776806 0.616571
0.463661 0.826764 0.573419
0.585031 0.842664 0.489937
0.729305 0.841077 0.494636
0.818647 0.847883 0.528969
0.889357 0.856229 0.566781
0.296086 0.83949 0.630716
0.376532 0.864683 0.659068
0.451102 0.884871 0.68249
0.526467 0.89926 0.7019
0.573678 0.92192 0.672389
0.644999 0.938628 0.574853
0.75729 0.936187 0.562844
0.836408 0.93962 0.580331
0.90483 0.943465 0.604257
0.381521 0.955856 0.711818
0.448356 0.967849 0.727382
0.513008 0.97789 0.741512
0.581155 0.984894 0.754574
0.680507 0.981491 0.757031
0.699016 1 0.650156
0.789715 1 0.629343
0.861875 1 0.634226
0.927871 1 0.651453
0 0 0.207034
0 0 0.20473
0 0 0.201373
0 0 0.195392
0.0614786 0 0.273411
0.168246 0 0.251286
0.200732 0 0.208881
0.23566 0 0.209689
0.273762 0 0.220905
0 0 0.265019
0 0 0.262684
0 0 0.26215
0.00708019 0 0.265553
0.113588 0 0.358862
0.242573 0 0.344152
0.296178 0 0.306355
0.315297 0.0136873 0.284962
0.333059 0.0434882 0.278447
0 0.0287175 0.32079
0 0.0399634 0.318227
0 0.0519265 0.318608
0.0477302 0.0646372 0.327504
0.160342 0.0569772 0.434256
0.311803 0.0489509 0.431266
0.396857 0.0674449 0.408515
0.443595 0.104753 0.4038
0.485908 0.151888 0.413977
0 0.114 0.362509
0 0.127596 0.368811
0.0292821 0.144732 0.38024
0.105364 0.166308 0.406683
0.237064 0.174029 0.537133
0.426978 0.180896 0.557946
0.546563 0.216052 0.559472
0.629847 0.268727 0.580438
0.701213 0.329595 0.609583
0 0.241871 0.391485
0.00320439 0.272557 0.420157
0.0852064 0.31075 0.463325
0.171466 0.354238 0.524514
0.303944 0.385122 0.660685
0.575235 0.388693 0.728679
0.737133 0.426169 0.722423
0.825589 0.479683 0.741161
0.890486 0.532311 0.764996
0 0.44448 0.470848
0.0985733 0.493156 0.519753
0.200336 0.54432 0.571176
0.289525 0.597467 0.62472
0.376822 0.646174 0.677623
0.497658 0.672435 0.778424
0.809384 0.651728 0.69836
0.910796 0.674754 0.716854
0.972229 0.701762 0.741299
0.150759 0.670451 0.623728
0.246555 0.714321 0.668086
0.335225 0.752865 0.706737
0.422095 0.784329 0.738201
0.506065 0.811185 0.746868
0.483787 0.872251 0.650416
0.704997 0.846189 0.624918
0.844419 0.837903 0.643351
0.939757 0.838041 0.678676
0.283207 0.844587 0.754635
0.358587 0.86949 0.779751
0.428382 0.889616 0.799817
0.498955 0.904692 0.814832
0.588006 0.912749 0.809598
0.571145 0.957702 0.709743
0.700557 0.951507 0.650462
0.819638 0.944091 0.646815
0.917372 0.938811 0.677302
0.358068 0.958175 0.82887
0.421164 0.970855 0.841749
0.482536 0.981903 0.852903
0.547539 0.990417 0.861753
0.656245 0.985885 0.859205
0.644846 1 0.764508
0.726375 1 0.698909
0.81973 1 0.691081
0.911391 1 0.705074
0 0 0.273564
0 0 0.271214
0 0 0.267903
0 0 0.261631
0.0356603 0 0.235096
0.123949 0 0.237812
0.181277 0 0.240131
0.229099 0 0.256886
0.270268 0 0.270329
0 0 0.331334
0 0 0.329778
0 0 0.328618
0.00817884 0 0.32224
0.0887007 0 0.301839
0.201129 0 0.346029
0.255848 0.007187 0.325322
0.281239 0.0327459 0.309239
0.326665 0.0532692 0.32665
0 0.0288243 0.385885
0 0.0401465 0.385489
0 0.0525673 0.385122
0.0502937 0.0666667 0.381003
0.14345 0.0753033 0.39144
0.276783 0.0702831 0.451972
0.360479 0.0907759 0.447562
0.414923 0.12845 0.450889
0.464485 0.175891 0.463279
0 0.114137 0.434318
0 0.12903 0.440421
0.0338293 0.148074 0.451438
0.112413 0.173236 0.463371
0.228717 0.195865 0.510857
0.393591 0.208423 0.600031
0.516884 0.244099 0.623026
0.605631 0.296407 0.650431
0.683207 0.356374 0.680705
0 0.247578 0.473259
0.0110018 0.28069 0.504433
0.100404 0.319875 0.543679
0.201007 0.363607 0.58587
0.34757 0.401328 0.635065
0.542916 0.419333 0.800366
0.697292 0.45565 0.828168
0.798291 0.501854 0.853651
0.876768 0.547845 0.874907
0.0087892 0.456474 0.559579
0.11191 0.5066 0.609384
0.21355 0.557656 0.6607
0.317327 0.605417 0.708659
0.431479 0.64332 0.764752
0.571237 0.655131 0.932937
0.769909 0.659678 0.939834
0.902342 0.672908 0.934096
0.983429 0.694682 0.923278
0.16228 0.681727 0.711498
0.255863 0.723903 0.753826
0.342473 0.760449 0.790478
0.427497 0.790127 0.820127
0.521508 0.810483 0.840208
0.552636 0.839841 0.887648
0.680659 0.833509 0.948241
0.856367 0.823041 0.874342
0.97261 0.820066 0.867094
0.288014 0.8495 0.835843
0.361227 0.872648 0.858991
0.429297 0.89134 0.877562
0.498329 0.905608 0.89163
0.591623 0.911025 0.893111
0.590311 0.943023 0.886229
0.592035 0.979309 0.804395
0.796063 0.944198 0.808652
0.927657 0.930663 0.817502
0.357565 0.958785 0.905531
0.419211 0.971099 0.917708
0.479118 0.981918 0.928328
0.54226 0.990509 0.936629
0.646372 0.987472 0.932799
0.665125 1 0.90103
0.660471 1 0.813214
0.764187 1 0.772122
0.895125 1 0.805982
0 0 0.316335
0 0 0.314
0 0 0.310735
0 0 0.304372
0.0420386 0 0.276371
0.122927 0 0.26099
0.183719 0 0.271977
0.229877 0 0.287922
0.272084 0 0.302586
0 0 0.373846
0 0 0.373236
0 0 0.371481
0.0113832 0 0.364813
0.0918288 0.0033875 0.33286
0.177981 0.0103761 0.325139
0.232547 0.0248264 0.320851
0.282109 0.0408484 0.3402
0.330983 0.061799 0.361471
0 0.0315251 0.429694
0 0.0431373 0.42855
0 0.0560006 0.428107
0.0541695 0.0706798 0.42446
0.145342 0.0851606 0.395438
0.260594 0.0895552 0.443305
0.342443 0.112169 0.455955
0.399634 0.151415 0.467048
0.452811 0.200015 0.484077
0 0.117876 0.479271
0 0.134112 0.486946
0.0417487 0.155291 0.499062
0.122347 0.182986 0.512779
0.240726 0.213703 0.503807
0.390433 0.232425 0.609934
0.5084 0.271244 0.649592
0.597284 0.324636 0.683604
0.675898 0.384176 0.716182
0 0.256764 0.527687
0.0224002 0.291997 0.561532
0.114763 0.33341 0.60209
0.218021 0.379232 0.644617
0.366751 0.420005 0.668345
0.541054 0.445289 0.820325
0.681468 0.48336 0.87042
0.781231 0.526589 0.904082
0.868467 0.566949 0.929564
0.0252232 0.471839 0.620859
0.128084 0.52256 0.671244
0.229435 0.573327 0.722271
0.33196 0.619883 0.768994
0.457389 0.652766 0.815991
0.595819 0.6663 0.953506
0.762371 0.671855 1
0.873777 0.689143 1
0.965438 0.704768 1
0.176562 0.695613 0.771359
0.267964 0.735912 0.811673
0.352483 0.770474 0.846311
0.435325 0.798047 0.873823
0.541558 0.812497 0.891188
0.601953 0.828595 0.965576
0.723873 0.816648 1
0.868299 0.812329 1
0.968124 0.817456 1
0.295369 0.856748 0.888945
0.366674 0.878264 0.910369
0.433494 0.89575 0.927718
0.50161 0.909133 0.940902
0.606882 0.910109 0.941146
0.645624 0.926421 0.965377
0.665812 0.944366 1
0.790951 0.93022 1
0.930617 0.92343 0.974792
0.360815 0.962158 0.954681
0.421729 0.973892 0.966247
0.481178 0.984283 0.97641
0.54403 0.992584 0.984436
0.647959 0.989364 0.980423
0.710475 0.998505 0.973373
0.69337 1 0.960937
0.686351 1 0.906172
0.885649 1 0.920287
0 0 0.35555
0 0 0.353292
0 0 0.350042
0 0 0.343648
0.0484321 0 0.315038
0.128634 0 0.293645
0.187594 0 0.302129
0.232425 0 0.317021
0.274937 0 0.332265
0 0 0.412818
0 0 0.413001
0 0 0.410758
0.0149538 0 0.403937
0.0969711 0.00654612 0.371374
0.177707 0.0180972 0.343648
0.237583 0.0307927 0.352163
0.28661 0.0483711 0.371221
0.336919 0.0704356 0.394217
0 0.0346532 0.468299
0 0.04654 0.467994
0 0.0600443 0.467811
0.058854 0.0754711 0.46482
0.152316 0.0907912 0.43679
0.246708 0.111254 0.417319
0.327443 0.135836 0.450431
0.386923 0.176623 0.471504
0.458473 0.219867 0.515297
0 0.122179 0.520378
0 0.139773 0.529641
0.0502327 0.163226 0.543252
0.132998 0.193469 0.558999
0.254063 0.226337 0.55227
0.388708 0.258854 0.600076
0.503288 0.299565 0.661051
0.591363 0.353979 0.7028
0.669841 0.413062 0.739254
0 0.267292 0.578927
0.0356298 0.304585 0.614847
0.130373 0.347799 0.656077
0.235248 0.395102 0.69868
0.384421 0.437324 0.719081
0.543664 0.469993 0.828946
0.676143 0.50782 0.898329
0.774914 0.549477 0.939254
0.860426 0.587289 0.967147
0.0429847 0.488289 0.678462
0.145205 0.539376 0.729488
0.245731 0.589364 0.779721
0.346624 0.634348 0.824857
0.483482 0.662898 0.85304
0.623041 0.678279 0.942687
0.75671 0.686473 1
0.854078 0.70486 1
0.942061 0.719066 1
0.19089 0.709285 0.826429
0.279774 0.747631 0.864759
0.362158 0.780133 0.897307
0.44303 0.805798 0.922911
0.560296 0.815427 0.931899
0.661204 0.820813 0.976913
0.745403 0.818509 1
0.868894 0.810819 1
0.948486 0.82356 1
0.302678 0.86389 0.937423
0.37229 0.884001 0.957397
0.43801 0.900435 0.973678
0.505272 0.912993 0.986023
0.612268 0.912718 0.984985
0.704021 0.913756 0.9991
0.727687 0.925338 1
0.822721 0.91397 1
0.958007 0.906798 1
0.364187 0.965499 0.999313
0.424384 0.976791 1
0.483543 0.986893 1
0.546227 0.995026 1
0.650034 0.991684 1
0.736522 0.99295 1
0.723476 1 1
0.750988 1 1
0.890578 1 1
