All_In_One/Enrich_Colormaster/colormanagement/luts/film_response/Blank.cube
TITLE "Blank"
LUT_3D_SIZE 5
DOMAIN_MIN 0.000000 0.000000 0.000000
DOMAIN_MAX 0.903226 0.903226 0.903226
0.1176 0.1176 0.1137
0.2078 0.1176 0.1137
0.4588 0.1137 0.1137
0.6588 0.1137 0.1137
0.8510 0.1176 0.1137
0.1176 0.1490 0.1137
0.1569 0.1373 0.1137
0.4431 0.1529 0.1137
0.6510 0.1412 0.1137
0.8510 0.1255 0.1137
0.1176 0.4039 0.1176
0.1647 0.3922 0.1176
0.4235 0.3882 0.1137
0.6235 0.3882 0.1137
0.8353 0.3765 0.1137
0.1137 0.5961 0.1176
0.2000 0.5843 0.1176
0.4353 0.5922 0.1137
0.6078 0.5843 0.1137
0.8196 0.5804 0.1137
0.1176 0.7843 0.1216
0.2667 0.7804 0.1216
0.4471 0.7922 0.1176
0.6235 0.8078 0.1137
0.8118 0.8000 0.1137
0.1176 0.1176 0.1882
0.1373 0.1137 0.1686
0.4196 0.1137 0.1922
0.6353 0.1137 0.1804
0.8471 0.1176 0.1529
0.1176 0.1647 0.1882
0.1647 0.2157 0.2157
0.4431 0.2314 0.2000
0.6549 0.2078 0.1725
0.8510 0.1686 0.1569
0.1176 0.4118 0.2157
0.1922 0.4431 0.2471
0.4275 0.4314 0.2000
0.6392 0.4275 0.1725
0.8431 0.4157 0.1569
0.1137 0.6000 0.2471
0.2431 0.6275 0.2784
0.4431 0.6235 0.2314
0.6157 0.6196 0.1804
0.8314 0.6196 0.1647
0.1137 0.7843 0.2784
0.3059 0.8039 0.3059
0.4627 0.8039 0.2667
0.6314 0.8196 0.2000
0.8235 0.8235 0.1647
0.1176 0.1137 0.4157
0.1333 0.1137 0.4000
0.3843 0.1137 0.3843
0.5529 0.1176 0.4118
0.7843 0.1137 0.4314
0.1176 0.2314 0.4157
0.1412 0.2784 0.4353
0.4118 0.3020 0.4196
0.6078 0.2941 0.4431
0.8314 0.2353 0.4431
0.1176 0.4196 0.4157
0.1451 0.4510 0.4353
0.4392 0.4784 0.4588
0.6431 0.4667 0.4431
0.8510 0.4549 0.4353
0.1176 0.6078 0.4353
0.1882 0.6353 0.4549
0.4588 0.6588 0.4784
0.6275 0.6588 0.4471
0.8431 0.6549 0.4353
0.1137 0.7882 0.4588
0.2471 0.8078 0.4784
0.4784 0.8235 0.4941
0.6392 0.8314 0.4667
0.8314 0.8353 0.4392
0.1176 0.1137 0.6078
0.1255 0.1176 0.6000
0.3922 0.1255 0.5647
0.5333 0.1333 0.5569
0.7176 0.1412 0.5843
0.1176 0.2745 0.6078
0.1255 0.3137 0.6314
0.4196 0.3333 0.6157
0.5647 0.3529 0.5961
0.7686 0.3490 0.6314
0.1176 0.4471 0.6078
0.1333 0.4706 0.6314
0.4353 0.5020 0.6549
0.6000 0.5176 0.6392
0.8196 0.5059 0.6706
0.1176 0.6118 0.6078
0.1412 0.6392 0.6314
0.4392 0.6667 0.6549
0.6706 0.7294 0.7216
0.8549 0.7176 0.7176
0.1176 0.7882 0.6314
0.1882 0.8118 0.6549
0.4588 0.8235 0.6745
0.6980 0.8549 0.7451
0.8510 0.8588 0.7216
0.1176 0.1176 0.7961
0.1216 0.1176 0.7961
0.4078 0.1294 0.7686
0.5529 0.1569 0.7451
0.7137 0.1569 0.7373
0.1176 0.2941 0.7961
0.1255 0.3333 0.8118
0.4196 0.3412 0.8078
0.5882 0.3725 0.7843
0.7529 0.3843 0.7725
0.1176 0.4627 0.7961
0.1294 0.4863 0.8118
0.4314 0.5137 0.8235
0.6235 0.5294 0.8118
0.7843 0.5529 0.8078
0.1176 0.6314 0.7961
0.1373 0.6588 0.8118
0.4392 0.6824 0.8235
0.6824 0.7451 0.8549
0.8314 0.7608 0.8510
0.1176 0.7882 0.7961
0.1451 0.8118 0.8118
0.4431 0.8275 0.8235
0.6863 0.8549 0.8549
0.8667 0.8784 0.8784
