All_In_One/Enrich_Colormaster/colormanagement/luts/film_response/BobFord.cube
TITLE "Generate by Resolve"
LUT_3D_SIZE 9
0 0 0
0.0490578 0 0
0.127993 0 0
0.153048 0 0
0.156542 0 0
0.200565 0 0
0.265751 0 0
0.310658 0 0
0.310201 0 0
0 0 0
0 0 0
0.100679 0 0
0.180133 0 0
0.220035 0 0
0.234165 0 0
0.29781 0 0
0.340597 0 0
0.350088 0 0
0 0.00347906 0
0 0 0
0.0305028 0 0
0.16437 0 0
0.255528 0 0
0.273136 0.004654 0
0.336461 0.0182498 0
0.380819 0.0386969 0
0.408835 0.0652934 0
0 0.0987411 0
0 0.0930953 0
0.0366674 0.0961929 0
0.141421 0.101274 0
0.276799 0.0957198 0
0.352743 0.102037 0
0.385901 0.129961 0
0.439689 0.160937 0.0343328
0.491234 0.20148 0.0814527
0 0.190417 0
0 0.198474 0
0.0552682 0.212543 0
0.150134 0.229068 0
0.284062 0.242771 0
0.434394 0.254475 0
0.507652 0.302007 0.0952926
0.5794 0.365179 0.183703
0.653834 0.434913 0.27274
0 0.30724 0
0.0234989 0.338643 0
0.116472 0.379049 0
0.223804 0.428275 0
0.365408 0.478233 0.0363622
0.549584 0.515785 0.143694
0.658808 0.566171 0.250217
0.735637 0.61503 0.329641
0.794171 0.656031 0.401083
0.118624 0.484154 0.0630961
0.216403 0.551156 0.107973
0.320195 0.615396 0.158419
0.421714 0.670253 0.206897
0.53817 0.706676 0.248463
0.686168 0.717693 0.310674
0.768231 0.737438 0.383032
0.823423 0.75996 0.435279
0.86836 0.781445 0.487388
0.381186 0.698955 0.355734
0.445396 0.74725 0.385351
0.499474 0.787213 0.39324
0.557473 0.817349 0.400656
0.641917 0.83447 0.407126
0.766079 0.832319 0.447761
0.835203 0.841932 0.507713
0.884169 0.858671 0.531929
0.926421 0.872816 0.567407
0.503716 0.84033 0.456779
0.558679 0.863828 0.488975
0.607507 0.886778 0.513344
0.656855 0.906355 0.523064
0.721584 0.920806 0.517952
0.828931 0.917967 0.54377
0.892607 0.927031 0.573602
0.939345 0.941939 0.592752
0.980743 0.954253 0.633692
0 0 0
0 0 0
0.147616 0 0
0.188128 0 0
0.203204 0 0
0.175219 0 0
0.239185 0 0
0.284153 0 0
0.291905 0 0
0 0 0
0 0 0
0.138415 0 0
0.221378 0 0
0.26685 0 0
0.263569 0 0
0.276814 0 0
0.319905 0 0
0.336767 0 0
0 0.00872816 0
0 0 0
0.0346532 0 0
0.214298 0 0
0.30338 0 0
0.326879 0 0
0.336751 0.0246738 0
0.381384 0.0459449 0
0.4121 0.0734874 0.0208133
0 0.106691 0
0 0.103075 0
0.0261234 0.106126 0
0.150301 0.106706 0
0.314641 0.0932174 0
0.401968 0.0994583 0
0.424689 0.132204 0.025864
0.451713 0.172351 0.0819104
0.502663 0.217273 0.132174
0 0.201938 0
0 0.212589 0
0.0400854 0.227771 0
0.144198 0.244541 0
0.299855 0.255787 0
0.47924 0.26482 0.0168612
0.562219 0.315099 0.115358
0.637507 0.380682 0.205035
0.711116 0.450538 0.294255
0 0.323751 0
0.0202945 0.357488 0
0.118242 0.401144 0
0.23151 0.453391 0.0227054
0.380163 0.504601 0.0770123
0.579339 0.539315 0.159274
0.695109 0.58468 0.256886
0.772015 0.628855 0.333196
0.830686 0.66569 0.399573
0.120058 0.513848 0.105806
0.218433 0.581659 0.150347
0.321386 0.643977 0.196048
0.421408 0.695018 0.237461
0.539208 0.726955 0.269032
0.696864 0.732906 0.314748
0.78587 0.749218 0.375601
0.844556 0.769497 0.426535
0.892409 0.789197 0.476707
0.348791 0.733745 0.332708
0.414801 0.776989 0.365866
0.478981 0.809964 0.399527
0.537957 0.838361 0.402029
0.627665 0.853254 0.400305
0.767102 0.846708 0.427893
0.845487 0.853544 0.480018
0.896727 0.867002 0.525246
0.944961 0.880507 0.548791
0.489357 0.858396 0.474266
0.551202 0.878111 0.520058
0.591287 0.903426 0.52221
0.633219 0.926192 0.514931
0.703166 0.939239 0.503563
0.824857 0.932998 0.517861
0.897719 0.937942 0.559686
0.947021 0.949676 0.600656
0.993713 0.962768 0.62121
0 0 0
0 0 0
0.0682383 0 0
0.18854 0 0
0.228382 0 0
0.196048 0 0
0.240894 0 0
0.285313 0 0
0.294835 0 0
0 0 0
0 0 0
0.0732128 0 0
0.251957 0 0
0.300206 0 0
0.301335 0 0
0.282933 0 0
0.321386 0 0
0.340215 0 0
0 0.007187 0
0 0 0
0.0393835 0 0
0.25655 0 0
0.34699 0 0
0.370901 0 0
0.365774 0.0244144 0.00733959
0.38349 0.0539559 0.0378424
0.416922 0.0825208 0.0647135
0 0.10927 0
0 0.108827 0
0.0246281 0.109728 0
0.15761 0.109758 0
0.354604 0.0875715 0
0.443305 0.0976425 0.00360113
0.473747 0.131914 0.0576333
0.504967 0.17496 0.11017
0.547799 0.226719 0.167575
0 0.210391 0
0 0.224659 0
0.0249332 0.242084 0
0.133806 0.260456 0
0.316182 0.267903 0
0.520439 0.274144 0.0583963
0.611811 0.327932 0.153384
0.691066 0.396063 0.24181
0.76463 0.465736 0.328344
0 0.339635 0
0.0211795 0.376852 4.57771e-05
0.12343 0.424063 0.0346227
0.237079 0.48014 0.0782483
0.387304 0.532555 0.118624
0.606256 0.560159 0.190326
0.72752 0.600153 0.277546
0.805051 0.640055 0.348547
0.864271 0.673701 0.410407
0.124941 0.542611 0.159411
0.223026 0.610162 0.202533
0.322957 0.669841 0.243626
0.420508 0.717128 0.278492
0.539055 0.745007 0.300877
0.70602 0.746456 0.329976
0.801877 0.759411 0.380621
0.86421 0.777493 0.428428
0.915267 0.795575 0.475746
0.34403 0.75581 0.371405
0.405753 0.796811 0.385489
0.463951 0.829557 0.399649
0.519921 0.857267 0.416495
0.613214 0.870604 0.408118
0.767178 0.860166 0.421912
0.854917 0.864225 0.466331
0.911711 0.875792 0.509117
0.962753 0.887541 0.541131
0.476356 0.874372 0.499535
0.516442 0.901625 0.497749
0.56199 0.924285 0.509621
0.61088 0.944091 0.520546
0.684642 0.956222 0.502922
0.81973 0.947005 0.504875
0.901778 0.94966 0.540917
0.956939 0.95993 0.579263
1 0.971359 0.607813
0 0 0.0167086
0 0 0.0307927
0.026276 0 0.0271458
0.136721 0 0.0364691
0.239277 0 0.0101167
0.226047 0 0
0.242542 0 0
0.286549 0 0
0.297917 0 0
0 0 0.038056
0 0 0.0573129
0.0480659 0 0.0603952
0.183627 0 0.0753796
0.317678 0 0.0473182
0.331609 0 0
0.3196 0 0.00196841
0.323201 0 0.0202487
0.344121 0 0.037995
0 0.00209049 0.0627451
0 0 0.0587472
0.0421454 0 0.0649729
0.191806 0 0.0768749
0.36965 0 0.0516213
0.40354 0 0.02533
0.405936 0.0209659 0.0468147
0.413352 0.0551156 0.0750744
0.434852 0.0888075 0.103975
0 0.106661 0.0500954
0 0.109133 0.0467231
0.0239719 0.111574 0.0472267
0.159701 0.108171 0.0449226
0.398306 0.0783398 0.0334173
0.47982 0.0960861 0.0622721
0.514473 0.133165 0.102464
0.550576 0.179019 0.150866
0.596979 0.234882 0.207935
0 0.214984 0.0280766
0 0.232959 0.025391
0.0155184 0.253941 0.0226139
0.133135 0.27274 0.0243839
0.334371 0.281071 0.010193
0.566308 0.283726 0.116258
0.657038 0.342748 0.207736
0.739223 0.411261 0.291173
0.812604 0.479164 0.371923
0 0.354009 0.0441291
0.0257115 0.395682 0.0684977
0.126024 0.448386 0.102632
0.232822 0.510018 0.137957
0.385718 0.562173 0.164355
0.628641 0.579583 0.222156
0.756573 0.613687 0.313054
0.835157 0.649409 0.376287
0.895338 0.679881 0.431907
0.132723 0.568902 0.221042
0.228779 0.636103 0.263676
0.326101 0.692775 0.300801
0.420386 0.736904 0.330327
0.538735 0.761273 0.344533
0.714031 0.758618 0.35845
0.816693 0.768582 0.399344
0.882963 0.78471 0.442298
0.937484 0.801205 0.485557
0.341131 0.774945 0.417273
0.398489 0.813565 0.428031
0.458824 0.843198 0.434394
0.516152 0.869017 0.440391
0.599176 0.885771 0.430793
0.766186 0.872206 0.430457
0.863188 0.873655 0.466758
0.925673 0.883467 0.506142
0.979919 0.893721 0.543435
0.465919 0.888533 0.532631
0.503731 0.915572 0.529442
0.548165 0.938155 0.525597
0.593957 0.958572 0.527993
0.666423 0.971313 0.516197
0.813474 0.95967 0.505272
0.904677 0.960204 0.53492
0.965942 0.969207 0.57023
1 0.979278 0.604089
0 0 0.0746014
0 0 0.101976
0 0 0.114427
0.0835584 0 0.112612
0.197101 0 0.103441
0.247242 0 0.0375067
0.241276 0 0.0205997
0.284993 0 0.033341
0.298955 0 0.0408637
0 0 0.132921
0 0 0.155108
0.0287022 0 0.175189
0.131121 0 0.177752
0.266743 0 0.167529
0.35378 0 0.0948959
0.355566 0 0.0792859
0.358144 0 0.0851301
0.381384 0 0.09691
0 0 0.17641
0 0 0.187549
0.0391852 0 0.212009
0.153948 0 0.219913
0.317128 0 0.210208
0.435554 0 0.138613
0.449638 0.0121767 0.129778
0.462943 0.0471962 0.144289
0.485039 0.0834058 0.165621
0 0.0944686 0.180804
0 0.100664 0.197787
0.0366674 0.105806 0.223896
0.157824 0.106493 0.240253
0.357244 0.0876783 0.241505
0.523125 0.0882582 0.18616
0.55996 0.130541 0.194522
0.60351 0.179858 0.23238
0.654704 0.240009 0.283345
0 0.209583 0.155505
0 0.230991 0.173358
0.0223239 0.255329 0.194842
0.132906 0.278782 0.2159
0.343587 0.286152 0.223041
0.626184 0.285985 0.239002
0.716304 0.350301 0.30692
0.792401 0.42179 0.379278
0.866941 0.486809 0.447776
0 0.36553 0.146746
0.0292058 0.411521 0.177569
0.120592 0.471061 0.215427
0.219974 0.537606 0.252506
0.371939 0.589868 0.266011
0.650507 0.595926 0.279515
0.794125 0.62089 0.363638
0.872328 0.653071 0.429755
0.932601 0.681575 0.48188
0.139879 0.59292 0.31667
0.230793 0.658824 0.35993
0.322759 0.712703 0.394354
0.41323 0.753246 0.419089
0.509331 0.781262 0.408682
0.703838 0.772641 0.387823
0.828733 0.77528 0.43151
0.903761 0.78854 0.479362
0.964324 0.803265 0.518624
0.33434 0.790936 0.491936
0.386175 0.82797 0.502113
0.443091 0.856764 0.507378
0.506127 0.87924 0.51043
0.590677 0.894026 0.496025
0.751217 0.884901 0.45893
0.867384 0.881407 0.488899
0.940276 0.888655 0.524804
1 0.897169 0.564599
0.451575 0.901427 0.592203
0.485115 0.92871 0.589242
0.526726 0.951461 0.584695
0.576654 0.970047 0.580087
0.646311 0.983642 0.561288
0.799359 0.97258 0.531624
0.903502 0.970382 0.549737
0.973709 0.97734 0.57847
1 0.985473 0.615198
0 0 0.171054
0 0 0.19379
0 0 0.210651
0.0378424 0 0.221805
0.136095 0 0.216266
0.250553 0 0.177478
0.258412 0 0.141054
0.275822 0 0.13753
0.295857 0 0.13579
0 0 0.231601
0 0 0.247288
0.00288396 0 0.266926
0.08336 0 0.279774
0.189532 0 0.275776
0.329564 0 0.245609
0.363912 0 0.220874
0.373587 0 0.208713
0.405005 0 0.210986
0 0 0.288609
0 0 0.293523
0.0354925 0 0.312139
0.118517 0.000534066 0.332937
0.238163 0 0.341878
0.395743 0 0.301198
0.463249 0.00556954 0.294713
0.49073 0.0394446 0.290791
0.521904 0.0768597 0.297246
0 0.0773175 0.319966
0 0.0859388 0.330648
0.064683 0.0962234 0.359136
0.152361 0.10634 0.400351
0.292576 0.106371 0.425422
0.486244 0.0998703 0.385504
0.578317 0.128435 0.381537
0.641184 0.178637 0.403143
0.704448 0.242344 0.438422
0 0.194995 0.327626
0.00314336 0.213489 0.350576
0.0809033 0.238178 0.395605
0.174243 0.267552 0.456336
0.342672 0.288426 0.519142
0.629648 0.292882 0.517815
0.764492 0.350454 0.531991
0.846845 0.422492 0.568215
0.917845 0.486976 0.609049
0 0.367178 0.321996
0.0476997 0.418692 0.368734
0.150118 0.477577 0.423713
0.243671 0.544991 0.489387
0.365881 0.601144 0.541863
0.663584 0.597665 0.535546
0.856962 0.608255 0.553002
0.942061 0.636881 0.585916
1 0.665141 0.617227
0.161624 0.606241 0.482002
0.241489 0.670558 0.533394
0.322728 0.721935 0.572808
0.403876 0.760204 0.600031
0.47219 0.792691 0.602579
0.662638 0.786755 0.54081
0.83946 0.775357 0.541222
0.941741 0.780056 0.573877
1 0.790631 0.60972
0.338979 0.796658 0.632883
0.380987 0.833036 0.650874
0.429923 0.861891 0.662608
0.486488 0.884535 0.669627
0.557839 0.901122 0.657282
0.694972 0.900435 0.580636
0.844739 0.890257 0.562844
0.94992 0.889082 0.583688
1 0.891646 0.629358
0.446097 0.905516 0.714046
0.471077 0.9337 0.719081
0.50544 0.957443 0.720836
0.549889 0.976944 0.720333
0.62472 0.987716 0.704875
0.739681 0.989578 0.630808
0.863005 0.985504 0.606699
0.961532 0.985534 0.623377
1 0.987305 0.663905
0 0 0.201648
0 0 0.231678
0 0 0.255375
0.0233005 0 0.27274
0.116381 0 0.274434
0.23212 0 0.234958
0.270359 0 0.210208
0.268742 0 0.188022
0.288746 0 0.184894
0 0 0.267628
0 0 0.297383
0 0 0.323354
0.0733043 0 0.342214
0.173785 0 0.345998
0.306157 0 0.308766
0.361715 0 0.291386
0.379767 0 0.279225
0.400275 0 0.27364
0 0 0.327092
0 0 0.353811
0.0360876 0 0.378943
0.112551 0.00756847 0.398688
0.220523 0.00903334 0.405798
0.372869 0.00283818 0.375082
0.45156 0.0180819 0.36997
0.490791 0.0479896 0.372213
0.527047 0.0859541 0.376074
0 0.0767834 0.375479
0 0.0881361 0.401785
0.0735332 0.100099 0.430655
0.156115 0.113176 0.456596
0.276661 0.120348 0.473426
0.455451 0.120104 0.45658
0.564828 0.147036 0.471595
0.645548 0.194949 0.502983
0.720531 0.259937 0.538323
0 0.194186 0.402899
0.0258183 0.216098 0.438376
0.109224 0.241993 0.479377
0.209003 0.27425 0.524773
0.356756 0.305409 0.599954
0.610727 0.322026 0.631662
0.758526 0.376181 0.652049
0.854978 0.441032 0.683619
0.936355 0.498466 0.717998
0.000656138 0.373526 0.416648
0.0825971 0.430091 0.477256
0.18265 0.49189 0.543435
0.294911 0.553079 0.608804
0.411475 0.605219 0.688243
0.670375 0.60441 0.738079
0.865629 0.611292 0.73904
0.966674 0.634104 0.74284
1 0.66041 0.74728
0.199954 0.619043 0.580423
0.271504 0.681086 0.637934
0.344228 0.729503 0.682139
0.417899 0.765316 0.713985
0.495048 0.791165 0.735943
0.658274 0.788083 0.726619
0.844846 0.773861 0.712398
0.968978 0.773449 0.715587
1 0.782101 0.72874
0.363821 0.800153 0.717327
0.398962 0.835294 0.742046
0.441657 0.8636 0.760388
0.492851 0.886076 0.773526
0.56733 0.900191 0.773434
0.679255 0.904189 0.732418
0.828763 0.89482 0.698909
0.958007 0.888045 0.695552
1 0.886778 0.723354
0.46363 0.906416 0.78967
0.483467 0.934615 0.802197
0.512489 0.958587 0.810849
0.551995 0.978424 0.816327
0.620691 0.990066 0.807965
0.717266 0.996124 0.752514
0.837293 0.994064 0.714183
0.948959 0.992721 0.706111
1 0.989624 0.732937
0 0 0.208804
0 0 0.243305
0 0 0.271519
0.0166629 0 0.293233
0.105745 0 0.301274
0.21944 0 0.267887
0.267735 0 0.24654
0.28217 0 0.231144
0.297551 0 0.222263
0 0 0.278828
0 0 0.317266
0 0 0.347601
0.0698711 0 0.370611
0.165286 0 0.380255
0.294652 0 0.348837
0.355184 0 0.330083
0.383047 0 0.321935
0.406653 0 0.316152
0 0 0.342412
0 0 0.380591
0.0404822 0.00665293 0.410681
0.112825 0.0161593 0.435065
0.215854 0.018967 0.448676
0.365148 0.0138399 0.42472
0.443381 0.0315557 0.414084
0.492683 0.0601053 0.419608
0.529915 0.0988479 0.425772
0 0.0806287 0.398825
0.0123293 0.0938582 0.436805
0.0830854 0.107424 0.471183
0.162234 0.122393 0.50251
0.278355 0.132158 0.526848
0.455375 0.134646 0.519356
0.563485 0.16762 0.528801
0.651255 0.217594 0.56643
0.733928 0.283604 0.604974
0 0.198138 0.44094
0.0472419 0.222889 0.486519
0.129152 0.252262 0.535348
0.228534 0.289052 0.588876
0.376043 0.325765 0.644129
0.610513 0.350271 0.691722
0.75671 0.4047 0.716747
0.860197 0.463432 0.754406
0.947311 0.513924 0.79118
0.0371252 0.384695 0.475822
0.117556 0.444953 0.54638
0.216068 0.509056 0.620386
0.324483 0.569879 0.690532
0.452537 0.614939 0.760113
0.681025 0.616922 0.836225
0.861692 0.623224 0.846464
0.966506 0.64239 0.845563
1 0.665232 0.840497
0.237858 0.633768 0.644938
0.302647 0.69279 0.705455
0.368368 0.738186 0.7523
0.435966 0.771435 0.786892
0.525124 0.79089 0.810437
0.67332 0.78793 0.842969
0.847227 0.775311 0.847639
0.976059 0.773465 0.84329
1 0.780224 0.837308
0.389517 0.804868 0.770855
0.420233 0.838895 0.800305
0.458473 0.866621 0.82359
0.505745 0.888747 0.841505
0.58233 0.900725 0.847425
0.688441 0.903304 0.844175
0.829801 0.894408 0.832395
0.961334 0.886961 0.82594
1 0.883894 0.826123
0.484306 0.908568 0.838392
0.500786 0.936477 0.85626
0.526207 0.960449 0.870253
0.562173 0.980468 0.880735
0.626261 0.992569 0.879301
0.718608 0.998199 0.850401
0.830427 0.997772 0.823972
0.942535 0.99678 0.809644
1 0.991684 0.816236
0 0 0.206821
0 0 0.244755
0 0 0.276768
0.0112612 0 0.302312
0.0961929 0 0.316838
0.206165 0 0.291051
0.258259 0 0.27303
0.283848 0 0.262898
0.301152 0 0.253544
0 0 0.282445
0 0 0.325475
0.00180056 0 0.359625
0.0675212 0 0.386618
0.157656 0 0.402319
0.282856 0 0.378775
0.345327 0 0.361929
0.381796 0 0.356497
0.409201 0.00723278 0.351995
0 0 0.351476
0 0.00437934 0.394949
0.0459602 0.0152132 0.429755
0.11429 0.0258488 0.45893
0.212222 0.0301671 0.479301
0.357259 0.0263981 0.463874
0.436515 0.045243 0.454749
0.490852 0.0749523 0.460121
0.536538 0.11397 0.470344
0 0.0857099 0.41387
0.0265965 0.100481 0.459022
0.0935225 0.115694 0.498985
0.16939 0.132601 0.535866
0.281376 0.145281 0.568215
0.455543 0.151354 0.571572
0.56701 0.187823 0.585855
0.657832 0.242985 0.620874
0.745892 0.309834 0.664988
0.00660716 0.203967 0.468757
0.0705119 0.231464 0.522988
0.150698 0.26421 0.579461
0.249149 0.305058 0.640787
0.393835 0.34638 0.705425
0.616602 0.376699 0.744961
0.764523 0.429206 0.783276
0.86949 0.484184 0.822889
0.953689 0.531151 0.85388
0.076936 0.398505 0.526787
0.15642 0.461952 0.606165
0.251759 0.527108 0.686519
0.354788 0.586465 0.759945
0.484871 0.62652 0.81912
0.691493 0.629664 0.899245
0.854276 0.636667 0.921263
0.957595 0.653788 0.924025
1 0.673686 0.918914
0.276997 0.647654 0.699641
0.33518 0.703212 0.762356
0.394003 0.745617 0.811719
0.456077 0.776883 0.849546
0.545678 0.79382 0.875761
0.692714 0.788464 0.927703
0.849042 0.778698 0.948791
0.970977 0.777691 0.951141
1 0.782513 0.941299
0.417487 0.808942 0.816175
0.44445 0.842008 0.850294
0.478691 0.86923 0.878584
0.521981 0.891035 0.901396
0.593759 0.902953 0.914748
0.70753 0.90103 0.936461
0.839521 0.892973 0.947662
0.962509 0.887236 0.951217
1 0.883253 0.945006
0.507652 0.909957 0.880156
0.52134 0.937545 0.903243
0.543557 0.961593 0.922728
0.576226 0.981903 0.938613
0.635782 0.99443 0.944778
0.732433 0.997101 0.940566
0.836652 0.997436 0.937179
0.945754 0.996719 0.934905
1 0.992111 0.931456
