All_In_One/Enrich_Colormaster/colormanagement/luts/film_response/BobFord.cube
TITLE "Generate by Resolve"
LUT_3D_SIZE 33
0 0 0
0 0 0
0 0 0
0 0 0
0.0490578 0 0
0.0883803 0 0
0.109361 0 0
0.119875 0 0
0.127993 0 0
0.135607 0 0
0.143664 0 0
0.149233 0 0
0.153048 0 0
0.155352 0 0
0.156481 0 0
0.156649 0 0
0.156542 0 0
0.153704 0 0
0.143755 0 0
0.174594 0 0
0.200565 0 0
0.221546 0 0
0.238407 0 0
0.252934 0 0
0.265751 0 0
0.278004 0 0
0.289494 0 0
0.300343 0 0
0.310658 0 0
0.320439 0 0
0.326604 0 0
0.323919 0 0
0.310201 0 0
0 0 0
0 0 0
0 0 0
0 0 0
0.0139773 0 0
0.0664988 0 0
0.099855 0 0
0.11751 0 0
0.129381 0 0
0.139467 0 0
0.150011 0 0
0.158434 0 0
0.164508 0 0
0.168887 0 0
0.17174 0 0
0.173373 0 0
0.174334 0 0
0.176043 0 0
0.154253 0 0
0.182574 0 0
0.208392 0 0
0.22916 0 0
0.246281 0 0
0.261006 0 0
0.274296 0 0
0.286397 0 0
0.297658 0 0
0.308248 0 0
0.318379 0 0
0.328069 0 0
0.334401 0 0
0.332494 0 0
0.320012 0 0
0 0 0
0 0 0
0 0 0
0 0 0
0 0 0
0.0353552 0 0
0.0808423 0 0
0.107836 0 0
0.125063 0 0
0.138857 0 0
0.151507 0 0
0.163897 0 0
0.172854 0 0
0.179644 0 0
0.184634 0 0
0.188144 0 0
0.190661 0 0
0.194141 0 0
0.17879 0 0
0.191028 0 0
0.216968 0 0
0.237949 0 0
0.25481 0 0
0.269245 0 0
0.282277 0 0
0.294163 0 0
0.305272 0 0
0.315709 0 0
0.325719 0 0
0.335348 0 0
0.341909 0 0
0.340902 0 0
0.329747 0 0
0 0 0
0 0 0
0 0 0
0 0 0
0 0 0
0 0 0
0.0529641 0 0
0.0912337 0 0
0.115267 0 0
0.133639 0 0
0.149355 0 0
0.165362 0 0
0.177996 0 0
0.187579 0 0
0.194873 0 0
0.201053 0 0
0.205966 0 0
0.211215 0 0
0.202731 0 0
0.200229 0 0
0.225757 0 0
0.246387 0 0
0.263005 0 0
0.277272 0 0
0.290105 0 0
0.301823 0 0
0.312825 0 0
0.323186 0 0
0.33312 0 0
0.342733 0 0
0.349523 0 0
0.349508 0 0
0.339757 0 0
0 0 0
0 0 0
0 0 0
0 0 0
0 0 0
0 0 0
0.0135042 0 0
0.066743 0 0
0.100679 0 0
0.124468 0 0
0.144228 0 0
0.162966 0 0
0.180133 0 0
0.1935 0 0
0.204196 0 0
0.213031 0 0
0.220035 0 0
0.226719 0 0
0.223423 0 0
0.208972 0 0
0.234165 0 0
0.254536 0 0
0.270954 0 0
0.285069 0 0
0.29781 0 0
0.309422 0 0
0.320348 0 0
0.330663 0 0
0.340597 0 0
0.350225 0 0
0.357321 0 0
0.358389 0 0
0.350088 0 0
0 0 0
0 0 0
0 0 0
0 0 0
0 0 0
0 0 0
0 0 0
0.0336767 0 0
0.0779889 0 0
0.111833 0 0
0.137118 0 0
0.159289 0 0
0.180102 0 0
0.197086 0 0
0.210605 0 0
0.221958 0 0
0.231495 0 0
0.240146 0 0
0.241413 0 0
0.228428 0 0
0.242267 0 0
0.26244 0 0
0.278721 0 0
0.292729 0 0
0.305425 0 0
0.317006 0 0
0.327901 0 0
0.338201 0 0
0.348272 0 0
0.357961 0 0
0.365438 0 0
0.367651 0 0
0.360922 0 0
0 0 0
0 0 0
0 0 0
0 0 0
0 0 0
0 0 0
0 0 0
0.0136721 0 0
0.056672 0 0
0.0949264 0 0
0.127398 0 0
0.153796 0 0
0.177554 0 0
0.197589 0 0
0.214054 0 0
0.227878 0 0
0.239689 0 0
0.250141 0 0
0.254459 0 0
0.243 0 0
0.256031 0 0
0.27631 0 0
0.292592 0 0
0.306615 0 0
0.319341 0 0
0.331044 0 0
0.342092 0 0
0.352514 0 0
0.36257 0 0
0.372457 0 0
0.380591 0 0
0.384527 0.00457771 0
0.382635 0.0126192 0
0 0 0
0 0 0
0 0 0
0 0 0
0 0 0
0 0 0
0 0 0
0.000946059 0 0
0.0394598 0 0
0.0767681 0 0
0.111666 0 0
0.143786 0 0
0.172229 0 0
0.196216 0 0
0.216388 0 0
0.233356 0 0
0.248035 0 0
0.261158 0 0
0.269444 0 0
0.262119 0 0
0.264332 0 0
0.284504 0 0
0.300771 0 0
0.314809 0 0
0.327535 0 0
0.339239 0 0
0.350347 0.00263981 0
0.360906 0.00756847 0
0.371099 0.0126345 0
0.381125 0.0178836 0
0.389822 0.0236362 0
0.3953 0.0302434 0
0.394888 0.0382544 0
0 0.00347906 0
0 0 0
0 0 0
0 0 0
0 0 0
0 0.000228885 0
0 0.0011902 0
0 0 0
0.0305028 0 0
0.0646372 0 0
0.0984512 0 0
0.131945 0 0
0.16437 0 0
0.192752 0 0
0.216709 0 0
0.237308 0 0
0.255528 0 0
0.271565 0 0
0.283299 0 0
0.279942 0 0
0.273136 0.004654 0
0.293202 0.00671397 0
0.30956 0.010071 0
0.323644 0.013962 0
0.336461 0.0182498 0
0.348226 0.0228885 0
0.359564 0.0279698 0
0.370352 0.0332494 0
0.380819 0.0386969 0
0.391089 0.0442664 0
0.400427 0.0502937 0
0.407568 0.0570687 0
0.408835 0.0652934 0
0 0.0288243 0
0 0.0242924 0
0 0.0196384 0
0 0.0182803 0
0 0.0183719 0
0 0.0198978 0
0 0.0228885 0
0 0.0241703 0
0.0265812 0.0225681 0
0.0584573 0.0213016 0
0.0901198 0.0201572 0
0.122744 0.0188296 0
0.15584 0.0171817 0
0.187839 0.0153048 0
0.216022 0.0137484 0
0.240436 0.0127413 0
0.262226 0.0122225 0
0.281483 0.0125124 0
0.296803 0.0142061 0
0.297368 0.0196078 0
0.292866 0.0269322 0
0.302922 0.0314641 0
0.319173 0.0349126 0
0.333394 0.0391241 0
0.346426 0.0438087 0
0.358434 0.0488136 0
0.369879 0.0541238 0
0.380941 0.0598001 0
0.391836 0.0657664 0
0.402564 0.0718547 0
0.412665 0.0782483 0
0.421439 0.0853132 0
0.424552 0.0939498 0
0 0.052781 0
0 0.048661 0
0 0.0442817 0
0 0.0433661 0
0 0.0433967 0
0 0.0435035 0
0 0.0443885 0
0.000549325 0.0466468 0
0.0267643 0.0477607 0
0.0560006 0.0476387 0
0.0857862 0.0471046 0
0.116686 0.0464485 0
0.148867 0.0453956 0
0.182025 0.0437629 0
0.213977 0.0418708 0
0.242466 0.0401312 0
0.268101 0.0387732 0
0.290791 0.0382544 0
0.30956 0.0391241 0
0.314275 0.0435035 0
0.313207 0.0501259 0
0.313741 0.0570993 0
0.330068 0.0609293 0
0.344442 0.065507 0
0.357763 0.0706493 0
0.370184 0.0762188 0
0.382025 0.0820172 0
0.393515 0.0881819 0
0.404959 0.0947738 0
0.416449 0.101625 0
0.427497 0.108675 0
0.437858 0.116228 0.00859083
0.442924 0.125475 0.0205997
0 0.0760204 0
0 0.0725261 0
0 0.0685435 0
0 0.0677958 0
0 0.0681773 0
0 0.0683909 0
0 0.0684062 0
0.00828565 0.0695201 0
0.0310826 0.0714733 0
0.0568399 0.0726329 0
0.0840162 0.0733654 0
0.113069 0.0735485 0
0.143847 0.0731823 0
0.176623 0.0721599 0
0.210391 0.0704967 0
0.243091 0.0683909 0
0.272877 0.0664683 0
0.299397 0.0652323 0
0.32163 0.0654612 0
0.330465 0.0689403 0
0.333257 0.0750591 0
0.334051 0.0823072 0
0.342397 0.0884565 0
0.357122 0.0935073 0
0.370855 0.0991836 0
0.383871 0.105455 0
0.396399 0.112032 0
0.40853 0.118883 0
0.420706 0.126223 0.00762951
0.433158 0.134066 0.016495
0.445487 0.142214 0.0257267
0.457435 0.150652 0.0354162
0.464652 0.160784 0.0483864
0 0.0987411 0
0 0.0959793 0
0 0.092546 0
0 0.092195 0
0 0.0930953 0
0 0.0939956 0
0 0.0942702 0
0.0130465 0.094789 0
0.0366674 0.0961929 0
0.0600595 0.0980545 0
0.0854353 0.0994888 0
0.112352 0.100587 0
0.141421 0.101274 0
0.173251 0.101091 0
0.207355 0.100099 0
0.242695 0.0981765 0
0.276799 0.0957198 0
0.307454 0.0939193 0
0.333379 0.0937209 0
0.346487 0.0965744 0
0.352743 0.102037 0
0.356512 0.109117 0
0.360372 0.11696 0
0.371527 0.123613 0
0.385901 0.129961 0
0.39971 0.137026 0.00675975
0.413291 0.144671 0.015671
0.426505 0.152605 0.0248264
0.439689 0.160937 0.0343328
0.453483 0.170153 0.0447242
0.467536 0.179965 0.0557412
0.481514 0.190082 0.0671702
0.491234 0.20148 0.0814527
0 0.121248 0
0 0.119493 0
0 0.116838 0
0 0.117021 0
0 0.118151 0
0 0.119341 0
0 0.120394 0
0.0170138 0.121324 0
0.0414893 0.122484 0
0.064622 0.124422 0
0.0885176 0.126528 0
0.114015 0.128313 0
0.141192 0.129809 0
0.171405 0.130816 0
0.205035 0.130892 0
0.241825 0.129747 0
0.279881 0.127382 0
0.314763 0.125185 0
0.344701 0.124636 0
0.362448 0.127123 0
0.372656 0.132296 0
0.379736 0.1393 0
0.386282 0.147509 0
0.393011 0.156329 0.0104372
0.403754 0.164645 0.023743
0.418616 0.172763 0.033341
0.43357 0.181827 0.0438544
0.448508 0.191577 0.0550088
0.46331 0.201602 0.066392
0.478492 0.212268 0.0784009
0.494453 0.224018 0.0915236
0.510964 0.236561 0.105531
0.524041 0.25005 0.121904
0 0.143725 0
0 0.142916 0
0 0.141054 0
0 0.141909 0
0 0.143664 0
0 0.145373 0
0 0.146899 0
0.0213779 0.148669 0
0.0453498 0.150454 0
0.0690166 0.152407 0
0.0923934 0.155077 0
0.117037 0.157595 0
0.143145 0.159854 0
0.171725 0.161685 0
0.204105 0.163226 0
0.241016 0.163409 0
0.281788 0.161868 0
0.321431 0.159731 0
0.35555 0.158999 0
0.378317 0.161349 0
0.39295 0.166659 0
0.403647 0.173907 0
0.413367 0.182681 0.00708019
0.423194 0.19263 0.027039
0.433204 0.203159 0.0457618
0.443351 0.214099 0.0635386
0.458534 0.225086 0.0772717
0.475502 0.236973 0.0907912
0.492668 0.249485 0.104921
0.509926 0.262287 0.11928
0.527779 0.275929 0.134478
0.546563 0.290654 0.15079
0.563317 0.306477 0.169436
0 0.16672 0
0 0.167086 0
0 0.166155 0
0 0.167819 0
0 0.170382 0
0 0.172885 0
0.00331121 0.175143 0
0.026688 0.177646 0
0.0499428 0.180346 0
0.0731975 0.183078 0
0.0966506 0.185992 0
0.120714 0.189319 0
0.146242 0.19263 0
0.174029 0.195453 0
0.204868 0.197833 0
0.240681 0.199603 0
0.282704 0.199756 0
0.326711 0.19855 0
0.365393 0.197986 0
0.393561 0.200488 0
0.413443 0.2065 0
0.428656 0.214664 0.00225834
0.442023 0.224338 0.025452
0.455512 0.23566 0.0471809
0.469184 0.248035 0.0682078
0.483055 0.260945 0.0882429
0.497154 0.274357 0.107866
0.512703 0.289311 0.128206
0.528664 0.304829 0.148623
0.547448 0.320272 0.166644
0.567285 0.335805 0.183917
0.587945 0.352132 0.201968
0.607401 0.369223 0.221698
0 0.190417 0
0 0.192142 0
0 0.192309 0
0 0.194919 0
0 0.198474 0
0 0.202029 0
0.0103761 0.20531 0
0.0327001 0.208774 0
0.0552682 0.212543 0
0.0779736 0.216464 0
0.101091 0.220371 0
0.125032 0.224506 0
0.150134 0.229068 0
0.177462 0.233433 0
0.207675 0.237171 0
0.24242 0.240375 0
0.284062 0.242771 0
0.330983 0.243839 0
0.374884 0.244556 0
0.408789 0.247578 0
0.434394 0.254475 0
0.45507 0.26421 0.0236515
0.473014 0.275456 0.0489052
0.490166 0.288014 0.0723278
0.507652 0.302007 0.0952926
0.525475 0.317052 0.117815
0.543206 0.332509 0.139818
0.561028 0.34847 0.161669
0.5794 0.365179 0.183703
0.598108 0.382498 0.206165
0.616709 0.400046 0.228702
0.634958 0.417624 0.251377
0.653834 0.434913 0.27274
0 0.215641 0
0 0.217945 0
0 0.219257 0
0 0.222965 0
0 0.227741 0
0.000259403 0.232578 0
0.0210269 0.237201 0
0.0420844 0.241901 0
0.0639048 0.247196 0
0.0860609 0.252644 0
0.108797 0.258122 0
0.13254 0.263584 0
0.15761 0.269627 0
0.184863 0.276051 0
0.214923 0.28217 0
0.249271 0.287419 0
0.290272 0.29192 0
0.33727 0.296025 0
0.385153 0.299367 0
0.425299 0.303899 0
0.456367 0.311788 0.0200046
0.482353 0.322896 0.0508888
0.505287 0.336034 0.078294
0.526543 0.350149 0.103578
0.54728 0.365255 0.128008
0.567987 0.381369 0.15198
0.588602 0.398077 0.175677
0.608881 0.415015 0.198901
0.628733 0.431998 0.22182
0.648157 0.448981 0.244587
0.667109 0.46598 0.267414
0.68571 0.482963 0.290257
0.703899 0.499367 0.312016
0 0.245655 0
0 0.249546 0
0 0.252033 0
0 0.256275 0
0 0.261433 0
0.0106966 0.267048 0
0.0326085 0.272816 0
0.0543679 0.278752 0
0.0763409 0.285084 0
0.0989853 0.292134 0
0.122438 0.299718 0
0.146685 0.307317 0
0.172107 0.315175 0
0.199573 0.323781 0
0.229694 0.33286 0
0.263523 0.341314 0
0.30341 0.348516 0
0.350011 0.354986 0
0.399878 0.361105 0
0.445197 0.367971 0.0156405
0.481102 0.377188 0.0535134
0.511604 0.389609 0.086244
0.538216 0.403662 0.114458
0.562844 0.41883 0.140856
0.586145 0.434501 0.166049
0.608637 0.450721 0.190448
0.630182 0.466896 0.214038
0.651148 0.483223 0.237156
0.671443 0.499474 0.259876
0.690623 0.515114 0.281971
0.708614 0.530053 0.303334
0.725826 0.544701 0.324681
0.742687 0.559106 0.345495
0 0.276005 0
0 0.281529 0
0 0.286168 0
0 0.292149 0
0.000701915 0.298726 0
0.0216373 0.305837 0
0.044007 0.313481 0
0.0666514 0.321584 0
0.0893721 0.329854 0
0.11281 0.338796 0
0.137591 0.348653 0
0.163638 0.358953 0
0.190692 0.369223 0
0.219806 0.379767 0
0.25156 0.390951 0
0.287053 0.402121 0
0.327855 0.411994 0
0.374609 0.420447 0.000579843
0.42504 0.428244 0.0248722
0.472847 0.436805 0.0578012
0.512276 0.44741 0.0960708
0.544808 0.4598 0.12958
0.573053 0.473579 0.157412
0.59881 0.488167 0.183017
0.623026 0.503258 0.207614
0.645747 0.51838 0.231067
0.666865 0.532952 0.253346
0.686656 0.547066 0.274617
0.70573 0.56109 0.295537
0.723949 0.574792 0.316091
0.74078 0.587594 0.33576
0.756313 0.599542 0.354849
0.771237 0.611246 0.373724
0 0.30724 0
0 0.314458 0
0 0.32166 0
0.00250248 0.329915 0
0.0234989 0.338643 0
0.0449683 0.347616 0
0.0681468 0.357382 0
0.0921187 0.368017 0
0.116472 0.379049 0
0.141207 0.390326 0
0.167178 0.402365 0
0.194842 0.415198 0
0.223804 0.428275 0
0.254398 0.441093 0
0.287404 0.45388 0.00453193
0.323949 0.466529 0.0199893
0.365408 0.478233 0.0363622
0.41207 0.488319 0.0550698
0.461891 0.496971 0.0788739
0.509407 0.505562 0.109194
0.549584 0.515785 0.143694
0.582696 0.527764 0.177386
0.610925 0.540536 0.204486
0.63592 0.553338 0.228
0.658808 0.566171 0.250217
0.680339 0.579248 0.271641
0.700343 0.591913 0.292088
0.718608 0.603754 0.311254
0.735637 0.61503 0.329641
0.752071 0.62623 0.347921
0.767422 0.636957 0.366003
0.781262 0.646815 0.383963
0.794171 0.656031 0.401083
0 0.342107 0
0 0.351614 0
0.0126802 0.360998 0
0.0345006 0.371603 0
0.0569924 0.383062 0
0.0800031 0.39469 0
0.104219 0.406592 0
0.129427 0.419486 0
0.15555 0.433219 0
0.182086 0.447166 0
0.209262 0.461265 0.00216678
0.237858 0.475868 0.0162356
0.267765 0.490654 0.0310063
0.299306 0.505226 0.0461738
0.332799 0.519188 0.0615854
0.369741 0.532555 0.0777447
0.410559 0.543923 0.0940871
0.456031 0.553796 0.112459
0.504295 0.562219 0.135042
0.550378 0.570184 0.163165
0.588952 0.578622 0.193927
0.620584 0.58851 0.224491
0.647486 0.599466 0.249866
0.671077 0.610361 0.271351
0.692088 0.620798 0.291035
0.711421 0.631189 0.309712
0.729671 0.641596 0.327886
0.746426 0.651453 0.345068
0.761746 0.660517 0.361166
0.776303 0.669184 0.376608
0.790143 0.677821 0.392554
0.802899 0.686076 0.40914
0.814817 0.693706 0.424887
0.0131533 0.382345 0
0.0337072 0.39469 0
0.0557717 0.406806 0
0.0784772 0.419684 0
0.102434 0.433555 0
0.127352 0.447974 0
0.15317 0.462364 0.00868238
0.179431 0.477134 0.020798
0.206439 0.492531 0.0340429
0.234058 0.508324 0.0481422
0.262119 0.524041 0.0625925
0.290806 0.539467 0.0771649
0.320211 0.554498 0.0918135
0.350942 0.569024 0.106538
0.38349 0.582864 0.121431
0.418631 0.595315 0.136248
0.457557 0.605447 0.151064
0.500542 0.613352 0.167239
0.546151 0.619989 0.18706
0.589654 0.626291 0.211734
0.626108 0.63299 0.239765
0.655573 0.640391 0.266423
0.680262 0.648905 0.28925
0.702129 0.657801 0.30869
0.721523 0.6663 0.326223
0.738872 0.674388 0.342489
0.755093 0.68246 0.358251
0.770367 0.690517 0.373571
0.784726 0.698268 0.388342
0.797986 0.705348 0.402213
0.810605 0.712306 0.416327
0.822644 0.719219 0.431128
0.833967 0.726101 0.44686
0.06215 0.429801 0.0065156
0.0844129 0.444694 0.0149691
0.107958 0.459739 0.0236515
0.13193 0.474891 0.0337682
0.156817 0.490501 0.0449989
0.182696 0.50663 0.0572518
0.209613 0.52285 0.0699321
0.236561 0.539025 0.0831464
0.263478 0.555016 0.0967117
0.29044 0.570809 0.110521
0.317723 0.586389 0.124559
0.34551 0.601587 0.138598
0.373495 0.615869 0.152193
0.401984 0.628885 0.165087
0.431876 0.640833 0.177707
0.46453 0.651621 0.190448
0.500984 0.660227 0.203235
0.541192 0.666117 0.216876
0.583749 0.670161 0.233295
0.624552 0.674235 0.253956
0.658946 0.679179 0.278233
0.686397 0.684718 0.303059
0.708797 0.690898 0.323781
0.728695 0.697673 0.340871
0.746685 0.704555 0.356542
0.762798 0.711192 0.371206
0.777615 0.717647 0.38526
0.791608 0.724208 0.399054
0.804913 0.730709 0.412543
0.817533 0.736904 0.425574
0.829435 0.742931 0.438819
0.840909 0.748913 0.452567
0.851804 0.754849 0.466957
0.118624 0.484154 0.0630961
0.141741 0.500694 0.0734417
0.166079 0.517586 0.0841077
0.191073 0.534463 0.0958877
0.216403 0.551156 0.107973
0.241993 0.567651 0.120363
0.268101 0.583749 0.132662
0.294255 0.599771 0.14548
0.320195 0.615396 0.158419
0.345907 0.630549 0.171359
0.370779 0.644327 0.183337
0.396017 0.657603 0.195209
0.421714 0.670253 0.206897
0.448081 0.681804 0.218021
0.475059 0.691539 0.228107
0.504524 0.699977 0.238071
0.53817 0.706676 0.248463
0.575799 0.710918 0.259876
0.615641 0.712963 0.273564
0.653773 0.714656 0.29044
0.686168 0.717693 0.310674
0.712184 0.721874 0.332967
0.733089 0.726665 0.35317
0.751431 0.731868 0.368872
0.768231 0.737438 0.383032
0.78352 0.743114 0.396597
0.797604 0.748684 0.409705
0.810788 0.754284 0.422538
0.823423 0.75996 0.435279
0.835523 0.765515 0.447776
0.846922 0.770901 0.460533
0.857847 0.776165 0.473716
0.86836 0.781445 0.487388
0.180865 0.54406 0.125444
0.204257 0.561364 0.136721
0.228046 0.578378 0.147951
0.252186 0.595132 0.159533
0.276707 0.611658 0.171252
0.301091 0.627527 0.182818
0.325307 0.642329 0.193637
0.34905 0.656413 0.204456
0.37261 0.670237 0.215412
0.395773 0.683406 0.226139
0.418265 0.695354 0.236088
0.440558 0.706279 0.245365
0.463416 0.71667 0.254551
0.487114 0.726192 0.263371
0.511666 0.734188 0.271397
0.538262 0.740505 0.278874
0.569024 0.745174 0.286778
0.604273 0.747936 0.296147
0.642084 0.748821 0.307866
0.678325 0.749081 0.322637
0.709117 0.750576 0.339605
0.734096 0.753582 0.358557
0.754284 0.757717 0.378225
0.771679 0.762051 0.393759
0.787594 0.76669 0.40708
0.802213 0.771649 0.419867
0.815976 0.776806 0.432563
0.82858 0.781735 0.444816
0.840604 0.786725 0.456992
0.852216 0.791714 0.469093
0.863264 0.796658 0.481575
0.873823 0.801434 0.494362
0.88397 0.806165 0.507561
0.243565 0.604135 0.188769
0.266178 0.621118 0.199557
0.288594 0.637247 0.209995
0.310582 0.652384 0.220096
0.33257 0.666957 0.229892
0.354711 0.681132 0.239658
0.376699 0.694286 0.248646
0.397742 0.70631 0.257099
0.418296 0.717647 0.265385
0.438804 0.728664 0.273808
0.459007 0.738857 0.281804
0.478859 0.747845 0.288945
0.498909 0.755978 0.295674
0.520119 0.763546 0.302403
0.542626 0.770138 0.308751
0.567254 0.775219 0.314565
0.595773 0.7785 0.320531
0.628946 0.780072 0.32813
0.665141 0.780118 0.338537
0.700084 0.77969 0.35198
0.729717 0.780301 0.367239
0.753887 0.782437 0.383566
0.773465 0.785779 0.400717
0.790249 0.789578 0.416571
0.805493 0.793606 0.429709
0.819532 0.79794 0.441932
0.832654 0.802441 0.454063
0.844892 0.806943 0.465995
0.856458 0.811429 0.477821
0.867658 0.815961 0.489555
0.878401 0.820493 0.501747
0.888411 0.824979 0.515602
0.896849 0.830045 0.534569
0.324147 0.650996 0.296666
0.350011 0.663859 0.318761
0.367971 0.679149 0.327337
0.383932 0.694301 0.332723
0.399359 0.707912 0.337102
0.415106 0.720897 0.341421
0.431373 0.733303 0.345373
0.447532 0.744854 0.349294
0.463081 0.755062 0.352636
