All_In_One/Enrich_Colormaster/colormanagement/luts/film_response/BobFord.cube
TITLE "Generate by Resolve"
LUT_3D_SIZE 5
0 0 0
0.127993 0 0
0.156542 0 0
0.265751 0 0
0.310201 0 0
0 0.00347906 0
0.0305028 0 0
0.255528 0 0
0.336461 0.0182498 0
0.408835 0.0652934 0
0 0.190417 0
0.0552682 0.212543 0
0.284062 0.242771 0
0.507652 0.302007 0.0952926
0.653834 0.434913 0.27274
0.118624 0.484154 0.0630961
0.320195 0.615396 0.158419
0.53817 0.706676 0.248463
0.768231 0.737438 0.383032
0.86836 0.781445 0.487388
0.503716 0.84033 0.456779
0.607507 0.886778 0.513344
0.721584 0.920806 0.517952
0.892607 0.927031 0.573602
0.980743 0.954253 0.633692
0 0 0
0.0682383 0 0
0.228382 0 0
0.240894 0 0
0.294835 0 0
0 0.007187 0
0.0393835 0 0
0.34699 0 0
0.365774 0.0244144 0.00733959
0.416922 0.0825208 0.0647135
0 0.210391 0
0.0249332 0.242084 0
0.316182 0.267903 0
0.611811 0.327932 0.153384
0.76463 0.465736 0.328344
0.124941 0.542611 0.159411
0.322957 0.669841 0.243626
0.539055 0.745007 0.300877
0.801877 0.759411 0.380621
0.915267 0.795575 0.475746
0.476356 0.874372 0.499535
0.56199 0.924285 0.509621
0.684642 0.956222 0.502922
0.901778 0.94966 0.540917
1 0.971359 0.607813
0 0 0.0746014
0 0 0.114427
0.197101 0 0.103441
0.241276 0 0.0205997
0.298955 0 0.0408637
0 0 0.17641
0.0391852 0 0.212009
0.317128 0 0.210208
0.449638 0.0121767 0.129778
0.485039 0.0834058 0.165621
0 0.209583 0.155505
0.0223239 0.255329 0.194842
0.343587 0.286152 0.223041
0.716304 0.350301 0.30692
0.866941 0.486809 0.447776
0.139879 0.59292 0.31667
0.322759 0.712703 0.394354
0.509331 0.781262 0.408682
0.828733 0.77528 0.43151
0.964324 0.803265 0.518624
0.451575 0.901427 0.592203
0.526726 0.951461 0.584695
0.646311 0.983642 0.561288
0.903502 0.970382 0.549737
1 0.985473 0.615198
0 0 0.201648
0 0 0.255375
0.116381 0 0.274434
0.270359 0 0.210208
0.288746 0 0.184894
0 0 0.327092
0.0360876 0 0.378943
0.220523 0.00903334 0.405798
0.45156 0.0180819 0.36997
0.527047 0.0859541 0.376074
0 0.194186 0.402899
0.109224 0.241993 0.479377
0.356756 0.305409 0.599954
0.758526 0.376181 0.652049
0.936355 0.498466 0.717998
0.199954 0.619043 0.580423
0.344228 0.729503 0.682139
0.495048 0.791165 0.735943
0.844846 0.773861 0.712398
1 0.782101 0.72874
0.46363 0.906416 0.78967
0.512489 0.958587 0.810849
0.620691 0.990066 0.807965
0.837293 0.994064 0.714183
1 0.989624 0.732937
0 0 0.206821
0 0 0.276768
0.0961929 0 0.316838
0.258259 0 0.27303
0.301152 0 0.253544
0 0 0.351476
0.0459602 0.0152132 0.429755
0.212222 0.0301671 0.479301
0.436515 0.045243 0.454749
0.536538 0.11397 0.470344
0.00660716 0.203967 0.468757
0.150698 0.26421 0.579461
0.393835 0.34638 0.705425
0.764523 0.429206 0.783276
0.953689 0.531151 0.85388
0.276997 0.647654 0.699641
0.394003 0.745617 0.811719
0.545678 0.79382 0.875761
0.849042 0.778698 0.948791
1 0.782513 0.941299
0.507652 0.909957 0.880156
0.543557 0.961593 0.922728
0.635782 0.99443 0.944778
0.836652 0.997436 0.937179
1 0.992111 0.931456
