All_In_One/Enrich_Colormaster/colormanagement/luts/film_response/carbon_saber.cube
TITLE "Generate by Resolve"
LUT_3D_SIZE 9
0 0 0
0 0 0
0 0 0
0.03505 0.0011902 0.0011902
0.114473 0 0
0.234775 0 0
0.380179 0 0
0.532738 0 0
0.753155 0 0
0.00376898 0.0157015 0.00376898
0.024445 0.024445 0.000717174
0.0785229 0.0243076 0
0.168872 0.0124666 0
0.296941 0 0
0.541054 0 0
0.912215 0 0
1 0 0
1 0 0
0 0.082475 0
0 0.0901961 0
0.0983902 0.0983902 0
0.306722 0.0842298 0
0.5823 0.0446632 0
0.935851 0 0
1 0 0
1 0 0
1 0 0
0 0.277974 0
0 0.299458 0
0 0.297658 0
0.267399 0.267384 0
0.57908 0.226001 0
0.894804 0.184619 0
1 0.146258 0
1 0.13109 0
1 0.13402 0
0 0.549599 0
0 0.544625 0
0 0.521233 0
0.132052 0.485786 0
0.447608 0.447608 0
0.768368 0.41062 0
1 0.378332 0
1 0.371099 0
1 0.385306 0
0 0.770962 0
0 0.769635 0
0 0.751064 0
0.00956741 0.722225 0
0.334813 0.693095 0
0.669184 0.669184 0
1 0.65478 0
1 0.667659 0
1 0.699535 0
0 1 0
0 1 0
0 1 0
0 1 0
0.288212 0.993988 0
0.645609 0.970428 0
0.919341 0.919341 0
0.959487 0.910506 0.534569
0.955184 0.939406 0.867109
0 1 0
0 1 0
0 1 0
0.483528 1 0.140093
0.842832 0.952895 0.709026
0.946426 0.955734 0.922591
0.982879 0.982879 0.982879
1 1 1
1 1 1
0.415106 1 0.415106
0.832074 0.966155 0.820203
0.957809 0.965759 0.955764
0.992645 0.992645 0.992645
1 1 1
1 1 1
1 1 1
1 1 1
1 1 1
0 0 0
0 0 0
0.00144961 0.000640879 0.000961318
0.0458534 0.000564584 0.0110323
0.129992 0 0.0125429
0.255634 0 0.00370794
0.404013 0 0
0.560189 0 0
0.83061 0 0
0.00326543 0.0181277 0.0181277
0.0254063 0.0254063 0.0254063
0.081651 0.0231632 0.0231632
0.176165 0.00946059 0.00946059
0.316915 0 0
0.589364 0 0
0.964019 0 0
1 0 0
1 0 0
0 0.0832837 0.00164797
0 0.0948806 0
0.101244 0.101244 0
0.312932 0.0798657 0
0.599939 0.0379034 0
0.95964 0 0
1 0 0
1 0 0
1 0 0
0 0.282445 0
0 0.303731 0
0 0.297612 0
0.26392 0.26392 0
0.576059 0.222904 0
0.891844 0.181506 0
1 0.143496 0
1 0.128923 0
1 0.132494 0
0 0.546487 0
0 0.541619 0
0 0.51809 0
0.129381 0.483192 0
0.445487 0.445487 0
0.76669 0.408881 0
1 0.377249 0
1 0.371542 0
1 0.387839 0
0 0.768841 0
0 0.768048 0
0 0.749966 0
0.00935378 0.722133 0
0.336416 0.694774 0
0.672786 0.672786 0
1 0.6598 0
1 0.673335 0
1 0.707469 0
0 1 0
0 1 0
0 1 0
0 1 0
0.294911 1 0
0.662623 0.963989 0
0.912169 0.912154 0.127626
0.949096 0.917372 0.698039
0.956985 0.94876 0.914855
0 1 0
0 1 0
0 1 0
0.598779 1 0.407279
0.879683 0.949004 0.808881
0.959381 0.962829 0.951629
0.990814 0.990814 0.990814
1 1 1
1 1 1
0.581582 1 0.617014
0.884352 0.960327 0.884352
0.971939 0.972869 0.971801
0.998657 0.998657 0.998657
1 1 1
1 1 1
1 1 1
1 1 1
1 1 1
0 0 0
0 0 0
0.00633249 0.00122072 0.00633249
0.0550393 0 0.0313878
0.142199 0 0.0484932
0.270756 0 0.0561685
0.423102 0 0.0524605
0.591012 0 0.0477607
0.899184 0 0.0508736
0.00163272 0.0189975 0.0450752
0.0245975 0.0245975 0.0691844
0.0824903 0.0200198 0.0824903
0.180255 0.00408942 0.0835737
0.340627 0 0.0802167
0.634119 0 0.0731212
0.995758 0 0.0455329
1 0 0.0175479
1 0 0
0 0.081529 0.081529
0 0.095552 0.095552
0.0981155 0.0981155 0.0981155
0.31281 0.0698253 0.0698253
0.609705 0.0248417 0.0248417
0.969512 0 0
1 0 0
1 0 0
1 0 0
0 0.281453 0.0218204
0 0.299931 0
0 0.289311 0
0.253071 0.253056 0
0.565423 0.212192 0
0.881498 0.171008 0
1 0.133257 0
1 0.119158 0
1 0.123308 0
0 0.535866 0
0 0.53135 0
0 0.508064 0
0.119417 0.473289 0
0.436255 0.43624 0
0.758175 0.40029 0
1 0.369589 0
1 0.364965 0
1 0.383185 0
0 0.75903 0
0 0.758938 0
0 0.741512 0
0.00155642 0.714458 0
0.329809 0.688228 0
0.668574 0.668559 0
1 0.657298 0
1 0.67155 0
1 0.710323 0
0 1 0
0 1 0
0 1 0
0 1 0
0.297566 0.995712 0
0.676722 0.948714 0
0.906111 0.906111 0.410986
0.945174 0.924086 0.80235
0.961135 0.957366 0.944411
0 1 0
0 1 0
0.0915236 1 0.0915236
0.689036 0.978058 0.614435
0.907652 0.949294 0.877256
0.969421 0.970153 0.968109
0.996551 0.996551 0.996551
1 1 1
1 1 1
0.693324 0.988098 0.753307
0.918547 0.959716 0.924025
0.980438 0.980438 0.980438
1 1 1
1 1 1
1 1 1
1 1 1
1 1 1
1 1 1
0 0 0
0 0 0
0.0108492 0.00128176 0.0178378
0.061677 0 0.061677
0.153399 0 0.100145
0.283223 0 0.127672
0.439399 0 0.142489
0.632547 0 0.163867
0.965652 0 0.215183
0 0.0186618 0.0841077
0.0222782 0.0222782 0.129824
0.0817273 0.0152743 0.162554
0.181964 0 0.181979
0.363516 0 0.216754
0.671458 0 0.259464
1 0 0.269001
1 0 0.279072
1 0 0.296651
0 0.0785229 0.190036
0 0.0924392 0.250721
0.0893873 0.0893873 0.30341
0.308858 0.0556649 0.308858
0.613214 0.00723278 0.301915
0.970596 0 0.277058
1 0 0.239277
1 0 0.221958
1 0 0.222019
0 0.275074 0.275074
0 0.29012 0.29012
0 0.27509 0.27509
0.23772 0.23772 0.23772
0.55024 0.196948 0.196948
0.866728 0.1561 0.1561
1 0.118685 0.118685
1 0.104799 0.104799
1 0.109483 0.109483
0 0.520287 0.167163
0 0.516121 0.162707
0 0.493202 0.139513
0.104906 0.458854 0.104906
0.42211 0.42211 0.0679026
0.745007 0.38706 0.0326238
1 0.357092 0.00242618
1 0.353582 0
1 0.373266 0.0181735
0 0.744762 0.0331731
0 0.745052 0.0329595
0 0.728527 0.0159609
0 0.702525 0
0.319615 0.67808 0
0.659876 0.659876 0
0.997086 0.650156 0
1 0.664866 0
1 0.712261 0.117189
0 0.990204 0
0 1 0
0 1 0
0 1 0
0.302068 0.98262 0
0.692546 0.930343 0.203052
0.904082 0.904082 0.629053
0.945159 0.931487 0.871565
0.966873 0.965652 0.962448
0 1 0
0 1 0.0710765
0.23444 1 0.40737
0.758877 0.960449 0.758877
0.928023 0.952224 0.918959
0.977295 0.977295 0.977295
1 1 1
1 1 1
1 1 1
0.772824 0.971054 0.842634
0.942718 0.962249 0.94847
0.987335 0.987335 0.987335
1 1 1
1 1 1
1 1 1
1 1 1
1 1 1
1 1 1
0 0 0
0 0 0
0.0151217 0.000747692 0.0367132
0.0679484 0 0.101167
0.16289 0 0.16289
0.295048 0 0.211933
0.454322 0 0.246677
0.68304 0 0.309392
1 0 0.416556
0 0.0174868 0.132448
0.0189364 0.0189364 0.202228
0.0798047 0.00946059 0.255741
0.183581 0 0.296788
0.383215 0 0.383215
0.702449 0 0.481193
1 0 0.52343
1 0 0.575372
1 0 0.624277
0 0.0756695 0.324178
0 0.087541 0.441474
0.0772106 0.0772106 0.538277
0.302586 0.0392615 0.580743
0.613184 0 0.613184
0.965728 0 0.611826
1 0 0.575387
1 0 0.558511
1 0 0.558999
0 0.2663 0.562676
0 0.277424 0.612436
0 0.257908 0.610697
0.220752 0.220752 0.573831
0.533562 0.180194 0.533562
0.850446 0.139666 0.493324
1 0.102632 0.45655
1 0.089189 0.443366
1 0.0944686 0.44889
0 0.503609 0.503609
0 0.499336 0.499336
0 0.476829 0.476829
0.0887922 0.442817 0.442817
0.406561 0.406561 0.406561
0.729854 0.371862 0.371862
1 0.343008 0.343008
1 0.341238 0.341253
1 0.362951 0.362951
0 0.729183 0.371572
0 0.729992 0.372137
0 0.714183 0.356085
0 0.689601 0.331289
0.308232 0.666758 0.308232
0.649699 0.649699 0.291005
0.987381 0.640436 0.281621
1 0.657282 0.305516
1 0.717708 0.449577
0 0.977523 0.272572
0 0.993713 0.288365
0 0.996811 0.291157
0 0.991501 0.28571
0.31519 0.965896 0.31519
0.714916 0.913787 0.509255
0.906691 0.906691 0.777584
0.948043 0.939696 0.915328
0.973404 0.973251 0.972992
0 1 0.308995
0 1 0.414603
0.370535 1 0.649638
0.813123 0.951095 0.850736
0.944442 0.957015 0.944442
0.984192 0.984192 0.984192
1 1 1
1 1 1
1 1 1
0.831983 0.961944 0.898146
0.959976 0.966842 0.963165
0.992645 0.992645 0.992645
1 1 1
1 1 1
1 1 1
1 1 1
1 1 1
1 1 1
0 0 0
0 0 0
0.018677 0 0.0621042
0.0741131 0 0.149889
0.17258 0 0.236469
0.306355 0 0.306355
0.469917 0 0.362493
0.732433 0 0.479637
1 0 0.647349
0 0.0158083 0.191699
0.0149538 0.0149538 0.286885
0.0772106 0.00285344 0.359701
0.187518 0 0.431113
0.404242 0 0.579309
0.723964 0 0.723964
1 0 0.80148
1 0 0.894179
1 0 0.9664
0 0.0723735 0.485039
0 0.0808576 0.663691
0.0631571 0.0631723 0.792203
0.295491 0.0215915 0.877028
0.609583 0 0.943069
0.953384 0 0.953384
1 0 0.914885
1 0 0.898482
1 0 0.899351
0 0.256062 0.873396
0 0.263096 0.95111
0 0.240558 0.949752
0.203616 0.203632 0.913405
0.516503 0.163058 0.873411
0.833509 0.122606 0.833509
1 0.0861219 0.797574
1 0.0731975 0.785153
1 0.079118 0.791562
0 0.486702 0.843442
0 0.482658 0.839689
0 0.460365 0.817655
0.0727855 0.426871 0.784436
0.391104 0.391104 0.748913
0.71516 0.357107 0.71516
1 0.329168 0.687449
1 0.329473 0.687968
1 0.352758 0.711437
0 0.713146 0.71313
0 0.714595 0.714595
0 0.699443 0.699443
0 0.675975 0.675975
0.296529 0.655116 0.655116
0.639841 0.639841 0.639841
0.978378 0.631418 0.631418
1 0.652445 0.652445
1 0.730236 0.730251
0 0.965255 0.618647
0 0.983307 0.63653
0 0.98764 0.640726
0 0.98172 0.634989
0.338811 0.947372 0.648203
0.742504 0.902068 0.742504
0.912322 0.912322 0.868101
0.952956 0.948318 0.941665
0.980377 0.980377 0.980377
0 1 0.659037
0 1 0.717571
0.49781 0.996262 0.817197
0.855512 0.947555 0.905959
0.957595 0.962936 0.959609
0.989654 0.989654 0.989654
1 1 1
1 1 1
1 1 1
0.87837 0.958221 0.93167
0.972244 0.973159 0.972824
0.996796 0.996796 0.996796
1 1 1
1 1 1
1 1 1
1 1 1
1 1 1
1 1 1
0 0 0
0 0 0
0.0221256 0 0.0952163
0.0801251 0 0.20679
0.183215 0 0.320378
0.318608 0 0.40911
0.490593 0 0.490593
0.786267 0 0.673091
1 0 0.891707
0 0.0135042 0.257755
0.0103151 0.0103304 0.378683
0.0743267 0 0.471504
0.1953 0 0.590692
0.426856 0 0.801602
0.740307 0 0.975891
1 0 1
1 0 1
1 0 1
0 0.0682536 0.668238
0 0.0724498 0.905379
0.0485237 0.0485237 1
0.287846 0.00341802 1
0.60502 0 1
0.937224 0 1
1 0 1
1 0 1
1 0 1
0 0.244862 1
0 0.248402 1
0 0.224338 1
0.187579 0.187579 1
0.50074 0.147234 1
0.818143 0.107088 1
1 0.0707866 1
1 0.0586252 1
1 0.0651713 1
0 0.470527 1
0 0.466743 1
0 0.444694 1
0.0574044 0.411551 1
0.376562 0.376562 1
0.701427 0.343313 1
1 0.31664 1
1 0.318181 1
1 0.343297 1
0 0.698589 1
0 0.700694 1
0 0.686305 1
0 0.664164 1
0.28661 0.645243 0.991989
0.63151 0.63151 0.978408
0.970489 0.623529 0.970489
1 0.651759 0.96405
1 0.749935 0.933593
0 0.953902 0.953887
0 0.973831 0.973816
0 0.97908 0.979065
0 0.971069 0.971069
0.379004 0.929519 0.929519
0.77496 0.896696 0.896696
0.920012 0.920012 0.920012
0.959091 0.956878 0.956878
0.986084 0.986084 0.986084
0 1 0.982483
0 1 0.949996
0.607111 0.971649 0.91783
0.889876 0.948074 0.937255
0.968353 0.96968 0.969345
0.994339 0.994339 0.994339
1 1 1
1 1 1
1 1 1
0.914321 0.958541 0.950622
0.979904 0.979904 0.979904
1 1 1
1 1 1
1 1 1
1 1 1
1 1 1
1 1 1
1 1 1
0 0 0
0.00184634 0.000549325 0.0152743
0.0265965 0 0.13547
0.0885481 0 0.265675
0.19675 0 0.398581
0.33463 0 0.498436
0.530663 0 0.617792
0.85597 0 0.85597
1 0 1
0 0.0120089 0.327031
0.00672923 0.00672923 0.460258
0.0734112 0 0.567864
0.20856 0 0.745418
0.454948 0 1
0.762097 0 1
1 0 1
1 0 1
1 0 1
0 0.0668498 0.841382
0 0.0671092 1
0.0387884 0.0387884 1
0.286748 0 1
0.606394 0 1
0.929595 0 1
1 0 1
1 0 1
1 0 1
0 0.24097 1
0 0.241001 1
0 0.216327 1
0.179614 0.179629 1
0.493477 0.139879 1
0.811337 0.100145 1
1 0.064271 1
1 0.0524453 1
1 0.0600443 1
0 0.462882 1
0 0.459602 1
0 0.437873 1
0.0509804 0.405203 1
0.370764 0.370764 1
0.696925 0.33875 1
1 0.313466 1
1 0.31696 1
1 0.34342 1
0 0.692424 1
0 0.695201 1
0 0.682139 1
0 0.661723 1
0.285695 0.644358 1
0.631724 0.631739 1
0.970169 0.624933 1
1 0.666865 1
1 0.782406 1
0 0.952499 1
0 0.973663 1
0 0.980285 1
0 0.96611 1
0.443671 0.918257 1
0.812451 0.899626 0.960433
0.929946 0.929946 0.943099
0.96669 0.966033 0.96669
0.991501 0.991501 0.991501
0 1 1
0.0951095 1 1
0.71284 0.956115 0.956115
0.920684 0.952209 0.952209
0.977569 0.977569 0.977569
0.998611 0.998611 0.998611
1 1 1
1 1 1
1 1 1
0.942123 0.962066 0.960632
0.986221 0.986221 0.986221
1 1 1
1 1 1
1 1 1
1 1 1
1 1 1
1 1 1
1 1 1
0 0 0
0.00422675 0.000289921 0.0487831
0.0322271 0 0.183551
0.100175 0 0.330739
0.21091 0 0.468162
0.353674 0 0.577157
0.586938 0 0.749737
0.937072 0 1
1 0 1
0 0.0110781 0.400092
0.00401312 0.00401312 0.534905
0.0744945 0 0.655894
0.225544 0 0.894667
0.485161 0 1
0.790875 0 1
1 0 1
1 0 1
1 0 1
0 0.0680858 1
0 0.0638437 1
0.0333104 0.0333257 1
0.290806 0 1
0.611933 0 1
0.927977 0 1
1 0 1
1 0 1
1 0 1
0 0.242008 1
0 0.239261 1
0 0.214954 1
0.178332 0.178332 1
0.492164 0.138506 1
0.810422 0.0990768 1
1 0.0639963 1
1 0.0529488 1
1 0.0612955 1
0 0.46186 1
0 0.458686 1
0 0.437629 1
0.0513466 0.405646 1
0.371908 0.371908 1
0.69894 0.340688 1
1 0.317296 1
1 0.323064 1
1 0.350835 1
0 0.692821 1
0 0.69659 1
0 0.68484 1
0 0.666728 1
0.292576 0.651301 1
0.639735 0.639735 1
0.972702 0.635508 1
1 0.695216 1
1 0.818006 1
0 0.958434 1
0 0.981186 1
0 0.987625 1
0.00230411 0.963256 1
0.530968 0.911742 1
0.849989 0.907927 0.975647
0.941711 0.941711 0.953536
0.975326 0.975296 0.975341
0.996658 0.996658 0.996658
0 1 1
0.30219 1 1
0.79498 0.949447 0.964843
0.943603 0.958251 0.960082
0.984497 0.984497 0.984497
1 1 1
1 1 1
1 1 1
1 1 1
0.963638 0.968521 0.968521
0.992081 0.992081 0.992081
1 1 1
1 1 1
1 1 1
1 1 1
1 1 1
1 1 1
1 1 1
