All_In_One/Enrich_Colormaster/colormanagement/luts/film_response/carbon_saber.cube
TITLE "Generate by Resolve"
LUT_3D_SIZE 5
0 0 0
0 0 0
0.114473 0 0
0.380179 0 0
0.753155 0 0
0 0.082475 0
0.0983902 0.0983902 0
0.5823 0.0446632 0
1 0 0
1 0 0
0 0.549599 0
0 0.521233 0
0.447608 0.447608 0
1 0.378332 0
1 0.385306 0
0 1 0
0 1 0
0.288212 0.993988 0
0.919341 0.919341 0
0.955184 0.939406 0.867109
0.415106 1 0.415106
0.957809 0.965759 0.955764
1 1 1
1 1 1
1 1 1
0 0 0
0.00633249 0.00122072 0.00633249
0.142199 0 0.0484932
0.423102 0 0.0524605
0.899184 0 0.0508736
0 0.081529 0.081529
0.0981155 0.0981155 0.0981155
0.609705 0.0248417 0.0248417
1 0 0
1 0 0
0 0.535866 0
0 0.508064 0
0.436255 0.43624 0
1 0.369589 0
1 0.383185 0
0 1 0
0 1 0
0.297566 0.995712 0
0.906111 0.906111 0.410986
0.961135 0.957366 0.944411
0.693324 0.988098 0.753307
0.980438 0.980438 0.980438
1 1 1
1 1 1
1 1 1
0 0 0
0.0151217 0.000747692 0.0367132
0.16289 0 0.16289
0.454322 0 0.246677
1 0 0.416556
0 0.0756695 0.324178
0.0772106 0.0772106 0.538277
0.613184 0 0.613184
1 0 0.575387
1 0 0.558999
0 0.503609 0.503609
0 0.476829 0.476829
0.406561 0.406561 0.406561
1 0.343008 0.343008
1 0.362951 0.362951
0 0.977523 0.272572
0 0.996811 0.291157
0.31519 0.965896 0.31519
0.906691 0.906691 0.777584
0.973404 0.973251 0.972992
0.831983 0.961944 0.898146
0.992645 0.992645 0.992645
1 1 1
1 1 1
1 1 1
0 0 0
0.0221256 0 0.0952163
0.183215 0 0.320378
0.490593 0 0.490593
1 0 0.891707
0 0.0682536 0.668238
0.0485237 0.0485237 1
0.60502 0 1
1 0 1
1 0 1
0 0.470527 1
0 0.444694 1
0.376562 0.376562 1
1 0.31664 1
1 0.343297 1
0 0.953902 0.953887
0 0.97908 0.979065
0.379004 0.929519 0.929519
0.920012 0.920012 0.920012
0.986084 0.986084 0.986084
0.914321 0.958541 0.950622
1 1 1
1 1 1
1 1 1
1 1 1
0 0 0
0.0322271 0 0.183551
0.21091 0 0.468162
0.586938 0 0.749737
1 0 1
0 0.0680858 1
0.0333104 0.0333257 1
0.611933 0 1
1 0 1
1 0 1
0 0.46186 1
0 0.437629 1
0.371908 0.371908 1
1 0.317296 1
1 0.350835 1
0 0.958434 1
0 0.987625 1
0.530968 0.911742 1
0.941711 0.941711 0.953536
0.996658 0.996658 0.996658
0.963638 0.968521 0.968521
1 1 1
1 1 1
1 1 1
1 1 1
