All_In_One/Enrich_Colormaster/colormanagement/luts/film_response/carbon_saber.cube
TITLE "Generate by Resolve"
LUT_3D_SIZE 33
0 0 0
0 0 0
0 0 0
0 0 0
0 0 0
0 0 0
0 0 0
0 0 0
0 0 0
0.00190738 0.000686656 0.000686656
0.0101015 0.00137331 0.00137331
0.0214084 0.00158694 0.00158694
0.03505 0.0011902 0.0011902
0.0508431 0.000259403 0.000259403
0.0699474 0 0
0.0906386 0 0
0.114473 0 0
0.139849 0 0
0.168231 0 0
0.200824 0 0
0.234775 0 0
0.27013 0 0
0.306523 0 0
0.342489 0 0
0.380179 0 0
0.420539 0 0
0.461128 0 0
0.497948 0 0
0.532738 0 0
0.56878 0 0
0.613962 0 0
0.676097 0 0
0.753155 0 0
0 0 0
0 0 0
0 0 0
0 0 0
0 0 0
0 0 0
0.00323491 0.00151064 0.00115969
0.00926223 0.00292973 0.00196841
0.0174563 0.00395209 0.00230411
0.0281529 0.00450141 0.00209049
0.0405432 0.00450141 0.00135805
0.0563211 0.00389105 0
0.0735027 0.00256352 0
0.0928969 0.000610361 0
0.11548 0 0
0.140063 0 0
0.167681 0 0
0.199023 0 0
0.230747 0 0
0.262715 0 0
0.296635 0 0
0.332219 0 0
0.370428 0 0
0.410269 0 0
0.451453 0 0
0.494636 0 0
0.539361 0 0
0.589471 0 0
0.652781 0 0
0.727031 0 0
0.808255 0 0
0.895979 0 0
0.992218 0 0
0 0 0
0 0 0
0.000396735 0.000396735 0.000396735
0.00302129 0.00254826 0.00157168
0.00706493 0.00485237 0.00259403
0.012314 0.00675975 0.00317388
0.0196384 0.00831617 0.00335698
0.0289769 0.00920119 0.00282292
0.0404212 0.00950637 0.00169375
0.0544594 0.00929274 0
0.0705119 0.0083772 0
0.0890974 0.00683604 0
0.110246 0.00462348 0
0.134051 0.00173953 0
0.160281 0 0
0.188113 0 0
0.216587 0 0
0.24744 0 0
0.280583 0 0
0.316213 0 0
0.353719 0 0
0.392615 0 0
0.433982 0 0
0.480735 0 0
0.540368 0 0
0.616175 0 0
0.699214 0 0
0.779828 0 0
0.863722 0 0
0.953216 0 0
1 0 0
1 0 0
1 0 0
0.00202945 0.00421149 0.00202945
0.0043946 0.00700389 0.00289921
0.00755322 0.00950637 0.00344854
0.0118868 0.0118868 0.0037995
0.0175021 0.0139925 0.00370794
0.024567 0.0155032 0.00311284
0.034287 0.0164492 0.00181582
0.0463874 0.0165713 0
0.0608682 0.0160983 0
0.0785534 0.0151827 0
0.0982834 0.0134585 0
0.119997 0.0110323 0
0.143725 0.00790417 0
0.168582 0.0041352 0
0.195789 0 0
0.22562 0 0
0.257679 0 0
0.291707 0 0
0.328481 0 0
0.367544 0 0
0.413581 0 0
0.472999 0 0
0.545861 0 0
0.626383 0 0
0.713619 0 0
0.81033 0 0
0.911269 0 0
1 0 0
1 0 0
1 0 0
1 0 0
1 0 0
1 0 0
0.00376898 0.0157015 0.00376898
0.00753796 0.0183871 0.00347906
0.0119478 0.0207675 0.00292973
0.0174563 0.0227207 0.00202945
0.024445 0.024445 0.000717174
0.0333257 0.0255741 0
0.0454719 0.0259403 0
0.0609751 0.0255589 0
0.0785229 0.0243076 0
0.0976883 0.0222782 0
0.11902 0.0195773 0
0.142657 0.0163424 0
0.168872 0.0124666 0
0.197131 0.00798047 0
0.22768 0.0028687 0
0.260563 0 0
0.296941 0 0
0.341405 0 0
0.398901 0 0
0.467247 0 0
0.541054 0 0
0.622889 0 0
0.713954 0 0
0.812146 0 0
0.912215 0 0
1 0 0
1 0 0
1 0 0
1 0 0
1 0 0
1 0 0
1 0 0
1 0 0
0.000946059 0.0292363 0.000946059
0.00608835 0.0314183 0
0.0116884 0.0337224 0
0.0186007 0.035584 0
0.0269932 0.0369421 0
0.0375677 0.0375677 0
0.0514229 0.0369268 0
0.0684977 0.0354314 0
0.0881666 0.0334173 0
0.110033 0.0307774 0
0.134463 0.0274968 0
0.160891 0.0235599 0
0.190082 0.0189975 0
0.223377 0.0139315 0
0.265187 0.00820935 0
0.31725 0.00154116 0
0.376898 0 0
0.442496 0 0
0.5178 0 0
0.600305 0 0
0.691249 0 0
0.781872 0 0
0.869169 0 0
0.953933 0 0
1 0 0
1 0 0
1 0 0
1 0 0
1 0 0
1 0 0
1 0 0
1 0 0
1 0 0
0 0.0456092 0
0 0.047425 0
0.00494392 0.0489509 0
0.0128328 0.0500343 0
0.0221866 0.0506905 0
0.0339818 0.0508431 0
0.0498665 0.0498665 0
0.069337 0.0478828 0
0.0915236 0.0453346 0
0.116167 0.0422217 0
0.145418 0.0388647 0
0.181842 0.0355077 0
0.226535 0.0314794 0
0.277394 0.026276 0
0.335286 0.0196994 0
0.40119 0.0118563 0
0.4748 0.00259403 0
0.553658 0 0
0.634058 0 0
0.712566 0 0
0.791272 0 0
0.874037 0 0
0.963226 0 0
1 0 0
1 0 0
1 0 0
1 0 0
1 0 0
1 0 0
1 0 0
1 0 0
1 0 0
1 0 0
0 0.0628824 0
0 0.0641489 0
0 0.0656443 0
0.00015259 0.0666361 0
0.010605 0.0671702 0
0.0237278 0.0670787 0
0.0417334 0.0661021 0
0.065156 0.065156 0
0.0944076 0.0646677 0
0.130022 0.06392 0
0.171328 0.0616922 0
0.219257 0.0584268 0
0.274998 0.0539712 0
0.337377 0.0480964 0
0.404334 0.0403601 0
0.473518 0.0310216 0
0.543114 0.0201877 0
0.615457 0.00831617 0
0.693263 0 0
0.77763 0 0
0.867567 0 0
0.960571 0 0
1 0 0
1 0 0
1 0 0
1 0 0
1 0 0
1 0 0
1 0 0
1 0 0
1 0 0
1 0 0
1 0 0
0 0.082475 0
0 0.0835279 0
0 0.0849165 0
0 0.0868086 0
0 0.0901961 0
0.00770581 0.0941939 0
0.0307469 0.0969253 0
0.0612955 0.098085 0
0.0983902 0.0983902 0
0.142061 0.0976883 0
0.192752 0.0954757 0
0.248096 0.0910811 0
0.306722 0.0842298 0
0.367819 0.0756847 0
0.433402 0.06598 0
0.50457 0.0556497 0
0.5823 0.0446632 0
0.664775 0.0327764 0
0.751354 0.0198672 0
0.841962 0.00662242 0
0.935851 0 0
1 0 0
1 0 0
1 0 0
1 0 0
1 0 0
1 0 0
1 0 0
1 0 0
1 0 0
1 0 0
1 0 0
1 0 0
0 0.10721 0
0 0.112688 0
0 0.119768 0
0 0.126467 0
0 0.132921 0
0 0.138811 0
0.00872816 0.142641 0
0.0464027 0.143832 0
0.0900587 0.142184 0
0.137911 0.137911 0
0.190204 0.131731 0
0.247028 0.124697 0
0.310262 0.117144 0
0.379263 0.109026 0
0.453681 0.0997177 0
0.533089 0.0896773 0
0.616602 0.0788128 0
0.703731 0.0672465 0
0.793317 0.0549325 0
0.883375 0.0423133 0
0.972854 0.0294041 0
1 0.0167849 0
1 0.00588998 0
1 0 0
1 0 0
1 0 0
1 0 0
1 0 0
1 0 0
1 0 0
1 0 0
1 0 0
1 0 0
0 0.155093 0
0 0.163867 0
0 0.173083 0
0 0.181781 0
0 0.18851 0
0 0.191836 0
0 0.191104 0
0.0144503 0.187945 0
0.0623331 0.184054 0
0.115541 0.179934 0
0.174823 0.174807 0
0.239063 0.168521 0
0.309148 0.161151 0
0.383719 0.15285 0
0.463004 0.143496 0
0.545113 0.133333 0
0.629389 0.122377 0
0.714931 0.110918 0
0.801022 0.0990921 0
0.879606 0.0885786 0
0.9579 0.0783246 0
1 0.0679942 0
1 0.0579995 0
1 0.0481575 0
1 0.038819 0
1 0.0298009 0
1 0.0229648 0
1 0.0208743 0
1 0.0218204 0
1 0.0231174 0
1 0.0228733 0
1 0.0226596 0
1 0.0223087 0
0 0.21915 0
0 0.226642 0
0 0.232319 0
0 0.236072 0
0 0.23917 0
0 0.241596 0
0 0.241871 0
0 0.240101 0
0.0262608 0.236988 0
0.0857099 0.232929 0
0.151141 0.227634 0
0.221057 0.221042 0
0.295552 0.213031 0
0.373007 0.203983 0
0.453193 0.19379 0
0.533211 0.183261 0
0.611765 0.172747 0
0.690562 0.162219 0
0.769863 0.151568 0
0.848508 0.141146 0
0.926818 0.130846 0
1 0.120531 0
1 0.110658 0
1 0.100999 0
1 0.0917525 0
1 0.082887 0
1 0.0762341 0
1 0.0743572 0
1 0.0755322 0
1 0.0770733 0
1 0.0771038 0
1 0.0771801 0
1 0.0771191 0
0 0.277974 0
0 0.282155 0
0 0.288289 0
0 0.294408 0
0 0.299458 0
0 0.303258 0
0 0.303914 0
0 0.301839 0
0 0.297658 0
0.0476234 0.292256 0
0.117754 0.285252 0
0.19115 0.277134 0
0.267399 0.267384 0
0.344213 0.257359 0
0.422339 0.247013 0
0.500374 0.236423 0
0.57908 0.226001 0
0.658015 0.215564 0
0.737469 0.205035 0
0.816297 0.194751 0
0.894804 0.184619 0
0.972534 0.174441 0
1 0.164752 0
1 0.155291 0
1 0.146258 0
1 0.137621 0
1 0.131212 0
1 0.129625 0
1 0.13109 0
1 0.132937 0
1 0.133318 0
1 0.133776 0
1 0.13402 0
0 0.343923 0
0 0.349706 0
0 0.356741 0
0 0.363119 0
0 0.368048 0
0 0.37052 0
0 0.36907 0
0 0.364553 0
0 0.357931 0
0.00888075 0.349142 0
0.0825818 0.339834 0
0.157305 0.330419 0
0.233677 0.320577 0
0.310628 0.310628 0
0.389151 0.300649 0
0.467353 0.290181 0
0.546197 0.279866 0
0.625315 0.269551 0
0.705043 0.259266 0
0.7841 0.249165 0
0.862852 0.239231 0
0.940841 0.229282 0
1 0.219821 0
1 0.21062 0
1 0.201877 0
1 0.193545 0
1 0.187457 0
1 0.186221 0
1 0.188052 0
1 0.190311 0
1 0.19115 0
1 0.19205 0
1 0.192767 0
0 0.419013 0
0 0.424231 0
0 0.429618 0
0 0.433097 0
0 0.435279 0
0 0.433555 0
0 0.427817 0
0 0.420157 0
0 0.411856 0
0 0.40325 0
0.0479744 0.393912 0
0.12285 0.384604 0
0.199405 0.374899 0
0.27657 0.365118 0
0.355032 0.355032 0
0.433539 0.344839 0
0.512566 0.334646 0
0.591959 0.324575 0
0.67187 0.314427 0
0.751186 0.304555 0
0.830243 0.294911 0
0.908553 0.285237 0
0.98645 0.276066 0
1 0.267201 0
1 0.258824 0
1 0.250858 0
1 0.245136 0
1 0.244404 0
1 0.246693 0
1 0.249454 0
1 0.250843 0
1 0.252247 0
1 0.253635 0
0 0.491997 0
0 0.493614 0
0 0.492988 0
0 0.491981 0
0 0.490379 0
0 0.487572 0
0 0.481941 0
0 0.474388 0
0 0.466209 0
0 0.45774 0
0.0137179 0.448554 0
0.0887922 0.439414 0
0.16556 0.429877 0
0.242969 0.420294 0
0.321691 0.410437 0
0.400427 0.400412 0
0.479774 0.390524 0
0.559487 0.380743 0
0.639735 0.370886 0
0.719417 0.361318 0
0.798856 0.352026 0
0.877562 0.342702 0
0.955886 0.333944 0
1 0.325505 0
1 0.317586 0
1 0.310094 0
1 0.304723 0
1 0.304738 0
1 0.307607 0
1 0.311009 0
1 0.313115 0
1 0.315053 0
1 0.317449 0
0 0.549599 0
0 0.547494 0
0 0.546944 0
0 0.54612 0
0 0.544625 0
0 0.541924 0
0 0.536416 0
0 0.529015 0
0 0.521233 0
0 0.512901 0
0 0.503899 0
0.0548409 0.494911 0
0.132052 0.485786 0
0.209781 0.476478 0
0.288808 0.46688 0
0.367758 0.457038 0
0.447608 0.447608 0
0.527733 0.438193 0
0.608392 0.428702 0
0.688457 0.419501 0
0.768368 0.41062 0
0.847623 0.401831 0
0.926467 0.393561 0
1 0.385611 0
1 0.378332 0
1 0.371252 0
1 0.366659 0
1 0.367315 0
1 0.371099 0
1 0.375372 0
1 0.378439 0
1 0.381384 0
1 0.385306 0
0 0.604105 0
0 0.602106 0
0 0.601709 0
0 0.601038 0
0 0.59968 0
0 0.597131 0
0 0.591852 0
0 0.58468 0
0 0.576883 0
0 0.568841 0
0 0.560143 0
0.0216373 0.551492 0
0.0990311 0.542504 0
0.177142 0.533547 0
0.256596 0.52433 0
0.336004 0.5149 0
0.416236 0.505821 0
0.496849 0.496849 0
0.577996 0.487816 0
0.658671 0.479179 0
0.739025 0.470726 0
0.818982 0.462593 0
0.898466 0.454932 0
0.977813 0.447745 0
1 0.441138 0
1 0.43473 0
1 0.431235 0
1 0.433143 0
1 0.43798 0
1 0.443595 0
1 0.448264 0
1 0.452857 0
1 0.458076 0
0 0.659281 0
0 0.65745 0
0 0.657237 0
0 0.656794 0
0 0.655619 0
0 0.65333 0
0 0.64831 0
0 0.641428 0
0 0.633921 0
0 0.6262 0
0 0.617853 0
0 0.609567 0
0.0671092 0.600977 0
0.145693 0.592447 0
0.225635 0.583688 0
0.305547 0.574731 0
0.386374 0.566201 0
0.467597 0.557809 0
0.549371 0.549371 0
0.630732 0.541375 0
0.711727 0.533516 0
0.792554 0.526238 0
0.872938 0.519432 0
0.953384 0.513313 0
1 0.507881 0
1 0.502693 0
1 0.500618 0
1 0.504051 0
1 0.51043 0
1 0.517586 0
1 0.523491 0
1 0.529641 0
1 0.536187 0
0 0.714611 0
0 0.712993 0
0 0.713176 0
0 0.712947 0
0 0.712016 0
0 0.709987 0
0 0.705516 0
0 0.698924 0
0 0.691722 0
0 0.684352 0
0 0.676677 0
0 0.668772 0
0.0371099 0.660594 0
0.116197 0.652537 0
0.196857 0.644434 0
0.277455 0.636118 0
0.358877 0.628153 0
0.440818 0.620447 0
0.523568 0.61294 0
0.605783 0.605768 0
0.687831 0.598947 0
0.769879 0.592844 0
0.851621 0.587381 0
0.933516 0.582681 0
1 0.578759 0
1 0.575097 0
1 0.574502 0
1 0.579339 0
1 0.587076 0
1 0.595483 0
1 0.602411 0
1 0.609491 0
1 0.616831 0
0 0.770962 0
0 0.769635 0
0 0.770001 0
0 0.770169 0
0 0.769635 0
0 0.768048 0
0 0.76379 0
0 0.757733 0
0 0.751064 0
0 0.744121 0
0 0.736919 0
0 0.729686 0
0.00956741 0.722225 0
0.0894942 0.714961 0
0.17055 0.70721 0
0.252216 0.699947 0
0.334813 0.693095 0
0.41799 0.686595 0
0.501823 0.68014 0
0.585443 0.674342 0
0.669184 0.669184 0
0.752804 0.664622 0
0.836103 0.66067 0
0.919509 0.657481 0
1 0.65478 0
1 0.652598 0
1 0.653193 0
1 0.659007 0
1 0.667659 0
1 0.676753 0
1 0.684031 0
1 0.691493 0
1 0.699535 0
0 0.828244 0
0 0.827298 0
0 0.828061 0
0 0.828641 0
0 0.828595 0
0 0.827497 0
0 0.823789 0
0 0.818311 0
0 0.812131 0
0 0.805829 0
0 0.799481 0
0 0.792996 0
0 0.786419 0
0.0663462 0.780255 0
0.148577 0.773663 0
0.231556 0.767666 0
0.315633 0.762264 0
0.400397 0.75729 0
0.485801 0.752392 0
0.570764 0.747906 0
0.656138 0.744335 0
0.741176 0.741176 0
0.825589 0.738308 0
0.910292 0.7364 0
0.993149 0.734447 0
1 0.732937 0
1 0.733928 0
1 0.740307 0
1 0.748913 0
1 0.757946 0
1 0.765484 0
1 0.773556 0
1 0.783078 0
0 0.886397 0
0 0.885893 0
0 0.88716 0
0 0.888228 0
0 0.888823 0
0 0.888334 0
0 0.885328 0
0 0.880568 0
0 0.875059 0
0 0.869825 0
0 0.864591 0
0 0.859297 0
0 0.854063 0
0.0478981 0.849378 0
0.13167 0.844282 0
0.216236 0.839826 0
0.301808 0.835889 0
0.387991 0.832303 0
0.474754 0.828702 0
0.560937 0.825406 0
0.647379 0.822873 0
0.733349 0.820615 0
0.818677 0.818677 0
0.903655 0.817029 0
0.986862 0.815488 0
1 0.813626 0
1 0.813489 0
1 0.817884 0
1 0.824781 0
1 0.831937 0
1 0.838361 0
1 0.845777 0
1 0.855192 0.0657054
0 0.946456 0
0 0.946548 0
0 0.94847 0
0 0.950088 0
0 0.951568 0
0 0.951949 0
0 0.949981 0
0 0.94638 0
0 0.942 0
0 0.938247 0
0 0.934554 0
0 0.930816 0
0 0.927108 0
0.0352483 0.923674 0
0.120592 0.920104 0
0.206516 0.91696 0
0.293278 0.914153 0
0.380484 0.911543 0
0.468071 0.908736 0
0.55494 0.906081 0
0.64181 0.90396 0
0.728054 0.901488 0
0.812284 0.897337 0
0.891768 0.891752 0
0.962097 0.885481 0
1 0.879118 0
1 0.875013 0
1 0.875319 0
1 0.878599 0
1 0.883055 0.135378
1 0.888518 0.320638
1 0.896025 0.481437
0.985763 0.904814 0.611963
0 1 0
0 1 0
0 1 0
0 1 0
0 1 0
0 1 0
0 1 0
0 1 0
0 1 0
0 1 0
0 1 0
0 1 0
0 1 0
0.0280003 1 0
0.114168 0.998672 0
0.2009 0.996292 0
0.288212 0.993988 0
0.375769 0.991684 0
0.465629 0.987457 0
0.556161 0.980179 0
0.645609 0.970428 0
0.730739 0.958633 0
0.807233 0.945357 0
0.871305 0.931685 0
0.919341 0.919341 0
0.950607 0.909911 0.000442512
0.964492 0.905318 0.200977
0.964355 0.906157 0.380301
0.959487 0.910506 0.534569
0.955612 0.916701 0.65565
0.954269 0.923552 0.744961
0.954101 0.931151 0.81355
0.955184 0.939406 0.867109
0 1 0
0 1 0
0 1 0
0 1 0
0 1 0
0 1 0
0 1 0
0 1 0
0 1 0
0 1 0
0 1 0
0 1 0
0 1 0
0.024506 1 0
0.11191 1 0
0.205356 1 0
0.304387 1 0
0.406729 1 0
0.509621 1 0
0.607416 1 0
0.695811 0.984802 0
0.77229 0.962997 0
0.832212 0.944793 0.0862287
0.875425 0.931975 0.278126
0.904646 0.925155 0.446189
0.923537 0.923537 0.58703
0.934646 0.925902 0.693431
0.940764 0.930755 0.772366
0.945525 0.937148 0.834745
0.950591 0.944533 0.884001
0.955886 0.951812 0.918395
0.961501 0.959274 0.94374
0.967834 0.967056 0.962341
0 1 0
0 1 0
0 1 0
0 1 0
0 1 0
0 1 0
0 1 0
0 1 0
0 1 0
0 1 0
0 1 0
0 1 0
0 1 0
0.0691234 1 0
0.185794 1 0
0.306661 1 0
0.427176 1 0
0.543221 1 0
0.648707 0.999039 0
0.735378 0.973022 0.164538
0.801648 0.953964 0.344121
0.851148 0.942 0.500832
0.886412 0.936309 0.629511
0.910323 0.935454 0.725338
0.927001 0.937819 0.79823
0.939437 0.942565 0.855924
0.94876 0.94876 0.898924
0.956207 0.955581 0.929793
0.963134 0.962676 0.951934
0.970336 0.970199 0.967834
0.977584 0.977584 0.977584
0.984634 0.984634 0.984634
0.991424 0.991424 0.991424
0 1 0
0 1 0
0 1 0
0 1 0
0 1 0
0 1 0
0 1 0
0 1 0
0 1 0
