All_In_One/Enrich_Colormaster/colormanagement/luts/film_response/Color_Implosion_21_FC.cube
TITLE "ImpulZ LUT 32"
LUT_3D_SIZE 32
0.0431 0.0353 0.0353
0.0472 0.0353 0.0353
0.0551 0.0355 0.0392
0.0631 0.0392 0.0392
0.0711 0.0392 0.0392
0.0790 0.0392 0.0392
0.0871 0.0431 0.0431
0.0989 0.0431 0.0431
0.1079 0.0431 0.0431
0.1199 0.0471 0.0443
0.1319 0.0471 0.0471
0.1479 0.0510 0.0471
0.1638 0.0510 0.0510
0.1837 0.0526 0.0510
0.1996 0.0549 0.0528
0.2195 0.0568 0.0549
0.2433 0.0588 0.0549
0.2653 0.0609 0.0588
0.2915 0.0627 0.0588
0.3194 0.0667 0.0627
0.3513 0.0706 0.0653
0.3831 0.0732 0.0667
0.4150 0.0745 0.0695
0.4470 0.0784 0.0706
0.4819 0.0815 0.0745
0.5186 0.0855 0.0776
0.5642 0.0896 0.0784
0.6053 0.0936 0.0824
0.6526 0.0980 0.0863
0.6967 0.1020 0.0899
0.7406 0.1097 0.0940
0.7843 0.1137 0.0941
0.0431 0.0393 0.0353
0.0472 0.0393 0.0353
0.0551 0.0394 0.0353
0.0630 0.0431 0.0392
0.0676 0.0432 0.0392
0.0790 0.0432 0.0392
0.0878 0.0471 0.0399
0.0989 0.0472 0.0431
0.1079 0.0481 0.0431
0.1227 0.0511 0.0443
0.1358 0.0522 0.0471
0.1518 0.0550 0.0471
0.1693 0.0564 0.0510
0.1877 0.0589 0.0510
0.2110 0.0628 0.0528
0.2354 0.0668 0.0549
0.2631 0.0688 0.0588
0.2871 0.0708 0.0588
0.3154 0.0746 0.0627
0.3448 0.0770 0.0628
0.3777 0.0811 0.0667
0.4111 0.0852 0.0693
0.4458 0.0892 0.0707
0.4817 0.0932 0.0745
0.5178 0.0972 0.0775
0.5575 0.1014 0.0785
0.6007 0.1055 0.0825
0.6452 0.1095 0.0864
0.6884 0.1136 0.0898
0.7324 0.1178 0.0938
0.7687 0.1256 0.0979
0.8123 0.1297 0.0981
0.0431 0.0434 0.0353
0.0472 0.0434 0.0353
0.0549 0.0434 0.0353
0.0592 0.0471 0.0357
0.0672 0.0473 0.0392
0.0758 0.0473 0.0392
0.0873 0.0512 0.0397
0.0989 0.0512 0.0431
0.1110 0.0551 0.0431
0.1239 0.0551 0.0443
0.1361 0.0591 0.0471
0.1534 0.0591 0.0471
0.1722 0.0630 0.0510
0.1934 0.0646 0.0510
0.2176 0.0687 0.0549
0.2454 0.0727 0.0551
0.2774 0.0768 0.0588
0.3052 0.0808 0.0609
0.3356 0.0849 0.0630
0.3675 0.0889 0.0667
0.4033 0.0907 0.0692
0.4391 0.0946 0.0708
0.4777 0.1013 0.0747
0.5135 0.1054 0.0774
0.5535 0.1103 0.0815
0.5933 0.1142 0.0826
0.6397 0.1215 0.0865
0.6809 0.1255 0.0902
0.7244 0.1295 0.0937
0.7681 0.1338 0.0977
0.8042 0.1416 0.0983
0.8399 0.1456 0.1023
0.0431 0.0514 0.0353
0.0472 0.0512 0.0353
0.0551 0.0510 0.0353
0.0592 0.0514 0.0353
0.0672 0.0514 0.0392
0.0758 0.0516 0.0392
0.0878 0.0553 0.0392
0.0989 0.0558 0.0401
0.1118 0.0592 0.0431
0.1270 0.0631 0.0443
0.1411 0.0644 0.0471
0.1610 0.0685 0.0475
0.1814 0.0713 0.0510
0.2053 0.0749 0.0526
0.2310 0.0788 0.0549
0.2590 0.0831 0.0568
0.2952 0.0887 0.0608
0.3270 0.0927 0.0627
0.3612 0.0971 0.0667
0.3951 0.1027 0.0691
0.4334 0.1066 0.0710
0.4697 0.1105 0.0749
0.5095 0.1172 0.0784
0.5465 0.1213 0.0814
0.5853 0.1262 0.0828
0.6252 0.1333 0.0867
0.6683 0.1374 0.0906
0.7127 0.1423 0.0941
0.7490 0.1494 0.0976
0.7921 0.1534 0.1017
0.8241 0.1580 0.1024
0.8635 0.1654 0.1063
0.0431 0.0554 0.0353
0.0476 0.0554 0.0353
0.0551 0.0554 0.0355
0.0593 0.0554 0.0358
0.0672 0.0554 0.0392
0.0758 0.0593 0.0392
0.0878 0.0593 0.0392
0.0994 0.0632 0.0401
0.1118 0.0642 0.0431
0.1277 0.0683 0.0431
0.1450 0.0723 0.0471
0.1655 0.0764 0.0485
0.1894 0.0804 0.0510
0.2149 0.0845 0.0526
0.2429 0.0885 0.0554
0.2713 0.0926 0.0588
0.3091 0.0990 0.0608
0.3429 0.1046 0.0649
0.3810 0.1092 0.0672
0.4174 0.1166 0.0711
0.4573 0.1212 0.0750
0.4972 0.1265 0.0784
0.5370 0.1332 0.0812
0.5769 0.1373 0.0853
0.6167 0.1427 0.0868
0.6599 0.1492 0.0907
0.7025 0.1538 0.0941
0.7402 0.1613 0.0975
0.7795 0.1662 0.1016
0.8162 0.1733 0.1056
0.8476 0.1779 0.1064
0.8829 0.1819 0.1103
0.0431 0.0633 0.0353
0.0511 0.0633 0.0354
0.0551 0.0633 0.0359
0.0631 0.0633 0.0392
0.0711 0.0633 0.0392
0.0790 0.0640 0.0392
0.0878 0.0673 0.0392
0.0998 0.0712 0.0401
0.1157 0.0722 0.0431
0.1317 0.0763 0.0431
0.1489 0.0803 0.0471
0.1720 0.0844 0.0485
0.1949 0.0884 0.0510
0.2252 0.0954 0.0549
0.2526 0.1004 0.0567
0.2873 0.1071 0.0594
0.3237 0.1131 0.0633
0.3595 0.1189 0.0667
0.3976 0.1251 0.0706
0.4374 0.1307 0.0730
0.4773 0.1371 0.0770
0.5178 0.1451 0.0811
0.5609 0.1498 0.0852
0.6007 0.1577 0.0869
0.6406 0.1618 0.0908
0.6805 0.1697 0.0947
0.7236 0.1738 0.0974
0.7641 0.1818 0.1015
0.7971 0.1868 0.1055
0.8359 0.1938 0.1065
0.8635 0.2018 0.1104
0.8954 0.2064 0.1143
0.0431 0.0706 0.0353
0.0511 0.0714 0.0392
0.0551 0.0714 0.0392
0.0631 0.0714 0.0392
0.0711 0.0714 0.0392
0.0798 0.0752 0.0392
0.0917 0.0752 0.0392
0.1036 0.0792 0.0401
0.1165 0.0802 0.0431
0.1328 0.0843 0.0431
0.1536 0.0917 0.0471
0.1767 0.0956 0.0485
0.2014 0.1003 0.0510
0.2308 0.1051 0.0549
0.2627 0.1131 0.0588
0.2985 0.1203 0.0607
0.3390 0.1290 0.0648
0.3762 0.1331 0.0688
0.4161 0.1411 0.0729
0.4566 0.1474 0.0769
0.4966 0.1538 0.0792
0.5403 0.1618 0.0831
0.5801 0.1690 0.0871
0.6200 0.1770 0.0909
0.6630 0.1857 0.0949
0.6997 0.1905 0.0980
0.7428 0.1977 0.1021
0.7833 0.2057 0.1054
0.8196 0.2108 0.1094
0.8544 0.2177 0.1134
0.8788 0.2257 0.1175
0.9066 0.2336 0.1216
0.0431 0.0754 0.0392
0.0511 0.0785 0.0392
0.0591 0.0793 0.0392
0.0636 0.0793 0.0392
0.0716 0.0798 0.0392
0.0836 0.0833 0.0392
0.0949 0.0840 0.0399
0.1037 0.0872 0.0401
0.1196 0.0911 0.0431
0.1365 0.0950 0.0443
0.1567 0.1002 0.0471
0.1815 0.1077 0.0510
0.2069 0.1122 0.0525
0.2388 0.1194 0.0549
0.2707 0.1251 0.0588
0.3065 0.1322 0.0627
0.3483 0.1411 0.0667
0.3881 0.1490 0.0706
0.4288 0.1570 0.0745
0.4687 0.1650 0.0784
0.5124 0.1729 0.0824
0.5523 0.1809 0.0863
0.5952 0.1888 0.0902
0.6359 0.1968 0.0931
0.6757 0.2048 0.0971
0.7156 0.2137 0.1012
0.7588 0.2216 0.1053
0.7984 0.2296 0.1098
0.8316 0.2376 0.1142
0.8674 0.2455 0.1182
0.8907 0.2535 0.1223
0.9155 0.2614 0.1264
0.0431 0.0834 0.0392
0.0511 0.0835 0.0392
0.0591 0.0873 0.0392
0.0671 0.0877 0.0392
0.0750 0.0883 0.0392
0.0840 0.0918 0.0402
0.0966 0.0951 0.0431
0.1078 0.0961 0.0431
0.1206 0.1000 0.0431
0.1396 0.1041 0.0443
0.1580 0.1092 0.0471
0.1856 0.1171 0.0510
0.2139 0.1251 0.0525
0.2458 0.1321 0.0565
0.2787 0.1403 0.0598
0.3145 0.1461 0.0637
0.3582 0.1551 0.0677
0.4000 0.1650 0.0727
0.4409 0.1739 0.0768
0.4821 0.1819 0.0808
0.5245 0.1928 0.0849
0.5659 0.2007 0.0889
0.6071 0.2097 0.0930
0.6498 0.2148 0.0970
0.6907 0.2257 0.1011
0.7305 0.2336 0.1051
0.7714 0.2449 0.1102
0.8103 0.2535 0.1147
0.8426 0.2625 0.1186
0.8784 0.2705 0.1226
0.9016 0.2823 0.1265
0.9226 0.2903 0.1304
0.0443 0.0913 0.0392
0.0511 0.0914 0.0392
0.0591 0.0952 0.0392
0.0671 0.0992 0.0392
0.0755 0.0997 0.0397
0.0875 0.1037 0.0431
0.0999 0.1042 0.0431
0.1155 0.1082 0.0440
0.1275 0.1119 0.0443
0.1435 0.1160 0.0471
0.1619 0.1211 0.0484
0.1896 0.1292 0.0510
0.2179 0.1371 0.0549
0.2508 0.1474 0.0588
0.2845 0.1548 0.0606
0.3224 0.1649 0.0646
0.3682 0.1740 0.0706
0.4091 0.1848 0.0745
0.4517 0.1928 0.0784
0.4927 0.2019 0.0835
0.5354 0.2113 0.0874
0.5779 0.2218 0.0928
0.6190 0.2314 0.0969
0.6599 0.2416 0.1010
0.6998 0.2496 0.1050
0.7397 0.2607 0.1090
0.7816 0.2694 0.1142
0.8199 0.2785 0.1187
0.8517 0.2929 0.1251
0.8864 0.3012 0.1291
0.9068 0.3141 0.1343
0.9294 0.3221 0.1384
0.0471 0.0993 0.0392
0.0511 0.0994 0.0392
0.0593 0.1035 0.0392
0.0683 0.1075 0.0396
0.0794 0.1115 0.0431
0.0914 0.1129 0.0431
0.1048 0.1170 0.0444
0.1194 0.1210 0.0471
0.1327 0.1251 0.0471
0.1486 0.1292 0.0482
0.1659 0.1332 0.0484
0.1936 0.1412 0.0522
0.2218 0.1492 0.0562
0.2536 0.1610 0.0588
0.2885 0.1707 0.0640
0.3271 0.1809 0.0679
0.3729 0.1940 0.0726
0.4159 0.2020 0.0766
0.4597 0.2139 0.0807
0.5035 0.2219 0.0848
0.5459 0.2324 0.0888
0.5871 0.2444 0.0954
0.6309 0.2536 0.0993
0.6707 0.2655 0.1049
0.7105 0.2765 0.1089
0.7504 0.2867 0.1142
0.7923 0.2985 0.1189
0.8301 0.3065 0.1229
0.8612 0.3196 0.1303
0.8943 0.3316 0.1346
0.9133 0.3460 0.1411
0.9333 0.3580 0.1463
0.0471 0.1073 0.0392
0.0524 0.1112 0.0392
0.0593 0.1114 0.0392
0.0710 0.1194 0.0431
0.0803 0.1235 0.0431
0.0929 0.1275 0.0437
0.1074 0.1322 0.0471
0.1242 0.1370 0.0480
0.1403 0.1411 0.0485
0.1566 0.1451 0.0510
0.1738 0.1492 0.0522
0.1977 0.1571 0.0524
0.2257 0.1651 0.0564
0.2576 0.1733 0.0604
0.2926 0.1850 0.0645
0.3311 0.1968 0.0686
0.3768 0.2107 0.0745
0.4221 0.2228 0.0798
0.4660 0.2348 0.0847
0.5114 0.2458 0.0887
0.5538 0.2577 0.0927
0.5977 0.2683 0.0967
0.6388 0.2803 0.1034
0.6801 0.2894 0.1073
0.7199 0.3044 0.1128
0.7584 0.3164 0.1190
0.7996 0.3298 0.1263
0.8380 0.3423 0.1303
0.8666 0.3538 0.1369
0.8984 0.3659 0.1423
0.9173 0.3793 0.1465
0.9373 0.3912 0.1543
0.0471 0.1152 0.0392
0.0549 0.1193 0.0392
0.0593 0.1234 0.0394
0.0713 0.1289 0.0431
0.0834 0.1353 0.0436
0.0969 0.1409 0.0471
0.1121 0.1489 0.0479
0.1288 0.1529 0.0510
0.1457 0.1585 0.0520
0.1646 0.1650 0.0525
0.1818 0.1690 0.0549
0.2057 0.1745 0.0564
0.2296 0.1826 0.0564
0.2630 0.1905 0.0604
0.2966 0.2024 0.0645
0.3365 0.2143 0.0721
0.3823 0.2282 0.0765
0.4262 0.2441 0.0806
0.4717 0.2562 0.0878
0.5164 0.2697 0.0917
0.5618 0.2831 0.0966
0.6057 0.2950 0.1022
0.6468 0.3069 0.1074
0.6905 0.3178 0.1113
0.7304 0.3298 0.1183
0.7702 0.3457 0.1247
0.8095 0.3617 0.1303
0.8461 0.3737 0.1368
0.8745 0.3896 0.1423
0.9027 0.4017 0.1503
0.9213 0.4153 0.1543
0.9412 0.4272 0.1623
0.0471 0.1271 0.0392
0.0549 0.1288 0.0392
0.0593 0.1315 0.0394
0.0749 0.1432 0.0435
0.0845 0.1489 0.0471
0.0999 0.1568 0.0477
0.1160 0.1648 0.0510
0.1328 0.1728 0.0526
0.1520 0.1784 0.0549
0.1725 0.1848 0.0565
0.1897 0.1905 0.0588
0.2136 0.1968 0.0604
0.2376 0.2025 0.0627
0.2670 0.2105 0.0644
0.3029 0.2242 0.0685
0.3425 0.2382 0.0725
0.3883 0.2521 0.0801
0.4320 0.2664 0.0845
0.4780 0.2801 0.0886
0.5234 0.2936 0.0957
0.5681 0.3080 0.1006
0.6137 0.3239 0.1075
0.6547 0.3376 0.1126
0.6986 0.3507 0.1183
0.7384 0.3656 0.1246
0.7782 0.3800 0.1303
0.8174 0.3951 0.1383
0.8540 0.4095 0.1428
0.8789 0.4254 0.1503
0.9088 0.4391 0.1583
0.9252 0.4551 0.1624
0.9428 0.4670 0.1702
0.0471 0.1351 0.0392
0.0550 0.1408 0.0393
0.0608 0.1450 0.0431
0.0749 0.1568 0.0435
0.0873 0.1653 0.0476
0.1039 0.1745 0.0510
0.1209 0.1825 0.0528
0.1399 0.1905 0.0558
0.1577 0.1995 0.0588
0.1783 0.2065 0.0606
0.2017 0.2144 0.0640
0.2216 0.2185 0.0645
0.2470 0.2264 0.0667
0.2752 0.2361 0.0685
0.3068 0.2441 0.0724
0.3468 0.2583 0.0764
0.3925 0.2761 0.0842
0.4364 0.2916 0.0884
0.4837 0.3057 0.0925
0.5282 0.3199 0.0998
0.5738 0.3359 0.1045
0.6190 0.3518 0.1116
0.6628 0.3678 0.1183
0.7065 0.3815 0.1245
0.7463 0.3975 0.1303
0.7862 0.4134 0.1365
0.8261 0.4293 0.1423
0.8602 0.4436 0.1503
0.8851 0.4591 0.1583
0.9127 0.4750 0.1626
0.9292 0.4910 0.1702
0.9451 0.5068 0.1783
0.0471 0.1470 0.0392
0.0550 0.1528 0.0431
0.0632 0.1572 0.0431
0.0753 0.1692 0.0471
0.0892 0.1813 0.0476
0.1078 0.1951 0.0516
0.1250 0.2065 0.0556
0.1448 0.2144 0.0588
0.1657 0.2224 0.0607
0.1896 0.2343 0.0639
0.2096 0.2390 0.0667
0.2335 0.2463 0.0686
0.2569 0.2522 0.0721
0.2869 0.2622 0.0725
0.3188 0.2720 0.0764
0.3487 0.2801 0.0803
0.3964 0.2999 0.0844
0.4440 0.3159 0.0921
0.4882 0.3318 0.0964
0.5355 0.3497 0.1039
0.5792 0.3656 0.1103
0.6238 0.3815 0.1163
0.6677 0.3975 0.1223
0.7105 0.4134 0.1303
0.7504 0.4293 0.1364
0.7903 0.4472 0.1423
0.8301 0.4645 0.1503
0.8666 0.4796 0.1583
0.8909 0.4950 0.1627
0.9148 0.5110 0.1702
0.9329 0.5269 0.1782
0.9490 0.5428 0.1862
0.0471 0.1609 0.0392
0.0570 0.1688 0.0431
0.0650 0.1749 0.0434
0.0788 0.1891 0.0471
0.0917 0.2016 0.0510
0.1117 0.2191 0.0555
0.1329 0.2324 0.0596
0.1528 0.2443 0.0627
0.1736 0.2522 0.0648
0.1976 0.2641 0.0687
0.2235 0.2721 0.0719
0.2460 0.2787 0.0726
0.2690 0.2841 0.0765
0.2992 0.2938 0.0805
0.3324 0.3040 0.0822
0.3626 0.3139 0.0844
0.4004 0.3238 0.0883
0.4481 0.3437 0.0961
0.4941 0.3619 0.1023
0.5419 0.3816 0.1083
0.5872 0.4009 0.1157
0.6310 0.4155 0.1223
0.6736 0.4321 0.1283
0.7175 0.4492 0.1344
0.7584 0.4651 0.1423
0.7982 0.4842 0.1503
0.8380 0.5009 0.1583
0.8720 0.5169 0.1642
0.8950 0.5328 0.1702
0.9189 0.5488 0.1782
0.9330 0.5647 0.1862
0.9490 0.5827 0.1942
0.0471 0.1729 0.0413
0.0589 0.1828 0.0431
0.0672 0.1930 0.0453
0.0791 0.2050 0.0475
0.0934 0.2210 0.0515
0.1162 0.2397 0.0555
0.1377 0.2582 0.0627
0.1608 0.2710 0.0667
0.1817 0.2830 0.0688
0.2095 0.2932 0.0727
0.2334 0.3040 0.0766
0.2594 0.3120 0.0798
0.2834 0.3182 0.0821
0.3112 0.3261 0.0845
0.3425 0.3359 0.0884
0.3766 0.3457 0.0921
0.4145 0.3577 0.0961
0.4482 0.3677 0.0984
0.4982 0.3875 0.1043
0.5460 0.4095 0.1122
0.5938 0.4293 0.1202
0.6390 0.4492 0.1276
0.6827 0.4652 0.1344
0.7226 0.4811 0.1402
0.7642 0.4970 0.1481
0.8062 0.5169 0.1561
0.8421 0.5361 0.1623
0.8786 0.5527 0.1702
0.8994 0.5673 0.1782
0.9208 0.5806 0.1825
0.9370 0.6004 0.1903
0.9529 0.6164 0.1982
0.0510 0.1849 0.0431
0.0591 0.2007 0.0432
0.0695 0.2112 0.0471
0.0831 0.2272 0.0510
0.0979 0.2437 0.0533
0.1201 0.2659 0.0594
0.1457 0.2851 0.0650
0.1696 0.3011 0.0690
0.1919 0.3154 0.0739
0.2186 0.3290 0.0779
0.2465 0.3381 0.0807
0.2715 0.3461 0.0847
0.2985 0.3541 0.0886
0.3265 0.3620 0.0918
0.3567 0.3700 0.0942
0.3886 0.3815 0.0964
0.4281 0.3935 0.1003
0.4640 0.4018 0.1043
0.4999 0.4137 0.1082
0.5500 0.4360 0.1161
0.5978 0.4573 0.1241
0.6457 0.4772 0.1320
0.6907 0.4971 0.1396
0.7306 0.5130 0.1463
0.7704 0.5289 0.1543
0.8103 0.5488 0.1600
0.8478 0.5657 0.1680
0.8804 0.5846 0.1760
0.9035 0.6005 0.1823
0.9247 0.6128 0.1879
0.9370 0.6324 0.1960
0.9529 0.6483 0.2039
0.0510 0.2009 0.0431
0.0628 0.2168 0.0471
0.0711 0.2312 0.0473
0.0870 0.2511 0.0514
0.1020 0.2676 0.0554
0.1259 0.2921 0.0633
0.1520 0.3153 0.0674
0.1776 0.3330 0.0730
0.2025 0.3489 0.0779
0.2305 0.3648 0.0835
0.2572 0.3780 0.0876
0.2850 0.3859 0.0916
0.3113 0.3939 0.0941
0.3408 0.4019 0.0965
0.3688 0.4099 0.1005
0.4006 0.4179 0.1044
0.4404 0.4293 0.1083
0.4762 0.4393 0.1122
0.5142 0.4519 0.1160
0.5541 0.4639 0.1200
0.6019 0.4854 0.1280
0.6497 0.5054 0.1360
0.6948 0.5253 0.1440
0.7385 0.5448 0.1514
0.7784 0.5608 0.1584
0.8150 0.5775 0.1663
0.8517 0.5966 0.1743
0.8838 0.6125 0.1799
0.9048 0.6285 0.1867
0.9250 0.6444 0.1919
0.9409 0.6641 0.2023
0.9554 0.6802 0.2103
0.0510 0.2207 0.0431
0.0630 0.2392 0.0472
0.0753 0.2554 0.0512
0.0935 0.2780 0.0553
0.1074 0.2984 0.0593
0.1305 0.3250 0.0659
0.1585 0.3522 0.0731
0.1864 0.3713 0.0779
0.2144 0.3897 0.0849
0.2424 0.4057 0.0899
0.2703 0.4191 0.0940
0.2994 0.4283 0.0980
0.3272 0.4363 0.1021
0.3567 0.4443 0.1045
0.3847 0.4505 0.1084
0.4166 0.4577 0.1123
0.4524 0.4657 0.1162
0.4882 0.4775 0.1184
0.5263 0.4892 0.1224
0.5661 0.5012 0.1265
0.6034 0.5132 0.1305
0.6537 0.5332 0.1386
0.6991 0.5532 0.1479
0.7429 0.5732 0.1555
0.7833 0.5927 0.1624
0.8223 0.6086 0.1704
0.8549 0.6253 0.1758
0.8843 0.6419 0.1838
0.9051 0.6578 0.1908
0.9286 0.6737 0.1958
0.9409 0.6897 0.2038
0.9569 0.7081 0.2118
0.0549 0.2433 0.0458
0.0668 0.2631 0.0497
0.0789 0.2820 0.0536
0.0975 0.3071 0.0592
0.1140 0.3303 0.0632
0.1385 0.3622 0.0700
0.1665 0.3894 0.0771
0.1957 0.4120 0.0833
0.2250 0.4310 0.0899
0.2543 0.4481 0.0967
0.2836 0.4629 0.1020
0.3128 0.4722 0.1060
0.3420 0.4815 0.1100
0.3727 0.4882 0.1141
0.4006 0.4944 0.1163
0.4325 0.4983 0.1203
0.4683 0.5081 0.1242
0.5002 0.5161 0.1269
0.5383 0.5253 0.1304
0.5757 0.5373 0.1345
0.6153 0.5492 0.1385
0.6551 0.5610 0.1426
0.7028 0.5810 0.1505
0.7466 0.6010 0.1585
0.7877 0.6210 0.1665
0.8271 0.6405 0.1744
0.8589 0.6564 0.1798
0.8882 0.6697 0.1877
0.9086 0.6848 0.1918
0.9286 0.6977 0.1997
0.9411 0.7174 0.2077
0.9569 0.7335 0.2157
0.0577 0.2738 0.0471
0.0696 0.2938 0.0511
0.0820 0.3141 0.0551
0.1020 0.3444 0.0620
0.1219 0.3688 0.0672
0.1465 0.4014 0.0740
0.1744 0.4319 0.0820
0.2063 0.4546 0.0899
0.2371 0.4757 0.0979
0.2678 0.4935 0.1020
0.2980 0.5081 0.1099
0.3274 0.5187 0.1139
0.3567 0.5280 0.1180
0.3886 0.5332 0.1221
0.4176 0.5383 0.1261
0.4484 0.5441 0.1301
0.4803 0.5493 0.1322
0.5162 0.5572 0.1361
0.5480 0.5652 0.1389
0.5874 0.5756 0.1425
0.6235 0.5851 0.1465
0.6631 0.5969 0.1479
0.7002 0.6061 0.1518
0.7468 0.6260 0.1598
0.7877 0.6458 0.1677
0.8276 0.6657 0.1757
0.8602 0.6844 0.1837
0.8887 0.6976 0.1910
0.9086 0.7095 0.1957
0.9286 0.7255 0.2028
0.9411 0.7414 0.2105
0.9569 0.7574 0.2196
0.0617 0.3097 0.0510
0.0737 0.3296 0.0550
0.0870 0.3499 0.0591
0.1099 0.3818 0.0660
0.1299 0.4127 0.0735
0.1584 0.4442 0.0790
0.1863 0.4756 0.0871
0.2172 0.4996 0.0950
0.2471 0.5214 0.1020
0.2809 0.5374 0.1099
0.3116 0.5521 0.1166
0.3418 0.5639 0.1220
0.3727 0.5719 0.1260
0.4046 0.5799 0.1323
0.4346 0.5849 0.1362
0.4644 0.5890 0.1381
0.4972 0.5931 0.1422
0.5282 0.5978 0.1441
0.5639 0.6051 0.1480
0.5992 0.6130 0.1504
0.6351 0.6220 0.1545
0.6713 0.6329 0.1559
0.7109 0.6419 0.1598
0.7439 0.6498 0.1627
0.7877 0.6697 0.1706
0.8276 0.6895 0.1786
0.8602 0.7088 0.1866
0.8887 0.7248 0.1917
0.9090 0.7374 0.1990
0.9289 0.7526 0.2036
0.9411 0.7653 0.2146
0.9569 0.7812 0.2225
0.0658 0.3516 0.0549
0.0816 0.3753 0.0589
0.0940 0.3957 0.0630
0.1178 0.4276 0.0710
0.1384 0.4589 0.0780
0.1663 0.4880 0.0860
0.1973 0.5225 0.0940
0.2284 0.5433 0.1020
0.2591 0.5653 0.1099
0.2930 0.5822 0.1179
0.3249 0.5981 0.1246
0.3567 0.6078 0.1299
0.3886 0.6182 0.1340
0.4205 0.6247 0.1403
0.4524 0.6300 0.1442
0.4803 0.6339 0.1481
0.5161 0.6378 0.1511
0.5480 0.6418 0.1542
0.5767 0.6457 0.1560
0.6118 0.6529 0.1599
0.6437 0.6609 0.1624
0.6830 0.6688 0.1638
0.7162 0.6768 0.1677
0.7520 0.6848 0.1677
0.7838 0.6897 0.1716
0.8237 0.7097 0.1796
0.8602 0.7294 0.1876
0.8882 0.7453 0.1922
0.9090 0.7583 0.1996
0.9289 0.7736 0.2069
0.9411 0.7862 0.2156
0.9569 0.8013 0.2235
0.0706 0.3993 0.0588
0.0858 0.4232 0.0659
0.1020 0.4435 0.0701
0.1259 0.4754 0.0776
0.1498 0.5068 0.0829
0.1782 0.5359 0.0908
0.2093 0.5663 0.0988
0.2381 0.5903 0.1068
0.2710 0.6121 0.1147
0.3050 0.6260 0.1227
0.3376 0.6419 0.1299
0.3727 0.6539 0.1379
0.4046 0.6636 0.1420
0.4364 0.6716 0.1499
0.4683 0.6778 0.1539
0.4983 0.6817 0.1580
0.5321 0.6856 0.1600
0.5639 0.6878 0.1639
0.5958 0.6895 0.1662
0.6246 0.6934 0.1678
0.6596 0.7007 0.1704
0.6914 0.7047 0.1717
0.7268 0.7127 0.1746
0.7599 0.7176 0.1757
0.7888 0.7255 0.1757
0.8197 0.7295 0.1796
0.8556 0.7456 0.1876
0.8848 0.7622 0.1922
0.9055 0.7781 0.1996
0.9286 0.7933 0.2075
0.9409 0.8060 0.2156
0.9529 0.8212 0.2235
0.0778 0.4610 0.0661
0.0970 0.4810 0.0701
0.1132 0.5049 0.0778
0.1371 0.5337 0.0821
0.1615 0.5644 0.0901
0.1901 0.5869 0.0980
0.2214 0.6175 0.1060
0.2533 0.6413 0.1139
0.2851 0.6603 0.1220
0.3209 0.6763 0.1332
0.3541 0.6909 0.1399
0.3880 0.7010 0.1458
0.4199 0.7114 0.1532
0.4524 0.7188 0.1579
0.4842 0.7250 0.1634
0.5161 0.7289 0.1673
0.5493 0.7329 0.1712
0.5798 0.7356 0.1752
0.6111 0.7368 0.1758
0.6397 0.7374 0.1782
0.6716 0.7413 0.1791
0.7035 0.7452 0.1798
0.7354 0.7491 0.1798
0.7678 0.7537 0.1837
0.7928 0.7576 0.1837
0.8245 0.7615 0.1837
0.8485 0.7654 0.1843
0.8775 0.7820 0.1917
0.9015 0.7973 0.1996
0.9247 0.8100 0.2075
0.9409 0.8253 0.2156
0.9529 0.8379 0.2269
0.0858 0.5181 0.0706
0.1056 0.5380 0.0780
0.1252 0.5622 0.0821
0.1491 0.5902 0.0901
0.1730 0.6210 0.0980
0.2027 0.6421 0.1060
0.2373 0.6659 0.1139
0.2657 0.6889 0.1220
0.2986 0.7088 0.1299
0.3346 0.7213 0.1379
0.3687 0.7355 0.1463
0.4006 0.7473 0.1538
0.4364 0.7559 0.1618
0.4683 0.7638 0.1676
0.5002 0.7718 0.1738
0.5321 0.7734 0.1779
0.5658 0.7774 0.1819
0.5958 0.7779 0.1838
0.6254 0.7779 0.1861
0.6556 0.7779 0.1877
0.6841 0.7818 0.1877
0.7128 0.7818 0.1877
0.7439 0.7857 0.1877
0.7758 0.7891 0.1877
0.8007 0.7902 0.1913
0.8247 0.7941 0.1917
0.8524 0.7978 0.1917
0.8730 0.8014 0.1917
0.8974 0.8139 0.1996
0.9208 0.8299 0.2042
0.9370 0.8418 0.2156
0.9529 0.8539 0.2275
0.0937 0.5848 0.0780
0.1171 0.6046 0.0859
0.1373 0.6252 0.0901
0.1612 0.6459 0.0980
