All_In_One/Enrich_Colormaster/colormanagement/luts/film_response/ColorPunchCool.3DL
#Created by: Adobe Photoshop Export Color Lookup Plugin
#Description: Color Punch
0 33 66 99 132 165 198 231 264 297 330 363 396 429 462 495 528 561 594 627 660 693 726 759 792 825 858 891 924 957 990 1023
90 90 1307
96 96 1389
101 101 1471
107 107 1552
113 113 1634
118 118 1716
124 124 1798
129 129 1880
135 135 1962
141 141 2043
146 146 2125
152 152 2207
158 158 2289
163 163 2371
169 169 2453
175 175 2534
180 180 2616
186 186 2698
191 191 2780
197 197 2862
203 203 2943
208 208 3025
214 214 3107
220 220 3189
225 225 3271
231 231 3353
237 237 3434
240 240 3485
240 240 3485
240 240 3485
240 240 3485
240 240 3485
90 101 1307
96 106 1389
101 112 1471
107 118 1552
113 123 1634
118 129 1716
124 134 1798
129 140 1880
135 146 1962
141 151 2043
146 157 2125
152 162 2207
158 169 2289
163 174 2371
169 180 2453
175 186 2534
180 191 2616
186 197 2698
191 202 2780
197 208 2862
203 213 2943
208 219 3025
214 225 3107
220 231 3189
225 236 3271
231 242 3353
237 247 3434
240 251 3485
240 251 3485
240 251 3485
240 251 3485
240 251 3485
90 115 1307
96 120 1389
101 126 1471
107 132 1552
113 137 1634
118 143 1716
124 148 1798
129 154 1880
135 160 1962
141 165 2043
146 171 2125
152 177 2207
158 182 2289
163 188 2371
169 193 2453
175 199 2534
180 205 2616
186 210 2698
191 216 2780
197 222 2862
203 227 2943
208 233 3025
214 239 3107
220 244 3189
225 250 3271
231 255 3353
237 262 3434
240 265 3485
240 265 3485
240 265 3485
240 265 3485
240 265 3485
90 135 1307
96 140 1389
101 146 1471
107 152 1552
113 157 1634
118 163 1716
124 168 1798
129 174 1880
135 180 1962
141 185 2043
146 191 2125
152 197 2207
158 202 2289
163 208 2371
169 214 2453
175 220 2534
180 225 2616
186 231 2698
191 236 2780
197 242 2862
203 248 2943
208 253 3025
214 259 3107
220 265 3189
225 270 3271
231 276 3353
237 281 3434
240 284 3485
240 284 3485
240 284 3485
240 284 3485
240 284 3485
90 164 1307
96 170 1389
101 176 1471
107 181 1552
113 187 1634
118 192 1716
124 198 1798
129 203 1880
135 209 1962
141 215 2043
146 220 2125
152 226 2207
158 232 2289
163 238 2371
169 243 2453
175 249 2534
180 255 2616
186 260 2698
191 265 2780
197 271 2862
203 277 2943
208 283 3025
214 288 3107
220 294 3189
225 300 3271
231 305 3353
237 311 3434
240 315 3485
240 315 3485
240 315 3485
240 315 3485
240 315 3485
90 206 1307
96 211 1389
101 217 1471
107 223 1552
113 228 1634
118 234 1716
124 240 1798
129 245 1880
135 251 1962
141 256 2043
146 262 2125
152 268 2207
158 273 2289
163 279 2371
169 285 2453
175 290 2534
180 296 2616
186 302 2698
191 307 2780
197 313 2862
203 318 2943
208 324 3025
214 330 3107
220 336 3189
225 341 3271
231 347 3353
237 352 3434
240 356 3485
240 356 3485
240 356 3485
240 356 3485
240 356 3485
90 263 1307
96 268 1389
101 274 1471
107 280 1552
113 285 1634
118 291 1716
124 296 1798
129 302 1880
135 308 1962
141 314 2043
146 319 2125
152 325 2207
158 330 2289
163 336 2371
169 342 2453
175 347 2534
180 353 2616
186 359 2698
191 364 2780
197 369 2862
203 375 2943
208 381 3025
214 386 3107
220 392 3189
225 398 3271
231 404 3353
237 409 3434
240 413 3485
240 413 3485
240 413 3485
240 413 3485
240 413 3485
90 338 1307
96 344 1389
101 349 1471
107 355 1552
113 361 1634
118 366 1716
124 372 1798
129 378 1880
135 383 1962
141 389 2043
146 395 2125
152 400 2207
158 406 2289
163 411 2371
169 417 2453
175 423 2534
180 428 2616
186 434 2698
191 440 2780
197 445 2862
203 451 2943
208 457 3025
214 462 3107
220 468 3189
225 474 3271
231 479 3353
237 485 3434
240 488 3485
240 488 3485
240 488 3485
240 488 3485
240 488 3485
90 435 1307
96 441 1389
101 446 1471
107 452 1552
113 458 1634
118 464 1716
124 469 1798
129 475 1880
135 480 1962
141 486 2043
146 491 2125
152 497 2207
158 503 2289
163 508 2371
169 514 2453
175 520 2534
180 525 2616
186 531 2698
191 536 2780
197 542 2862
203 548 2943
208 554 3025
214 559 3107
220 565 3189
225 570 3271
231 576 3353
237 582 3434
240 585 3485
240 585 3485
240 585 3485
240 585 3485
240 585 3485
90 556 1307
96 562 1389
101 568 1471
107 573 1552
113 579 1634
118 584 1716
124 590 1798
129 596 1880
135 601 1962
141 607 2043
146 613 2125
152 618 2207
158 624 2289
163 629 2371
169 635 2453
175 641 2534
180 646 2616
186 652 2698
191 658 2780
197 663 2862
203 669 2943
208 675 3025
214 680 3107
220 686 3189
225 691 3271
231 697 3353
237 703 3434
240 706 3485
240 706 3485
240 706 3485
240 706 3485
240 706 3485
90 704 1307
96 709 1389
101 715 1471
107 721 1552
113 726 1634
118 732 1716
124 738 1798
129 743 1880
135 749 1962
141 755 2043
146 760 2125
152 766 2207
158 772 2289
163 777 2371
169 783 2453
175 789 2534
180 794 2616
186 800 2698
191 805 2780
197 811 2862
203 816 2943
208 823 3025
214 828 3107
220 834 3189
225 839 3271
231 844 3353
237 850 3434
240 854 3485
240 854 3485
240 854 3485
240 854 3485
240 854 3485
90 880 1307
96 885 1389
101 891 1471
107 896 1552
113 902 1634
118 907 1716
124 913 1798
129 919 1880
135 924 1962
141 930 2043
146 936 2125
152 941 2207
158 947 2289
163 953 2371
169 958 2453
175 964 2534
180 969 2616
186 975 2698
191 981 2780
197 986 2862
203 992 2943
208 998 3025
214 1004 3107
220 1009 3189
225 1015 3271
231 1021 3353
237 1026 3434
240 1029 3485
240 1029 3485
240 1029 3485
240 1029 3485
240 1029 3485
90 1084 1307
96 1090 1389
101 1095 1471
107 1101 1552
113 1106 1634
118 1112 1716
124 1118 1798
129 1123 1880
135 1129 1962
141 1135 2043
146 1140 2125
152 1146 2207
158 1151 2289
163 1157 2371
169 1163 2453
175 1168 2534
180 1174 2616
186 1180 2698
191 1185 2780
197 1191 2862
203 1197 2943
208 1202 3025
214 1208 3107
220 1214 3189
225 1219 3271
231 1225 3353
237 1230 3434
240 1234 3485
240 1234 3485
240 1234 3485
240 1234 3485
240 1234 3485
90 1311 1307
96 1316 1389
101 1322 1471
107 1328 1552
113 1333 1634
118 1339 1716
124 1344 1798
129 1350 1880
135 1356 1962
141 1361 2043
146 1367 2125
152 1373 2207
158 1378 2289
163 1384 2371
169 1389 2453
175 1395 2534
180 1401 2616
186 1406 2698
191 1412 2780
197 1417 2862
203 1423 2943
208 1429 3025
214 1435 3107
220 1440 3189
225 1446 3271
231 1452 3353
237 1458 3434
240 1461 3485
240 1461 3485
240 1461 3485
240 1461 3485
240 1461 3485
108 1567 1325
108 1567 1401
108 1567 1477
108 1567 1554
113 1572 1634
118 1578 1716
124 1583 1798
129 1589 1880
135 1594 1962
141 1600 2043
146 1606 2125
152 1611 2207
158 1617 2289
163 1623 2371
169 1628 2453
175 1634 2534
180 1640 2616
186 1645 2698
191 1651 2780
197 1657 2862
203 1662 2943
208 1668 3025
214 1673 3107
220 1679 3189
225 1685 3271
231 1690 3353
237 1696 3434
240 1699 3485
240 1699 3485
240 1699 3485
240 1699 3485
240 1699 3485
126 1826 1343
126 1826 1419
126 1826 1495
126 1826 1571
126 1826 1648
126 1826 1724
126 1826 1800
129 1830 1880
135 1835 1962
141 1841 2043
146 1846 2125
152 1852 2207
158 1858 2289
163 1864 2371
169 1869 2453
175 1875 2534
180 1880 2616
186 1886 2698
191 1892 2780
197 1898 2862
203 1903 2943
208 1908 3025
214 1914 3107
220 1920 3189
225 1926 3271
231 1931 3353
237 1937 3434
240 1940 3485
240 1940 3485
240 1940 3485
240 1940 3485
240 1940 3485
143 2076 1360
143 2076 1436
143 2076 1512
143 2076 1588
143 2076 1665
143 2076 1741
143 2076 1817
143 2076 1893
143 2076 1969
143 2076 2046
146 2080 2125
152 2085 2207
158 2091 2289
163 2097 2371
169 2102 2453
175 2108 2534
180 2114 2616
186 2119 2698
191 2125 2780
197 2130 2862
203 2136 2943
208 2142 3025
214 2147 3107
220 2153 3189
225 2159 3271
231 2164 3353
237 2170 3434
240 2173 3485
240 2173 3485
240 2173 3485
240 2173 3485
240 2173 3485
159 2313 1376
159 2313 1453
159 2313 1529
159 2313 1605
159 2313 1681
159 2313 1757
159 2313 1833
159 2313 1910
159 2313 1986
159 2313 2062
159 2313 2138
159 2313 2214
159 2313 2291
163 2317 2371
169 2323 2453
175 2328 2534
180 2334 2616
186 2339 2698
191 2345 2780
197 2350 2862
203 2356 2943
208 2362 3025
214 2368 3107
220 2373 3189
225 2379 3271
231 2385 3353
237 2390 3434
240 2394 3485
240 2394 3485
240 2394 3485
240 2394 3485
240 2394 3485
175 2535 1392
175 2535 1468
175 2535 1544
175 2535 1620
175 2535 1696
175 2535 1773
175 2535 1849
175 2535 1925
175 2535 2001
175 2535 2077
175 2535 2154
175 2535 2230
175 2535 2306
175 2535 2382
175 2535 2458
175 2535 2534
180 2541 2616
186 2547 2698
191 2552 2780
197 2558 2862
203 2563 2943
208 2569 3025
214 2574 3107
220 2581 3189
225 2586 3271
231 2592 3353
237 2597 3434
240 2600 3485
240 2600 3485
240 2600 3485
240 2600 3485
240 2600 3485
189 2745 1406
189 2745 1483
189 2745 1559
189 2745 1635
189 2745 1711
189 2745 1787
189 2745 1863
189 2745 1939
189 2745 2016
189 2745 2092
189 2745 2168
189 2745 2244
189 2745 2320
189 2745 2397
189 2745 2473
189 2745 2549
189 2745 2625
189 2745 2701
191 2747 2780
197 2753 2862
203 2759 2943
208 2764 3025
214 2770 3107
220 2776 3189
225 2781 3271
231 2787 3353
237 2793 3434
240 2796 3485
240 2796 3485
240 2796 3485
240 2796 3485
240 2796 3485
203 2942 1420
203 2942 1496
203 2942 1572
203 2942 1648
203 2942 1724
203 2942 1800
203 2942 1877
203 2942 1953
203 2942 2029
203 2942 2105
203 2942 2182
203 2942 2258
203 2942 2334
203 2942 2410
203 2942 2486
203 2942 2562
203 2942 2638
203 2942 2715
203 2942 2791
203 2942 2867
203 2942 2943
208 2948 3025
214 2954 3107
220 2959 3189
225 2965 3271
231 2971 3353
237 2976 3434
240 2980 3485
240 2980 3485
240 2980 3485
240 2980 3485
240 2980 3485
215 3127 1432
215 3127 1508
215 3127 1585
215 3127 1661
215 3127 1737
215 3127 1813
215 3127 1889
215 3127 1965
215 3127 2042
215 3127 2118
215 3127 2194
215 3127 2270
215 3127 2346
215 3127 2423
215 3127 2499
215 3127 2575
215 3127 2651
215 3127 2727
215 3127 2803
215 3127 2880
215 3127 2956
215 3127 3032
215 3127 3108
220 3131 3189
225 3137 3271
231 3142 3353
237 3148 3434
240 3151 3485
240 3151 3485
240 3151 3485
240 3151 3485
240 3151 3485
227 3295 1444
227 3295 1520
227 3295 1596
227 3295 1672
227 3295 1749
227 3295 1825
227 3295 1901
227 3295 1977
227 3295 2054
227 3295 2129
227 3295 2206
227 3295 2282
227 3295 2358
227 3295 2434
227 3295 2511
227 3295 2587
227 3295 2663
227 3295 2739
227 3295 2815
227 3295 2891
227 3295 2967
227 3295 3044
227 3295 3120
227 3295 3196
227 3295 3272
231 3298 3353
237 3305 3434
240 3308 3485
240 3308 3485
240 3308 3485
240 3308 3485
240 3308 3485
237 3441 1454
237 3441 1530
237 3441 1606
237 3441 1683
237 3441 1759
237 3441 1835
237 3441 1911
237 3441 1987
237 3441 2064
237 3441 2140
237 3441 2216
237 3441 2292
237 3441 2368
237 3441 2445
237 3441 2521
237 3441 2596
237 3441 2673
237 3441 2749
237 3441 2826
237 3441 2902
237 3441 2977
237 3441 3054
237 3441 3130
237 3441 3207
237 3441 3282
237 3441 3358
237 3441 3435
240 3444 3485
240 3444 3485
240 3444 3485
240 3444 3485
240 3444 3485
245 3562 1462
245 3562 1538
245 3562 1615
245 3562 1691
245 3562 1767
245 3562 1843
245 3562 1920
245 3562 1996
245 3562 2072
245 3562 2148
245 3562 2224
245 3562 2300
245 3562 2377
245 3562 2453
245 3562 2529
245 3562 2605
245 3562 2681
245 3562 2757
245 3562 2833
245 3562 2910
245 3562 2986
245 3562 3062
245 3562 3138
245 3562 3215
245 3562 3291
245 3562 3367
245 3562 3443
245 3562 3491
245 3562 3491
245 3562 3491
245 3562 3491
245 3562 3491
252 3657 1469
252 3657 1545
252 3657 1621
252 3657 1698
252 3657 1774
252 3657 1850
252 3657 1926
252 3657 2002
252 3657 2078
252 3657 2155
252 3657 2230
252 3657 2307
252 3657 2383
252 3657 2459
252 3657 2536
252 3657 2612
252 3657 2688
252 3657 2764
252 3657 2841
252 3657 2916
252 3657 2993
252 3657 3069
252 3657 3145
252 3657 3221
252 3657 3297
252 3657 3373
252 3657 3450
252 3657 3497
252 3657 3497
252 3657 3497
252 3657 3497
252 3657 3497
257 3728 1474
257 3728 1550
257 3728 1626
257 3728 1702
257 3728 1779
257 3728 1855
257 3728 1931
257 3728 2007
257 3728 2083
257 3728 2159
257 3728 2236
257 3728 2312
257 3728 2388
257 3728 2464
257 3728 2541
257 3728 2617
257 3728 2693
257 3728 2769
257 3728 2845
257 3728 2921
257 3728 2997
257 3728 3074
257 3728 3150
257 3728 3226
257 3728 3302
257 3728 3379
257 3728 3454
257 3728 3502
257 3728 3502
257 3728 3502
257 3728 3502
257 3728 3502
260 3777 1477
260 3777 1553
260 3777 1630
260 3777 1706
260 3777 1782
260 3777 1858
260 3777 1935
260 3777 2010
260 3777 2086
260 3777 2163
260 3777 2239
260 3777 2315
260 3777 2391
260 3777 2468
260 3777 2543
260 3777 2620
260 3777 2696
260 3777 2773
260 3777 2848
260 3777 2925
260 3777 3001
260 3777 3077
260 3777 3153
260 3777 3229
260 3777 3306
260 3777 3381
260 3777 3458
260 3777 3506
260 3777 3506
260 3777 3506
260 3777 3506
260 3777 3506
262 3808 1479
262 3808 1556
262 3808 1632
262 3808 1708
