All_In_One/Enrich_Colormaster/colormanagement/luts/film_response/Color_Implosion_21_FPE.cube
TITLE "ImpulZ LUT 32"
LUT_3D_SIZE 8
DOMAIN_MIN 0.000000 0.000000 0.000000
DOMAIN_MAX 0.903226 0.903226 0.903226
0.0392 0.0431 0.0431
0.0554 0.0471 0.0431
0.0834 0.0520 0.0471
0.1285 0.0627 0.0510
0.1943 0.0745 0.0549
0.2782 0.0849 0.0627
0.3698 0.0902 0.0667
0.4734 0.1016 0.0706
0.0392 0.0515 0.0471
0.0593 0.0554 0.0471
0.0966 0.0682 0.0510
0.1703 0.0912 0.0588
0.2802 0.1128 0.0632
0.4018 0.1408 0.0711
0.5086 0.1544 0.0784
0.5968 0.1736 0.0829
0.0392 0.0677 0.0510
0.0677 0.0799 0.0520
0.1206 0.1000 0.0559
0.2238 0.1368 0.0642
0.3651 0.1786 0.0716
0.5033 0.2213 0.0810
0.6121 0.2502 0.0903
0.7029 0.2860 0.1030
0.0392 0.0878 0.0549
0.0799 0.1201 0.0627
0.1664 0.1619 0.0682
0.2694 0.1982 0.0721
0.4328 0.2596 0.0839
0.5818 0.3184 0.0956
0.6975 0.3620 0.1143
0.7901 0.4096 0.1399
0.0392 0.1197 0.0627
0.0888 0.1726 0.0726
0.2130 0.2473 0.0863
0.3470 0.3032 0.0922
0.4847 0.3513 0.1001
0.6495 0.4229 0.1222
0.7700 0.4788 0.1541
0.8601 0.5272 0.1859
0.0392 0.1580 0.0692
0.1070 0.2449 0.0829
0.2728 0.3572 0.1055
0.4323 0.4249 0.1202
0.5765 0.4744 0.1379
0.7054 0.5160 0.1501
0.8273 0.5753 0.1873
0.8998 0.6164 0.2153
0.0501 0.2405 0.0824
0.1433 0.3523 0.1016
0.3376 0.4710 0.1295
0.5117 0.5415 0.1605
0.6494 0.5836 0.1825
0.7706 0.6195 0.2016
0.8562 0.6405 0.2069
0.9208 0.6811 0.2349
0.0627 0.3632 0.1055
0.1950 0.4749 0.1330
0.4078 0.5695 0.1653
0.5758 0.6336 0.2050
0.7097 0.6757 0.2310
0.8125 0.6972 0.2427
0.8880 0.7163 0.2431
0.9251 0.7208 0.2388
0.0392 0.0436 0.0549
0.0554 0.0471 0.0549
0.0834 0.0520 0.0554
0.1285 0.0627 0.0632
0.1844 0.0726 0.0687
0.2560 0.0824 0.0750
0.3380 0.0863 0.0789
0.4297 0.0902 0.0863
0.0392 0.0549 0.0588
0.0637 0.0637 0.0632
0.1167 0.0804 0.0716
0.1894 0.0995 0.0794
0.2964 0.1212 0.0888
0.4096 0.1388 0.0951
0.5091 0.1535 0.1030
0.6013 0.1701 0.1108
0.0392 0.0677 0.0632
0.0799 0.1045 0.0804
0.1708 0.1378 0.0883
0.2890 0.1736 0.1000
0.4239 0.2134 0.1113
0.5426 0.2380 0.1172
0.6376 0.2659 0.1275
0.7204 0.2910 0.1398
0.0392 0.0956 0.0711
0.0799 0.1447 0.0956
0.2194 0.2233 0.1206
0.3640 0.2723 0.1261
0.5191 0.3267 0.1403
0.6461 0.3660 0.1491
0.7470 0.4048 0.1718
0.8299 0.4464 0.1973
0.0392 0.1319 0.0834
0.0859 0.2047 0.1133
0.2635 0.3317 0.1575
0.4396 0.4028 0.1801
0.5911 0.4479 0.1880
0.7284 0.4979 0.2081
0.8367 0.5455 0.2381
0.9041 0.5925 0.2798
0.0392 0.1851 0.0976
0.1192 0.3078 0.1423
0.3254 0.4495 0.1948
0.5112 0.5293 0.2379
0.6623 0.5714 0.2601
0.7935 0.6092 0.2723
0.8875 0.6548 0.3042
0.9374 0.6945 0.3445
0.0471 0.2728 0.1186
0.1636 0.4230 0.1702
0.3980 0.5533 0.2306
0.5797 0.6273 0.2841
0.7200 0.6679 0.3160
0.8381 0.7037 0.3400
0.9119 0.7286 0.3537
0.9495 0.7605 0.3895
0.0584 0.3872 0.1496
0.2465 0.5387 0.2175
0.4716 0.6337 0.2693
0.6337 0.6959 0.3129
0.7651 0.7360 0.3527
0.8674 0.7689 0.3815
0.9246 0.7919 0.4022
0.9495 0.7997 0.4057
0.0392 0.0471 0.0716
0.0593 0.0510 0.0755
0.0834 0.0549 0.0716
0.1324 0.0627 0.0794
0.1894 0.0726 0.0873
0.2570 0.0810 0.0951
0.3326 0.0863 0.0990
0.4184 0.0902 0.1069
0.0392 0.0588 0.0755
0.0677 0.0755 0.0922
0.1084 0.0760 0.0878
0.1687 0.0912 0.0956
0.2468 0.1069 0.1050
0.3390 0.1207 0.1128
0.4415 0.1309 0.1231
0.5371 0.1427 0.1309
0.0353 0.0765 0.0873
0.0627 0.1035 0.1045
0.1669 0.1550 0.1423
0.2836 0.1909 0.1545
0.4150 0.2179 0.1599
0.5283 0.2380 0.1648
0.6239 0.2552 0.1708
0.7042 0.2831 0.1919
0.0353 0.1089 0.1040
0.0593 0.1457 0.1241
0.1800 0.2542 0.1932
0.3871 0.3248 0.2194
0.5303 0.3547 0.2159
0.6474 0.3787 0.2179
0.7420 0.4067 0.2292
0.8185 0.4440 0.2626
0.0392 0.1658 0.1256
0.0598 0.2174 0.1536
0.1846 0.3494 0.2277
0.4474 0.4744 0.2998
0.6103 0.5033 0.3042
0.7436 0.5371 0.3091
0.8454 0.5739 0.3318
0.9056 0.6191 0.3829
0.0392 0.2463 0.1614
0.0780 0.3220 0.1924
0.2715 0.4916 0.2925
0.5151 0.5959 0.3714
0.6759 0.6317 0.3999
0.7998 0.6582 0.4077
0.8978 0.6979 0.4343
0.9447 0.7390 0.4829
0.0471 0.3317 0.1893
0.1114 0.4343 0.2306
0.3976 0.6082 0.3542
0.5956 0.6885 0.4243
0.7337 0.7248 0.4601
0.8355 0.7469 0.4807
0.9158 0.7777 0.5003
0.9560 0.8071 0.5366
0.0574 0.4149 0.2173
0.1886 0.5416 0.2782
0.5073 0.6925 0.3939
0.6641 0.7488 0.4487
0.7798 0.7866 0.4920
0.8635 0.8110 0.5238
0.9242 0.8316 0.5469
0.9565 0.8437 0.5566
0.0431 0.0525 0.0956
0.0672 0.0588 0.1074
0.1094 0.0642 0.1128
0.1442 0.0667 0.1050
0.2149 0.0745 0.1133
0.2875 0.0824 0.1231
0.3620 0.0863 0.1285
0.4360 0.0863 0.1348
0.0392 0.0642 0.1040
0.0677 0.0834 0.1280
0.1324 0.0961 0.1447
0.1909 0.0966 0.1290
0.2693 0.1089 0.1353
0.3492 0.1186 0.1418
0.4381 0.1265 0.1510
0.5249 0.1348 0.1594
0.0392 0.0888 0.1216
0.0593 0.1133 0.1486
0.1515 0.1736 0.2016
0.2468 0.1742 0.1864
0.3523 0.1899 0.1864
0.4558 0.2079 0.1928
0.5552 0.2233 0.1998
0.6459 0.2478 0.2199
0.0392 0.1285 0.1497
0.0515 0.1658 0.1810
0.1074 0.2179 0.2134
0.3635 0.3635 0.3189
0.5013 0.3758 0.3111
0.6239 0.3934 0.3071
0.7195 0.4160 0.3141
0.7999 0.4533 0.3475
0.0392 0.1943 0.1855
0.0515 0.2424 0.2154
0.1084 0.3145 0.2542
0.3479 0.4715 0.3670
0.6103 0.5562 0.4318
0.7313 0.5646 0.4166
0.8224 0.5911 0.4314
0.8884 0.6348 0.4750
0.0417 0.2875 0.2355
0.0608 0.3449 0.2610
0.1483 0.4293 0.3052
0.3995 0.5833 0.4268
0.6720 0.6817 0.5175
0.7905 0.6979 0.5259
0.8831 0.7258 0.5420
0.9355 0.7641 0.5853
0.0471 0.3668 0.2688
0.0775 0.4302 0.2929
0.2509 0.5601 0.3798
0.5310 0.6984 0.5093
0.7279 0.7690 0.5743
0.8302 0.7866 0.5949
0.9017 0.8013 0.6067
0.9486 0.8316 0.6410
0.0510 0.4192 0.2814
0.1120 0.5116 0.3273
0.3705 0.6650 0.4474
0.6602 0.7846 0.5645
0.7861 0.8267 0.6101
0.8635 0.8443 0.6381
0.9163 0.8560 0.6543
0.9525 0.8674 0.6630
0.0431 0.0569 0.1275
0.0716 0.0648 0.1476
0.1285 0.0765 0.1737
0.1972 0.0824 0.1805
0.2551 0.0824 0.1570
0.3404 0.0863 0.1628
0.4101 0.0863 0.1687
0.4718 0.0863 0.1745
0.0431 0.0711 0.1398
0.0672 0.0893 0.1638
0.1363 0.1113 0.2016
0.2325 0.1226 0.2129
0.3203 0.1207 0.1889
0.3885 0.1226 0.1873
0.4572 0.1265 0.1908
0.5302 0.1309 0.1982
0.0392 0.1011 0.1658
0.0593 0.1324 0.2022
0.1206 0.1726 0.2403
0.2615 0.2056 0.2738
0.3660 0.2011 0.2492
0.4597 0.2066 0.2424
0.5474 0.2179 0.2463
0.6294 0.2400 0.2635
0.0392 0.1541 0.2110
0.0515 0.2056 0.2571
0.0956 0.2306 0.2733
0.2860 0.3459 0.3625
0.4597 0.3601 0.3630
0.5729 0.3680 0.3513
0.6680 0.3856 0.3552
0.7489 0.4160 0.3799
0.0392 0.2218 0.2551
0.0476 0.2615 0.2845
0.0804 0.3002 0.3012
0.2086 0.3920 0.3576
0.5906 0.5925 0.5259
0.7077 0.5911 0.5167
0.8062 0.6191 0.5328
0.8742 0.6528 0.5683
0.0417 0.3017 0.3007
0.0554 0.3498 0.3247
0.1015 0.4072 0.3513
0.2503 0.5097 0.4156
0.5911 0.6803 0.5734
0.7866 0.7376 0.6307
0.8713 0.7547 0.6416
0.9237 0.7828 0.6740
0.0471 0.3786 0.3374
0.0637 0.4306 0.3605
0.1493 0.5131 0.4023
0.3559 0.6298 0.4916
0.6634 0.7700 0.6377
0.8307 0.8238 0.6945
0.8962 0.8316 0.7042
0.9438 0.8517 0.7303
0.0510 0.4271 0.3531
0.0775 0.4913 0.3830
0.2101 0.6087 0.4553
0.5320 0.7538 0.5931
0.7778 0.8483 0.7018
0.8674 0.8727 0.7351
0.9198 0.8840 0.7508
0.9486 0.8894 0.7566
0.0431 0.0588 0.1658
0.0755 0.0711 0.1938
0.1403 0.0873 0.2296
0.2148 0.0941 0.2482
0.3002 0.0941 0.2305
0.3762 0.0863 0.2129
0.4399 0.0863 0.2143
0.4962 0.0863 0.2178
0.0431 0.0815 0.1839
0.0711 0.0990 0.2100
0.1398 0.1231 0.2550
0.2271 0.1369 0.2780
0.3281 0.1369 0.2629
0.4139 0.1309 0.2427
0.4698 0.1265 0.2374
0.5341 0.1309 0.2423
0.0431 0.1196 0.2228
0.0593 0.1476 0.2560
0.1118 0.1742 0.2816
0.2463 0.2173 0.3302
0.3890 0.2351 0.3414
0.4773 0.2246 0.3140
0.5552 0.2223 0.3061
0.6307 0.2361 0.3175
0.0431 0.1771 0.2732
0.0549 0.2242 0.3169
0.0922 0.2419 0.3257
0.2223 0.3228 0.3866
0.4636 0.3954 0.4483
0.5690 0.3802 0.4229
0.6577 0.3816 0.4142
0.7367 0.4073 0.4333
0.0431 0.2610 0.3326
0.0549 0.3026 0.3634
0.0834 0.3247 0.3713
0.1732 0.3787 0.4023
0.5054 0.5606 0.5499
0.6725 0.5794 0.5621
0.7642 0.5872 0.5642
0.8381 0.6191 0.5913
0.0431 0.3148 0.3580
0.0515 0.3472 0.3742
0.0844 0.3900 0.3929
0.1801 0.4710 0.4381
0.4368 0.6074 0.5425
0.7812 0.7630 0.7028
0.8621 0.7778 0.7185
0.9194 0.8033 0.7470
0.0471 0.3864 0.3938
0.0598 0.4379 0.4199
0.1128 0.4993 0.4483
0.2435 0.5867 0.5033
0.5133 0.7113 0.6133
0.8058 0.8346 0.7518
0.8962 0.8556 0.7798
0.9438 0.8757 0.8042
0.0510 0.4413 0.4178
0.0711 0.4952 0.4448
0.1472 0.5827 0.4915
0.3711 0.7004 0.5857
0.6758 0.8234 0.7142
0.8592 0.8884 0.7994
0.9203 0.9016 0.8204
0.9486 0.9080 0.8282
0.0501 0.0667 0.2139
0.0873 0.0815 0.2472
0.1510 0.0941 0.2825
0.2148 0.1020 0.3002
0.2932 0.0980 0.2893
0.3840 0.0941 0.2702
0.4531 0.0863 0.2609
0.5055 0.0863 0.2649
0.0471 0.0907 0.2340
0.0750 0.1108 0.2620
0.1476 0.1348 0.3095
0.2325 0.1461 0.3295
0.3277 0.1466 0.3256
0.4174 0.1427 0.3109
0.4768 0.1304 0.2903
0.5380 0.1309 0.2933
0.0431 0.1344 0.2795
0.0632 0.1559 0.3061
0.1118 0.1805 0.3277
0.2311 0.2233 0.3782
0.3826 0.2492 0.4033
0.5052 0.2581 0.4028
0.5670 0.2403 0.3757
0.6347 0.2403 0.3773
0.0431 0.1943 0.3346
0.0554 0.2335 0.3668
0.0922 0.2477 0.3708
0.1998 0.3189 0.4248
0.4387 0.3960 0.4950
0.5964 0.4200 0.5141
0.6646 0.4004 0.4866
0.7371 0.4126 0.4960
0.0471 0.2767 0.3885
0.0554 0.3065 0.4095
0.0834 0.3306 0.4209
0.1624 0.3753 0.4464
0.4525 0.5436 0.5778
0.6798 0.6043 0.6338
0.7572 0.5956 0.6259
0.8288 0.6118 0.6403
0.0471 0.3423 0.4257
0.0574 0.3742 0.4413
0.0844 0.4086 0.4575
0.1590 0.4655 0.4900
0.3710 0.5799 0.5705
0.7298 0.7499 0.7308
0.8386 0.7655 0.7504
0.8998 0.7862 0.7711
0.0501 0.3864 0.4374
0.0588 0.4262 0.4601
0.0922 0.4778 0.4846
0.1880 0.5557 0.5298
0.4085 0.6682 0.6141
0.7144 0.7988 0.7465
0.8962 0.8727 0.8356
0.9399 0.8889 0.8567
0.0549 0.4467 0.4727
0.0672 0.4986 0.4972
0.1211 0.5714 0.5361
0.2665 0.6631 0.5954
0.5356 0.7770 0.6976
0.7863 0.8685 0.8079
0.9124 0.9124 0.8645
0.9486 0.9172 0.8762
0.0549 0.0784 0.2698
0.1030 0.0937 0.3095
0.1692 0.1030 0.3404
0.2207 0.1020 0.3447
0.2884 0.0980 0.3369
0.3776 0.0941 0.3251
0.4531 0.0902 0.3168
0.5094 0.0863 0.3094
0.0505 0.0990 0.2860
0.0780 0.1226 0.3178
0.1501 0.1422 0.3580
0.2320 0.1500 0.3771
0.3322 0.1505 0.3806
0.4440 0.1580 0.3812
0.5061 0.1476 0.3689
0.5453 0.1309 0.3492
0.0471 0.1507 0.3385
0.0632 0.1633 0.3503
0.1118 0.1883 0.3777
0.2233 0.2251 0.4224
0.3886 0.2571 0.4582
0.5279 0.2792 0.4768
0.6087 0.2761 0.4669
0.6415 0.2481 0.4386
0.0471 0.2144 0.3944
0.0554 0.2399 0.4144
0.0907 0.2526 0.4179
0.1973 0.3267 0.4759
0.4290 0.3998 0.5415
0.6053 0.4362 0.5749
0.6950 0.4425 0.5778
0.7395 0.4244 0.5582
0.0471 0.2825 0.4389
0.0588 0.3140 0.4601
0.0834 0.3380 0.4693
0.1664 0.3871 0.4984
0.4453 0.5475 0.6215
0.6716 0.6108 0.6788
0.7739 0.6235 0.6955
0.8249 0.6176 0.6897
0.0510 0.3501 0.4727
0.0593 0.3806 0.4920
0.0834 0.4164 0.5087
0.1512 0.4680 0.5356
0.3611 0.5834 0.6177
0.7172 0.7499 0.7676
0.8425 0.7823 0.7999
0.8909 0.7823 0.8033
0.0540 0.4060 0.5007
0.0632 0.4428 0.5208
0.0922 0.4904 0.5445
0.1718 0.5557 0.5782
0.3772 0.6603 0.6515
0.6821 0.7901 0.7741
0.8797 0.8723 0.8606
0.9320 0.8845 0.8732
0.0549 0.4463 0.5129
0.0663 0.4899 0.5370
0.1000 0.5474 0.5650
0.2013 0.6313 0.6137
0.4391 0.7406 0.6972
0.7193 0.8474 0.8108
0.8836 0.9046 0.8771
0.9486 0.9255 0.9090
