All_In_One/Enrich_Colormaster/colormanagement/luts/film_response/Color_Implosion_21_FC.cube
TITLE "ImpulZ LUT 32"
LUT_3D_SIZE 5
DOMAIN_MIN 0.000000 0.000000 0.000000
DOMAIN_MAX 0.903226 0.903226 0.903226
0.0431 0.0353 0.0353
0.0989 0.0431 0.0431
0.1996 0.0549 0.0528
0.3831 0.0732 0.0667
0.6526 0.0980 0.0863
0.0431 0.0754 0.0392
0.1037 0.0872 0.0401
0.2707 0.1251 0.0588
0.5523 0.1809 0.0863
0.8316 0.2376 0.1142
0.0471 0.1351 0.0392
0.1399 0.1905 0.0558
0.3068 0.2441 0.0724
0.6190 0.3518 0.1116
0.8851 0.4591 0.1583
0.0549 0.2433 0.0458
0.1957 0.4120 0.0833
0.4006 0.4944 0.1163
0.6551 0.5610 0.1426
0.9086 0.6848 0.1918
0.0937 0.5848 0.0780
0.2812 0.7337 0.1299
0.5126 0.8099 0.1800
0.7240 0.8142 0.1957
0.8933 0.8264 0.1961
0.0510 0.0431 0.0872
0.0998 0.0431 0.0793
0.1957 0.0510 0.0911
0.3374 0.0627 0.1029
0.5593 0.0824 0.1185
0.0431 0.0793 0.0793
0.1360 0.1164 0.1046
0.3243 0.1517 0.1251
0.5963 0.1857 0.1469
0.8594 0.2336 0.1783
0.0471 0.1622 0.0880
0.1486 0.2812 0.1456
0.4202 0.3684 0.1905
0.7305 0.4329 0.2110
0.9365 0.5332 0.2685
0.0588 0.3605 0.1115
0.2441 0.5899 0.2189
0.5270 0.6983 0.3030
0.8029 0.7332 0.3243
0.9682 0.8395 0.3963
0.0941 0.6870 0.1504
0.3858 0.8655 0.2798
0.6386 0.9099 0.3578
0.8573 0.9217 0.4097
0.9652 0.9413 0.4354
0.0588 0.0510 0.1722
0.1351 0.0567 0.1857
0.2345 0.0549 0.1565
0.4154 0.0667 0.1665
0.6142 0.0824 0.1818
0.0549 0.0968 0.1661
0.1294 0.1391 0.2249
0.2903 0.1329 0.2014
0.5074 0.1517 0.2014
0.7571 0.1887 0.2315
0.0471 0.2071 0.1935
0.1077 0.2611 0.2336
0.4142 0.4573 0.3888
0.6952 0.4639 0.3810
0.9108 0.5449 0.4352
0.0627 0.4591 0.2433
0.1556 0.5375 0.2864
0.4560 0.7637 0.4795
0.8042 0.8050 0.5484
0.9631 0.8678 0.6103
0.0784 0.7083 0.2563
0.2568 0.8464 0.3758
0.6901 0.9565 0.6106
0.8821 0.9604 0.6564
0.9639 0.9600 0.6651
0.0706 0.0627 0.3099
0.1534 0.0754 0.3696
0.2837 0.0784 0.3600
0.5008 0.0784 0.2799
0.6769 0.0863 0.2834
0.0627 0.1234 0.3265
0.1303 0.1478 0.3775
0.2973 0.1700 0.4185
0.5252 0.1634 0.3431
0.7436 0.1779 0.3409
0.0614 0.2668 0.3810
0.1225 0.3021 0.4184
0.3135 0.4103 0.5209
0.6421 0.4307 0.5366
0.8691 0.4765 0.5576
0.0627 0.4616 0.3884
0.1290 0.4939 0.4184
0.2890 0.6216 0.5170
0.8382 0.8800 0.7951
0.9600 0.9083 0.8312
0.0824 0.7275 0.4311
0.1944 0.8081 0.5061
0.4875 0.9183 0.6853
0.9056 0.9804 0.8742
0.9748 0.9800 0.8795
0.0898 0.0824 0.5667
0.1857 0.0950 0.6177
0.2798 0.0920 0.5814
0.4733 0.0824 0.4625
0.6734 0.0863 0.4145
0.0745 0.1543 0.5728
0.1456 0.1661 0.6020
0.3033 0.1870 0.6347
0.5649 0.2023 0.5828
0.7348 0.1839 0.5109
0.0745 0.2994 0.6142
0.1378 0.3130 0.6269
0.3140 0.4177 0.7115
0.6831 0.4826 0.7689
0.8612 0.4747 0.7389
0.0745 0.4930 0.6063
0.1447 0.5279 0.6311
0.2782 0.6016 0.6892
0.7934 0.8708 0.9065
0.9509 0.8826 0.9183
0.0820 0.7044 0.5946
0.1700 0.7640 0.6504
0.3588 0.8612 0.7528
0.7969 0.9696 0.9209
0.9800 0.9882 0.9643
