All_In_One/Enrich_Colormaster/colormanagement/luts/film_response/Color_Implosion_21_FPE.cube
TITLE "ImpulZ LUT 32"
LUT_3D_SIZE 32
0.0392 0.0431 0.0431
0.0431 0.0431 0.0431
0.0471 0.0431 0.0431
0.0510 0.0471 0.0431
0.0554 0.0471 0.0431
0.0594 0.0471 0.0431
0.0674 0.0479 0.0439
0.0754 0.0510 0.0471
0.0834 0.0520 0.0471
0.0913 0.0549 0.0471
0.1033 0.0588 0.0484
0.1165 0.0602 0.0510
0.1285 0.0627 0.0510
0.1445 0.0667 0.0549
0.1604 0.0685 0.0549
0.1763 0.0706 0.0549
0.1943 0.0745 0.0549
0.2121 0.0766 0.0588
0.2343 0.0784 0.0588
0.2543 0.0824 0.0588
0.2782 0.0849 0.0627
0.3021 0.0863 0.0627
0.3232 0.0891 0.0627
0.3460 0.0902 0.0667
0.3698 0.0902 0.0667
0.3938 0.0902 0.0667
0.4210 0.0941 0.0700
0.4456 0.0975 0.0706
0.4734 0.1016 0.0706
0.5012 0.1020 0.0745
0.5251 0.1059 0.0745
0.5451 0.1098 0.0745
0.0392 0.0432 0.0431
0.0431 0.0471 0.0431
0.0471 0.0471 0.0431
0.0510 0.0471 0.0431
0.0554 0.0472 0.0431
0.0628 0.0510 0.0471
0.0676 0.0511 0.0471
0.0755 0.0549 0.0471
0.0844 0.0559 0.0471
0.0954 0.0589 0.0482
0.1084 0.0628 0.0510
0.1205 0.0641 0.0510
0.1365 0.0682 0.0525
0.1548 0.0722 0.0549
0.1740 0.0762 0.0549
0.1962 0.0804 0.0568
0.2181 0.0845 0.0588
0.2382 0.0865 0.0588
0.2621 0.0903 0.0611
0.2860 0.0927 0.0627
0.3100 0.0967 0.0628
0.3340 0.0983 0.0667
0.3579 0.1010 0.0667
0.3818 0.1022 0.0668
0.4057 0.1061 0.0697
0.4296 0.1061 0.0706
0.4568 0.1100 0.0707
0.4814 0.1135 0.0745
0.5053 0.1140 0.0745
0.5328 0.1178 0.0746
0.5529 0.1218 0.0784
0.5730 0.1257 0.0784
0.0392 0.0471 0.0431
0.0431 0.0473 0.0431
0.0471 0.0473 0.0431
0.0512 0.0475 0.0434
0.0554 0.0510 0.0436
0.0633 0.0516 0.0471
0.0714 0.0551 0.0471
0.0793 0.0558 0.0471
0.0883 0.0598 0.0473
0.1003 0.0630 0.0510
0.1126 0.0669 0.0510
0.1274 0.0683 0.0512
0.1447 0.0723 0.0549
0.1623 0.0764 0.0549
0.1841 0.0826 0.0567
0.2101 0.0868 0.0588
0.2382 0.0925 0.0591
0.2621 0.0965 0.0627
0.2863 0.1008 0.0627
0.3141 0.1046 0.0630
0.3380 0.1064 0.0667
0.3646 0.1103 0.0669
0.3898 0.1131 0.0695
0.4139 0.1171 0.0706
0.4406 0.1212 0.0708
0.4654 0.1223 0.0737
0.4923 0.1263 0.0745
0.5171 0.1294 0.0747
0.5408 0.1302 0.0784
0.5610 0.1341 0.0784
0.5809 0.1379 0.0786
0.6008 0.1419 0.0824
0.0392 0.0510 0.0471
0.0432 0.0510 0.0471
0.0473 0.0512 0.0471
0.0514 0.0514 0.0471
0.0554 0.0549 0.0471
0.0633 0.0553 0.0471
0.0714 0.0588 0.0471
0.0833 0.0597 0.0471
0.0922 0.0637 0.0481
0.1074 0.0678 0.0510
0.1214 0.0722 0.0514
0.1404 0.0788 0.0549
0.1582 0.0803 0.0549
0.1809 0.0870 0.0565
0.2025 0.0923 0.0588
0.2300 0.0964 0.0592
0.2602 0.1044 0.0627
0.2864 0.1088 0.0631
0.3162 0.1145 0.0650
0.3420 0.1183 0.0671
0.3721 0.1249 0.0692
0.3977 0.1266 0.0706
0.4244 0.1302 0.0710
0.4495 0.1341 0.0745
0.4737 0.1380 0.0745
0.4976 0.1419 0.0749
0.5216 0.1452 0.0784
0.5481 0.1492 0.0788
0.5686 0.1533 0.0820
0.5890 0.1540 0.0824
0.6086 0.1580 0.0828
0.6250 0.1654 0.0863
0.0392 0.0515 0.0471
0.0432 0.0549 0.0471
0.0473 0.0551 0.0471
0.0515 0.0554 0.0471
0.0593 0.0554 0.0471
0.0638 0.0593 0.0471
0.0721 0.0601 0.0471
0.0838 0.0636 0.0476
0.0966 0.0682 0.0510
0.1087 0.0722 0.0510
0.1285 0.0789 0.0522
0.1489 0.0843 0.0549
0.1703 0.0912 0.0588
0.1941 0.0962 0.0588
0.2225 0.1008 0.0606
0.2478 0.1083 0.0627
0.2802 0.1128 0.0632
0.3121 0.1208 0.0667
0.3422 0.1288 0.0672
0.3719 0.1328 0.0706
0.4018 0.1408 0.0711
0.4318 0.1448 0.0745
0.4574 0.1489 0.0750
0.4848 0.1505 0.0750
0.5086 0.1544 0.0784
0.5326 0.1584 0.0784
0.5565 0.1656 0.0818
0.5775 0.1696 0.0824
0.5968 0.1736 0.0829
0.6167 0.1777 0.0863
0.6364 0.1819 0.0868
0.6525 0.1863 0.0868
0.0392 0.0555 0.0471
0.0471 0.0588 0.0471
0.0477 0.0594 0.0471
0.0553 0.0594 0.0471
0.0598 0.0632 0.0471
0.0679 0.0633 0.0477
0.0760 0.0673 0.0479
0.0878 0.0712 0.0510
0.1007 0.0758 0.0510
0.1173 0.0802 0.0521
0.1371 0.0875 0.0549
0.1577 0.0922 0.0563
0.1832 0.1002 0.0588
0.2107 0.1082 0.0604
0.2397 0.1140 0.0627
0.2709 0.1235 0.0633
0.3041 0.1294 0.0667
0.3366 0.1374 0.0673
0.3685 0.1447 0.0706
0.4004 0.1509 0.0712
0.4284 0.1574 0.0745
0.4582 0.1627 0.0751
0.4854 0.1694 0.0784
0.5122 0.1750 0.0790
0.5371 0.1790 0.0815
0.5610 0.1829 0.0824
0.5843 0.1895 0.0830
0.6049 0.1936 0.0863
0.6249 0.1982 0.0869
0.6449 0.2025 0.0902
0.6611 0.2102 0.0908
0.6770 0.2143 0.0947
0.0392 0.0588 0.0471
0.0471 0.0627 0.0471
0.0512 0.0635 0.0479
0.0556 0.0671 0.0510
0.0632 0.0674 0.0510
0.0720 0.0714 0.0510
0.0839 0.0752 0.0510
0.0927 0.0792 0.0510
0.1087 0.0842 0.0520
0.1246 0.0882 0.0549
0.1465 0.0961 0.0562
0.1696 0.1035 0.0588
0.1958 0.1089 0.0603
0.2238 0.1200 0.0627
0.2564 0.1288 0.0645
0.2894 0.1367 0.0667
0.3280 0.1486 0.0687
0.3599 0.1566 0.0706
0.3933 0.1631 0.0714
0.4276 0.1694 0.0745
0.4555 0.1773 0.0770
0.4874 0.1853 0.0784
0.5146 0.1925 0.0812
0.5404 0.1973 0.0824
0.5643 0.2053 0.0831
0.5882 0.2093 0.0863
0.6122 0.2148 0.0871
0.6326 0.2214 0.0897
0.6525 0.2262 0.0909
0.6721 0.2305 0.0949
0.6883 0.2382 0.0979
0.7050 0.2461 0.0988
0.0392 0.0627 0.0471
0.0472 0.0668 0.0510
0.0512 0.0676 0.0510
0.0592 0.0715 0.0510
0.0637 0.0750 0.0510
0.0758 0.0790 0.0516
0.0878 0.0800 0.0519
0.0998 0.0872 0.0519
0.1127 0.0921 0.0549
0.1326 0.0998 0.0558
0.1541 0.1054 0.0588
0.1824 0.1160 0.0602
0.2078 0.1240 0.0627
0.2420 0.1328 0.0644
0.2734 0.1408 0.0667
0.3074 0.1518 0.0676
0.3471 0.1627 0.0706
0.3838 0.1725 0.0715
0.4157 0.1814 0.0745
0.4476 0.1909 0.0769
0.4795 0.1973 0.0784
0.5104 0.2053 0.0811
0.5365 0.2133 0.0824
0.5643 0.2204 0.0833
0.5882 0.2284 0.0863
0.6122 0.2340 0.0902
0.6361 0.2445 0.0935
0.6574 0.2492 0.0950
0.6764 0.2572 0.0985
0.6963 0.2621 0.0989
0.7131 0.2701 0.1029
0.7321 0.2741 0.1068
0.0392 0.0677 0.0510
0.0472 0.0716 0.0510
0.0515 0.0747 0.0510
0.0592 0.0759 0.0514
0.0677 0.0799 0.0520
0.0800 0.0844 0.0549
0.0927 0.0920 0.0549
0.1049 0.0960 0.0549
0.1206 0.1000 0.0559
0.1406 0.1080 0.0588
0.1630 0.1170 0.0598
0.1909 0.1254 0.0627
0.2238 0.1368 0.0642
0.2557 0.1465 0.0667
0.2915 0.1577 0.0677
0.3252 0.1657 0.0706
0.3651 0.1786 0.0716
0.4020 0.1895 0.0745
0.4369 0.2014 0.0755
0.4715 0.2107 0.0784
0.5033 0.2213 0.0810
0.5326 0.2292 0.0834
0.5604 0.2354 0.0852
0.5872 0.2422 0.0873
0.6121 0.2502 0.0903
0.6361 0.2603 0.0933
0.6600 0.2701 0.0974
0.6829 0.2780 0.0990
0.7029 0.2860 0.1030
0.7201 0.2940 0.1069
0.7400 0.2991 0.1108
0.7559 0.3060 0.1147
0.0392 0.0717 0.0510
0.0472 0.0756 0.0510
0.0524 0.0798 0.0521
0.0631 0.0839 0.0549
0.0716 0.0879 0.0549
0.0848 0.0959 0.0555
0.1007 0.1003 0.0560
0.1166 0.1079 0.0588
0.1297 0.1119 0.0588
0.1496 0.1199 0.0588
0.1709 0.1290 0.0601
0.2025 0.1398 0.0639
0.2322 0.1504 0.0667
0.2716 0.1647 0.0683
0.3052 0.1744 0.0706
0.3443 0.1885 0.0725
0.3849 0.1985 0.0745
0.4238 0.2105 0.0756
0.4596 0.2214 0.0784
0.4914 0.2333 0.0808
0.5233 0.2426 0.0835
0.5552 0.2531 0.0863
0.5832 0.2611 0.0891
0.6082 0.2702 0.0913
0.6361 0.2800 0.0952
0.6600 0.2889 0.0992
0.6839 0.2980 0.1025
0.7044 0.3060 0.1054
0.7242 0.3164 0.1106
0.7441 0.3221 0.1148
0.7638 0.3338 0.1226
0.7799 0.3418 0.1239
0.0392 0.0757 0.0510
0.0472 0.0825 0.0522
0.0551 0.0878 0.0549
0.0635 0.0918 0.0553
0.0729 0.0971 0.0562
0.0888 0.1051 0.0588
0.1082 0.1131 0.0601
0.1246 0.1210 0.0601
0.1416 0.1251 0.0627
0.1617 0.1331 0.0627
0.1828 0.1411 0.0627
0.2120 0.1529 0.0667
0.2441 0.1648 0.0679
0.2813 0.1783 0.0706
0.3199 0.1904 0.0724
0.3597 0.2057 0.0745
0.4028 0.2215 0.0784
0.4408 0.2334 0.0797
0.4783 0.2453 0.0807
0.5126 0.2546 0.0836
0.5460 0.2651 0.0849
0.5752 0.2770 0.0889
0.6043 0.2878 0.0930
0.6321 0.2969 0.0970
0.6560 0.3079 0.1023
0.6799 0.3180 0.1051
0.7059 0.3280 0.1104
0.7278 0.3379 0.1123
0.7481 0.3459 0.1185
0.7677 0.3538 0.1241
0.7839 0.3657 0.1305
0.8038 0.3737 0.1346
0.0392 0.0838 0.0549
0.0472 0.0878 0.0549
0.0551 0.0918 0.0551
0.0671 0.1027 0.0588
0.0769 0.1078 0.0593
0.0921 0.1164 0.0627
0.1121 0.1251 0.0627
0.1360 0.1365 0.0641
0.1534 0.1424 0.0641
0.1748 0.1529 0.0667
0.1986 0.1583 0.0667
0.2240 0.1689 0.0667
0.2560 0.1808 0.0706
0.2934 0.1943 0.0720
0.3318 0.2085 0.0745
0.3730 0.2223 0.0764
0.4168 0.2396 0.0798
0.4567 0.2541 0.0824
0.4965 0.2675 0.0847
0.5314 0.2811 0.0877
0.5658 0.2916 0.0888
0.5964 0.3036 0.0928
0.6243 0.3128 0.0969
0.6521 0.3237 0.1010
0.6777 0.3357 0.1064
0.7025 0.3460 0.1112
0.7278 0.3578 0.1184
0.7483 0.3679 0.1230
0.7681 0.3777 0.1283
0.7880 0.3857 0.1344
0.8078 0.3976 0.1401
0.8238 0.4056 0.1465
0.0392 0.0878 0.0549
0.0472 0.0956 0.0564
0.0539 0.1000 0.0588
0.0674 0.1117 0.0603
0.0799 0.1201 0.0627
0.0969 0.1292 0.0642
0.1175 0.1379 0.0667
0.1414 0.1499 0.0682
0.1664 0.1619 0.0682
0.1907 0.1704 0.0706
0.2123 0.1783 0.0706
0.2400 0.1863 0.0721
0.2694 0.1982 0.0721
0.3076 0.2117 0.0745
0.3452 0.2277 0.0762
0.3850 0.2436 0.0799
0.4328 0.2596 0.0839
0.4726 0.2755 0.0845
0.5124 0.2915 0.0878
0.5484 0.3035 0.0917
0.5818 0.3184 0.0956
0.6152 0.3303 0.0995
0.6443 0.3422 0.1035
0.6721 0.3516 0.1074
0.6975 0.3620 0.1143
0.7223 0.3756 0.1199
0.7478 0.3891 0.1264
0.7701 0.3977 0.1343
0.7901 0.4096 0.1399
0.8101 0.4176 0.1463
0.8263 0.4294 0.1519
0.8461 0.4414 0.1559
0.0392 0.0957 0.0565
0.0472 0.1021 0.0588
0.0515 0.1080 0.0591
0.0674 0.1200 0.0631
0.0839 0.1321 0.0644
0.1039 0.1441 0.0673
0.1255 0.1538 0.0706
0.1503 0.1689 0.0722
0.1772 0.1784 0.0722
0.2062 0.1904 0.0756
0.2306 0.2019 0.0761
0.2584 0.2102 0.0761
0.2878 0.2221 0.0761
0.3196 0.2340 0.0761
0.3573 0.2477 0.0801
0.4010 0.2675 0.0840
0.4487 0.2835 0.0863
0.4886 0.2994 0.0884
0.5284 0.3154 0.0925
0.5643 0.3289 0.0957
0.6003 0.3433 0.1006
0.6335 0.3566 0.1063
0.6626 0.3701 0.1114
0.6921 0.3820 0.1183
0.7174 0.3939 0.1223
0.7438 0.4058 0.1303
0.7677 0.4177 0.1383
0.7900 0.4296 0.1423
0.8100 0.4415 0.1503
0.8279 0.4494 0.1583
0.8439 0.4613 0.1662
0.8621 0.4733 0.1719
0.0392 0.1038 0.0588
0.0472 0.1094 0.0606
0.0533 0.1160 0.0627
0.0688 0.1298 0.0645
0.0857 0.1457 0.0672
0.1096 0.1595 0.0712
0.1334 0.1737 0.0745
0.1582 0.1866 0.0754
0.1872 0.1995 0.0762
0.2187 0.2115 0.0795
0.2478 0.2235 0.0802
0.2758 0.2341 0.0802
0.3055 0.2475 0.0824
0.3373 0.2580 0.0824
0.3714 0.2698 0.0842
0.4132 0.2875 0.0881
0.4610 0.3073 0.0920
0.5045 0.3233 0.0923
0.5444 0.3393 0.0982
0.5803 0.3552 0.0998
0.6144 0.3673 0.1063
0.6495 0.3832 0.1142
0.6814 0.3952 0.1194
0.7093 0.4100 0.1263
0.7373 0.4231 0.1342
0.7620 0.4351 0.1408
0.7860 0.4489 0.1480
0.8098 0.4592 0.1542
0.8263 0.4712 0.1622
0.8462 0.4813 0.1701
0.8621 0.4932 0.1781
0.8781 0.5051 0.1861
0.0392 0.1117 0.0607
0.0472 0.1196 0.0627
0.0554 0.1259 0.0630
0.0713 0.1418 0.0671
0.0878 0.1577 0.0711
0.1162 0.1763 0.0751
0.1414 0.1935 0.0764
0.1692 0.2066 0.0793
0.1981 0.2215 0.0803
0.2339 0.2374 0.0835
0.2637 0.2500 0.0843
0.2956 0.2594 0.0863
0.3251 0.2715 0.0878
0.3610 0.2837 0.0882
0.3931 0.2956 0.0882
0.4250 0.3075 0.0902
0.4729 0.3275 0.0960
0.5168 0.3473 0.0999
0.5584 0.3631 0.1039
0.5962 0.3791 0.1078
0.6296 0.3950 0.1142
0.6641 0.4071 0.1195
0.6945 0.4230 0.1263
0.7252 0.4350 0.1342
0.7532 0.4498 0.1422
0.7780 0.4630 0.1501
0.8052 0.4769 0.1581
0.8258 0.4894 0.1661
0.8458 0.4990 0.1724
0.8621 0.5093 0.1800
0.8781 0.5212 0.1899
0.8940 0.5331 0.1980
0.0392 0.1197 0.0627
0.0472 0.1296 0.0648
0.0554 0.1398 0.0667
0.0713 0.1557 0.0706
0.0888 0.1726 0.0726
0.1189 0.1948 0.0771
0.1509 0.2154 0.0824
0.1832 0.2314 0.0844
0.2130 0.2473 0.0863
0.2490 0.2632 0.0883
0.2836 0.2792 0.0914
0.3155 0.2912 0.0922
0.3470 0.3032 0.0922
0.3829 0.3156 0.0961
0.4171 0.3275 0.0961
0.4489 0.3394 0.0961
0.4847 0.3513 0.1001
0.5324 0.3713 0.1041
0.5742 0.3910 0.1102
0.6121 0.4070 0.1157
0.6495 0.4229 0.1222
0.6814 0.4382 0.1301
0.7132 0.4508 0.1381
0.7412 0.4659 0.1442
0.7700 0.4788 0.1541
0.7978 0.4936 0.1621
0.8218 0.5068 0.1700
0.8436 0.5188 0.1780
0.8601 0.5272 0.1859
0.8781 0.5391 0.1900
0.8920 0.5511 0.2000
0.9040 0.5629 0.2099
0.0392 0.1276 0.0627
0.0491 0.1397 0.0667
0.0593 0.1519 0.0669
0.0735 0.1697 0.0710
0.0905 0.1862 0.0750
0.1248 0.2125 0.0790
0.1589 0.2362 0.0845
0.1939 0.2579 0.0884
0.2280 0.2734 0.0912
0.2649 0.2911 0.0923
0.3008 0.3070 0.0954
0.3353 0.3190 0.0962
0.3687 0.3317 0.1002
0.4047 0.3452 0.1002
0.4389 0.3590 0.1041
0.4729 0.3710 0.1041
0.5087 0.3832 0.1080
0.5427 0.3951 0.1080
0.5845 0.4149 0.1158
0.6281 0.4309 0.1222
0.6654 0.4490 0.1301
0.7012 0.4661 0.1381
0.7292 0.4781 0.1461
0.7571 0.4907 0.1541
0.7860 0.5057 0.1621
0.8138 0.5187 0.1722
0.8377 0.5328 0.1801
0.8576 0.5432 0.1881
0.8741 0.5547 0.1939
0.8901 0.5631 0.2019
0.9001 0.5749 0.2099
0.9119 0.5869 0.2178
0.0392 0.1356 0.0667
0.0511 0.1537 0.0668
0.0596 0.1661 0.0706
0.0775 0.1857 0.0745
0.0945 0.2044 0.0773
0.1309 0.2329 0.0830
0.1707 0.2601 0.0886
0.2051 0.2801 0.0925
0.2436 0.3013 0.0951
0.2820 0.3212 0.0992
0.3207 0.3371 0.1003
0.3536 0.3492 0.1043
0.3894 0.3635 0.1043
0.4252 0.3771 0.1082
0.4610 0.3891 0.1116
0.4947 0.4011 0.1139
0.5326 0.4148 0.1160
0.5645 0.4252 0.1183
0.5963 0.4349 0.1222
0.6401 0.4547 0.1301
0.6777 0.4709 0.1381
0.7159 0.4905 0.1461
0.7462 0.5026 0.1564
0.7741 0.5156 0.1621
0.7987 0.5275 0.1700
0.8267 0.5426 0.1819
0.8475 0.5552 0.1899
0.8679 0.5671 0.1979
0.8839 0.5767 0.2019
0.8998 0.5870 0.2099
0.9080 0.5965 0.2178
0.9199 0.6085 0.2258
0.0392 0.1475 0.0667
0.0512 0.1636 0.0706
0.0632 0.1818 0.0730
0.0816 0.2020 0.0769
0.1005 0.2244 0.0789
0.1371 0.2529 0.0869
0.1787 0.2840 0.0909
0.2186 0.3079 0.0950
0.2569 0.3279 0.0990
0.3007 0.3503 0.1031
0.3378 0.3677 0.1071
0.3750 0.3810 0.1083
0.4093 0.3930 0.1122
0.4451 0.4074 0.1153
0.4809 0.4192 0.1179
0.5168 0.4311 0.1219
0.5565 0.4450 0.1260
0.5883 0.4549 0.1279
0.6202 0.4668 0.1318
0.6521 0.4787 0.1357
0.6920 0.4947 0.1461
0.7292 0.5145 0.1541
0.7610 0.5265 0.1621
0.7900 0.5419 0.1739
0.8139 0.5514 0.1819
0.8378 0.5640 0.1899
0.8593 0.5761 0.1979
0.8783 0.5881 0.2034
0.8918 0.5990 0.2099
0.9078 0.6070 0.2178
0.9160 0.6188 0.2258
0.9279 0.6283 0.2338
0.0392 0.1580 0.0692
0.0512 0.1780 0.0731
0.0637 0.1980 0.0747
0.0882 0.2244 0.0788
0.1070 0.2449 0.0829
0.1436 0.2774 0.0894
0.1875 0.3086 0.0949
0.2291 0.3344 0.1006
0.2728 0.3572 0.1055
0.3166 0.3782 0.1095
0.3590 0.3983 0.1136
0.3963 0.4129 0.1162
0.4323 0.4249 0.1202
0.4668 0.4383 0.1227
0.5009 0.4511 0.1266
0.5367 0.4624 0.1305
0.5765 0.4744 0.1379
0.6098 0.4864 0.1384
0.6439 0.4962 0.1446
0.6760 0.5066 0.1486
0.7054 0.5160 0.1501
0.7413 0.5320 0.1621
0.7742 0.5479 0.1700
0.8024 0.5624 0.1780
0.8273 0.5753 0.1873
0.8506 0.5872 0.1953
0.8679 0.5960 0.2026
0.8848 0.6080 0.2099
0.8998 0.6164 0.2153
0.9132 0.6269 0.2221
0.9215 0.6363 0.2313
0.9319 0.6482 0.2417
0.0431 0.1739 0.0706
0.0550 0.1939 0.0746
0.0674 0.2142 0.0786
0.0913 0.2421 0.0828
0.1150 0.2688 0.0868
0.1515 0.3014 0.0935
0.1954 0.3357 0.0988
0.2432 0.3623 0.1055
0.2888 0.3862 0.1108
0.3337 0.4090 0.1163
0.3763 0.4288 0.1216
0.4162 0.4448 0.1256
0.4533 0.4568 0.1296
0.4891 0.4688 0.1337
0.5240 0.4791 0.1378
0.5567 0.4909 0.1418
0.5958 0.5028 0.1465
0.6296 0.5148 0.1538
0.6638 0.5262 0.1579
0.6960 0.5346 0.1619
0.7252 0.5438 0.1660
0.7506 0.5518 0.1661
0.7824 0.5677 0.1780
0.8140 0.5824 0.1859
0.8379 0.5953 0.1939
0.8626 0.6072 0.2019
0.8786 0.6164 0.2099
0.8918 0.6271 0.2152
0.9042 0.6350 0.2219
0.9171 0.6440 0.2272
0.9254 0.6522 0.2378
0.9360 0.6641 0.2458
0.0431 0.1927 0.0745
0.0551 0.2164 0.0784
0.0705 0.2368 0.0815
0.0980 0.2687 0.0867
0.1269 0.2966 0.0930
0.1635 0.3291 0.0975
0.2081 0.3643 0.1048
0.2579 0.3903 0.1107
0.3058 0.4153 0.1175
0.3496 0.4369 0.1244
0.3951 0.4579 0.1295
0.4349 0.4727 0.1336
0.4732 0.4871 0.1416
0.5091 0.4991 0.1456
0.5420 0.5109 0.1496
0.5767 0.5189 0.1537
0.6125 0.5308 0.1585
0.6455 0.5399 0.1624
0.6814 0.5518 0.1697
0.7132 0.5622 0.1738
0.7423 0.5717 0.1778
0.7691 0.5796 0.1793
0.7904 0.5836 0.1820
0.8195 0.5996 0.1900
0.8444 0.6116 0.1991
0.8683 0.6244 0.2099
0.8878 0.6356 0.2151
0.9003 0.6443 0.2219
0.9122 0.6522 0.2263
0.9239 0.6602 0.2339
0.9293 0.6682 0.2418
0.9373 0.6773 0.2510
0.0471 0.2166 0.0784
0.0591 0.2365 0.0814
0.0716 0.2607 0.0855
0.1035 0.2926 0.0906
0.1348 0.3245 0.0975
0.1753 0.3570 0.1026
0.2200 0.3922 0.1095
0.2718 0.4182 0.1175
0.3217 0.4431 0.1226
0.3656 0.4649 0.1305
0.4121 0.4847 0.1375
0.4534 0.5017 0.1441
0.4918 0.5151 0.1495
0.5290 0.5270 0.1575
0.5637 0.5389 0.1615
0.5967 0.5468 0.1656
0.6325 0.5588 0.1696
0.6615 0.5667 0.1745
0.6973 0.5757 0.1817
0.7292 0.5876 0.1857
0.7571 0.5956 0.1898
0.7851 0.6035 0.1938
0.8075 0.6088 0.1940
0.8273 0.6155 0.1951
0.8512 0.6276 0.2059
0.8751 0.6396 0.2139
0.8918 0.6516 0.2219
0.9078 0.6602 0.2270
0.9162 0.6682 0.2339
0.9281 0.6761 0.2379
0.9332 0.6841 0.2468
0.9412 0.6921 0.2578
0.0501 0.2405 0.0824
0.0630 0.2644 0.0855
0.0758 0.2877 0.0896
0.1104 0.3196 0.0971
0.1433 0.3523 0.1016
0.1870 0.3848 0.1095
0.2349 0.4192 0.1167
0.2868 0.4462 0.1216
0.3376 0.4710 0.1295
0.3854 0.4910 0.1375
0.4280 0.5096 0.1455
0.4719 0.5256 0.1534
0.5117 0.5415 0.1605
0.5476 0.5536 0.1668
0.5818 0.5655 0.1734
0.6136 0.5748 0.1775
0.6494 0.5836 0.1825
0.6813 0.5917 0.1864
0.7093 0.5996 0.1904
0.7412 0.6109 0.1976
0.7706 0.6195 0.2016
0.7983 0.6275 0.2057
0.8195 0.6326 0.2060
0.8393 0.6365 0.2069
0.8562 0.6405 0.2069
0.8800 0.6524 0.2149
0.8961 0.6643 0.2229
0.9088 0.6726 0.2309
0.9208 0.6811 0.2349
0.9291 0.6882 0.2422
0.9372 0.6970 0.2509
0.9442 0.7050 0.2618
0.0541 0.2683 0.0863
0.0669 0.2922 0.0903
0.0826 0.3163 0.0943
0.1183 0.3482 0.1016
0.1513 0.3828 0.1090
0.1998 0.4127 0.1143
0.2509 0.4463 0.1216
0.3027 0.4719 0.1295
0.3535 0.4970 0.1375
0.4014 0.5169 0.1466
0.4453 0.5368 0.1574
0.4878 0.5534 0.1632
0.5276 0.5678 0.1693
0.5651 0.5798 0.1774
0.6009 0.5917 0.1853
0.6335 0.5996 0.1907
0.6685 0.6108 0.1966
0.6973 0.6187 0.2006
0.7269 0.6267 0.2054
0.7547 0.6315 0.2095
0.7851 0.6428 0.2135
0.8138 0.6513 0.2149
0.8350 0.6554 0.2181
0.8513 0.6594 0.2181
0.8673 0.6604 0.2188
0.8833 0.6644 0.2181
0.9000 0.6731 0.2261
0.9127 0.6843 0.2309
0.9243 0.6922 0.2388
0.9328 0.7002 0.2428
0.9403 0.7082 0.2546
0.9451 0.7161 0.2659
0.0549 0.2995 0.0935
0.0774 0.3266 0.0975
0.0938 0.3507 0.1016
0.1297 0.3827 0.1095
0.1665 0.4141 0.1163
0.2156 0.4431 0.1222
0.2693 0.4743 0.1303
0.3219 0.4990 0.1375
0.3728 0.5250 0.1465
0.4206 0.5427 0.1568
0.4638 0.5608 0.1666
0.5070 0.5774 0.1766
0.5469 0.5933 0.1845
0.5834 0.6053 0.1926
0.6176 0.6155 0.1987
0.6494 0.6268 0.2045
0.6852 0.6354 0.2105
0.7132 0.6434 0.2144
0.7422 0.6485 0.2183
0.7691 0.6554 0.2214
0.7946 0.6634 0.2222
0.8218 0.6713 0.2262
0.8442 0.6760 0.2269
0.8601 0.6805 0.2297
0.8760 0.6835 0.2269
0.8887 0.6844 0.2269
0.9007 0.6844 0.2269
0.9165 0.6930 0.2314
0.9251 0.7010 0.2388
0.9330 0.7089 0.2468
0.9411 0.7202 0.2580
0.9451 0.7281 0.2667
0.0588 0.3313 0.0980
0.0828 0.3559 0.1054
0.1059 0.3833 0.1095
0.1417 0.4152 0.1171
0.1785 0.4466 0.1216
0.2315 0.4711 0.1295
0.2867 0.5022 0.1375
0.3385 0.5261 0.1494
0.3893 0.5495 0.1574
0.4372 0.5666 0.1664
0.4832 0.5853 0.1772
0.5236 0.6012 0.1852
0.5635 0.6157 0.1947
0.5994 0.6292 0.2045
0.6351 0.6394 0.2108
0.6654 0.6475 0.2171
0.7012 0.6593 0.2225
0.7292 0.6673 0.2265
0.7548 0.6718 0.2304
0.7827 0.6769 0.2309
0.8066 0.6834 0.2343
0.8278 0.6879 0.2348
0.8482 0.6926 0.2376
0.8681 0.6970 0.2387
0.8810 0.7010 0.2387
0.8960 0.7041 0.2350
0.9080 0.7044 0.2348
0.9166 0.7044 0.2348
0.9251 0.7128 0.2388
0.9365 0.7208 0.2468
0.9411 0.7288 0.2585
0.9485 0.7368 0.2701
0.0627 0.3632 0.1055
0.0975 0.3907 0.1133
0.1185 0.4152 0.1175
0.1580 0.4435 0.1255
