All_In_One/Enrich_Colormaster/colormanagement/luts/film_response/ColorPunchWarm.3DL
#Created by: Adobe Photoshop Export Color Lookup Plugin
#Description: Color Punch Warm
0 33 66 99 132 165 198 231 264 297 330 363 396 429 462 495 528 561 594 627 660 693 726 759 792 825 858 891 924 957 990 1023
0 0 385
0 0 491
0 0 597
0 0 702
0 0 808
0 0 914
0 0 1020
0 0 1125
0 0 1231
0 0 1336
0 0 1442
0 0 1548
0 0 1653
0 0 1759
0 0 1865
0 0 1971
0 0 2076
0 0 2182
0 0 2288
0 0 2393
0 0 2499
0 0 2605
0 0 2710
0 0 2816
0 0 2922
0 0 3027
0 0 3133
0 0 3239
0 0 3344
0 0 3450
0 0 3556
0 0 3661
0 12 385
0 12 491
0 12 597
0 12 702
0 12 808
0 12 914
0 12 1020
0 12 1125
0 12 1231
0 12 1336
0 12 1442
0 12 1548
0 12 1653
0 12 1759
0 12 1865
0 12 1971
0 12 2076
0 12 2182
0 12 2288
0 12 2393
0 12 2499
0 12 2605
0 13 2710
0 12 2816
0 12 2922
0 13 3027
0 12 3133
0 13 3239
0 12 3344
0 13 3450
0 12 3556
0 12 3661
0 28 385
0 28 491
0 28 597
0 28 702
0 28 808
0 28 914
0 28 1020
0 28 1125
0 28 1231
0 28 1336
0 28 1442
0 28 1548
0 28 1653
0 28 1759
0 28 1865
0 28 1971
0 28 2076
0 28 2182
0 28 2288
0 29 2393
0 28 2499
0 29 2605
0 28 2710
0 28 2816
0 28 2922
0 28 3027
0 28 3133
0 28 3239
0 29 3344
0 29 3450
0 29 3556
0 29 3661
0 51 385
0 51 491
0 51 597
0 51 702
0 51 808
0 51 914
0 51 1020
0 51 1125
0 51 1231
0 51 1336
0 51 1442
0 51 1548
0 51 1653
0 51 1759
0 51 1865
0 51 1971
0 51 2076
0 51 2182
0 51 2288
0 51 2393
0 51 2499
0 51 2605
0 52 2710
0 52 2816
0 51 2922
0 51 3027
0 51 3133
0 51 3239
0 51 3344
0 51 3450
0 51 3556
0 51 3661
0 85 385
0 85 491
0 85 597
0 85 702
0 85 808
0 85 914
0 85 1020
0 85 1125
0 85 1231
0 85 1336
0 85 1442
0 85 1548
0 85 1653
0 85 1759
0 85 1865
0 85 1971
0 85 2076
0 85 2182
0 85 2288
0 85 2393
0 85 2499
0 85 2605
0 85 2710
0 85 2816
0 85 2922
0 85 3027
0 85 3133
0 85 3239
0 85 3344
0 85 3450
0 85 3556
0 85 3661
0 133 385
0 133 491
0 133 597
0 133 702
0 133 808
0 133 914
0 133 1020
0 133 1125
0 133 1231
0 133 1336
0 133 1442
0 133 1548
0 133 1653
0 133 1759
0 133 1865
0 133 1971
0 133 2076
0 133 2182
0 133 2288
0 133 2393
0 133 2499
0 133 2605
0 133 2710
0 133 2816
0 133 2922
0 133 3027
0 133 3133
0 133 3239
0 133 3344
0 133 3450
0 133 3556
0 133 3661
0 198 385
0 198 491
0 198 597
0 198 702
0 198 808
0 198 914
0 198 1020
0 198 1125
0 198 1231
0 198 1336
0 198 1442
0 198 1548
0 198 1653
0 198 1759
0 198 1865
0 198 1971
0 198 2076
0 198 2182
0 198 2288
0 198 2393
0 198 2499
0 198 2605
0 198 2710
0 198 2816
0 198 2922
0 198 3027
0 198 3133
0 198 3239
0 198 3344
0 198 3450
0 198 3556
0 198 3661
0 285 385
0 285 491
0 285 597
0 285 702
0 285 808
0 285 914
0 285 1020
0 285 1125
0 285 1231
0 285 1336
0 285 1442
0 285 1548
0 285 1653
0 285 1759
0 285 1865
0 285 1971
0 285 2076
0 285 2182
0 285 2288
0 285 2393
0 285 2499
0 285 2605
0 285 2710
0 285 2816
0 285 2922
0 285 3027
0 285 3133
0 285 3239
0 285 3344
0 285 3450
0 285 3556
0 285 3661
0 396 385
0 396 491
0 396 597
0 396 702
0 396 808
0 396 914
0 396 1020
0 396 1125
0 396 1231
0 396 1336
0 396 1442
0 396 1548
0 396 1653
0 396 1759
0 396 1865
0 396 1971
0 396 2076
0 396 2182
0 396 2288
0 396 2393
0 396 2499
0 396 2605
0 396 2710
0 396 2816
0 396 2922
0 396 3027
0 396 3133
0 396 3239
0 396 3344
0 396 3450
0 396 3556
0 396 3661
0 535 385
0 535 491
0 535 597
0 535 702
0 535 808
0 535 914
0 535 1020
0 535 1125
0 535 1231
0 535 1336
0 535 1442
0 535 1548
0 535 1653
0 535 1759
0 535 1865
0 535 1971
0 535 2076
0 535 2182
0 535 2288
0 535 2393
0 535 2499
0 535 2605
0 535 2710
0 535 2816
0 535 2922
0 535 3027
0 535 3133
0 535 3239
0 536 3344
0 535 3450
0 536 3556
0 535 3661
0 705 385
0 705 491
0 705 597
0 705 702
0 705 808
0 705 914
0 705 1020
0 705 1125
0 705 1231
0 705 1336
0 705 1442
0 705 1548
0 705 1653
0 705 1759
0 705 1865
0 705 1971
0 705 2076
0 705 2182
0 705 2288
0 705 2393
0 705 2499
0 705 2605
0 705 2710
0 705 2816
0 705 2922
0 704 3027
0 704 3133
0 704 3239
0 705 3344
0 705 3450
0 705 3556
0 704 3661
0 906 385
0 906 491
0 906 597
0 906 702
0 906 808
0 906 914
0 906 1020
0 906 1125
0 906 1231
0 906 1336
0 906 1442
0 906 1548
0 906 1653
0 906 1759
0 906 1865
0 906 1971
0 906 2076
0 906 2182
0 906 2288
0 906 2393
0 906 2499
0 906 2605
0 906 2710
0 906 2816
0 906 2922
0 906 3027
0 906 3133
0 906 3239
0 906 3344
0 906 3450
0 906 3556
0 906 3661
0 1141 385
0 1141 491
0 1141 597
0 1141 702
0 1141 808
0 1141 914
0 1141 1020
0 1141 1125
0 1141 1231
0 1141 1336
0 1141 1442
0 1141 1548
0 1141 1653
0 1141 1759
0 1141 1865
0 1141 1971
0 1141 2076
0 1141 2182
0 1141 2288
0 1141 2393
0 1141 2499
0 1141 2605
0 1141 2710
0 1141 2816
0 1141 2922
0 1141 3027
0 1141 3133
0 1141 3239
0 1141 3344
0 1141 3450
0 1141 3556
0 1141 3661
0 1401 386
0 1401 491
0 1401 597
0 1401 702
0 1401 808
0 1401 914
0 1401 1020
0 1401 1125
0 1401 1231
0 1401 1336
0 1401 1442
0 1401 1548
0 1401 1653
0 1401 1759
0 1401 1865
0 1401 1971
0 1401 2076
0 1401 2182
0 1401 2288
0 1401 2393
0 1401 2499
0 1402 2605
0 1402 2710
0 1401 2816
0 1402 2922
0 1401 3027
0 1401 3133
0 1401 3239
0 1401 3344
0 1402 3450
0 1401 3556
0 1402 3661
0 1675 385
0 1675 491
0 1675 597
0 1675 702
0 1675 808
0 1675 914
0 1675 1019
0 1675 1125
0 1675 1231
0 1675 1336
0 1675 1442
0 1675 1548
0 1675 1653
0 1675 1759
0 1675 1865
0 1676 1971
0 1675 2076
0 1675 2182
0 1675 2288
0 1675 2393
0 1675 2499
0 1676 2605
0 1675 2710
0 1675 2816
0 1676 2922
0 1676 3027
0 1675 3133
0 1675 3239
0 1675 3344
0 1675 3450
0 1675 3556
0 1675 3661
0 1952 386
0 1952 491
0 1952 597
0 1952 702
0 1952 808
0 1952 914
0 1952 1019
0 1952 1125
0 1952 1231
0 1952 1336
0 1952 1442
0 1952 1548
0 1952 1654
0 1952 1759
0 1952 1865
0 1952 1971
0 1952 2076
0 1952 2182
0 1952 2288
0 1952 2393
0 1952 2499
0 1952 2605
0 1952 2710
0 1952 2816
0 1952 2922
0 1952 3027
0 1952 3133
0 1952 3239
0 1952 3344
0 1952 3450
0 1952 3556
0 1952 3661
0 2220 385
0 2220 491
0 2220 597
0 2220 702
0 2220 808
0 2220 914
0 2220 1019
0 2220 1125
0 2220 1231
0 2220 1336
0 2220 1442
0 2220 1548
0 2220 1653
0 2220 1759
0 2220 1865
0 2220 1970
0 2220 2076
0 2220 2182
0 2219 2288
0 2220 2393
0 2220 2499
0 2220 2605
0 2219 2710
0 2220 2816
0 2220 2922
0 2220 3027
0 2220 3133
0 2219 3239
0 2219 3344
0 2219 3450
0 2220 3556
0 2219 3661
0 2472 386
0 2472 491
0 2472 597
0 2472 703
0 2472 808
0 2472 914
0 2472 1019
0 2472 1125
0 2472 1231
0 2472 1336
0 2472 1442
0 2472 1547
0 2472 1654
0 2472 1759
0 2472 1865
0 2472 1971
0 2472 2076
0 2472 2182
0 2472 2287
0 2472 2393
0 2472 2499
0 2472 2605
0 2472 2710
0 2472 2816
0 2472 2922
0 2472 3027
0 2472 3133
0 2473 3239
0 2472 3344
0 2472 3450
0 2472 3556
0 2473 3661
0 2710 386
0 2710 491
0 2710 597
0 2710 703
0 2710 808
0 2710 914
0 2710 1020
0 2710 1125
0 2710 1231
0 2710 1336
0 2710 1442
0 2710 1547
0 2710 1653
0 2710 1759
0 2710 1865
0 2710 1970
0 2710 2076
0 2710 2182
0 2710 2288
0 2710 2393
0 2710 2499
0 2710 2605
0 2710 2710
0 2710 2816
0 2710 2922
0 2710 3027
0 2710 3133
0 2710 3239
0 2710 3344
0 2710 3450
0 2710 3556
0 2710 3661
0 2934 385
0 2934 491
0 2934 597
0 2934 703
0 2934 808
0 2934 914
0 2934 1019
0 2934 1125
0 2934 1231
0 2934 1337
0 2934 1442
0 2934 1548
0 2934 1653
0 2934 1759
0 2934 1865
0 2934 1971
0 2934 2076
0 2934 2182
0 2934 2288
0 2934 2393
0 2934 2499
0 2934 2604
0 2934 2711
0 2934 2816
0 2934 2922
0 2934 3027
0 2934 3133
0 2934 3239
0 2934 3344
0 2934 3450
0 2934 3556
0 2934 3661
0 3145 385
0 3145 491
0 3145 597
0 3145 703
0 3145 808
0 3145 914
0 3145 1020
0 3145 1125
0 3145 1231
0 3145 1337
0 3145 1442
0 3145 1548
0 3145 1654
0 3145 1759
0 3145 1865
0 3145 1970
0 3145 2076
0 3145 2182
0 3145 2287
0 3145 2393
0 3145 2499
0 3145 2604
0 3145 2710
0 3145 2816
0 3145 2921
0 3145 3027
0 3145 3133
0 3145 3239
0 3145 3344
0 3145 3450
0 3145 3556
0 3145 3661
0 3342 385
0 3342 491
0 3342 596
0 3342 703
0 3342 808
0 3342 914
0 3342 1019
0 3342 1125
0 3342 1230
0 3342 1337
0 3342 1442
0 3342 1548
0 3342 1653
0 3342 1759
0 3342 1864
0 3342 1971
0 3342 2077
0 3342 2182
0 3342 2288
0 3342 2393
0 3342 2499
0 3342 2605
0 3342 2711
0 3342 2816
0 3342 2922
0 3342 3027
0 3342 3133
0 3342 3239
0 3342 3344
0 3342 3450
0 3342 3556
0 3342 3661
0 3522 385
0 3522 491
0 3522 597
0 3522 702
0 3522 808
0 3522 914
0 3522 1020
0 3522 1125
0 3522 1231
0 3522 1336
0 3522 1442
0 3522 1548
0 3522 1653
0 3522 1759
0 3522 1865
0 3522 1971
0 3522 2076
0 3522 2182
0 3522 2288
0 3522 2394
0 3522 2499
0 3522 2604
0 3522 2710
0 3522 2816
0 3522 2922
0 3522 3027
0 3522 3133
0 3522 3239
0 3522 3345
0 3522 3450
0 3522 3556
0 3522 3661
0 3678 385
0 3678 491
0 3678 597
0 3678 702
0 3678 808
0 3678 914
0 3678 1019
0 3678 1125
0 3678 1231
0 3678 1336
0 3678 1442
0 3678 1547
0 3678 1653
0 3678 1759
0 3678 1865
0 3678 1970
0 3678 2076
0 3678 2182
0 3678 2287
0 3678 2393
0 3678 2499
0 3678 2604
0 3678 2710
0 3678 2816
0 3678 2921
0 3678 3027
0 3678 3133
0 3678 3238
0 3678 3344
0 3678 3450
0 3678 3555
0 3678 3661
0 3807 386
0 3807 491
0 3807 597
0 3807 703
0 3807 808
0 3807 914
0 3807 1020
0 3807 1125
0 3807 1231
0 3807 1337
0 3807 1442
0 3807 1548
0 3807 1654
0 3807 1760
0 3807 1865
0 3807 1971
0 3807 2077
0 3807 2182
0 3807 2288
0 3807 2394
0 3807 2499
0 3807 2605
0 3807 2711
0 3807 2816
0 3807 2922
0 3807 3028
0 3807 3133
0 3807 3239
0 3807 3345
0 3807 3451
0 3807 3556
0 3807 3661
0 3909 386
0 3909 492
0 3909 596
0 3909 702
0 3909 808
0 3909 914
0 3909 1019
0 3909 1125
0 3909 1231
0 3909 1336
0 3909 1442
0 3909 1548
0 3909 1654
0 3909 1759
0 3909 1865
0 3909 1971
0 3909 2076
0 3909 2181
0 3909 2287
0 3909 2393
0 3909 2499
0 3909 2604
0 3909 2710
0 3909 2816
0 3909 2922
0 3909 3027
0 3909 3133
0 3909 3239
0 3909 3344
0 3909 3450
0 3909 3556
0 3909 3662
0 3985 385
0 3985 491
0 3985 597
0 3985 702
0 3985 808
0 3985 914
0 3985 1020
0 3985 1126
0 3985 1231
0 3985 1337
0 3985 1442
0 3985 1548
0 3985 1654
0 3985 1759
0 3985 1865
0 3985 1971
0 3985 2076
0 3985 2182
0 3985 2287
0 3985 2393
0 3985 2499
0 3985 2604
0 3985 2710
0 3985 2816
0 3985 2921
0 3985 3027
0 3985 3133
0 3985 3238
0 3985 3345
0 3985 3450
0 3985 3556
0 3985 3662
0 4038 385
0 4038 491
0 4038 597
0 4038 703
0 4038 808
0 4038 914
0 4038 1019
0 4038 1125
0 4038 1231
0 4038 1337
0 4038 1442
0 4038 1548
0 4038 1653
0 4038 1760
0 4038 1865
0 4038 1971
0 4038 2076
0 4038 2182
0 4038 2288
0 4038 2393
0 4038 2499
0 4038 2604
0 4038 2711
0 4038 2816
0 4038 2922
0 4038 3027
0 4038 3133
0 4038 3239
0 4038 3345
0 4038 3450
0 4038 3556
0 4038 3661
0 4070 386
0 4070 491
0 4070 597
0 4070 703
