All_In_One/Enrich_Colormaster/colormanagement/luts/film_response/Color_Implosion_21_FPE.cube
TITLE "ImpulZ LUT 32"
LUT_3D_SIZE 5
DOMAIN_MIN 0.000000 0.000000 0.000000
DOMAIN_MAX 0.903226 0.903226 0.903226
0.0392 0.0431 0.0431
0.0754 0.0510 0.0471
0.1604 0.0685 0.0549
0.3021 0.0863 0.0627
0.4734 0.1016 0.0706
0.0392 0.0627 0.0471
0.0998 0.0872 0.0519
0.2734 0.1408 0.0667
0.5104 0.2053 0.0811
0.6764 0.2572 0.0985
0.0392 0.1038 0.0588
0.1582 0.1866 0.0754
0.3714 0.2698 0.0842
0.6495 0.3832 0.1142
0.8263 0.4712 0.1622
0.0431 0.1739 0.0706
0.2432 0.3623 0.1055
0.5240 0.4791 0.1378
0.7506 0.5518 0.1661
0.9042 0.6350 0.2219
0.0627 0.3632 0.1055
0.3571 0.5466 0.1574
0.6459 0.6594 0.2210
0.8350 0.7039 0.2427
0.9251 0.7208 0.2388
0.0392 0.0471 0.0667
0.0754 0.0510 0.0667
0.1565 0.0667 0.0793
0.2720 0.0824 0.0911
0.4184 0.0902 0.1020
0.0353 0.0715 0.0793
0.1329 0.1242 0.1125
0.3234 0.1769 0.1351
0.5270 0.2132 0.1429
0.6803 0.2533 0.1673
0.0392 0.1260 0.1029
0.1478 0.2638 0.1769
0.4948 0.3997 0.2315
0.7288 0.4595 0.2385
0.8725 0.5340 0.2987
0.0431 0.2511 0.1504
0.2634 0.4856 0.2707
0.6190 0.6311 0.3753
0.8408 0.6847 0.4006
0.9486 0.7536 0.4708
0.0584 0.4079 0.2014
0.4534 0.6585 0.3465
0.7222 0.7588 0.4372
0.8873 0.8071 0.4999
0.9565 0.8354 0.5244
0.0431 0.0549 0.1116
0.1077 0.0685 0.1399
0.1914 0.0745 0.1290
0.3313 0.0824 0.1417
0.4559 0.0863 0.1543
0.0392 0.0872 0.1360
0.1115 0.1438 0.1975
0.2864 0.1613 0.1975
0.4537 0.1809 0.1975
0.6058 0.2101 0.2189
0.0392 0.1679 0.1953
0.0754 0.2415 0.2475
0.4773 0.4791 0.4202
0.6926 0.4948 0.4067
0.8381 0.5549 0.4547
0.0431 0.3208 0.2807
0.1094 0.4246 0.3286
0.5022 0.6525 0.5104
0.8224 0.7457 0.5988
0.9356 0.7958 0.6491
0.0510 0.4231 0.3151
0.2137 0.5989 0.4185
0.7218 0.8184 0.6341
0.8834 0.8638 0.6939
0.9486 0.8776 0.7104
0.0471 0.0627 0.1752
0.1242 0.0863 0.2337
0.2536 0.0980 0.2584
0.4001 0.0863 0.2249
0.4976 0.0863 0.2288
0.0431 0.1115 0.2258
0.0998 0.1534 0.2738
0.3021 0.2053 0.3365
0.4842 0.2014 0.3090
0.6054 0.2035 0.3086
0.0431 0.2210 0.3186
0.0754 0.2816 0.3613
0.3282 0.4280 0.4664
0.6446 0.4799 0.5026
0.7850 0.5079 0.5196
0.0458 0.3347 0.3805
0.0754 0.4010 0.4089
0.2712 0.5484 0.4995
0.8172 0.7988 0.7400
0.9274 0.8311 0.7828
0.0510 0.4427 0.4328
0.1151 0.5579 0.4921
0.4805 0.7493 0.6412
0.8755 0.8964 0.8167
0.9486 0.9121 0.8415
0.0549 0.0784 0.2698
0.1543 0.1020 0.3334
0.2484 0.1020 0.3426
0.3975 0.0941 0.3212
0.5094 0.0863 0.3094
0.0471 0.1351 0.3256
0.1029 0.1700 0.3618
0.2973 0.2162 0.4267
0.5322 0.2463 0.4529
0.6146 0.2113 0.4137
0.0471 0.2467 0.4171
0.0754 0.2916 0.4441
0.3000 0.4280 0.5418
0.6690 0.5240 0.6281
0.7814 0.5200 0.6220
0.0510 0.3631 0.4807
0.0754 0.4255 0.5126
0.2280 0.5366 0.5758
0.7715 0.7898 0.7985
0.9039 0.8145 0.8268
0.0549 0.4463 0.5129
0.0872 0.5304 0.5570
0.3000 0.6808 0.6477
0.7751 0.8664 0.8347
0.9486 0.9255 0.9090
