All_In_One/Enrich_Colormaster/colormanagement/luts/film_response/Color_Implosion_21_FC.cube
TITLE "ImpulZ LUT 32"
LUT_3D_SIZE 8
DOMAIN_MIN 0.000000 0.000000 0.000000
DOMAIN_MAX 0.903226 0.903226 0.903226
0.0431 0.0353 0.0353
0.0711 0.0392 0.0392
0.1079 0.0431 0.0431
0.1638 0.0510 0.0510
0.2433 0.0588 0.0549
0.3513 0.0706 0.0653
0.4819 0.0815 0.0745
0.6526 0.0980 0.0863
0.0431 0.0554 0.0353
0.0672 0.0554 0.0392
0.1118 0.0642 0.0431
0.1894 0.0804 0.0510
0.3091 0.0990 0.0608
0.4573 0.1212 0.0750
0.6167 0.1427 0.0868
0.7795 0.1662 0.1016
0.0431 0.0834 0.0392
0.0750 0.0883 0.0392
0.1206 0.1000 0.0431
0.2139 0.1251 0.0525
0.3582 0.1551 0.0677
0.5245 0.1928 0.0849
0.6907 0.2257 0.1011
0.8426 0.2625 0.1186
0.0471 0.1152 0.0392
0.0834 0.1353 0.0436
0.1457 0.1585 0.0520
0.2296 0.1826 0.0564
0.3823 0.2282 0.0765
0.5618 0.2831 0.0966
0.7304 0.3298 0.1183
0.8745 0.3896 0.1423
0.0471 0.1609 0.0392
0.0917 0.2016 0.0510
0.1736 0.2522 0.0648
0.2690 0.2841 0.0765
0.4004 0.3238 0.0883
0.5872 0.4009 0.1157
0.7584 0.4651 0.1423
0.8950 0.5328 0.1702
0.0510 0.2207 0.0431
0.1074 0.2984 0.0593
0.2144 0.3897 0.0849
0.3272 0.4363 0.1021
0.4524 0.4657 0.1162
0.6034 0.5132 0.1305
0.7833 0.5927 0.1624
0.9051 0.6578 0.1908
0.0658 0.3516 0.0549
0.1384 0.4589 0.0780
0.2591 0.5653 0.1099
0.3886 0.6182 0.1340
0.5161 0.6378 0.1511
0.6437 0.6609 0.1624
0.7838 0.6897 0.1716
0.9090 0.7583 0.1996
0.0937 0.5848 0.0780
0.1856 0.6768 0.1060
0.3131 0.7517 0.1379
0.4484 0.7957 0.1697
0.5778 0.8138 0.1878
0.6935 0.8142 0.1957
0.8088 0.8184 0.1957
0.8933 0.8264 0.1961
0.0471 0.0392 0.0632
0.0711 0.0392 0.0593
0.1079 0.0431 0.0632
0.1638 0.0510 0.0672
0.2315 0.0564 0.0750
0.3194 0.0648 0.0829
0.4351 0.0745 0.0907
0.5853 0.0863 0.1025
0.0431 0.0554 0.0554
0.0755 0.0632 0.0598
0.1358 0.0755 0.0682
0.2100 0.0873 0.0765
0.3317 0.1035 0.0888
0.4814 0.1212 0.1030
0.6368 0.1413 0.1172
0.8035 0.1653 0.1334
0.0431 0.0834 0.0593
0.0883 0.1123 0.0716
0.1653 0.1290 0.0765
0.2753 0.1535 0.0888
0.4239 0.1839 0.1074
0.5833 0.2095 0.1207
0.7393 0.2385 0.1374
0.8819 0.2709 0.1541
0.0471 0.1206 0.0593
0.0912 0.1619 0.0770
0.1859 0.2149 0.0971
0.3076 0.2439 0.1060
0.4730 0.2915 0.1280
0.6397 0.3303 0.1457
0.8015 0.3768 0.1663
0.9210 0.4319 0.1922
0.0491 0.1737 0.0637
0.0995 0.2420 0.0878
0.2184 0.3431 0.1222
0.3484 0.3862 0.1467
0.5054 0.4249 0.1585
0.6878 0.4847 0.1820
0.8508 0.5481 0.2081
0.9428 0.6158 0.2444
0.0549 0.2582 0.0711
0.1305 0.3789 0.1104
0.2655 0.5113 0.1546
0.4082 0.5672 0.1904
0.5530 0.5848 0.2070
0.7241 0.6305 0.2188
0.8794 0.6996 0.2488
0.9561 0.7642 0.2891
0.0697 0.4119 0.0859
0.1708 0.5590 0.1319
0.3189 0.6785 0.1825
0.4720 0.7359 0.2257
0.6152 0.7540 0.2482
0.7613 0.7756 0.2664
0.8880 0.8132 0.2800
0.9575 0.8647 0.3183
0.0937 0.6381 0.1104
0.2337 0.7684 0.1702
0.3808 0.8275 0.2139
0.5239 0.8626 0.2497
0.6676 0.8778 0.2785
0.8029 0.8925 0.3026
0.9007 0.9056 0.3183
0.9521 0.9134 0.3268
0.0510 0.0431 0.0961
0.0789 0.0431 0.0951
0.1118 0.0431 0.0873
0.1677 0.0471 0.0927
0.2335 0.0549 0.0990
0.3145 0.0627 0.1069
0.4219 0.0706 0.1147
0.5554 0.0820 0.1265
0.0471 0.0632 0.0912
0.0839 0.0721 0.1035
0.1280 0.0682 0.0956
0.1922 0.0765 0.0995
0.2782 0.0883 0.1089
0.3960 0.1011 0.1191
0.5456 0.1172 0.1339
0.7153 0.1348 0.1496
0.0441 0.0912 0.0883
0.0755 0.1084 0.1040
0.1638 0.1452 0.1295
0.2708 0.1664 0.1413
0.4179 0.1855 0.1501
0.5755 0.2066 0.1638
0.7339 0.2275 0.1755
0.8730 0.2596 0.1987
0.0471 0.1363 0.0961
0.0789 0.1663 0.1089
0.1716 0.2547 0.1648
0.3267 0.2920 0.1859
0.4916 0.3155 0.1870
0.6549 0.3405 0.1972
0.8063 0.3729 0.2154
0.9184 0.4245 0.2454
0.0510 0.2199 0.1060
0.0854 0.2650 0.1261
0.1836 0.3848 0.1865
0.3685 0.4779 0.2439
0.5318 0.4848 0.2483
0.7152 0.5255 0.2601
0.8699 0.5761 0.2817
0.9506 0.6428 0.3303
0.0588 0.3480 0.1246
0.1133 0.4182 0.1507
0.2522 0.5800 0.2376
0.4362 0.6692 0.3027
0.5945 0.6721 0.3267
0.7525 0.6932 0.3307
0.9008 0.7521 0.3588
0.9678 0.8147 0.4083
0.0726 0.5104 0.1423
0.1527 0.6021 0.1820
0.3514 0.7672 0.2915
0.5112 0.8265 0.3508
0.6544 0.8317 0.3816
0.7882 0.8353 0.3955
0.9111 0.8670 0.4141
0.9682 0.9037 0.4538
0.0937 0.7007 0.1624
0.2130 0.7996 0.2228
0.4367 0.8940 0.3237
0.5828 0.9139 0.3713
0.7122 0.9218 0.4096
0.8304 0.9276 0.4376
0.9184 0.9365 0.4582
0.9682 0.9447 0.4704
0.0588 0.0510 0.1427
0.0912 0.0510 0.1457
0.1368 0.0510 0.1447
0.1786 0.0486 0.1285
0.2625 0.0549 0.1348
0.3557 0.0627 0.1413
0.4631 0.0706 0.1496
0.5858 0.0820 0.1599
0.0549 0.0682 0.1363
0.0907 0.0804 0.1604
0.1515 0.0849 0.1693
0.2144 0.0794 0.1408
0.3022 0.0873 0.1447
0.4048 0.0971 0.1510
0.5363 0.1108 0.1628
0.6863 0.1261 0.1781
0.0510 0.1005 0.1398
0.0799 0.1201 0.1614
0.1554 0.1609 0.2051
0.2419 0.1491 0.1825
0.3591 0.1609 0.1815
0.4941 0.1765 0.1894
0.6481 0.1962 0.2037
0.8000 0.2267 0.2277
0.0471 0.1536 0.1481
0.0750 0.1855 0.1732
0.1270 0.2223 0.1977
0.3086 0.3297 0.2836
0.4602 0.3327 0.2797
0.6275 0.3518 0.2797
0.7814 0.3799 0.2984
0.8969 0.4295 0.3279
0.0510 0.2527 0.1698
0.0810 0.2930 0.1909
0.1403 0.3528 0.2218
0.3076 0.4946 0.3248
0.5412 0.5446 0.3763
0.7069 0.5515 0.3612
0.8495 0.5873 0.3819
0.9365 0.6482 0.4295
0.0588 0.4063 0.1977
0.1016 0.4529 0.2168
0.1801 0.5246 0.2586
0.3627 0.6770 0.3799
0.6089 0.7495 0.4597
0.7525 0.7383 0.4568
0.8905 0.7770 0.4794
0.9629 0.8309 0.5280
0.0706 0.5681 0.2148
0.1246 0.6143 0.2385
0.2666 0.7290 0.3288
0.4840 0.8592 0.4662
0.6750 0.8890 0.5200
0.8034 0.8802 0.5322
0.9002 0.8836 0.5376
0.9682 0.9163 0.5813
0.0824 0.7103 0.2187
0.1638 0.7884 0.2693
0.3627 0.8945 0.3980
0.6143 0.9423 0.5189
0.7465 0.9501 0.5547
0.8503 0.9501 0.5797
0.9179 0.9501 0.5915
0.9643 0.9541 0.5994
0.0627 0.0549 0.2040
0.0990 0.0588 0.2202
0.1570 0.0637 0.2385
0.2286 0.0648 0.2301
0.3081 0.0627 0.1923
0.4234 0.0692 0.1923
0.5308 0.0745 0.2001
0.6401 0.0824 0.2080
0.0588 0.0770 0.2001
0.0927 0.0888 0.2262
0.1559 0.0990 0.2620
0.2472 0.1006 0.2526
0.3571 0.0966 0.2105
0.4532 0.1011 0.2045
0.5598 0.1094 0.2095
0.6882 0.1222 0.2202
0.0549 0.1138 0.2090
0.0868 0.1403 0.2453
0.1393 0.1638 0.2767
0.2492 0.1747 0.2944
0.3640 0.1648 0.2542
0.4945 0.1703 0.2487
0.6309 0.1844 0.2542
0.7701 0.2105 0.2753
0.0530 0.1791 0.2311
0.0829 0.2267 0.2743
0.1241 0.2330 0.2855
0.2654 0.3204 0.3670
0.4210 0.3126 0.3552
0.5741 0.3209 0.3416
0.7236 0.3450 0.3528
0.8568 0.3862 0.3838
0.0510 0.2768 0.2512
0.0810 0.3106 0.2748
0.1236 0.3317 0.2894
0.2173 0.4063 0.3400
0.5397 0.6005 0.5122
0.6912 0.5834 0.5005
0.8377 0.6172 0.5173
0.9271 0.6683 0.5609
0.0588 0.4165 0.2772
0.0956 0.4563 0.2993
0.1525 0.4976 0.3262
0.2611 0.5878 0.3901
0.5447 0.7638 0.5623
0.7716 0.7932 0.6079
0.8914 0.8099 0.6182
0.9561 0.8447 0.6595
0.0706 0.5760 0.3002
0.1147 0.6118 0.3233
0.2003 0.6780 0.3700
0.3539 0.7874 0.4716
0.6332 0.9014 0.6388
0.8283 0.9189 0.6829
0.9071 0.9111 0.6808
0.9643 0.9301 0.7127
0.0784 0.7122 0.3041
0.1379 0.7642 0.3404
0.2611 0.8505 0.4269
0.5172 0.9293 0.5888
0.7698 0.9682 0.7059
0.8739 0.9716 0.7293
0.9320 0.9682 0.7401
0.9643 0.9663 0.7406
0.0667 0.0627 0.2860
0.1050 0.0667 0.3126
0.1677 0.0745 0.3474
0.2422 0.0784 0.3498
0.3467 0.0745 0.2963
0.4675 0.0745 0.2599
0.5698 0.0784 0.2599
0.6734 0.0863 0.2664
0.0648 0.0873 0.2860
0.0985 0.0990 0.3165
0.1609 0.1108 0.3640
0.2399 0.1147 0.3728
0.3493 0.1074 0.3169
0.4748 0.1069 0.2801
0.5704 0.1108 0.2722
0.6897 0.1186 0.2766
0.0613 0.1339 0.3066
0.0932 0.1536 0.3469
0.1393 0.1677 0.3640
0.2437 0.1883 0.4062
0.3758 0.1909 0.3837
0.5023 0.1821 0.3390
0.6299 0.1844 0.3283
0.7652 0.2037 0.3421
0.0588 0.2071 0.3346
0.0907 0.2463 0.3816
0.1304 0.2437 0.3826
0.2262 0.3008 0.4372
0.4249 0.3439 0.4882
0.5637 0.3228 0.4426
0.7084 0.3322 0.4348
0.8372 0.3642 0.4579
0.0588 0.3243 0.3630
0.0912 0.3571 0.3919
0.1304 0.3571 0.3944
0.1982 0.3852 0.4239
0.4667 0.5647 0.5902
0.6613 0.5652 0.5902
0.8005 0.5756 0.5893
0.9032 0.6228 0.6248
0.0588 0.4258 0.3644
0.0912 0.4440 0.3787
0.1379 0.4657 0.3954
0.2164 0.5348 0.4445
0.4118 0.6707 0.5589
0.7824 0.8361 0.7407
0.8900 0.8392 0.7476
0.9551 0.8735 0.7874
0.0706 0.5760 0.3871
0.1133 0.6157 0.4150
0.1786 0.6564 0.4508
0.2822 0.7300 0.5128
0.4963 0.8402 0.6409
0.8162 0.9341 0.8005
0.9198 0.9355 0.8137
0.9682 0.9511 0.8386
0.0824 0.7240 0.4062
0.1339 0.7662 0.4420
0.2233 0.8266 0.4975
0.3956 0.8931 0.6090
0.6660 0.9556 0.7585
0.8827 0.9800 0.8503
0.9467 0.9800 0.8596
0.9721 0.9800 0.8596
0.0775 0.0706 0.4034
0.1186 0.0784 0.4432
0.1805 0.0863 0.4748
0.2422 0.0863 0.4782
0.3306 0.0824 0.4159
0.4611 0.0784 0.3556
0.5777 0.0824 0.3315
0.6813 0.0863 0.3346
0.0706 0.0985 0.4009
0.1064 0.1094 0.4361
0.1711 0.1226 0.4916
0.2477 0.1241 0.4900
0.3459 0.1186 0.4371
0.4626 0.1147 0.3871
0.5670 0.1133 0.3482
0.6858 0.1186 0.3521
0.0667 0.1501 0.4319
0.0985 0.1633 0.4602
0.1461 0.1716 0.4730
0.2375 0.1967 0.5214
0.3758 0.2061 0.5151
0.5210 0.2079 0.4764
0.6317 0.1993 0.4328
0.7613 0.2051 0.4324
0.0667 0.2272 0.4623
0.0985 0.2586 0.4969
0.1393 0.2477 0.4905
0.2218 0.2993 0.5352
0.4176 0.3533 0.6039
0.5887 0.3572 0.5897
0.7069 0.3424 0.5500
0.8333 0.3616 0.5575
0.0667 0.3414 0.4827
0.0985 0.3629 0.5024
0.1393 0.3620 0.5052
0.2006 0.3837 0.5250
0.4300 0.5476 0.6702
0.6726 0.5927 0.7192
0.7927 0.5722 0.6977
0.8974 0.6027 0.7149
0.0692 0.4577 0.4827
0.1016 0.4728 0.4985
0.1447 0.4856 0.5112
0.2110 0.5216 0.5407
0.3672 0.6276 0.6310
0.7309 0.8191 0.8176
0.8738 0.8191 0.8246
0.9469 0.8481 0.8461
0.0697 0.5642 0.4710
0.1055 0.5883 0.4950
0.1619 0.6201 0.5221
0.2444 0.6825 0.5720
0.4153 0.7908 0.6733
0.7091 0.9052 0.8206
0.9306 0.9551 0.9032
0.9721 0.9629 0.9154
0.0854 0.7279 0.5029
0.1339 0.7672 0.5387
0.2071 0.8148 0.5872
0.3269 0.8651 0.6600
0.5406 0.9306 0.7713
0.8046 0.9717 0.8833
0.9472 0.9843 0.9242
0.9761 0.9839 0.9276
0.0898 0.0824 0.5667
0.1379 0.0902 0.6025
0.1981 0.0976 0.6216
0.2501 0.0941 0.6048
0.3276 0.0878 0.5435
0.4419 0.0824 0.4758
0.5620 0.0863 0.4347
0.6734 0.0863 0.4145
0.0784 0.1099 0.5476
0.1177 0.1226 0.5903
0.1815 0.1309 0.6260
0.2506 0.1324 0.6171
0.3533 0.1300 0.5680
0.4853 0.1305 0.5225
0.5902 0.1275 0.4798
0.6783 0.1226 0.4430
0.0745 0.1703 0.5834
0.1064 0.1716 0.5843
0.1549 0.1834 0.6073
0.2414 0.2045 0.6436
0.3876 0.2179 0.6426
0.5451 0.2285 0.6182
0.6672 0.2285 0.5843
0.7574 0.2129 0.5398
0.0745 0.2516 0.6078
0.1064 0.2649 0.6260
0.1471 0.2551 0.6118
0.2331 0.3111 0.6618
0.4226 0.3656 0.7215
0.6079 0.3812 0.7207
0.7403 0.3852 0.7010
0.8294 0.3710 0.6712
0.0745 0.3532 0.6103
0.1064 0.3689 0.6284
0.1496 0.3728 0.6299
0.2159 0.3950 0.6486
0.4414 0.5555 0.7791
0.6791 0.6080 0.8246
0.8152 0.6080 0.8206
0.8935 0.6001 0.8070
0.0745 0.4625 0.6067
0.1103 0.4812 0.6220
0.1546 0.4974 0.6348
0.2179 0.5265 0.6539
0.3737 0.6317 0.7399
0.7297 0.8230 0.8906
0.8867 0.8437 0.9037
0.9404 0.8397 0.9023
0.0780 0.5846 0.6024
0.1147 0.6088 0.6225
0.1663 0.6358 0.6426
0.2444 0.6810 0.6794
0.4003 0.7723 0.7600
0.6807 0.8966 0.8780
0.9189 0.9511 0.9399
0.9682 0.9551 0.9443
0.0820 0.7044 0.5946
0.1256 0.7363 0.6265
0.1870 0.7756 0.6593
0.2841 0.8290 0.7152
0.4644 0.9013 0.8046
0.7293 0.9590 0.9023
0.9228 0.9804 0.9486
0.9800 0.9882 0.9643
