All_In_One/Enrich_Colormaster/colormanagement/luts/film_response/deluts_armchair_ex_m2.cube
TITLE "deluts_armchair_ex_m2"
# LUT size
# data domain
# LUT data points
# 
# Copyright: (C) Copyright 2015 James Miller
# Created by: James Miller / www.deluts.co.uk
LUT_3D_SIZE 6
0.240662 0.240662 0.240662
0.266785 0.244751 0.244904
0.321930 0.251190 0.251709
0.460907 0.260559 0.262115
0.613129 0.271149 0.273895
0.732513 0.280243 0.283997
0.244751 0.267639 0.244781
0.267365 0.267548 0.244751
0.328369 0.276062 0.251495
0.490601 0.289154 0.261780
0.627991 0.298615 0.273529
0.740814 0.309937 0.283539
0.253113 0.321045 0.251343
0.278076 0.320984 0.251251
0.343719 0.324799 0.251221
0.527374 0.340698 0.261322
0.649597 0.358215 0.272858
0.761902 0.374207 0.282776
0.317505 0.459747 0.270905
0.353790 0.459564 0.270782
0.452728 0.459808 0.266113
0.579285 0.465118 0.260529
0.694275 0.501923 0.271790
0.804413 0.519684 0.282410
0.457733 0.674988 0.291199
0.499634 0.674835 0.291077
0.557404 0.675568 0.289124
0.654663 0.685455 0.282196
0.734619 0.677155 0.278564
0.843201 0.705109 0.292725
0.511871 0.829254 0.310608
0.553375 0.829193 0.310425
0.604309 0.829041 0.310089
0.680389 0.832367 0.302795
0.771271 0.827393 0.299469
0.858063 0.826782 0.299316
0.244720 0.244751 0.267944
0.267242 0.244751 0.267944
0.319061 0.251190 0.275909
0.447021 0.260712 0.293640
0.611237 0.271149 0.303772
0.738037 0.280243 0.315674
0.244751 0.267639 0.267944
0.272858 0.273346 0.273590
0.335236 0.282104 0.282532
0.490631 0.294739 0.296967
0.638336 0.304382 0.308167
0.754974 0.315979 0.321350
0.253296 0.322815 0.276154
0.286407 0.334045 0.284332
0.361511 0.339020 0.284088
0.544556 0.352631 0.294342
0.663391 0.368378 0.306824
0.776642 0.383057 0.319458
0.313507 0.479309 0.315735
0.370209 0.505646 0.333862
0.458679 0.501923 0.314911
0.603607 0.508057 0.297333
0.713104 0.528229 0.310242
0.822571 0.541840 0.324097
0.443329 0.693634 0.346527
0.497009 0.713959 0.363373
0.557190 0.709961 0.352478
0.661102 0.710358 0.328308
0.751160 0.703827 0.322723
0.859680 0.727753 0.338226
0.505890 0.838684 0.371246
0.557220 0.855194 0.388977
0.607178 0.854858 0.387177
0.682465 0.850250 0.356323
0.784363 0.849640 0.347198
0.872437 0.846588 0.346466
0.251099 0.251190 0.318176
0.274567 0.251190 0.318848
0.319489 0.251190 0.320801
0.440430 0.260834 0.350494
0.608612 0.271332 0.365997
0.748840 0.280609 0.388855
0.251160 0.275604 0.322052
0.280151 0.281525 0.332886
0.328094 0.280853 0.335175
0.473114 0.296265 0.364960
0.640961 0.307831 0.377350
0.771271 0.321381 0.409210
0.254333 0.328522 0.334015
0.288727 0.342377 0.351807
0.353058 0.367493 0.392120
0.555908 0.387726 0.403778
0.694092 0.399231 0.413574
0.812103 0.418365 0.442383
0.327087 0.530945 0.451813
0.382904 0.553802 0.478760
0.472321 0.600739 0.513733
0.621735 0.583191 0.400604
0.747101 0.591705 0.421173
0.853882 0.595123 0.425018
0.426544 0.723694 0.519501
0.481323 0.739746 0.538971
0.556976 0.761932 0.551514
0.661102 0.751343 0.439575
0.773987 0.745636 0.412598
0.882416 0.764130 0.435089
0.495270 0.854156 0.505096
0.547760 0.869324 0.530426
0.610809 0.889648 0.563293
0.685944 0.884186 0.496399
0.798920 0.880249 0.445679
0.891663 0.876312 0.442780
0.260773 0.260742 0.425781
0.288605 0.260651 0.429718
0.338593 0.260620 0.438812
0.451752 0.260895 0.454071
0.624756 0.272278 0.489075
0.769928 0.282227 0.537262
0.263062 0.290985 0.448212
0.295410 0.294922 0.457306
0.348450 0.292847 0.466797
0.482697 0.296997 0.489990
0.661713 0.312134 0.526337
0.795776 0.328033 0.577209
0.276917 0.362915 0.502777
0.320465 0.379089 0.529022
0.377228 0.384705 0.551025
0.528442 0.381317 0.576508
0.721222 0.418030 0.611267
0.842102 0.456848 0.647430
0.342743 0.560425 0.604858
0.398010 0.578949 0.619873
0.478729 0.612427 0.646301
0.629578 0.654724 0.678192
0.787903 0.676270 0.692993
0.900513 0.692780 0.709381
0.426697 0.731506 0.647430
0.480774 0.746094 0.658630
0.552399 0.767883 0.673492
0.676270 0.802277 0.690033
0.799896 0.803467 0.677917
0.912659 0.822327 0.704254
0.490234 0.863312 0.665527
0.543365 0.876740 0.677307
0.607269 0.894867 0.692749
0.701904 0.920898 0.708679
0.818146 0.922150 0.698151
0.916443 0.921631 0.693939
0.276855 0.272400 0.588562
0.312958 0.271362 0.594757
0.373444 0.271454 0.611023
0.492950 0.273468 0.639587
0.649597 0.274628 0.652863
0.788544 0.286072 0.697266
0.286438 0.314301 0.627716
0.322754 0.314545 0.634979
0.380920 0.309631 0.643555
0.509705 0.314575 0.674713
0.680176 0.317993 0.691010
0.812714 0.336395 0.730347
0.312744 0.410492 0.688416
0.357788 0.423553 0.706512
0.408417 0.417572 0.718018
0.519714 0.403442 0.729889
0.725433 0.416748 0.749603
0.852386 0.461639 0.782959
0.379913 0.604126 0.744049
0.434723 0.620148 0.759308
0.501007 0.634369 0.779205
0.615082 0.657043 0.809692
0.782990 0.661407 0.812958
0.903687 0.689392 0.834198
0.430420 0.736664 0.755829
0.484161 0.750488 0.768707
0.552856 0.770203 0.787048
0.668335 0.801849 0.815308
0.821289 0.832275 0.844727
0.937225 0.854614 0.867188
0.487427 0.864838 0.777985
0.540497 0.878052 0.790863
0.604462 0.895996 0.808624
0.700134 0.922516 0.835052
0.842926 0.949219 0.865631
0.939606 0.949280 0.865906
0.295776 0.284332 0.749268
0.334656 0.281952 0.753693
0.400452 0.282104 0.769165
0.530853 0.286255 0.795288
0.692352 0.290649 0.811737
0.803040 0.291199 0.820129
0.308624 0.338257 0.785034
0.345917 0.335083 0.789886
0.401489 0.330139 0.795563
0.536224 0.334076 0.820740
0.715118 0.343414 0.839905
0.823364 0.346985 0.846222
0.345612 0.464661 0.837067
0.388702 0.469421 0.849182
0.435577 0.456665 0.859528
0.537811 0.439148 0.864716
0.749237 0.455780 0.882996
0.856659 0.470795 0.887787
0.409607 0.634735 0.869354
0.463287 0.648926 0.883820
0.521454 0.656494 0.900970
0.638611 0.676239 0.926575
0.801636 0.682190 0.930054
0.902618 0.682343 0.929871
0.453888 0.763184 0.877747
0.506531 0.776703 0.890839
0.572662 0.794312 0.908813
0.682831 0.821289 0.933319
0.840515 0.852478 0.955353
0.937195 0.853729 0.955597
0.487610 0.865540 0.879211
0.540924 0.878723 0.892242
0.604797 0.896423 0.909943
0.697479 0.921600 0.932556
0.842194 0.948578 0.955627
0.958374 0.968353 0.971710
