All_In_One/Enrich_Colormaster/colormanagement/luts/film_response/deluts_armchair_ex_m2.cube
TITLE "deluts_armchair_ex_m2"
# LUT size
# data domain
# LUT data points
# 
# Copyright: (C) Copyright 2015 James Miller
# Created by: James Miller / www.deluts.co.uk
LUT_3D_SIZE 16
0.240662 0.240662 0.240662
0.248077 0.241913 0.241943
0.256775 0.243164 0.243195
0.266785 0.244751 0.244904
0.279358 0.246613 0.246826
0.296783 0.248749 0.249054
0.321930 0.251190 0.251709
0.358246 0.253998 0.254761
0.404388 0.257141 0.258270
0.460907 0.260559 0.262115
0.510345 0.264130 0.266083
0.563293 0.267731 0.270111
0.613129 0.271149 0.273895
0.656952 0.274323 0.277435
0.695374 0.277344 0.280731
0.732513 0.280243 0.283997
0.241882 0.248199 0.241882
0.248138 0.248199 0.241882
0.256866 0.249756 0.243164
0.266968 0.251526 0.244843
0.279755 0.253510 0.246765
0.297638 0.255737 0.248993
0.323914 0.258392 0.251648
0.362274 0.261475 0.254669
0.412231 0.265076 0.258179
0.469269 0.268677 0.261993
0.518280 0.272186 0.265991
0.570099 0.275665 0.269989
0.617371 0.279053 0.273804
0.659698 0.282379 0.277344
0.697418 0.285492 0.280640
0.734436 0.288544 0.283844
0.243164 0.257202 0.243164
0.249695 0.257172 0.243164
0.256958 0.257141 0.243164
0.267151 0.259003 0.244812
0.280151 0.261108 0.246735
0.298553 0.263489 0.248962
0.326172 0.266449 0.251556
0.367096 0.270233 0.254608
0.421570 0.274475 0.258087
0.479370 0.278046 0.261902
0.527802 0.281281 0.265869
0.577301 0.284576 0.269897
0.622101 0.287964 0.273682
0.662720 0.291412 0.277191
0.699951 0.294556 0.280487
0.737122 0.297913 0.283691
0.244751 0.267639 0.244781
0.251434 0.267578 0.244751
0.258789 0.267548 0.244751
0.267365 0.267548 0.244751
0.280640 0.269867 0.246674
0.299500 0.272552 0.248871
0.328369 0.276062 0.251495
0.372559 0.280945 0.254517
0.431305 0.285767 0.257965
0.490601 0.289154 0.261780
0.538391 0.292084 0.265778
0.585480 0.295105 0.269745
0.627991 0.298615 0.273529
0.666351 0.302582 0.277069
0.703613 0.306244 0.280365
0.740814 0.309937 0.283539
0.246613 0.280243 0.246704
0.253418 0.280212 0.246674
0.260834 0.280182 0.246643
0.269897 0.280273 0.246613
0.281311 0.280457 0.246582
0.300842 0.283844 0.248810
0.331268 0.288177 0.251373
0.378723 0.294159 0.254425
0.440948 0.299347 0.257843
0.501892 0.302368 0.261658
0.549072 0.305298 0.265656
0.593292 0.308655 0.269623
0.633240 0.312500 0.273376
0.671051 0.317230 0.276886
0.708496 0.321411 0.280151
0.745789 0.325500 0.283325
0.248840 0.297150 0.248840
0.255737 0.297089 0.248810
0.263336 0.297089 0.248779
0.272736 0.297241 0.248749
0.285370 0.297729 0.248718
0.302856 0.298401 0.248688
0.335419 0.303955 0.251282
0.387177 0.311279 0.254272
0.452515 0.316193 0.257690
0.513153 0.318695 0.261536
0.559723 0.322388 0.265472
0.601776 0.326630 0.269409
0.640137 0.331360 0.273163
0.677734 0.336853 0.276672
0.715179 0.341583 0.279907
0.752625 0.346252 0.283081
0.253113 0.321045 0.251343
0.260498 0.321014 0.251312
0.268555 0.320923 0.251282
0.278076 0.320984 0.251251
0.290741 0.321350 0.251190
0.312469 0.322754 0.251129
0.343719 0.324799 0.251221
0.399445 0.333099 0.254211
0.467468 0.337891 0.257538
0.527374 0.340698 0.261322
0.571594 0.346039 0.265228
0.611908 0.352081 0.269135
0.649597 0.358215 0.272858
0.687012 0.364014 0.276367
0.724487 0.369232 0.279602
0.761902 0.374207 0.282776
0.261322 0.353516 0.254364
0.269562 0.353455 0.254333
0.278412 0.353424 0.254303
0.288483 0.353363 0.254272
0.302185 0.353546 0.254211
0.326508 0.355133 0.254181
0.369385 0.359039 0.254517
0.420013 0.361450 0.254456
0.486664 0.365875 0.257385
0.543579 0.371185 0.261047
0.584961 0.378845 0.264954
0.623932 0.386993 0.268799
0.661774 0.395264 0.272491
0.699097 0.401245 0.275970
0.736053 0.406006 0.279205
0.773499 0.411560 0.282379
0.277985 0.398712 0.259949
0.287598 0.398651 0.259918
0.297729 0.398560 0.259888
0.308960 0.398499 0.259827
0.323639 0.398254 0.259552
0.350555 0.399139 0.259155
0.405182 0.403046 0.259613
0.462463 0.404633 0.258911
0.508484 0.403137 0.257263
0.560455 0.412323 0.260803
0.601074 0.423615 0.264557
0.639709 0.435455 0.268402
0.677368 0.444824 0.272064
0.714600 0.451294 0.275543
0.751343 0.456268 0.278839
0.788483 0.461639 0.282074
0.317505 0.459747 0.270905
0.328918 0.459686 0.270844
0.340881 0.459595 0.270813
0.353790 0.459564 0.270782
0.368195 0.459412 0.270691
0.397522 0.458954 0.268829
0.452728 0.459808 0.266113
0.505157 0.464569 0.264404
0.546204 0.466980 0.261780
0.579285 0.465118 0.260529
0.619202 0.480133 0.264221
0.657440 0.493195 0.268127
0.694275 0.501923 0.271790
0.731018 0.507935 0.275330
0.767456 0.513275 0.278961
0.804413 0.519684 0.282410
0.372803 0.527618 0.277557
0.385559 0.527557 0.277557
0.398682 0.527527 0.277496
0.412689 0.527435 0.277435
0.428772 0.527313 0.277191
0.452789 0.527710 0.275909
0.496490 0.530701 0.273102
0.542145 0.537354 0.270142
0.580322 0.542908 0.267517
0.610077 0.541382 0.265564
0.635406 0.537170 0.264252
0.673859 0.553467 0.268280
0.710876 0.564972 0.272278
0.747467 0.572479 0.276154
0.783936 0.579773 0.280060
0.820953 0.588287 0.283905
0.423309 0.606110 0.283752
0.436676 0.606079 0.283691
0.450348 0.606018 0.283630
0.464752 0.605957 0.283569
0.480713 0.605896 0.283447
0.500916 0.606201 0.282867
0.531525 0.608368 0.280670
0.572113 0.614014 0.277496
0.608368 0.619141 0.275177
0.636902 0.620148 0.273010
0.661499 0.614380 0.270874
0.687531 0.612183 0.270111
0.724701 0.625702 0.275116
0.761505 0.635590 0.279663
0.797577 0.643250 0.283966
0.833984 0.652283 0.288391
0.457733 0.674988 0.291199
0.471191 0.674957 0.291138
0.484985 0.674927 0.291107
0.499634 0.674835 0.291077
0.515503 0.674805 0.290985
0.533325 0.674744 0.290741
0.557404 0.675568 0.289124
0.590729 0.678955 0.286346
0.625183 0.683563 0.284058
0.654663 0.685455 0.282196
0.681702 0.682495 0.280060
0.706940 0.677612 0.278778
0.734619 0.677155 0.278564
0.771271 0.687897 0.283722
0.807312 0.696594 0.288208
0.843201 0.705109 0.292725
0.480621 0.731781 0.297791
0.494080 0.731720 0.297729
0.507812 0.731720 0.297699
0.522461 0.731689 0.297638
0.538177 0.731659 0.297607
0.555542 0.731598 0.297424
0.576233 0.731781 0.296539
0.604492 0.734039 0.294189
0.637115 0.738312 0.291779
0.665466 0.740295 0.290192
0.694458 0.739532 0.288605
0.722321 0.733490 0.286957
0.749908 0.732147 0.286743
0.778198 0.732086 0.286804
0.814117 0.741791 0.291504
0.849731 0.750702 0.295990
0.497986 0.782806 0.304199
0.511414 0.782776 0.304138
0.525177 0.782745 0.304077
0.539703 0.782684 0.304016
0.555511 0.782654 0.303986
0.572601 0.782623 0.303833
0.591431 0.782471 0.303467
0.615417 0.783020 0.301178
0.645996 0.786560 0.298340
0.673859 0.788727 0.296814
0.703583 0.788940 0.295410
0.732666 0.784302 0.293976
0.762238 0.781738 0.293427
0.791107 0.781464 0.293427
0.819153 0.781433 0.293518
0.854401 0.790344 0.297943
0.511871 0.829254 0.310608
0.525330 0.829224 0.310577
0.539001 0.829224 0.310486
0.553375 0.829193 0.310425
0.568970 0.829163 0.310394
0.585907 0.829132 0.310333
0.604309 0.829041 0.310089
0.626434 0.828735 0.307495
0.652588 0.830078 0.304565
0.680389 0.832367 0.302795
0.711090 0.833527 0.301361
0.741699 0.831268 0.300201
0.771271 0.827393 0.299469
0.801422 0.826508 0.299194
0.830261 0.826569 0.299164
0.858063 0.826782 0.299316
0.241882 0.241882 0.248291
0.248169 0.241882 0.248291
0.256897 0.243164 0.249939
0.266907 0.244751 0.251770
0.279175 0.246613 0.253815
0.296417 0.248749 0.256165
0.321167 0.251190 0.258972
0.356537 0.253998 0.262268
0.401764 0.257172 0.266052
0.459137 0.260590 0.270355
0.508942 0.264160 0.274200
0.562775 0.267731 0.278198
0.614014 0.271149 0.282104
0.658203 0.274323 0.285797
0.696716 0.277344 0.289246
0.733887 0.280212 0.292633
0.241882 0.248199 0.248291
0.249664 0.249756 0.249847
0.258484 0.251312 0.251495
0.268768 0.253113 0.253326
0.281586 0.255066 0.255402
0.299896 0.257324 0.257782
0.326599 0.259979 0.260620
0.364319 0.263000 0.263947
0.413696 0.266449 0.267761
0.470093 0.270050 0.271851
0.520111 0.273590 0.275970
0.572876 0.277283 0.280029
0.621307 0.280792 0.283936
0.663544 0.284119 0.287598
0.701538 0.287231 0.291107
0.738770 0.290222 0.294525
0.243164 0.257202 0.249908
0.251251 0.258820 0.251465
0.258606 0.258820 0.251434
0.269043 0.260681 0.253235
0.282196 0.262787 0.255310
0.301056 0.265167 0.257721
0.329559 0.268280 0.260529
0.370178 0.271912 0.263855
0.423828 0.275879 0.267609
0.480591 0.279419 0.271606
0.529480 0.282745 0.275787
0.580017 0.286072 0.279907
0.625641 0.289551 0.283844
0.666138 0.293030 0.287476
0.703705 0.296204 0.290955
0.740967 0.299591 0.294250
0.244751 0.267639 0.251678
0.253021 0.269348 0.253235
0.260437 0.269318 0.253235
0.269318 0.269348 0.253174
0.282990 0.271667 0.255280
0.302460 0.274384 0.257660
0.332642 0.278137 0.260437
0.377014 0.282837 0.263763
0.435211 0.287292 0.267456
0.492615 0.290649 0.271454
0.540619 0.293610 0.275635
0.588440 0.296600 0.279785
0.631042 0.300171 0.283691
0.669769 0.304138 0.287323
0.707214 0.307739 0.290710
0.744659 0.311554 0.294006
0.246613 0.280273 0.253693
0.254974 0.282257 0.255280
0.262512 0.282257 0.255249
0.271667 0.282440 0.255188
0.283600 0.282654 0.255157
0.304352 0.286224 0.257538
0.336609 0.290741 0.260376
0.384735 0.296692 0.263611
0.446655 0.301239 0.267334
0.505402 0.304108 0.271301
0.552338 0.307037 0.275482
0.596375 0.310181 0.279602
0.636627 0.314392 0.283539
0.674744 0.318726 0.287140
0.712311 0.322968 0.290497
0.749786 0.327148 0.293793
0.248840 0.297241 0.255951
0.257355 0.299591 0.257568
0.265015 0.299591 0.257538
0.274445 0.299835 0.257477
0.287140 0.300415 0.257446
0.306519 0.301453 0.257385
0.342407 0.307434 0.260254
0.394989 0.314453 0.263550
0.459717 0.318451 0.267151
0.517883 0.320953 0.271118
0.564301 0.324493 0.275299
0.605652 0.328705 0.279388
0.643921 0.333557 0.283295
0.681610 0.338623 0.286865
0.719238 0.343353 0.290222
0.756561 0.347839 0.293488
0.253052 0.321533 0.258636
0.262482 0.324585 0.260376
0.270691 0.324554 0.260315
0.280243 0.324585 0.260254
0.293243 0.325043 0.260162
0.316406 0.326569 0.260101
0.351044 0.329102 0.260345
0.410126 0.337555 0.263580
0.476593 0.340912 0.266968
0.533142 0.343994 0.270874
0.576874 0.349030 0.274994
0.616119 0.354736 0.279083
0.653625 0.360901 0.282928
0.691101 0.366150 0.286530
0.728577 0.371094 0.289917
0.765991 0.376068 0.293152
0.261230 0.354736 0.262115
0.272034 0.358398 0.263916
0.281006 0.358337 0.263885
0.291199 0.358307 0.263824
0.305115 0.358551 0.263641
0.329956 0.359894 0.263611
0.376343 0.364197 0.264313
0.430969 0.366333 0.264191
0.496613 0.370850 0.266876
0.550232 0.376648 0.270569
0.590881 0.383606 0.274658
0.628845 0.391876 0.278687
0.666199 0.399017 0.282532
0.703369 0.404022 0.286133
0.740387 0.408417 0.289520
0.778015 0.414520 0.292908
0.277588 0.401093 0.269104
0.291046 0.406311 0.271790
0.301300 0.406219 0.271729
0.312622 0.406158 0.271667
0.327515 0.405945 0.271240
0.354279 0.406128 0.270264
0.412231 0.409698 0.270660
0.471008 0.411255 0.269379
0.517273 0.410339 0.266998
0.567932 0.420929 0.270325
0.608093 0.432312 0.274231
0.645294 0.442444 0.278320
0.682556 0.450500 0.282227
0.719574 0.455750 0.285797
0.756287 0.460358 0.289490
0.793030 0.464874 0.292999
0.315735 0.464233 0.282684
0.332825 0.471008 0.285889
0.344849 0.470947 0.285858
0.357697 0.470886 0.285797
0.372620 0.470734 0.285522
0.403076 0.469635 0.282593
0.458160 0.469208 0.278107
0.512604 0.474792 0.275696
0.553741 0.477783 0.272339
0.586548 0.476349 0.270386
0.626678 0.491608 0.274048
0.663605 0.502380 0.278412
0.699738 0.508881 0.282379
0.736237 0.513855 0.286377
0.772705 0.518738 0.290405
0.809479 0.524658 0.294189
0.369171 0.535645 0.291473
0.388123 0.543488 0.294617
0.401154 0.543396 0.294556
0.415100 0.543335 0.294525
0.431488 0.543121 0.294037
0.455750 0.542023 0.291534
0.498962 0.542633 0.286530
0.548615 0.549042 0.282318
0.586334 0.554810 0.279327
0.616394 0.553864 0.276703
0.642242 0.549225 0.274811
0.680389 0.565247 0.279358
0.716705 0.573914 0.283783
0.752960 0.579987 0.288025
0.789459 0.586853 0.292236
0.826080 0.594391 0.296539
0.419464 0.612640 0.297821
0.437866 0.620148 0.301300
0.451447 0.620087 0.301208
0.465851 0.620026 0.301178
0.481659 0.619934 0.301025
0.501404 0.619354 0.299957
0.532349 0.619476 0.296051
0.574799 0.623383 0.290985
0.612549 0.628662 0.288147
0.641327 0.630188 0.285828
0.667114 0.625000 0.282990
0.693115 0.622253 0.282104
0.730591 0.635437 0.287628
0.766937 0.643280 0.292328
0.802887 0.650421 0.296844
0.839203 0.658966 0.301697
0.454498 0.679230 0.305359
0.472107 0.685608 0.308838
0.485840 0.685547 0.308777
0.500275 0.685516 0.308716
0.516083 0.685486 0.308655
0.534149 0.685150 0.307983
0.558685 0.684723 0.305145
0.592377 0.686646 0.300781
0.627472 0.691010 0.297668
0.657532 0.693268 0.295532
0.685852 0.690857 0.293243
0.711670 0.685425 0.291687
0.739685 0.685089 0.291534
0.776642 0.695770 0.296936
0.812622 0.703949 0.301636
0.848358 0.712006 0.306183
0.478149 0.735474 0.312469
0.495575 0.741455 0.315796
0.509308 0.741455 0.315735
0.523804 0.741394 0.315704
0.539429 0.741364 0.315613
0.556702 0.741272 0.315399
0.577454 0.740997 0.313934
0.605652 0.741455 0.309540
0.638550 0.744598 0.305603
0.667572 0.746979 0.303772
0.697601 0.746643 0.301971
0.726776 0.741608 0.300232
0.754547 0.739441 0.299835
0.783142 0.739349 0.299957
0.819092 0.748688 0.304810
0.854736 0.757568 0.309509
0.496094 0.785828 0.319336
0.513275 0.791473 0.323273
0.526978 0.791443 0.323242
0.541382 0.791412 0.323181
0.556915 0.791382 0.323090
0.573944 0.791321 0.322998
0.592712 0.791138 0.322418
0.616364 0.790192 0.317780
0.646515 0.791992 0.312866
0.675415 0.794617 0.310730
0.706390 0.795349 0.308960
0.736572 0.791748 0.307434
0.766296 0.788483 0.306732
0.795532 0.787872 0.306671
0.823822 0.788025 0.306793
0.859192 0.796906 0.311523
0.510223 0.831940 0.326965
0.527069 0.837097 0.330933
0.540619 0.837036 0.330872
0.555054 0.837006 0.330841
0.570374 0.837006 0.330780
0.587250 0.836975 0.330688
0.605408 0.836823 0.330292
0.627289 0.835632 0.326019
0.652679 0.835144 0.320129
0.681488 0.837494 0.317169
0.713379 0.839020 0.315399
0.745331 0.837799 0.314026
0.775238 0.833679 0.313110
0.805511 0.832642 0.312805
0.834595 0.832489 0.312775
0.862518 0.832764 0.312927
0.243134 0.243164 0.257416
0.249725 0.243164 0.257416
0.257019 0.243164 0.257416
0.267059 0.244751 0.259308
0.278992 0.246613 0.261505
0.295807 0.248749 0.263977
0.319946 0.251190 0.266907
0.353699 0.253998 0.270508
0.396973 0.257172 0.275055
0.454285 0.260620 0.280640
0.505310 0.264221 0.284485
0.560242 0.267731 0.287628
0.613129 0.271149 0.291534
0.659149 0.274323 0.295258
0.698425 0.277344 0.298859
0.735626 0.280243 0.302704
0.243164 0.249786 0.257416
0.251221 0.251312 0.259033
0.258606 0.251312 0.259033
0.268829 0.253113 0.260986
0.281067 0.255066 0.263153
0.298889 0.257355 0.265717
0.324371 0.259979 0.268677
0.360260 0.263000 0.272369
0.407593 0.266449 0.276947
0.465912 0.270172 0.281830
0.516815 0.273743 0.285370
0.571014 0.277344 0.289032
0.621277 0.280792 0.293121
0.664978 0.284119 0.296906
0.703125 0.287201 0.300568
0.740509 0.290253 0.304504
0.243164 0.257202 0.257416
0.251251 0.258820 0.259033
0.260315 0.260559 0.260803
0.270752 0.262390 0.262726
0.283813 0.264526 0.264893
0.303040 0.266937 0.267487
0.331146 0.269958 0.270538
0.370392 0.273468 0.274231
0.422729 0.277344 0.278625
0.480042 0.281067 0.282990
0.530548 0.284515 0.286835
0.582825 0.287842 0.291107
0.629822 0.291321 0.295044
0.670654 0.294678 0.298828
0.708466 0.298126 0.302551
0.745941 0.301544 0.306305
0.244751 0.267639 0.259277
0.253021 0.269348 0.260925
0.262146 0.271179 0.262665
0.271179 0.271210 0.262634
0.284943 0.273621 0.264832
0.304962 0.276306 0.267395
0.335297 0.280090 0.270538
0.379028 0.284485 0.274139
0.435913 0.288696 0.278259
0.493134 0.292267 0.282379
0.542419 0.295319 0.286346
0.591217 0.298309 0.290771
0.634491 0.302002 0.294678
0.673676 0.305786 0.298401
0.711334 0.309418 0.302094
0.749023 0.313354 0.305634
0.246613 0.280334 0.261414
0.254974 0.282318 0.263062
0.264221 0.284454 0.264801
0.273376 0.284668 0.264740
0.285736 0.285004 0.264709
0.307861 0.288757 0.267242
0.341125 0.293427 0.270569
0.389160 0.298950 0.274231
0.450806 0.303162 0.278107
0.507660 0.306000 0.282043
0.555298 0.308838 0.286163
0.599792 0.311920 0.290466
0.640289 0.316315 0.294434
0.678833 0.320587 0.298126
0.716553 0.324738 0.301758
0.754333 0.329193 0.305267
0.248840 0.297424 0.263794
0.257385 0.299805 0.265472
0.267029 0.302612 0.267273
0.276306 0.302887 0.267242
0.288544 0.303528 0.267151
0.309784 0.304840 0.267120
0.349548 0.311371 0.270752
0.402679 0.317841 0.274506
0.466553 0.320831 0.277924
0.522430 0.323456 0.281708
0.568542 0.326782 0.285919
0.609772 0.330902 0.290192
0.648071 0.336090 0.294189
0.685913 0.340790 0.297852
0.723663 0.345520 0.301453
0.761383 0.350494 0.304932
0.253082 0.321960 0.266693
0.262665 0.325195 0.268677
0.273254 0.328552 0.270630
0.282837 0.328705 0.270538
0.295654 0.329224 0.270264
0.318359 0.330719 0.270172
0.358429 0.333893 0.271088
0.421570 0.342102 0.274780
0.485718 0.344604 0.277679
0.538879 0.347778 0.281433
0.582367 0.352295 0.285614
0.620758 0.358398 0.289886
0.658051 0.364044 0.293854
0.695557 0.368713 0.297516
0.733093 0.373413 0.301117
0.770782 0.378937 0.304596
0.261292 0.356140 0.271393
0.272278 0.360046 0.273621
0.284454 0.364441 0.276184
0.294708 0.364410 0.276093
0.307770 0.364838 0.275421
0.331390 0.366333 0.274811
0.381836 0.370453 0.276154
0.440887 0.372192 0.275757
0.507568 0.377136 0.277618
0.557068 0.382996 0.281097
0.596954 0.388855 0.285187
0.634216 0.397614 0.289673
0.671295 0.403717 0.293884
0.708160 0.407532 0.297516
0.745575 0.412567 0.301147
0.783112 0.418304 0.304688
0.277710 0.404663 0.280426
0.291260 0.410065 0.283508
0.306152 0.416107 0.287201
0.317566 0.416046 0.287140
0.331482 0.416351 0.286804
0.357513 0.416901 0.285706
0.417175 0.418488 0.284027
0.478210 0.420105 0.281891
0.527466 0.420471 0.278473
0.576324 0.431671 0.281097
0.615631 0.442444 0.284973
0.651398 0.450653 0.289520
0.688416 0.457611 0.293976
0.725067 0.461273 0.297729
0.761810 0.465607 0.301758
0.798462 0.469788 0.305481
0.313263 0.471008 0.297089
0.330200 0.478241 0.301117
0.348328 0.485931 0.305359
0.361176 0.485870 0.305298
0.376862 0.485748 0.304749
0.406219 0.485077 0.301025
0.461304 0.482758 0.293121
0.517853 0.486664 0.289093
0.561676 0.491608 0.285217
0.594879 0.490753 0.282196
0.634644 0.504425 0.285553
0.670227 0.512726 0.290253
0.705933 0.517487 0.294678
0.742310 0.521515 0.299103
0.778687 0.526031 0.303558
0.815369 0.531738 0.307770
0.363556 0.545959 0.309265
0.381897 0.554260 0.313202
0.400940 0.563110 0.317291
0.414734 0.563049 0.317261
0.431244 0.562775 0.316406
0.455841 0.561493 0.312561
0.500031 0.558655 0.303345
0.552612 0.561157 0.296509
0.591736 0.567505 0.293060
0.622528 0.567108 0.290009
0.649353 0.562683 0.287628
0.687103 0.577057 0.292694
0.723175 0.584106 0.297363
0.759094 0.588898 0.301727
0.795593 0.595581 0.306458
0.831940 0.602356 0.311096
0.414032 0.621918 0.315704
0.432220 0.629333 0.319824
0.450806 0.637146 0.324463
0.465088 0.637085 0.324371
0.480804 0.636932 0.324158
0.500275 0.635956 0.322388
0.532379 0.632690 0.314941
0.575409 0.633087 0.306854
0.615082 0.638550 0.303070
0.645691 0.641144 0.300598
0.672791 0.637299 0.297424
0.699158 0.633148 0.296051
0.736694 0.645355 0.302002
0.772888 0.652100 0.306793
0.808685 0.658661 0.311523
0.844818 0.666534 0.316528
0.449707 0.685150 0.322815
0.467072 0.691589 0.326965
0.484833 0.698456 0.331268
0.499268 0.698395 0.331238
0.514862 0.698334 0.331085
0.533478 0.697754 0.329773
0.558624 0.695923 0.325226
0.592316 0.694702 0.317444
0.628693 0.698761 0.313171
0.660004 0.701874 0.310669
0.690521 0.700745 0.308105
0.716919 0.694885 0.306183
0.745148 0.693909 0.306030
0.782349 0.704376 0.311615
0.818298 0.712219 0.316467
0.853790 0.719482 0.321045
0.474609 0.740204 0.330627
0.491943 0.746338 0.334778
0.509583 0.752502 0.338989
0.523987 0.752472 0.338959
0.539490 0.752441 0.338867
0.556610 0.752319 0.338531
0.577240 0.751526 0.336334
0.605347 0.749237 0.327789
0.638641 0.751465 0.322021
0.669006 0.754028 0.319000
0.700867 0.754700 0.316833
0.731049 0.750122 0.314911
0.759491 0.747406 0.314362
0.788330 0.747223 0.314392
0.824524 0.756714 0.319550
0.860168 0.765381 0.324463
0.493713 0.789581 0.337921
0.510742 0.795227 0.342224
0.528015 0.801117 0.347290
0.542419 0.801086 0.347260
0.557892 0.801056 0.347168
0.574738 0.801025 0.347046
0.593323 0.800751 0.346313
0.617401 0.799103 0.338806
0.646515 0.798859 0.331177
0.675934 0.800446 0.326569
0.708649 0.802032 0.324371
0.740601 0.799713 0.322601
0.771027 0.796417 0.321625
0.800415 0.795135 0.321472
0.828796 0.795197 0.321564
0.864319 0.804260 0.326630
0.508240 0.835083 0.346527
0.524994 0.840240 0.351318
0.541962 0.845673 0.356415
0.556183 0.845642 0.356354
0.571503 0.845612 0.356262
0.588257 0.845612 0.356232
0.606537 0.845398 0.355316
0.628113 0.844116 0.349426
0.652954 0.842285 0.340393
0.681915 0.843048 0.334106
0.715118 0.844788 0.331390
0.748627 0.844604 0.329651
0.779541 0.841217 0.328522
0.810181 0.839661 0.328156
0.839417 0.839172 0.328033
0.867310 0.839355 0.328247
0.244720 0.244751 0.267944
0.251434 0.244751 0.267944
0.258820 0.244751 0.267944
0.267242 0.244751 0.267944
0.279144 0.246613 0.270233
0.295563 0.248749 0.272827
0.319061 0.251190 0.275909
0.350769 0.253998 0.280090
0.392426 0.257202 0.286316
0.447021 0.260712 0.293640
0.500000 0.264282 0.297638
0.556610 0.267792 0.300598
0.611237 0.271149 0.303772
0.659332 0.274292 0.307526
0.700623 0.277344 0.311310
0.738037 0.280243 0.315674
0.244720 0.251526 0.267944
0.252991 0.253113 0.269684
0.260437 0.253082 0.269684
0.268921 0.253082 0.269684
0.281006 0.255066 0.271973
0.298187 0.257355 0.274597
0.322784 0.259979 0.277832
0.356354 0.263000 0.282257
0.401245 0.266479 0.288757
0.458679 0.270325 0.295166
0.511475 0.273926 0.298462
0.567444 0.277466 0.301758
0.620148 0.280884 0.305176
0.665894 0.284088 0.309082
0.705536 0.287231 0.312714
0.743011 0.290283 0.317474
0.244751 0.259064 0.267944
0.252991 0.260681 0.269684
0.262115 0.262390 0.271515
0.270691 0.262390 0.271515
0.283081 0.264496 0.273834
0.301361 0.266937 0.276520
0.327423 0.269806 0.279785
0.364075 0.273254 0.284576
0.413727 0.277313 0.290771
0.472992 0.281433 0.296356
0.525299 0.284943 0.299316
0.579620 0.288208 0.302704
0.629578 0.291504 0.306396
0.672333 0.294739 0.310272
0.710632 0.298218 0.314240
0.748413 0.301758 0.319366
0.244751 0.267639 0.267944
0.253021 0.269409 0.269714
0.262146 0.271271 0.271515
0.272858 0.273346 0.273590
0.285706 0.275635 0.275879
0.306030 0.278564 0.278870
0.335236 0.282104 0.282532
0.377716 0.286499 0.287689
0.433136 0.290924 0.292908
0.490631 0.294739 0.296967
0.542023 0.297852 0.300781
0.593414 0.300842 0.304413
0.638336 0.304382 0.308167
0.678619 0.307983 0.312012
0.717102 0.311981 0.316620
0.754974 0.315979 0.321350
0.246643 0.280457 0.270172
0.255005 0.282501 0.271912
0.264221 0.284729 0.273804
0.275055 0.287384 0.275879
0.286560 0.287567 0.275818
0.309509 0.291779 0.278900
0.342651 0.296173 0.282990
0.389771 0.301300 0.288239
0.451019 0.305573 0.292603
0.507233 0.308563 0.295563
0.556763 0.311401 0.299500
0.603333 0.314514 0.303192
0.644501 0.318726 0.307343
0.683502 0.322784 0.311249
0.721680 0.327057 0.315826
0.759430 0.331604 0.320343
0.248871 0.297821 0.272705
0.257416 0.300262 0.274506
0.267059 0.303131 0.276550
0.278625 0.306854 0.279205
0.290039 0.307465 0.278870
0.312683 0.308929 0.278778
0.355438 0.315857 0.283752
0.408264 0.321381 0.289001
0.471710 0.324219 0.292236
0.526367 0.326691 0.294647
0.572784 0.329834 0.298645
0.614441 0.334198 0.302734
0.652924 0.339294 0.307007
0.691071 0.343781 0.310913
0.729065 0.348572 0.315369
0.766968 0.353912 0.319794
0.253296 0.322815 0.276154
0.262970 0.326111 0.278656
0.273804 0.329773 0.281433
0.286407 0.334045 0.284332
0.298706 0.334839 0.283630
0.319153 0.336029 0.282898
0.361511 0.339020 0.284088
0.429932 0.346863 0.289185
0.494019 0.349609 0.291779
0.544556 0.352631 0.294342
0.588196 0.356689 0.298401
0.626190 0.363403 0.302795
0.663391 0.368378 0.306824
0.701080 0.372620 0.310638
0.738892 0.377472 0.315063
0.776642 0.383057 0.319458
0.261749 0.358185 0.283264
0.272919 0.362488 0.286377
