All_In_One/Enrich_Colormaster/colormanagement/luts/film_response/deluts_armchair.cube
TITLE "deluts_armchair"
# LUT size
# data domain
# LUT data points
# 
# Copyright: (C) Copyright 2015 James Miller
# Created by: James Miller / www.deluts.co.uk
LUT_3D_SIZE 6
0.240662 0.240662 0.240662
0.320160 0.251038 0.251526
0.467102 0.260986 0.262604
0.581635 0.268890 0.271423
0.665619 0.275024 0.278168
0.732513 0.280243 0.283997
0.252777 0.319489 0.251190
0.340149 0.322937 0.251038
0.531982 0.339905 0.261810
0.624451 0.352478 0.270447
0.694824 0.363403 0.277100
0.761353 0.372589 0.282806
0.324249 0.468109 0.271820
0.455566 0.468323 0.266998
0.586578 0.474182 0.260986
0.672272 0.504425 0.269440
0.741211 0.516846 0.276184
0.806641 0.528107 0.282562
0.437164 0.632019 0.286194
0.539398 0.633240 0.283691
0.646942 0.643097 0.275909
0.704132 0.636047 0.272858
0.773285 0.656036 0.282043
0.837494 0.671112 0.289886
0.484924 0.743683 0.299286
0.578491 0.743591 0.298279
0.671173 0.751770 0.291565
0.734528 0.744629 0.288452
0.787598 0.743652 0.288452
0.850983 0.760132 0.296539
0.511871 0.829254 0.310608
0.603271 0.829041 0.310120
0.684357 0.832642 0.302551
0.751678 0.829773 0.299896
0.808105 0.826508 0.299164
0.858063 0.826782 0.299316
0.250977 0.251038 0.316650
0.317963 0.251038 0.319061
0.447235 0.261292 0.350311
0.571350 0.269226 0.361542
0.671570 0.275146 0.371216
0.748627 0.280609 0.386932
0.253906 0.326385 0.331299
0.349884 0.363586 0.386322
0.559418 0.383301 0.397186
0.662231 0.390106 0.401855
0.741638 0.402954 0.421112
0.810516 0.415009 0.438202
0.331573 0.540436 0.453613
0.474091 0.606506 0.512360
0.628815 0.587250 0.394928
0.724243 0.599335 0.413452
0.792297 0.598785 0.420074
0.855225 0.603271 0.422852
0.409576 0.688385 0.508514
0.538239 0.728088 0.545624
0.659729 0.715973 0.422394
0.743988 0.711700 0.404388
0.815857 0.723450 0.421234
0.878143 0.733093 0.433746
0.459259 0.780304 0.506927
0.582947 0.817078 0.548035
0.677124 0.808350 0.454498
0.763428 0.806641 0.425201
0.824310 0.801971 0.421692
0.887573 0.815277 0.436646
0.495453 0.853821 0.501251
0.609619 0.888947 0.558716
0.690460 0.882996 0.489075
0.774597 0.879517 0.445496
0.839569 0.878326 0.440765
0.891235 0.875641 0.440155
0.261322 0.261261 0.431458
0.338409 0.261078 0.444733
0.459595 0.261444 0.461487
0.585663 0.270233 0.485657
0.692261 0.276184 0.514618
0.771179 0.282379 0.544983
0.277740 0.362488 0.509094
0.375793 0.382324 0.554535
0.537476 0.379303 0.581390
0.686646 0.404327 0.608185
0.773560 0.429993 0.631012
0.841553 0.453278 0.652649
0.347290 0.569763 0.612518
0.481140 0.619293 0.651947
0.641418 0.663757 0.685730
0.761688 0.680481 0.697601
0.838837 0.690979 0.706726
0.902863 0.701263 0.717285
0.412292 0.697815 0.644592
0.536652 0.734741 0.672577
0.675171 0.774231 0.694183
0.770966 0.775757 0.687866
0.848907 0.788483 0.703125
0.912140 0.798431 0.715607
0.452606 0.789307 0.660461
0.575897 0.823364 0.685364
0.693909 0.855682 0.704407
0.783020 0.857239 0.697449
0.851898 0.857025 0.693329
0.916382 0.868500 0.708618
0.489899 0.863373 0.670105
0.605621 0.894562 0.697205
0.707458 0.922272 0.715271
0.793457 0.923462 0.709198
0.862671 0.923645 0.705902
0.917542 0.923279 0.703979
0.272461 0.269775 0.548248
0.364136 0.269135 0.569977
0.490997 0.270874 0.599518
0.607635 0.271545 0.607025
0.706482 0.278320 0.636230
0.785156 0.284943 0.665192
0.304962 0.397400 0.649658
0.399323 0.405792 0.679626
0.530334 0.394531 0.696930
0.686035 0.403442 0.711853
0.782104 0.430115 0.736145
0.849304 0.455933 0.754608
0.375763 0.603302 0.715302
0.498993 0.636810 0.750305
0.627838 0.664032 0.782959
0.754913 0.668610 0.785339
0.840149 0.685333 0.799316
0.905426 0.699951 0.810486
0.417328 0.704346 0.726074
0.538025 0.737244 0.756439
0.666962 0.773071 0.786987
0.785492 0.796326 0.808868
0.867035 0.811523 0.823700
0.931396 0.823853 0.836121
0.453705 0.791168 0.741730
0.576141 0.824677 0.771179
0.692200 0.857452 0.799622
0.800781 0.879486 0.822662
0.869171 0.879639 0.822662
0.934082 0.891449 0.835114
0.487488 0.864655 0.753418
0.603119 0.895477 0.782959
0.706543 0.923645 0.810791
0.812164 0.943878 0.833038
0.880371 0.944153 0.833435
0.934875 0.944122 0.833801
0.284973 0.277100 0.659576
0.384216 0.275543 0.680298
0.515045 0.278656 0.709564
0.635986 0.281189 0.722900
0.720093 0.280762 0.729706
0.795959 0.288330 0.752747
0.325073 0.428589 0.751709
0.417908 0.430573 0.778473
0.533722 0.416260 0.788971
0.701294 0.428497 0.805817
0.784515 0.435608 0.810486
0.855194 0.463684 0.829407
0.394989 0.623627 0.798340
0.511505 0.650299 0.832123
0.634827 0.673401 0.863861
0.764069 0.679535 0.867126
0.837341 0.678040 0.866852
0.905609 0.694733 0.879456
0.434784 0.723602 0.807495
0.551941 0.754669 0.839203
0.673706 0.784637 0.869598
0.796204 0.808533 0.891418
0.865997 0.809662 0.891479
0.931396 0.822662 0.903992
0.453827 0.792572 0.808258
0.575012 0.825043 0.839661
0.687805 0.855621 0.868469
0.798492 0.877686 0.891174
0.881775 0.892975 0.906433
0.946503 0.905579 0.918854
0.487183 0.865051 0.821350
0.603027 0.895782 0.852234
0.705109 0.923859 0.880524
0.812286 0.944000 0.903961
0.894501 0.957550 0.918945
0.947449 0.957550 0.918915
0.295776 0.284332 0.749268
0.398926 0.282135 0.768860
0.538239 0.286621 0.796356
0.661041 0.290100 0.809296
0.741974 0.290863 0.815491
0.803040 0.291199 0.820129
0.344543 0.461304 0.836060
0.433289 0.453094 0.857849
0.550507 0.436981 0.865417
0.716095 0.449249 0.880310
0.798553 0.460052 0.884460
0.855865 0.467377 0.886841
0.412262 0.640778 0.870087
0.523590 0.663452 0.901428
0.651672 0.684937 0.928467
0.775452 0.692017 0.931366
0.848816 0.690765 0.931580
0.904633 0.691315 0.931305
0.446869 0.737335 0.876892
0.562134 0.767242 0.907654
0.684357 0.795502 0.933868
0.808044 0.820251 0.950806
0.877655 0.821686 0.951019
0.931183 0.821869 0.951050
0.467163 0.808014 0.879089
0.586731 0.839447 0.909912
0.697327 0.867554 0.934448
0.809967 0.889374 0.951141
0.893524 0.904785 0.962372
0.946686 0.905396 0.962646
0.487610 0.865540 0.879211
0.603485 0.896088 0.909576
0.703186 0.922791 0.933502
0.811310 0.943298 0.951233
0.894196 0.957367 0.962738
0.958374 0.968353 0.971710
