All_In_One/Enrich_Colormaster/colormanagement/luts/film_response/deluts_armchair.cube
TITLE "deluts_armchair"
# LUT size
# data domain
# LUT data points
# 
# Copyright: (C) Copyright 2015 James Miller
# Created by: James Miller / www.deluts.co.uk
LUT_3D_SIZE 16
0.240662 0.240662 0.240662
0.260895 0.243805 0.243896
0.285278 0.247406 0.247650
0.320160 0.251038 0.251526
0.365906 0.254547 0.255371
0.417480 0.257904 0.259125
0.467102 0.260986 0.262604
0.506378 0.263916 0.265808
0.544830 0.266510 0.268738
0.581635 0.268890 0.271423
0.612549 0.271088 0.273865
0.641541 0.273163 0.276123
0.665619 0.275024 0.278168
0.688568 0.276794 0.280121
0.710785 0.278534 0.282043
0.732513 0.280243 0.283997
0.243805 0.261536 0.243835
0.261200 0.261444 0.243805
0.286560 0.265625 0.247559
0.325226 0.270264 0.251373
0.378510 0.275391 0.255157
0.439850 0.279938 0.258881
0.490387 0.283051 0.262329
0.528656 0.285614 0.265564
0.564148 0.287811 0.268463
0.597260 0.289948 0.271149
0.623962 0.292206 0.273590
0.649445 0.294373 0.275818
0.672424 0.296387 0.277893
0.694855 0.298676 0.279877
0.716827 0.300720 0.281769
0.738678 0.302795 0.283661
0.247437 0.286346 0.247498
0.265320 0.286255 0.247467
0.288330 0.286804 0.247406
0.330627 0.293884 0.251190
0.392090 0.301819 0.254944
0.459900 0.306458 0.258636
0.512421 0.308960 0.262115
0.549652 0.311371 0.265289
0.582062 0.313660 0.268188
0.610779 0.316498 0.270874
0.635376 0.319580 0.273254
0.659027 0.322632 0.275452
0.681854 0.325256 0.277557
0.704193 0.327789 0.279480
0.726288 0.330505 0.281372
0.748413 0.333282 0.283264
0.252777 0.319489 0.251190
0.272003 0.319366 0.251099
0.298096 0.320282 0.251038
0.340149 0.322937 0.251038
0.410309 0.333130 0.254822
0.481018 0.337067 0.258362
0.531982 0.339905 0.261810
0.567383 0.344147 0.264984
0.597961 0.348236 0.267822
0.624451 0.352478 0.270447
0.648468 0.356232 0.272827
0.671997 0.360107 0.275024
0.694824 0.363403 0.277100
0.717255 0.366516 0.279083
0.739380 0.369476 0.280914
0.761353 0.372589 0.282806
0.263489 0.360657 0.255066
0.285156 0.360504 0.255005
0.312988 0.360901 0.254822
0.371643 0.366028 0.255188
0.437683 0.368713 0.255035
0.504211 0.373474 0.258148
0.551788 0.378937 0.261475
0.584442 0.385254 0.264587
0.613861 0.392059 0.267395
0.639679 0.398499 0.269989
0.663971 0.403320 0.272400
0.687469 0.407593 0.274567
0.709778 0.410034 0.276642
0.731842 0.412872 0.278564
0.754120 0.416840 0.280426
0.776245 0.420532 0.282288
0.283813 0.410950 0.261627
0.309113 0.410797 0.261536
0.339111 0.410309 0.260925
0.411835 0.414185 0.261017
0.481049 0.416077 0.259674
0.526093 0.414886 0.257996
0.569519 0.424347 0.261169
0.602173 0.435577 0.264191
0.631134 0.444672 0.266998
0.656769 0.452209 0.269562
0.680786 0.457397 0.271881
0.704193 0.461945 0.274109
0.726532 0.464813 0.276245
0.748566 0.467987 0.278320
0.770416 0.471130 0.280304
0.792053 0.474091 0.282166
0.324249 0.468109 0.271820
0.353607 0.467987 0.271729
0.385620 0.467499 0.270935
0.455566 0.468323 0.266998
0.518738 0.474823 0.264496
0.558685 0.476288 0.262024
0.586578 0.474182 0.260986
0.618073 0.486145 0.263916
0.647064 0.496704 0.266754
0.672272 0.504425 0.269440
0.695984 0.509399 0.271729
0.719086 0.513702 0.273956
0.741211 0.516846 0.276184
0.763062 0.520111 0.278442
0.784821 0.524078 0.280518
0.806641 0.528107 0.282562
0.368530 0.521942 0.277222
0.400146 0.521820 0.277100
0.432465 0.521515 0.276428
0.490875 0.524658 0.272766
0.547913 0.532898 0.269073
0.585266 0.537292 0.266571
0.610687 0.534271 0.264893
0.631134 0.531464 0.263977
0.659698 0.543396 0.266846
0.685486 0.553650 0.269653
0.709320 0.560303 0.272064
0.732330 0.565186 0.274567
0.754425 0.569000 0.276855
0.776306 0.573181 0.279205
0.798004 0.577972 0.281525
0.819733 0.583069 0.283691
0.407440 0.579529 0.281494
0.440277 0.579376 0.281372
0.471832 0.579163 0.281036
0.516998 0.581696 0.278015
0.571564 0.590088 0.274139
0.607239 0.595581 0.271759
0.631989 0.594513 0.269897
0.651245 0.589264 0.268219
0.670441 0.587372 0.267670
0.696106 0.598358 0.270691
0.720032 0.605682 0.273743
0.743073 0.611572 0.276550
0.765106 0.616150 0.279114
0.786865 0.620819 0.281586
0.808563 0.626373 0.284180
0.830017 0.631531 0.286682
0.437164 0.632019 0.286194
0.470520 0.631897 0.286102
0.501770 0.631714 0.285858
0.539398 0.633240 0.283691
0.586029 0.638763 0.280060
0.623108 0.643646 0.277740
0.646942 0.643097 0.275909
0.666992 0.639099 0.274048
0.685547 0.636536 0.273193
0.704132 0.636047 0.272858
0.727966 0.643951 0.276184
0.751129 0.650879 0.279327
0.773285 0.656036 0.282043
0.794922 0.661255 0.284637
0.816284 0.666260 0.287262
0.837494 0.671112 0.289886
0.457397 0.674255 0.291107
0.490906 0.674164 0.290985
0.521973 0.674011 0.290833
0.555481 0.674744 0.289215
0.596924 0.679016 0.285797
0.632568 0.683807 0.283417
0.657990 0.684509 0.281799
0.679718 0.682220 0.280121
0.697571 0.678131 0.279083
0.715973 0.676544 0.278534
0.734100 0.676392 0.278473
0.757050 0.683380 0.281708
0.779327 0.689453 0.284729
0.800873 0.694580 0.287415
0.822052 0.699677 0.290009
0.843079 0.704590 0.292664
0.472656 0.710815 0.295410
0.506165 0.710724 0.295288
0.537109 0.710632 0.295135
0.568787 0.711060 0.293762
0.605713 0.714417 0.290802
0.640320 0.719086 0.288544
0.665222 0.720245 0.287170
0.688507 0.719543 0.285797
0.707916 0.714966 0.284546
0.725861 0.712036 0.283844
0.744080 0.711761 0.283813
0.761780 0.711823 0.283844
0.783813 0.717743 0.286774
0.805359 0.723389 0.289581
0.826508 0.728729 0.292267
0.847412 0.733948 0.294891
0.484924 0.743683 0.299286
0.518341 0.743622 0.299133
0.549225 0.743530 0.299042
0.578491 0.743591 0.298279
0.612976 0.746277 0.295410
0.646271 0.750427 0.292877
0.671173 0.751770 0.291565
0.694611 0.751343 0.290344
0.715027 0.747284 0.289124
0.734528 0.744629 0.288452
0.752594 0.743744 0.288361
0.770325 0.743744 0.288391
0.787598 0.743652 0.288452
0.808960 0.749329 0.291229
0.830078 0.754761 0.293884
0.850983 0.760132 0.296539
0.495209 0.774048 0.303101
0.528625 0.773987 0.302948
0.559387 0.773926 0.302856
0.587708 0.773804 0.302368
0.618927 0.775208 0.299591
0.651276 0.779053 0.296814
0.676086 0.780579 0.295502
0.699921 0.780731 0.294342
0.720978 0.777313 0.293213
0.740753 0.774445 0.292542
0.760254 0.773315 0.292267
0.777954 0.773010 0.292328
0.795319 0.773010 0.292358
0.812073 0.773010 0.292389
0.832916 0.778442 0.295074
0.853699 0.783813 0.297699
0.504120 0.802460 0.306793
0.537476 0.802368 0.306671
0.568207 0.802338 0.306519
0.596069 0.802216 0.306213
0.625397 0.802551 0.303040
0.655334 0.805542 0.300507
0.680511 0.807404 0.299133
0.704590 0.807922 0.298035
0.726654 0.805969 0.296967
0.746399 0.802673 0.296295
0.765747 0.800903 0.295959
0.784515 0.800476 0.295807
0.802155 0.800323 0.295807
0.818970 0.800354 0.295868
0.835388 0.800598 0.295929
0.856018 0.805756 0.298553
0.511871 0.829254 0.310608
0.545074 0.829193 0.310455
0.575684 0.829132 0.310364
0.603271 0.829041 0.310120
0.631226 0.828857 0.306824
0.658844 0.830658 0.304016
0.684357 0.832642 0.302551
0.708801 0.833527 0.301483
0.731415 0.832581 0.300537
0.751678 0.829773 0.299896
0.770905 0.827423 0.299469
0.789795 0.826599 0.299286
0.808105 0.826508 0.299164
0.825317 0.826508 0.299164
0.841827 0.826721 0.299255
0.858063 0.826782 0.299316
0.243774 0.243805 0.261780
0.261261 0.243805 0.261780
0.284515 0.247406 0.266083
0.317780 0.251038 0.270508
0.359283 0.254578 0.275208
0.405884 0.257965 0.280945
0.457794 0.261108 0.286499
0.498962 0.263947 0.289459
0.539307 0.266571 0.291626
0.578491 0.268921 0.293884
0.611816 0.271088 0.296295
0.642670 0.273132 0.298553
0.668335 0.274994 0.300537
0.692322 0.276794 0.303101
0.714874 0.278534 0.305603
0.736694 0.280243 0.308044
0.243805 0.261536 0.261780
0.265411 0.265778 0.266052
0.291687 0.270050 0.270477
0.331024 0.274536 0.274994
0.382568 0.279572 0.280609
0.440643 0.283691 0.285187
0.490631 0.286926 0.289001
0.531250 0.289703 0.292145
0.569397 0.291992 0.295013
0.603729 0.294067 0.297760
0.633240 0.296295 0.300293
0.658997 0.298706 0.302734
0.682495 0.300964 0.305084
0.705231 0.303101 0.307434
0.727417 0.305054 0.309601
0.749298 0.307068 0.311798
0.247437 0.286499 0.265991
0.269745 0.292542 0.270386
0.294861 0.293549 0.270233
0.343506 0.301147 0.275208
0.405914 0.307953 0.280731
0.472656 0.311554 0.284363
0.520508 0.313690 0.287537
0.558105 0.316254 0.291046
0.590118 0.318848 0.293915
0.618927 0.321442 0.296783
0.644531 0.324310 0.299408
0.668579 0.326935 0.301941
0.691956 0.329956 0.304291
0.714752 0.332855 0.306458
0.736969 0.335480 0.308502
0.759125 0.338257 0.310608
0.252808 0.320679 0.270416
0.278046 0.328888 0.275360
0.303284 0.329956 0.274719
0.356873 0.334015 0.275848
0.436951 0.342926 0.281097
0.500854 0.345490 0.283966
0.545258 0.348297 0.286987
0.580292 0.352112 0.290558
0.608765 0.355835 0.293549
0.634705 0.360107 0.296356
0.658997 0.363678 0.298981
0.682678 0.366669 0.301483
0.705688 0.369415 0.303833
0.728241 0.372345 0.306000
0.750366 0.375153 0.308014
0.772461 0.378448 0.310059
0.263580 0.364532 0.277252
0.294189 0.376770 0.284973
0.320496 0.377625 0.283600
0.384003 0.381866 0.283417
0.462219 0.383087 0.282104
0.528442 0.389679 0.283752
0.568634 0.395081 0.286560
0.600220 0.401459 0.290283
0.626953 0.406647 0.293488
0.651947 0.411255 0.296509
0.675873 0.414337 0.299164
0.699219 0.417236 0.301758
0.722107 0.420258 0.304138
0.744507 0.423279 0.306335
0.766296 0.425903 0.308258
0.788177 0.429016 0.310303
0.283752 0.420166 0.289612
0.321686 0.436066 0.299866
0.351349 0.436310 0.298523
0.422607 0.437012 0.293762
0.501465 0.438721 0.289185
0.548523 0.440460 0.285095
0.589844 0.453400 0.287048
0.621155 0.462280 0.290192
0.646576 0.466614 0.293549
0.670898 0.470825 0.296722
0.694855 0.474701 0.299866
0.718048 0.477509 0.302826
0.740234 0.479218 0.305328
0.762085 0.481354 0.307739
0.783295 0.482758 0.309753
0.804596 0.484741 0.311798
0.318878 0.484070 0.306610
0.362732 0.502411 0.317291
0.395355 0.502045 0.315613
0.460052 0.499481 0.303436
0.534790 0.502777 0.295807
0.577240 0.508148 0.291718
0.605621 0.506683 0.288818
0.637329 0.517548 0.291229
0.663757 0.524231 0.294586
0.687439 0.527344 0.297913
0.710510 0.529694 0.300934
0.733551 0.532837 0.304169
0.755859 0.535522 0.307159
0.777679 0.538483 0.309906
0.799164 0.541473 0.312408
0.820557 0.544708 0.314850
0.357452 0.544281 0.317078
0.403778 0.565735 0.329254
0.436554 0.565216 0.326996
0.493347 0.561310 0.313232
0.559509 0.562225 0.302216
0.600006 0.568604 0.298431
0.626770 0.567535 0.295624
0.648560 0.563751 0.293396
0.676392 0.574493 0.296875
0.701324 0.580872 0.300476
0.724426 0.583771 0.303406
0.746948 0.586578 0.306396
0.769135 0.589935 0.309418
0.791046 0.593964 0.312408
0.812347 0.597382 0.315155
0.833649 0.601166 0.317841
0.395142 0.602081 0.323456
0.440735 0.622192 0.335571
0.472595 0.621735 0.333923
0.517853 0.616821 0.322601
0.577087 0.615967 0.309814
0.618103 0.621918 0.305847
0.644440 0.623138 0.303497
0.666290 0.619354 0.300659
0.685394 0.615875 0.299469
0.710907 0.624115 0.303406
0.735107 0.630310 0.307068
0.757690 0.634003 0.310059
0.779449 0.637329 0.312897
0.800934 0.640503 0.315704
0.822235 0.644836 0.318726
0.843445 0.649261 0.321686
0.425385 0.649109 0.327942
0.469116 0.666473 0.339050
0.499939 0.666138 0.338379
0.539368 0.662384 0.330017
0.588745 0.659943 0.317688
0.628998 0.664734 0.313202
0.656799 0.666992 0.310822
0.679504 0.665253 0.308502
0.698761 0.661133 0.306976
0.717621 0.659149 0.306305
0.742035 0.666901 0.310303
0.765564 0.673340 0.313934
0.787445 0.677063 0.316772
0.808716 0.680420 0.319489
0.829742 0.684448 0.322205
0.850739 0.688751 0.325165
0.446777 0.687744 0.332031
0.489899 0.703888 0.342804
0.520447 0.703766 0.342499
0.556244 0.701141 0.335999
0.598480 0.698700 0.324829
0.636475 0.702423 0.319733
0.664642 0.705200 0.317413
0.689941 0.704590 0.315277
0.709778 0.700470 0.313568
0.728546 0.697693 0.312805
0.747101 0.697266 0.312744
0.770508 0.703888 0.316406
0.792999 0.709534 0.319733
0.814606 0.714203 0.322632
0.835480 0.718414 0.325348
0.856079 0.722046 0.327911
0.464020 0.722168 0.336700
0.506714 0.737610 0.348145
0.537079 0.737518 0.347961
0.568726 0.736145 0.344086
0.606262 0.733063 0.332062
0.642181 0.735748 0.325775
0.670349 0.738342 0.322968
0.696136 0.738617 0.321045
0.718628 0.735321 0.319275
0.737732 0.732086 0.318390
0.756226 0.731201 0.318268
0.774384 0.731079 0.318237
0.796844 0.737091 0.321594
0.818726 0.742859 0.324768
0.839783 0.747772 0.327606
0.860413 0.751831 0.330231
0.477661 0.753998 0.341217
0.520416 0.768982 0.353455
0.550812 0.768890 0.353241
0.579590 0.768250 0.351471
0.613953 0.765106 0.339142
0.647034 0.766022 0.331329
0.675293 0.768402 0.328033
0.701355 0.769226 0.326080
0.724823 0.767273 0.324402
0.745544 0.764313 0.323364
0.764282 0.762482 0.322998
0.782440 0.762024 0.322968
0.799957 0.761932 0.323029
0.821686 0.767761 0.326172
0.842865 0.773193 0.329193
0.863678 0.778107 0.332092
0.489227 0.783234 0.346344
0.531555 0.797791 0.358673
0.561798 0.797729 0.358490
0.589661 0.797394 0.357483
0.620667 0.794769 0.346283
0.651459 0.794098 0.336853
0.679535 0.796082 0.332764
0.705750 0.797272 0.330750
0.729889 0.796356 0.329163
0.751251 0.794098 0.328094
0.770996 0.791809 0.327484
0.789612 0.790771 0.327362
0.807190 0.790466 0.327393
0.824219 0.790466 0.327423
0.845215 0.795837 0.330475
0.865997 0.801025 0.333435
0.498871 0.810699 0.351532
0.540771 0.824341 0.363861
0.570831 0.824280 0.363739
0.598419 0.824036 0.362701
0.627136 0.821960 0.352753
0.655457 0.820801 0.343048
0.683014 0.821686 0.337341
0.709595 0.822906 0.335083
0.734253 0.822906 0.333557
0.756317 0.821136 0.332489
0.776459 0.819031 0.331818
0.795593 0.817810 0.331512
0.813660 0.817200 0.331360
0.830627 0.817139 0.331390
0.847198 0.817139 0.331512
0.867828 0.822235 0.334534
0.507263 0.836609 0.356842
0.548584 0.849579 0.369293
0.578491 0.849518 0.369171
0.605652 0.849396 0.368134
0.632782 0.847565 0.359650
0.658752 0.845673 0.348663
0.686401 0.846130 0.342041
0.712952 0.847168 0.339294
0.738281 0.847900 0.337769
0.760803 0.846741 0.336670
0.781189 0.844818 0.335968
0.800476 0.843445 0.335602
0.819000 0.842621 0.335388
0.836517 0.842346 0.335327
0.853088 0.842255 0.335388
0.869476 0.842377 0.335449
0.247375 0.247406 0.286011
0.265320 0.247406 0.286011
0.284973 0.247406 0.286011
0.317261 0.251038 0.291687
0.355743 0.254547 0.298981
0.399719 0.257996 0.308441
0.447083 0.261200 0.317108
0.488342 0.264099 0.321564
0.529907 0.266663 0.324036
0.571198 0.269073 0.326111
0.607574 0.271149 0.328339
0.640839 0.273163 0.330353
0.669464 0.275024 0.332581
0.695770 0.276794 0.335083
0.719879 0.278595 0.338654
0.742676 0.280304 0.342590
0.247406 0.265686 0.286072
0.269470 0.269928 0.291656
0.290375 0.269867 0.291779
0.325562 0.274109 0.298157
0.371063 0.278961 0.306854
0.422974 0.283813 0.316223
0.475494 0.287842 0.322327
0.518738 0.290955 0.325073
0.559692 0.293335 0.327148
0.598236 0.295349 0.329132
0.631989 0.297180 0.331238
0.661377 0.299255 0.333893
0.687805 0.301605 0.337555
0.712067 0.303955 0.341339
0.734589 0.306305 0.345459
0.756897 0.308655 0.349670
0.247498 0.287231 0.286743
0.269928 0.293579 0.293396
0.297272 0.300293 0.301239
0.339661 0.307709 0.309479
0.402649 0.314423 0.319153
0.466736 0.318512 0.323639
0.515930 0.321655 0.326141
0.558411 0.324585 0.328430
0.594543 0.326752 0.330475
0.626892 0.328857 0.332886
0.655518 0.331970 0.337006
0.681335 0.335022 0.341125
0.705383 0.337952 0.344940
0.728638 0.340759 0.348694
0.751251 0.343536 0.352173
0.773712 0.346771 0.356171
0.253357 0.323029 0.296143
0.279144 0.332275 0.304657
0.310455 0.345612 0.315155
0.356049 0.349945 0.314087
0.446899 0.358765 0.321716
0.510223 0.359528 0.323517
0.553497 0.361938 0.325378
0.589844 0.365295 0.326813
0.619781 0.368652 0.329193
0.646790 0.371490 0.332123
0.671906 0.374664 0.336609
0.696045 0.377197 0.340393
0.719513 0.380463 0.343719
0.742279 0.383575 0.346863
0.764740 0.386810 0.349945
0.786835 0.389923 0.352936
0.264923 0.371552 0.310730
0.296661 0.386139 0.323425
0.335632 0.406921 0.339447
0.383057 0.411774 0.333252
0.469543 0.406250 0.321625
0.544556 0.415253 0.322113
0.584167 0.423920 0.325317
0.615814 0.427826 0.328522
0.642303 0.429291 0.331085
0.667450 0.431122 0.333801
0.691528 0.433655 0.337585
0.714874 0.435608 0.340851
0.737701 0.437775 0.343872
0.759888 0.439850 0.346710
0.781769 0.442261 0.349457
0.803406 0.444916 0.352264
0.288452 0.437134 0.336517
0.328918 0.458405 0.357208
0.374969 0.485626 0.378632
0.427063 0.486694 0.357941
0.508148 0.476837 0.332550
0.562988 0.476746 0.323090
0.607422 0.491821 0.325317
0.639587 0.498260 0.328949
0.664795 0.499298 0.333252
0.688843 0.499695 0.336548
0.712524 0.501648 0.340759
0.734924 0.501465 0.343903
0.756592 0.500824 0.346008
0.777954 0.501068 0.348114
0.799225 0.502411 0.350372
0.820312 0.504211 0.352661
0.324585 0.513519 0.370117
0.369415 0.537537 0.393372
0.415527 0.560242 0.412506
0.464630 0.557037 0.380432
0.538300 0.545685 0.344879
0.587952 0.544891 0.331909
0.620972 0.545807 0.327393
0.655273 0.555756 0.330109
0.681488 0.558136 0.334076
0.704956 0.558075 0.337860
0.728088 0.559387 0.342651
0.751221 0.562134 0.346985
0.773651 0.564453 0.350006
0.795013 0.565735 0.352112
0.816132 0.567413 0.354523
0.837067 0.569824 0.356903
0.357819 0.575897 0.389496
0.404053 0.597961 0.411469
0.449188 0.616547 0.428497
0.493164 0.612946 0.395599
0.556793 0.602814 0.357574
0.606842 0.600586 0.341614
0.637695 0.601929 0.336670
0.664612 0.601105 0.333008
0.692780 0.607330 0.336823
0.717987 0.611053 0.340881
0.741058 0.612854 0.345337
0.763794 0.615387 0.349243
0.785950 0.618042 0.353333
0.807648 0.621368 0.357239
0.828979 0.624786 0.360779
0.849854 0.627747 0.363281
0.388306 0.628601 0.398041
0.433685 0.646851 0.420380
0.475525 0.663605 0.441742
0.515869 0.659180 0.405396
0.571228 0.649750 0.368195
0.619080 0.647491 0.352081
0.650787 0.648834 0.346130
0.677826 0.648895 0.342377
0.699860 0.645721 0.339996
0.726257 0.652069 0.344147
0.750702 0.657532 0.349274
0.772980 0.659088 0.352783
0.794586 0.660980 0.356049
0.816132 0.664612 0.359802
0.837585 0.669189 0.364014
0.858734 0.674011 0.368286
0.411163 0.671356 0.404816
0.455536 0.687561 0.426331
0.497589 0.703766 0.446411
0.535522 0.699432 0.412079
0.583557 0.691101 0.378021
0.627014 0.688477 0.361755
0.660034 0.689697 0.354340
0.688751 0.690582 0.350311
0.711670 0.688019 0.347687
0.731628 0.684875 0.346436
0.756317 0.691071 0.351471
0.779907 0.696167 0.356018
0.801910 0.699493 0.359619
0.823090 0.702545 0.362701
0.843842 0.705627 0.365997
0.864532 0.709564 0.369873
0.432678 0.707703 0.406982
0.475891 0.723328 0.427490
0.516663 0.737366 0.444275
0.551544 0.733948 0.417847
0.594727 0.727234 0.387451
0.633667 0.724548 0.371429
0.666290 0.725189 0.362488
0.695740 0.726135 0.357697
0.721222 0.725037 0.354889
0.741486 0.722168 0.353668
0.760406 0.719940 0.353119
0.784119 0.725830 0.357819
0.806854 0.731354 0.362183
0.828278 0.735291 0.365692
0.848877 0.738312 0.368591
0.869141 0.741394 0.371307
0.450989 0.739319 0.405029
0.493988 0.753845 0.419952
0.534637 0.767517 0.438232
0.565155 0.765533 0.425537
0.604858 0.760223 0.396851
0.640228 0.757446 0.380737
0.671509 0.757141 0.370056
0.700897 0.758179 0.364777
0.727448 0.757935 0.361786
0.749725 0.755646 0.360168
0.768921 0.753418 0.359467
0.787292 0.752106 0.359222
0.809906 0.757660 0.363525
0.831787 0.762878 0.367645
0.852875 0.767487 0.371338
0.873138 0.770844 0.374237
0.466187 0.767670 0.402649
0.509277 0.781708 0.418274
0.549164 0.795166 0.434845
0.577820 0.794159 0.428864
0.613342 0.790192 0.406036
0.645691 0.787415 0.389893
0.676270 0.786346 0.377441
0.705231 0.787109 0.371185
0.732086 0.787476 0.368195
0.755371 0.785858 0.366394
0.776306 0.783630 0.365295
0.794739 0.782318 0.364990
0.812469 0.781586 0.364899
0.834137 0.786896 0.369019
0.855377 0.792145 0.373077
0.876068 0.796631 0.376831
0.479767 0.794739 0.405426
0.522766 0.808502 0.422394
0.561676 0.821594 0.438141
0.589386 0.820770 0.433136
0.620514 0.817719 0.415100
0.650848 0.814911 0.398834
0.680481 0.813477 0.384888
0.709167 0.813690 0.377472
0.736298 0.814484 0.374207
0.760132 0.813660 0.372437
0.781708 0.811859 0.371155
0.801392 0.810364 0.370544
0.819092 0.809326 0.370392
0.836121 0.808807 0.370361
0.857178 0.813995 0.374420
0.877869 0.818726 0.378448
0.491669 0.820526 0.411652
0.533905 0.833740 0.427917
0.572021 0.846832 0.444153
0.599365 0.846100 0.439850
0.627563 0.843506 0.424255
0.655518 0.841003 0.408081
0.683990 0.838837 0.392273
0.712799 0.838776 0.383636
0.740021 0.839508 0.379944
0.764435 0.839478 0.378143
0.786469 0.838562 0.376831
0.806366 0.836792 0.376190
0.825043 0.835327 0.375763
0.842194 0.834808 0.375732
0.858734 0.834473 0.375793
0.879303 0.839050 0.379791
0.501312 0.845215 0.418091
0.542419 0.857941 0.434082
0.579651 0.870300 0.449554
0.606445 0.869904 0.447021
0.632996 0.868011 0.434814
0.659698 0.865479 0.417511
0.687683 0.862946 0.400055
0.716095 0.862305 0.389404
0.743439 0.863007 0.385590
0.768127 0.863342 0.383636
0.790680 0.862976 0.382324
0.810913 0.861603 0.381561
0.829620 0.860046 0.381165
0.847473 0.859314 0.380951
0.864166 0.858887 0.380951
0.880554 0.858582 0.380951
0.250977 0.251038 0.316650
0.269318 0.251038 0.317078
0.290070 0.251038 0.317963
0.317963 0.251038 0.319061
0.356415 0.254547 0.328827
0.400543 0.257996 0.339142
0.447235 0.261292 0.350311
0.489899 0.264252 0.357269
0.531769 0.266846 0.360779
0.571350 0.269226 0.361542
0.607758 0.271301 0.364105
0.641937 0.273254 0.367401
0.671570 0.275146 0.371216
0.699280 0.277008 0.375610
0.724670 0.278839 0.381195
0.748627 0.280609 0.386932
0.251007 0.269989 0.319519
0.273529 0.274200 0.327515
0.295258 0.273926 0.328339
0.324860 0.273987 0.329926
0.369934 0.278717 0.339996
0.420197 0.283813 0.351166
0.473022 0.288422 0.361359
0.517517 0.291931 0.364807
0.558380 0.294617 0.365753
0.597321 0.296875 0.368317
0.632935 0.298950 0.371826
0.664856 0.301147 0.376190
0.693207 0.303406 0.381409
0.719025 0.305817 0.386993
0.742462 0.308411 0.394073
0.765564 0.311096 0.401398
0.251312 0.294006 0.323669
0.274506 0.300507 0.333435
0.300598 0.304077 0.343384
0.330414 0.302734 0.344269
0.388794 0.311554 0.357605
0.452728 0.319122 0.369232
0.505951 0.323883 0.372711
0.551666 0.327332 0.374512
0.591797 0.330231 0.377319
0.628754 0.332794 0.380951
0.661499 0.336029 0.385925
0.689728 0.339294 0.391022
0.715851 0.342621 0.398193
0.740082 0.346069 0.405396
0.763214 0.349579 0.412689
0.786072 0.353394 0.420380
0.253906 0.326385 0.331299
0.280396 0.336914 0.344604
0.311768 0.350525 0.363861
0.349884 0.363586 0.386322
0.425354 0.376801 0.403534
0.509949 0.379578 0.398285
0.559418 0.383301 0.397186
0.597443 0.386017 0.397278
0.632751 0.388824 0.399475
0.662231 0.390106 0.401855
0.691528 0.395020 0.408356
0.716888 0.398590 0.414246
0.741638 0.402954 0.421112
0.765228 0.407135 0.427307
0.787842 0.410492 0.432037
0.810516 0.415009 0.438202
0.267273 0.380920 0.359314
0.301025 0.397644 0.379852
0.343689 0.423218 0.410675
0.399780 0.464020 0.451813
0.464355 0.472473 0.437256
0.556641 0.470947 0.410156
0.600891 0.471344 0.407318
0.632812 0.468689 0.406464
0.661926 0.466980 0.407227
0.687500 0.465027 0.406158
0.712555 0.466248 0.410278
0.735809 0.466705 0.414551
0.758698 0.468445 0.419556
0.780914 0.470184 0.423645
0.802734 0.472748 0.426636
0.824280 0.475250 0.429352
0.295013 0.457123 0.405731
0.337036 0.478394 0.431061
0.384155 0.506470 0.459473
0.442596 0.549561 0.491394
0.497040 0.554901 0.458466
0.570618 0.538513 0.402924
0.622498 0.545319 0.401642
0.657318 0.546936 0.404877
0.684998 0.544617 0.410706
0.709351 0.540833 0.410400
0.732605 0.537323 0.410767
0.755096 0.536163 0.412598
0.776947 0.535248 0.415100
0.798157 0.535248 0.416718
0.819336 0.536469 0.419189
0.840485 0.538605 0.421783
0.331573 0.540436 0.453613
0.376099 0.558411 0.474915
0.421692 0.578766 0.496185
0.474091 0.606506 0.512360
0.526855 0.607849 0.468964
0.592346 0.594421 0.411804
0.628815 0.587250 0.394928
0.667969 0.594666 0.398956
0.698364 0.597534 0.406555
0.724243 0.599335 0.413452
0.748108 0.599182 0.418182
0.770660 0.599213 0.418579
0.792297 0.598785 0.420074
0.813477 0.599396 0.420593
0.834290 0.600586 0.421173
0.855225 0.603271 0.422852
0.361481 0.599915 0.480591
0.407318 0.616302 0.500122
