All_In_One/Enrich_Colormaster/colormanagement/luts/film_response/Earthy.3DL
#Created by: Adobe Photoshop Export Color Lookup Plugin
#Description: Earthy
0 33 66 99 132 165 198 231 264 297 330 363 396 429 462 495 528 561 594 627 660 693 726 759 792 825 858 891 924 957 990 1023
30 243 30
30 243 50
30 243 74
30 243 101
30 243 136
30 243 179
30 243 235
38 252 312
50 264 409
64 278 525
81 294 658
98 312 802
117 330 954
137 350 1112
156 370 1274
176 390 1437
196 409 1598
216 429 1756
234 448 1909
253 466 2058
271 485 2208
290 503 2361
308 522 2512
326 539 2656
343 556 2789
357 570 2907
369 582 3007
379 593 3088
387 600 3150
395 609 3217
408 621 3319
423 637 3447
32 257 32
32 257 52
32 257 75
32 257 103
32 257 137
32 257 181
32 257 236
38 264 312
50 276 409
64 290 525
81 307 658
98 324 802
117 343 954
137 362 1112
156 382 1274
176 402 1437
196 422 1598
216 441 1756
234 460 1909
253 479 2058
271 497 2208
290 515 2361
308 534 2512
326 552 2656
343 568 2789
357 583 2907
369 595 3007
379 605 3088
387 613 3150
395 621 3217
408 634 3319
423 649 3447
34 277 34
34 277 55
34 277 78
34 277 105
34 277 140
34 277 183
34 277 239
38 281 312
50 293 409
64 307 525
81 324 658
98 341 802
117 360 954
137 379 1112
156 399 1274
176 419 1437
196 439 1598
216 459 1756
234 477 1909
253 496 2058
271 514 2208
290 533 2361
308 551 2512
326 569 2656
343 586 2789
357 600 2907
369 612 3007
379 622 3088
387 630 3150
395 638 3217
408 651 3319
423 666 3447
38 307 38
38 307 58
38 307 81
38 307 109
38 307 143
38 307 187
38 307 242
38 307 312
50 319 409
64 334 525
81 350 658
98 368 802
117 386 954
137 406 1112
156 426 1274
176 446 1437
196 465 1598
216 485 1756
234 504 1909
253 522 2058
271 540 2208
290 559 2361
308 577 2512
326 595 2656
343 612 2789
357 626 2907
369 638 3007
379 648 3088
387 656 3150
395 664 3217
408 677 3319
423 693 3447
43 353 43
43 353 64
43 353 87
43 353 114
43 353 149
43 353 193
43 353 248
43 353 317
50 360 409
64 374 525
81 390 658
98 408 802
117 427 954
137 446 1112
156 466 1274
176 486 1437
196 506 1598
216 525 1756
234 544 1909
253 562 2058
271 580 2208
290 599 2361
308 618 2512
326 636 2656
343 652 2789
357 666 2907
369 679 3007
379 689 3088
387 696 3150
395 704 3217
408 717 3319
423 733 3447
51 420 51
51 420 72
51 420 95
51 420 123
51 420 157
51 420 201
51 420 256
51 420 325
51 420 411
64 433 525
81 449 658
98 467 802
117 486 954
137 505 1112
156 525 1274
176 545 1437
196 564 1598
216 584 1756
234 603 1909
253 621 2058
271 640 2208
290 658 2361
308 677 2512
326 695 2656
343 711 2789
357 725 2907
369 738 3007
379 748 3088
387 755 3150
395 764 3217
408 776 3319
423 792 3447
63 513 63
63 513 84
63 513 107
63 513 134
63 513 169
63 513 212
63 513 268
63 513 337
63 513 422
64 515 525
81 531 658
98 549 802
117 567 954
137 587 1112
156 607 1274
176 627 1437
196 647 1598
216 666 1756
234 685 1909
253 703 2058
271 721 2208
290 740 2361
308 759 2512
326 777 2656
343 793 2789
357 808 2907
369 819 3007
379 830 3088
387 837 3150
395 846 3217
408 858 3319
423 874 3447
78 633 78
78 633 98
78 633 121
78 633 149
78 633 184
78 633 227
78 633 282
78 633 352
78 633 437
78 633 539
81 636 658
98 654 802
117 673 954
137 692 1112
156 712 1274
176 732 1437
196 752 1598
216 771 1756
234 790 1909
253 808 2058
271 826 2208
290 845 2361
308 864 2512
326 881 2656
343 898 2789
357 912 2907
369 924 3007
379 935 3088
387 942 3150
395 950 3217
408 963 3319
423 978 3447
95 771 95
95 771 115
95 771 138
95 771 166
95 771 200
95 771 244
95 771 299
95 771 368
95 771 454
95 771 556
95 771 671
98 775 802
117 794 954
137 813 1112
156 833 1274
176 853 1437
196 873 1598
216 892 1756
234 911 1909
253 929 2058
271 948 2208
290 966 2361
308 985 2512
326 1003 2656
343 1019 2789
357 1033 2907
369 1045 3007
379 1056 3088
387 1063 3150
395 1072 3217
408 1084 3319
423 1099 3447
113 919 113
113 919 133
113 919 157
113 919 184
113 919 219
113 919 262
113 919 318
113 919 387
113 919 472
113 919 574
113 919 690
113 919 816
117 924 954
137 943 1112
156 963 1274
176 983 1437
196 1003 1598
216 1022 1756
234 1041 1909
253 1059 2058
271 1078 2208
290 1096 2361
308 1115 2512
326 1132 2656
343 1149 2789
357 1163 2907
369 1176 3007
379 1185 3088
387 1193 3150
395 1201 3217
408 1214 3319
423 1229 3447
131 1070 131
131 1070 152
131 1070 175
131 1070 203
131 1070 237
131 1070 281
131 1070 336
131 1070 405
131 1070 490
131 1070 592
131 1070 708
131 1070 835
131 1070 968
137 1075 1112
156 1095 1274
176 1115 1437
196 1135 1598
216 1154 1756
234 1173 1909
253 1191 2058
271 1210 2208
290 1228 2361
308 1247 2512
326 1265 2656
343 1281 2789
357 1296 2907
369 1308 3007
379 1318 3088
387 1325 3150
395 1333 3217
408 1346 3319
423 1362 3447
149 1215 149
149 1215 170
149 1215 193
149 1215 220
149 1215 255
149 1215 299
149 1215 354
149 1215 423
149 1215 508
149 1215 610
149 1215 726
149 1215 853
149 1215 986
149 1215 1125
156 1222 1274
176 1242 1437
196 1262 1598
216 1281 1756
234 1300 1909
253 1319 2058
271 1337 2208
290 1356 2361
308 1374 2512
326 1392 2656
343 1408 2789
357 1423 2907
369 1435 3007
379 1445 3088
387 1453 3150
395 1461 3217
408 1473 3319
423 1489 3447
166 1350 166
166 1350 187
166 1350 209
166 1350 237
166 1350 272
166 1350 315
166 1350 371
166 1350 440
166 1350 525
166 1350 627
166 1350 743
166 1350 869
166 1350 1003
166 1350 1142
166 1350 1283
176 1361 1437
196 1380 1598
216 1400 1756
234 1419 1909
253 1437 2058
271 1456 2208
290 1475 2361
308 1493 2512
326 1511 2656
343 1527 2789
357 1541 2907
369 1554 3007
379 1564 3088
387 1571 3150
395 1579 3217
408 1592 3319
423 1607 3447
181 1478 181
181 1478 202
181 1478 225
181 1478 253
181 1478 287
181 1478 331
181 1478 386
181 1478 455
181 1478 540
181 1478 642
181 1478 758
181 1478 885
181 1478 1019
181 1478 1157
181 1478 1299
181 1478 1442
196 1493 1598
216 1512 1756
234 1531 1909
253 1549 2058
271 1568 2208
290 1586 2361
308 1605 2512
326 1623 2656
343 1639 2789
357 1654 2907
369 1666 3007
379 1675 3088
387 1683 3150
395 1692 3217
408 1704 3319
423 1720 3447
197 1601 197
197 1601 217
197 1601 240
197 1601 268
197 1601 303
197 1601 346
197 1601 401
197 1601 471
197 1601 555
197 1601 658
197 1601 773
197 1601 900
197 1601 1034
197 1601 1172
197 1601 1314
197 1601 1457
197 1601 1599
216 1620 1756
234 1638 1909
253 1657 2058
271 1675 2208
290 1694 2361
308 1712 2512
326 1730 2656
343 1747 2789
357 1761 2907
369 1773 3007
379 1783 3088
387 1791 3150
395 1799 3217
408 1812 3319
423 1827 3447
211 1721 211
211 1721 232
211 1721 255
211 1721 282
211 1721 317
211 1721 361
211 1721 416
211 1721 485
211 1721 570
211 1721 672
211 1721 788
211 1721 915
211 1721 1048
211 1721 1187
211 1721 1329
211 1721 1472
211 1721 1613
216 1725 1756
234 1744 1909
253 1763 2058
271 1781 2208
290 1800 2361
308 1818 2512
326 1836 2656
343 1853 2789
357 1867 2907
369 1880 3007
379 1889 3088
387 1897 3150
395 1905 3217
408 1918 3319
423 1934 3447
226 1843 226
226 1843 247
226 1843 270
226 1843 298
226 1843 332
226 1843 376
226 1843 431
226 1843 500
226 1843 585
226 1843 687
226 1843 803
226 1843 930
226 1843 1063
226 1843 1202
226 1843 1344
226 1843 1487
226 1843 1628
226 1843 1767
234 1851 1909
253 1869 2058
271 1888 2208
290 1906 2361
308 1925 2512
326 1942 2656
343 1959 2789
357 1974 2907
369 1986 3007
379 1996 3088
387 2003 3150
395 2012 3217
408 2024 3319
423 2040 3447
241 1965 241
241 1965 262
241 1965 285
241 1965 312
241 1965 347
241 1965 391
241 1965 446
241 1965 515
241 1965 600
241 1965 702
241 1965 818
241 1965 944
241 1965 1078
241 1965 1217
241 1965 1359
241 1965 1502
241 1965 1643
241 1965 1782
241 1965 1916
253 1976 2058
271 1995 2208
290 2014 2361
308 2032 2512
326 2050 2656
343 2066 2789
357 2081 2907
369 2093 3007
379 2103 3088
387 2110 3150
395 2118 3217
408 2131 3319
423 2147 3447
256 2087 256
256 2087 277
256 2087 300
256 2087 327
256 2087 362
256 2087 406
256 2087 461
256 2087 530
256 2087 615
256 2087 717
256 2087 833
256 2087 960
256 2087 1093
256 2087 1232
256 2087 1374
256 2087 1517
256 2087 1658
256 2087 1797
256 2087 1930
256 2087 2062
271 2102 2208
290 2121 2361
308 2140 2512
326 2157 2656
343 2174 2789
357 2188 2907
369 2200 3007
379 2210 3088
387 2218 3150
395 2226 3217
408 2239 3319
423 2255 3447
271 2210 271
271 2210 292
271 2210 315
271 2210 343
271 2210 378
271 2210 421
271 2210 476
271 2210 545
271 2210 630
271 2210 733
271 2210 848
271 2210 975
271 2210 1108
271 2210 1247
271 2210 1389
271 2210 1532
271 2210 1673
271 2210 1812
271 2210 1946
271 2210 2077
271 2210 2209
290 2229 2361
308 2247 2512
326 2265 2656
343 2281 2789
357 2296 2907
369 2308 3007
379 2318 3088
387 2326 3150
395 2334 3217
408 2347 3319
423 2363 3447
287 2334 287
287 2334 307
287 2334 331
287 2334 358
287 2334 393
287 2334 436
287 2334 492
287 2334 560
287 2334 645
287 2334 747
287 2334 863
287 2334 990
287 2334 1124
287 2334 1263
287 2334 1404
287 2334 1547
287 2334 1688
287 2334 1827
287 2334 1961
287 2334 2092
287 2334 2224
290 2337 2361
308 2355 2512
326 2373 2656
343 2389 2789
357 2404 2907
369 2417 3007
379 2426 3088
387 2434 3150
395 2442 3217
408 2455 3319
423 2470 3447
302 2457 302
302 2457 322
302 2457 345
302 2457 373
302 2457 407
302 2457 451
302 2457 506
302 2457 575
302 2457 660
302 2457 763
302 2457 878
302 2457 1005
302 2457 1139
302 2457 1278
302 2457 1419
302 2457 1562
302 2457 1704
302 2457 1842
302 2457 1976
302 2457 2107
302 2457 2239
302 2457 2372
308 2464 2512
326 2481 2656
343 2498 2789
357 2512 2907
369 2524 3007
379 2534 3088
387 2542 3150
395 2550 3217
408 2562 3319
423 2578 3447
317 2579 317
317 2579 337
317 2579 360
317 2579 388
317 2579 423
317 2579 466
317 2579 522
317 2579 591
317 2579 676
317 2579 778
317 2579 893
317 2579 1020
317 2579 1153
317 2579 1293
317 2579 1434
317 2579 1577
317 2579 1718
317 2579 1857
317 2579 1991
317 2579 2122
317 2579 2254
317 2579 2387
317 2579 2520
326 2589 2656
343 2605 2789
357 2619 2907
369 2632 3007
379 2642 3088
387 2649 3150
395 2657 3217
408 2670 3319
423 2686 3447
332 2701 332
332 2701 353
332 2701 376
332 2701 403
332 2701 438
332 2701 481
332 2701 536
332 2701 605
332 2701 691
332 2701 793
332 2701 908
332 2701 1035
332 2701 1169
332 2701 1308
332 2701 1449
332 2701 1592
332 2701 1734
332 2701 1872
332 2701 2006
332 2701 2137
332 2701 2269
332 2701 2403
332 2701 2535
332 2701 2662
343 2712 2789
357 2726 2907
369 2739 3007
379 2749 3088
387 2756 3150
395 2765 3217
408 2777 3319
423 2793 3447
347 2822 347
347 2822 367
347 2822 390
347 2822 418
347 2822 452
347 2822 496
347 2822 551
347 2822 620
347 2822 706
347 2822 808
347 2822 923
347 2822 1050
347 2822 1184
347 2822 1323
347 2822 1464
347 2822 1607
347 2822 1748
347 2822 1887
347 2822 2021
347 2822 2152
347 2822 2284
347 2822 2417
347 2822 2550
347 2822 2676
347 2822 2793
357 2833 2907
369 2845 3007
379 2855 3088
387 2863 3150
395 2871 3217
408 2884 3319
423 2899 3447
361 2942 361
361 2942 382
361 2942 405
361 2942 433
361 2942 467
361 2942 511
361 2942 566
361 2942 635
361 2942 720
361 2942 822
361 2942 938
361 2942 1064
361 2942 1198
361 2942 1337
361 2942 1479
361 2942 1621
361 2942 1763
361 2942 1901
361 2942 2036
361 2942 2167
361 2942 2298
361 2942 2432
361 2942 2565
361 2942 2691
361 2942 2808
361 2942 2911
369 2951 3007
379 2960 3088
387 2968 3150
395 2976 3217
408 2989 3319
423 3004 3447
376 3061 376
376 3061 397
376 3061 420
376 3061 447
376 3061 482
376 3061 525
376 3061 580
376 3061 650
376 3061 735
376 3061 837
376 3061 953
376 3061 1079
376 3061 1213
376 3061 1352
376 3061 1494
376 3061 1636
376 3061 1778
376 3061 1916
376 3061 2050
376 3061 2181
376 3061 2313
376 3061 2447
376 3061 2579
376 3061 2706
376 3061 2823
376 3061 2926
376 3061 3014
379 3065 3088
387 3072 3150
395 3081 3217
408 3093 3319
423 3109 3447
390 3179 390
390 3179 411
390 3179 434
390 3179 462
390 3179 496
390 3179 540
390 3179 595
390 3179 664
390 3179 749
390 3179 851
390 3179 967
390 3179 1094
390 3179 1227
390 3179 1366
390 3179 1508
390 3179 1651
390 3179 1792
390 3179 1931
390 3179 2065
390 3179 2196
390 3179 2328
390 3179 2461
390 3179 2594
390 3179 2721
390 3179 2837
390 3179 2940
390 3179 3028
390 3179 3099
390 3179 3154
395 3184 3217
408 3196 3319
423 3212 3447
405 3297 405
405 3297 425
405 3297 449
405 3297 476
