All_In_One/Enrich_Colormaster/colormanagement/luts/film_response/Edgy.3DL
#Created by: Adobe Photoshop Export Color Lookup Plugin
#Description: Edgy
0 33 66 99 132 165 198 231 264 297 330 363 396 429 462 495 528 561 594 627 660 693 726 759 792 825 858 891 924 957 990 1023
514 514 514
514 514 514
514 514 515
515 515 515
515 515 515
515 515 515
515 515 515
515 515 514
515 515 513
515 515 514
515 515 520
515 515 533
514 514 555
514 514 589
514 514 637
513 513 703
513 513 788
514 514 895
516 516 1026
519 519 1184
525 525 1365
533 533 1561
543 543 1768
556 556 1977
572 572 2181
593 593 2373
617 617 2547
645 645 2698
679 679 2827
717 717 2936
761 761 3028
811 811 3106
514 514 514
514 514 514
514 515 515
515 515 515
515 515 515
515 515 515
515 515 515
515 515 514
515 515 513
515 515 514
515 515 520
515 514 533
514 514 555
514 514 589
514 513 637
513 513 703
513 514 788
514 516 895
516 519 1026
519 524 1184
525 532 1365
533 542 1561
543 555 1768
556 571 1977
572 591 2181
593 615 2373
617 643 2547
645 676 2698
679 714 2827
717 757 2936
761 806 3028
811 862 3106
514 515 514
514 515 515
514 515 515
515 515 515
515 515 515
515 515 515
515 515 515
515 515 514
515 515 513
515 515 514
515 514 520
515 514 533
514 514 555
514 513 589
514 513 637
513 514 703
513 515 788
514 519 895
516 524 1026
519 531 1184
525 541 1365
533 553 1561
543 569 1768
556 589 1977
572 612 2181
593 640 2373
617 672 2547
645 710 2698
679 753 2827
717 801 2936
761 856 3028
811 918 3106
515 515 515
515 515 515
515 515 515
515 515 515
515 515 515
515 515 515
515 515 515
515 515 514
515 515 513
515 515 514
515 514 520
515 514 533
514 513 555
514 513 589
514 514 637
513 515 703
513 518 788
514 523 895
516 530 1026
519 540 1184
525 552 1365
533 568 1561
543 587 1768
556 610 1977
572 637 2181
593 669 2373
617 706 2547
645 749 2698
679 797 2827
717 851 2936
761 912 3028
811 979 3106
515 515 515
515 515 515
515 515 515
515 515 515
515 515 515
515 515 515
515 515 515
515 515 514
515 515 513
515 514 514
515 514 520
515 513 533
514 513 555
514 514 589
514 515 637
513 518 703
513 523 788
514 529 895
516 539 1026
519 551 1184
525 566 1365
533 585 1561
543 608 1768
556 635 1977
572 666 2181
593 703 2373
617 745 2547
645 792 2698
679 846 2827
717 906 2936
761 973 3028
811 1047 3106
515 515 515
515 515 515
515 515 515
515 515 515
515 515 515
515 515 515
515 515 515
515 515 514
515 514 513
515 514 514
515 513 520
515 513 533
514 513 555
514 515 589
514 518 637
513 522 703
513 529 788
514 538 895
516 550 1026
519 565 1184
525 583 1365
533 605 1561
543 632 1768
556 663 1977
572 699 2181
593 741 2373
617 788 2547
645 841 2698
679 900 2827
717 966 2936
761 1040 3028
811 1121 3106
515 515 515
515 515 515
515 515 515
515 515 515
515 515 515
515 515 515
515 515 515
515 514 514
515 514 513
515 513 514
515 513 520
515 513 533
514 515 555
514 517 589
514 522 637
513 528 703
513 537 788
514 548 895
516 563 1026
519 581 1184
525 603 1365
533 629 1561
543 660 1768
556 696 1977
572 737 2181
593 783 2373
617 835 2547
645 894 2698
679 960 2827
717 1032 2936
761 1113 3028
811 1200 3106
515 514 515
515 514 515
515 514 515
515 514 515
515 514 515
515 514 515
515 514 514
515 514 514
515 513 513
515 513 514
515 513 520
515 515 533
514 517 555
514 521 589
514 527 637
513 536 703
513 547 788
514 562 895
516 579 1026
519 601 1184
525 627 1365
533 657 1561
543 692 1768
556 733 1977
572 779 2181
593 831 2373
617 889 2547
645 954 2698
679 1026 2827
717 1105 2936
761 1192 3028
811 1285 3106
515 513 515
515 513 515
515 513 515
515 513 515
515 513 515
515 513 514
515 513 514
515 513 513
515 513 513
515 513 514
515 514 520
515 517 533
514 521 555
514 527 589
514 535 637
513 546 703
513 560 788
514 578 895
516 599 1026
519 624 1184
525 654 1365
533 689 1561
543 729 1768
556 774 1977
572 826 2181
593 883 2373
617 948 2547
645 1019 2698
679 1097 2827
717 1184 2936
761 1276 3028
811 1374 3106
515 514 515
515 514 515
515 514 515
515 514 515
515 514 514
515 514 514
515 514 513
515 514 513
515 514 513
515 514 514
515 516 520
515 520 533
514 526 555
514 534 589
514 545 637
513 559 703
513 576 788
514 597 895
516 622 1026
519 651 1184
525 685 1365
533 725 1561
543 770 1768
556 821 1977
572 878 2181
593 942 2373
617 1012 2547
645 1090 2698
679 1176 2827
717 1267 2936
761 1364 3028
811 1466 3106
515 520 515
515 520 515
515 520 514
515 520 514
515 520 514
515 520 513
515 520 513
515 520 513
515 520 514
515 520 516
515 520 520
515 526 533
514 533 555
514 544 589
514 557 637
513 574 703
513 595 788
514 619 895
516 648 1026
519 682 1184
525 721 1365
533 765 1561
543 816 1768
556 872 1977
572 936 2181
593 1005 2373
617 1082 2547
645 1167 2698
679 1259 2827
717 1355 2936
761 1456 3028
811 1561 3106
515 533 515
515 533 514
515 533 514
515 533 514
515 533 513
515 533 513
515 533 513
515 533 515
515 533 517
515 533 520
515 533 526
515 533 533
514 543 555
514 556 589
514 572 637
513 593 703
513 617 788
514 645 895
516 679 1026
519 717 1184
525 761 1365
533 811 1561
543 867 1768
556 930 1977
572 999 2181
593 1075 2373
617 1159 2547
645 1250 2698
679 1346 2827
717 1447 2936
761 1552 3028
811 1659 3106
514 555 514
514 555 514
514 555 514
514 555 513
514 555 513
514 555 513
514 555 515
514 555 517
514 555 521
514 555 526
514 555 533
514 555 543
514 555 555
514 571 589
514 591 637
513 615 703
513 643 788
514 676 895
516 714 1026
519 757 1184
525 806 1365
533 861 1561
543 923 1768
556 992 1977
572 1068 2181
593 1152 2373
617 1241 2547
645 1337 2698
679 1438 2827
717 1542 2936
761 1649 3028
811 1758 3106
514 589 514
514 589 514
514 589 513
514 589 513
514 589 514
514 589 515
514 589 517
514 589 521
514 589 527
514 589 534
514 589 544
514 589 556
514 589 571
514 589 589
514 612 637
513 640 703
513 672 788
514 710 895
516 753 1026
519 801 1184
525 856 1365
533 918 1561
543 985 1768
556 1061 1977
572 1144 2181
593 1233 2373
617 1328 2547
645 1428 2698
679 1533 2827
717 1639 2936
761 1748 3028
811 1858 3106
514 637 514
514 637 513
514 637 513
514 637 514
514 637 515
514 637 518
514 637 522
514 637 527
514 637 535
514 637 545
514 637 557
514 637 572
514 637 591
514 637 612
514 637 637
513 669 703
513 706 788
514 749 895
516 797 1026
519 851 1184
525 912 1365
533 979 1561
543 1053 1768
556 1136 1977
572 1224 2181
593 1320 2373
617 1419 2547
645 1523 2698
679 1630 2827
717 1738 2936
761 1847 3028
811 1957 3106
513 703 513
513 703 513
513 703 514
513 703 515
513 703 518
513 703 522
513 703 528
513 703 536
513 703 546
513 703 559
513 703 574
513 703 593
513 703 615
513 703 640
513 703 669
513 703 703
513 745 788
514 792 895
516 846 1026
519 906 1184
525 973 1365
533 1047 1561
543 1128 1768
556 1216 1977
572 1311 2181
593 1411 2373
617 1513 2547
645 1619 2698
679 1728 2827
717 1838 2936
761 1947 3028
811 2055 3106
513 788 513
513 788 514
513 788 515
513 788 518
513 788 523
513 788 529
513 788 537
513 788 547
513 788 560
513 788 576
513 788 595
513 788 617
513 788 643
513 788 672
513 788 706
513 788 745
513 788 788
514 841 895
516 900 1026
519 966 1184
525 1040 1365
533 1120 1561
543 1208 1768
556 1302 1977
572 1401 2181
593 1504 2373
617 1610 2547
645 1718 2698
679 1828 2827
717 1937 2936
761 2046 3028
811 2152 3106
514 895 514
514 895 516
514 895 519
514 895 523
514 895 529
514 895 538
514 895 548
514 895 562
514 895 578
514 895 597
514 895 619
514 895 645
514 895 676
514 895 710
514 895 749
514 895 792
514 895 841
514 895 895
516 960 1026
519 1033 1184
525 1113 1365
533 1200 1561
543 1293 1768
556 1392 1977
572 1494 2181
593 1600 2373
617 1708 2547
645 1818 2698
679 1927 2827
717 2036 2936
761 2143 3028
811 2246 3106
516 1026 516
516 1026 519
516 1026 524
516 1026 530
516 1026 539
516 1026 550
516 1026 563
516 1026 579
516 1026 599
516 1026 622
516 1026 648
516 1026 679
516 1026 714
516 1026 753
516 1026 797
516 1026 846
516 1026 900
516 1026 960
516 1026 1026
519 1105 1184
525 1192 1365
533 1284 1561
543 1382 1768
556 1485 1977
572 1590 2181
593 1699 2373
617 1808 2547
645 1917 2698
679 2026 2827
717 2133 2936
761 2237 3028
811 2338 3106
519 1184 519
519 1184 524
519 1184 531
519 1184 540
519 1184 551
519 1184 565
519 1184 581
519 1184 601
519 1184 624
519 1184 651
519 1184 682
519 1184 717
519 1184 757
519 1184 801
519 1184 851
519 1184 906
519 1184 966
519 1184 1033
519 1184 1105
519 1184 1184
525 1276 1365
533 1373 1561
543 1475 1768
556 1581 1977
572 1689 2181
593 1798 2373
617 1907 2547
645 2016 2698
679 2123 2827
717 2228 2936
761 2329 3028
811 2426 3106
525 1365 525
525 1365 532
525 1365 541
525 1365 552
525 1365 566
525 1365 583
525 1365 603
525 1365 627
525 1365 654
525 1365 685
525 1365 721
525 1365 761
525 1365 806
525 1365 856
525 1365 912
525 1365 973
525 1365 1040
525 1365 1113
525 1365 1192
525 1365 1276
525 1365 1365
533 1466 1561
543 1571 1768
556 1679 1977
572 1787 2181
593 1897 2373
617 2006 2547
645 2114 2698
679 2219 2827
717 2320 2936
761 2417 3028
811 2509 3106
533 1561 533
533 1561 542
533 1561 553
533 1561 568
533 1561 585
533 1561 605
533 1561 629
533 1561 657
533 1561 689
533 1561 725
533 1561 765
533 1561 811
533 1561 861
533 1561 918
533 1561 979
533 1561 1047
533 1561 1120
533 1561 1200
533 1561 1284
533 1561 1373
533 1561 1466
533 1561 1561
543 1669 1768
556 1778 1977
572 1887 2181
593 1997 2373
617 2104 2547
645 2209 2698
679 2311 2827
717 2408 2936
761 2500 3028
811 2586 3106
543 1768 543
543 1768 555
543 1768 569
543 1768 587
543 1768 608
543 1768 632
543 1768 660
543 1768 692
543 1768 729
543 1768 770
543 1768 816
543 1768 867
543 1768 923
543 1768 985
543 1768 1053
543 1768 1128
543 1768 1208
543 1768 1293
543 1768 1382
543 1768 1475
543 1768 1571
543 1768 1669
543 1768 1768
556 1878 1977
572 1987 2181
593 2094 2373
617 2200 2547
645 2302 2698
679 2399 2827
717 2492 2936
761 2578 3028
811 2658 3106
556 1977 556
556 1977 571
556 1977 589
556 1977 610
556 1977 635
556 1977 663
556 1977 696
556 1977 733
556 1977 774
556 1977 821
556 1977 872
556 1977 930
556 1977 992
556 1977 1061
556 1977 1136
556 1977 1216
556 1977 1302
556 1977 1392
556 1977 1485
556 1977 1581
556 1977 1679
556 1977 1778
556 1977 1878
556 1977 1977
572 2084 2181
593 2190 2373
617 2292 2547
645 2391 2698
679 2484 2827
717 2570 2936
761 2650 3028
811 2724 3106
572 2181 572
572 2181 591
572 2181 612
572 2181 637
572 2181 666
572 2181 699
572 2181 737
572 2181 779
572 2181 826
572 2181 878
572 2181 936
572 2181 999
572 2181 1068
572 2181 1144
572 2181 1224
572 2181 1311
572 2181 1401
572 2181 1494
572 2181 1590
572 2181 1689
572 2181 1787
572 2181 1887
572 2181 1987
572 2181 2084
572 2181 2181
593 2283 2373
617 2382 2547
645 2476 2698
679 2563 2827
717 2644 2936
761 2718 3028
811 2786 3106
593 2373 593
593 2373 615
593 2373 640
593 2373 669
593 2373 703
593 2373 741
593 2373 783
593 2373 831
593 2373 883
593 2373 942
593 2373 1005
593 2373 1075
593 2373 1152
593 2373 1233
593 2373 1320
593 2373 1411
593 2373 1504
593 2373 1600
593 2373 1699
593 2373 1798
593 2373 1897
593 2373 1997
593 2373 2094
593 2373 2190
593 2373 2283
593 2373 2373
617 2467 2547
645 2555 2698
679 2636 2827
717 2711 2936
761 2780 3028
811 2843 3106
617 2547 617
617 2547 643
617 2547 672
617 2547 706
617 2547 745
617 2547 788
617 2547 835
617 2547 889
617 2547 948
617 2547 1012
617 2547 1082
617 2547 1159
617 2547 1241
617 2547 1328
617 2547 1419
617 2547 1513
617 2547 1610
617 2547 1708
617 2547 1808
617 2547 1907
617 2547 2006
617 2547 2104
617 2547 2200
617 2547 2292
617 2547 2382
617 2547 2467
617 2547 2547
645 2629 2698
679 2705 2827
717 2774 2936
761 2838 3028
811 2896 3106
645 2698 645
645 2698 676
645 2698 710
645 2698 749
645 2698 792
645 2698 841
645 2698 894
645 2698 954
645 2698 1019
645 2698 1090
645 2698 1167
645 2698 1250
645 2698 1337
645 2698 1428
645 2698 1523
645 2698 1619
645 2698 1718
645 2698 1818
645 2698 1917
645 2698 2016
645 2698 2114
645 2698 2209
645 2698 2302
645 2698 2391
645 2698 2476
645 2698 2555
645 2698 2629
645 2698 2698
679 2768 2827
717 2832 2936
761 2891 3028
811 2946 3106
679 2827 679
679 2827 714
679 2827 753
679 2827 797
