All_In_One/Enrich_Colormaster/colormanagement/luts/film_response/F-8700.cube
# Copyright: (C) Copyright 2016 by IWLTBAP
# Cannot be resold, shared or otherwise redistributed
# Website: http://luts.iwltbap.com
TITLE "IWLTBAP 8700 (LOG)"
LUT_3D_SIZE 8
DOMAIN_MIN 0.000000 0.000000 0.000000
DOMAIN_MAX 0.903226 0.903226 0.903226
0.036011 0.041229 0.046570
0.068147 0.052425 0.051727
0.152700 0.065586 0.051246
0.263797 0.075288 0.047572
0.401929 0.088005 0.059155
0.569357 0.106712 0.073671
0.711107 0.125372 0.088827
0.805908 0.142379 0.101503
0.043235 0.083867 0.057766
0.072296 0.091754 0.058147
0.181185 0.098020 0.053581
0.303208 0.111098 0.053283
0.451694 0.126506 0.068108
0.617653 0.147791 0.083636
0.743078 0.169823 0.098308
0.825113 0.190149 0.110191
0.048833 0.133962 0.062463
0.073344 0.153776 0.064586
0.207488 0.145609 0.057795
0.363393 0.155957 0.065512
0.529194 0.177386 0.081357
0.684094 0.206726 0.098448
0.799882 0.249342 0.104556
0.882847 0.288492 0.097420
0.052759 0.199575 0.065531
0.075533 0.218521 0.066663
0.202255 0.256225 0.063706
0.434866 0.220717 0.072012
0.614853 0.243679 0.096103
0.759202 0.285769 0.103994
0.855748 0.328845 0.099378
0.920492 0.374576 0.092422
0.059834 0.279303 0.076469
0.083474 0.310176 0.077140
0.217221 0.360686 0.074208
0.474839 0.422562 0.098730
0.704526 0.343835 0.087663
0.818757 0.372328 0.098094
0.889978 0.419342 0.093096
0.946276 0.472914 0.093176
0.071450 0.373546 0.089167
0.096023 0.413485 0.088666
0.265076 0.478774 0.084620
0.525210 0.565509 0.100150
0.701769 0.616468 0.119860
0.835978 0.533486 0.098741
0.903660 0.549702 0.102002
0.957453 0.585999 0.112307
0.084907 0.472198 0.101516
0.112466 0.519846 0.100194
0.328194 0.591763 0.095225
0.563978 0.674941 0.097322
0.730003 0.733125 0.125511
0.820116 0.759577 0.134140
0.908780 0.703406 0.134070
0.952406 0.704642 0.137280
0.100293 0.562604 0.114101
0.187719 0.622235 0.108588
0.401202 0.698102 0.107167
0.603102 0.772742 0.106504
0.748464 0.819147 0.123850
0.839331 0.852711 0.141250
0.896364 0.860883 0.155353
0.953110 0.820171 0.147614
0.036159 0.052528 0.081021
0.062048 0.061162 0.085248
0.139544 0.067452 0.086764
0.254146 0.077607 0.087220
0.391218 0.090590 0.083089
0.565644 0.113133 0.091170
0.710218 0.134735 0.106653
0.804597 0.155086 0.119342
0.042539 0.077079 0.090230
0.068265 0.087661 0.095979
0.153218 0.107719 0.096829
0.303390 0.114334 0.078604
0.454775 0.126551 0.084361
0.622554 0.144024 0.100238
0.745322 0.160272 0.113925
0.825944 0.178709 0.125228
0.046975 0.158936 0.118461
0.072986 0.153435 0.102693
0.183980 0.158287 0.091259
0.347429 0.158445 0.080204
0.527772 0.187514 0.092100
0.686252 0.219684 0.106121
0.802717 0.254666 0.106522
0.882289 0.288723 0.098821
0.046875 0.230195 0.095123
0.073027 0.224291 0.092389
0.147429 0.259815 0.082904
0.425600 0.230985 0.085447
0.615605 0.253942 0.103428
0.759230 0.294625 0.107178
0.854444 0.338324 0.102464
0.917385 0.388040 0.096857
0.054326 0.310090 0.101179
0.079805 0.311799 0.096948
0.154561 0.358873 0.093334
0.444332 0.432868 0.110552
0.697118 0.363182 0.094713
0.814682 0.384327 0.102279
0.884499 0.436755 0.100319
0.943404 0.489393 0.104671
0.065064 0.398973 0.115325
0.092239 0.410467 0.109076
0.202529 0.471210 0.104750
0.468925 0.565031 0.102069
0.681568 0.631483 0.134959
0.825514 0.557286 0.116737
0.899104 0.566914 0.117844
0.953970 0.603390 0.128417
0.077271 0.485677 0.130221
0.107126 0.511310 0.121286
0.270348 0.583471 0.116066
0.514614 0.670886 0.113432
0.708465 0.734454 0.138292
0.817464 0.782051 0.152265
0.904495 0.716314 0.147804
0.951593 0.714108 0.151553
0.092389 0.560373 0.145686
0.125033 0.610783 0.133807
0.347178 0.691198 0.128320
0.563625 0.768706 0.126250
0.725210 0.822093 0.133183
0.830438 0.853456 0.157577
0.890794 0.867750 0.174410
0.953743 0.824259 0.160350
0.035072 0.067826 0.128257
0.058122 0.078396 0.131848
0.113288 0.080424 0.131367
0.237610 0.084344 0.122633
0.370185 0.101138 0.134771
0.536804 0.122970 0.132743
0.698816 0.148872 0.140748
0.801946 0.174183 0.148978
0.041156 0.091119 0.142051
0.062213 0.101496 0.150588
0.113873 0.119576 0.150847
0.256945 0.127161 0.142463
0.434331 0.138712 0.139390
0.610418 0.156245 0.138177
0.741446 0.181103 0.146001
0.831896 0.213010 0.145466
0.048808 0.130799 0.156314
0.069269 0.145164 0.167564
0.114229 0.164112 0.177851
0.309284 0.185243 0.159225
0.530627 0.185640 0.121028
0.691272 0.211942 0.129005
0.801235 0.241956 0.125838
0.879690 0.271507 0.118218
0.063123 0.272206 0.231932
0.077174 0.282803 0.221658
0.107404 0.264861 0.167184
0.379644 0.265951 0.124170
0.596180 0.272695 0.120450
0.756337 0.321000 0.117589
0.848725 0.373290 0.112599
0.911963 0.421106 0.114090
0.073059 0.391056 0.233165
0.081110 0.375505 0.188649
0.113581 0.359985 0.154933
0.347479 0.434202 0.120269
0.670763 0.414621 0.128705
0.799022 0.438037 0.129559
0.875305 0.492543 0.134685
0.932100 0.538004 0.139458
0.078994 0.474140 0.210108
0.086887 0.460074 0.173444
0.124379 0.461049 0.152201
0.376414 0.554112 0.131005
0.655056 0.641979 0.154207
0.813537 0.605194 0.156151
0.895108 0.608559 0.157736
0.947673 0.638936 0.164997
0.089855 0.548313 0.222883
0.101874 0.544430 0.207528
0.147640 0.572225 0.168277
0.440589 0.665243 0.149791
0.672416 0.739631 0.149932
0.805554 0.788725 0.173903
0.901225 0.743949 0.175489
0.950361 0.730591 0.179992
0.104285 0.640871 0.254613
0.123780 0.635699 0.246010
0.203039 0.728278 0.170163
0.508591 0.770261 0.182518
0.690124 0.823587 0.163906
0.812979 0.855130 0.175618
0.883118 0.873957 0.195156
0.953046 0.830772 0.182672
0.037812 0.090600 0.193208
0.055114 0.096961 0.188846
0.079444 0.109525 0.193605
0.176841 0.108707 0.189066
0.347015 0.109743 0.166285
0.516967 0.132194 0.178135
0.664333 0.164727 0.187689
0.792544 0.199247 0.191753
0.044435 0.116856 0.209980
0.060291 0.126705 0.222734
0.084228 0.137235 0.218651
0.176275 0.154093 0.214817
0.380005 0.158241 0.189840
0.572521 0.184647 0.198699
0.738574 0.221810 0.207662
0.845779 0.270756 0.215747
0.052325 0.148820 0.231353
0.068602 0.162553 0.247016
0.090209 0.178916 0.265975
0.185060 0.209444 0.254925
0.437671 0.234548 0.235361
0.647148 0.273049 0.239640
0.798088 0.312942 0.233295
0.887370 0.343348 0.218687
0.062644 0.207406 0.255634
0.079162 0.223759 0.273379
0.100942 0.246226 0.295719
0.188462 0.290641 0.319731
0.523903 0.339811 0.284724
0.726696 0.377874 0.263134
0.842104 0.413577 0.246614
0.911531 0.446119 0.231007
0.086591 0.384171 0.393304
0.106250 0.439575 0.432003
0.124230 0.466676 0.433120
0.174642 0.444747 0.319408
0.602341 0.479852 0.212301
0.759651 0.521745 0.277118
0.854389 0.569850 0.258167
0.916143 0.608558 0.236461
0.114255 0.590394 0.546184
0.127293 0.595549 0.523204
0.137050 0.576324 0.449202
0.193798 0.555696 0.312458
0.571453 0.645552 0.292810
0.794755 0.650249 0.206648
0.872654 0.664481 0.230458
0.929744 0.691915 0.232179
0.130975 0.684211 0.601166
0.138276 0.665244 0.530828
0.148095 0.637326 0.438840
0.274790 0.673826 0.329143
0.598958 0.731144 0.346499
0.783810 0.794208 0.252869
0.889260 0.769940 0.214780
0.946691 0.758743 0.234046
0.142988 0.765368 0.599446
0.148922 0.753788 0.521023
0.170857 0.737050 0.428200
0.391768 0.785634 0.340636
0.639396 0.817222 0.366924
0.781800 0.854232 0.357506
0.870238 0.877393 0.288159
0.952606 0.839370 0.222051
0.043502 0.120509 0.271062
0.060697 0.127625 0.265644
0.078563 0.137438 0.266570
0.101619 0.149692 0.263883
0.235722 0.147045 0.256199
0.486121 0.149886 0.214638
0.663777 0.170670 0.219995
0.792569 0.223404 0.239074
0.051006 0.151791 0.295562
0.067248 0.162635 0.313221
0.085583 0.170916 0.306643
0.111043 0.183330 0.301252
0.249467 0.197446 0.284579
0.531252 0.205628 0.243582
0.698687 0.245109 0.256303
0.813987 0.306949 0.285061
0.059178 0.184643 0.324563
0.075997 0.200734 0.346399
0.095082 0.218578 0.376104
0.125027 0.232071 0.362347
0.306142 0.267536 0.330972
0.589430 0.294312 0.299880
0.741923 0.352229 0.328553
0.845070 0.407479 0.362017
0.069061 0.225551 0.361348
0.085780 0.243346 0.384579
0.106121 0.267966 0.414349
0.143384 0.302998 0.456687
0.370822 0.378561 0.425765
0.641739 0.430909 0.412517
0.784413 0.486357 0.444409
0.877597 0.520434 0.451299
0.082166 0.298953 0.405279
0.099601 0.322828 0.431160
0.120836 0.353818 0.462131
0.163561 0.404733 0.509472
0.404717 0.511726 0.539365
0.693458 0.573340 0.522755
0.820560 0.603631 0.517783
0.896064 0.629395 0.510574
0.109481 0.464802 0.536575
0.129152 0.509823 0.573018
0.152946 0.562221 0.616335
0.182933 0.608434 0.642724
0.420513 0.646753 0.546400
0.749267 0.685973 0.457142
0.841422 0.707812 0.514167
0.910092 0.729920 0.492463
0.140888 0.659057 0.703860
0.157073 0.686405 0.716023
0.174891 0.706842 0.723241
0.213969 0.741537 0.723552
0.509628 0.732362 0.526925
0.743495 0.790934 0.500410
0.870668 0.789939 0.350025
0.933009 0.785158 0.423788
0.160760 0.766189 0.784804
0.175646 0.784377 0.790700
0.191665 0.808702 0.789221
0.235842 0.807960 0.666748
0.584638 0.829226 0.504940
0.750525 0.850257 0.519350
0.854903 0.876851 0.471034
0.949241 0.853175 0.269127
0.051512 0.159575 0.370185
0.068734 0.166091 0.361980
0.086700 0.175316 0.359024
0.105665 0.187080 0.358521
0.134316 0.199897 0.348879
0.373624 0.199114 0.283375
0.638289 0.202981 0.258905
0.777751 0.234026 0.266589
0.059389 0.193936 0.404329
0.075794 0.205461 0.424120
0.094293 0.213578 0.414207
0.113200 0.221628 0.400223
0.147597 0.239466 0.394972
0.431185 0.258653 0.316088
0.672859 0.274894 0.301624
0.799464 0.314685 0.315853
0.068073 0.230409 0.437685
0.085180 0.248194 0.462964
0.104103 0.265640 0.494842
0.123780 0.273458 0.476155
0.168317 0.291711 0.454360
0.527141 0.338342 0.366650
0.709248 0.371911 0.378403
0.828988 0.422572 0.412179
0.078227 0.273735 0.480696
0.095392 0.293588 0.505046
0.115942 0.319273 0.538037
0.138002 0.342934 0.569296
0.198625 0.370143 0.552499
0.585469 0.465743 0.500227
0.753230 0.498570 0.504124
0.850211 0.552938 0.557145
0.090180 0.325171 0.528206
0.107416 0.346896 0.552332
0.128366 0.375363 0.580606
0.153377 0.410681 0.611890
0.234947 0.468663 0.650820
0.640508 0.588803 0.616471
0.786275 0.626280 0.622876
0.871406 0.658313 0.643747
0.105954 0.415378 0.576692
0.123767 0.442125 0.599469
0.145061 0.472771 0.627129
0.173783 0.508951 0.658959
0.264144 0.574748 0.691503
0.690963 0.709063 0.680704
0.813582 0.726888 0.677967
0.889769 0.738861 0.671703
0.131895 0.552013 0.671760
0.149697 0.577472 0.690235
0.170805 0.606733 0.712053
0.194727 0.642609 0.739006
0.280723 0.723058 0.776767
0.708702 0.784901 0.670066
0.845012 0.800846 0.618627
0.910102 0.805539 0.646105
0.157267 0.682911 0.776723
0.174795 0.708257 0.794757
0.194235 0.735360 0.809052
0.216184 0.764476 0.820240
0.306302 0.828493 0.818026
0.729920 0.853078 0.654737
0.833184 0.873761 0.641496
0.930791 0.860439 0.529931
0.061044 0.207041 0.486104
0.078459 0.213167 0.477036
0.096090 0.219322 0.463915
0.115220 0.230796 0.458559
0.134266 0.238484 0.446565
0.254482 0.262446 0.427102
0.570008 0.265610 0.326009
0.762462 0.284319 0.326520
0.069260 0.244411 0.523239
0.085886 0.256902 0.544828
0.104121 0.262377 0.527444
0.122993 0.268755 0.510964
0.141740 0.272015 0.482275
0.287134 0.323940 0.476884
0.633001 0.330112 0.369972
0.782716 0.366259 0.403816
0.078394 0.284355 0.559438
0.095246 0.300270 0.579187
0.113957 0.316176 0.603026
0.133880 0.324080 0.588323
0.160721 0.334131 0.567718
0.342363 0.407306 0.565820
0.676314 0.434151 0.496681
0.806094 0.467776 0.517435
0.088527 0.327837 0.594670
0.105529 0.345724 0.615366
0.125636 0.368675 0.640724
0.147388 0.391427 0.670339
0.190504 0.415606 0.667355
0.423938 0.503298 0.660452
0.719864 0.537074 0.610448
0.834155 0.569838 0.623977
0.099697 0.374566 0.633157
0.116916 0.394722 0.653129
0.137714 0.420575 0.678564
0.161082 0.449170 0.704760
0.220616 0.492279 0.736924
0.522207 0.603443 0.732802
0.762496 0.637448 0.698569
0.854476 0.668647 0.711096
0.112871 0.436197 0.673056
0.129866 0.456924 0.690559
0.150515 0.484176 0.713264
0.173775 0.513949 0.735837
0.245782 0.569658 0.764863
0.602467 0.687910 0.772967
0.796976 0.728855 0.750276
0.872082 0.746207 0.751686
0.129133 0.521909 0.714136
0.146361 0.544479 0.728960
0.166735 0.568875 0.748432
0.190333 0.595443 0.766610
0.272672 0.647286 0.788169
0.632674 0.760666 0.797771
0.811567 0.810238 0.774370
0.886624 0.816628 0.770144
0.151792 0.626866 0.775325
0.168415 0.644163 0.786832
0.188302 0.665349 0.799049
0.210372 0.686746 0.810874
0.265190 0.734813 0.835971
0.523185 0.850045 0.864275
0.816581 0.869045 0.765367
0.909479 0.869054 0.721169
0.071843 0.262092 0.602745
0.089242 0.266742 0.592516
0.106838 0.271121 0.577063
0.125434 0.278103 0.564135
0.145740 0.291443 0.563281
0.179299 0.311529 0.561195
0.470656 0.327405 0.530045
0.740205 0.367081 0.464667
0.079810 0.299642 0.632560
0.096673 0.311707 0.648465
0.114879 0.315447 0.634248
0.133995 0.321949 0.620666
0.153766 0.329844 0.608140
0.198391 0.360780 0.617758
0.511457 0.397227 0.598694
0.753203 0.438565 0.555161
0.088662 0.337982 0.662692
0.105457 0.352132 0.677280
0.123929 0.365613 0.694399
0.144600 0.376906 0.692614
0.165278 0.386085 0.682137
0.223922 0.420023 0.683333
0.570814 0.473570 0.675221
0.782720 0.504493 0.631022
0.098827 0.380811 0.693796
0.115629 0.396240 0.707939
0.134671 0.412813 0.724210
0.155678 0.431248 0.746664
0.180633 0.449145 0.750154
0.272889 0.491598 0.747391
0.644035 0.556148 0.747501
0.816590 0.572437 0.699924
0.109430 0.422853 0.721139
0.126186 0.438991 0.736799
0.146137 0.460020 0.753758
0.168589 0.483652 0.774183
0.204380 0.513033 0.798079
0.394013 0.584091 0.793662
0.704722 0.651803 0.797045
0.840747 0.659156 0.764438
0.120874 0.468522 0.749607
0.137842 0.488449 0.763410
0.157561 0.509711 0.779083
0.180368 0.537313 0.796594
0.225834 0.576973 0.819940
0.479768 0.662187 0.827874
0.749033 0.740359 0.823412
0.857968 0.747692 0.808185
0.134274 0.534382 0.778114
0.150869 0.552555 0.790638
0.170371 0.573133 0.804513
0.192605 0.596465 0.820298
0.250645 0.637447 0.837809
0.514918 0.722996 0.846514
0.778343 0.804884 0.839616
0.875421 0.810692 0.823299
0.149554 0.605012 0.807376
0.165811 0.621335 0.817259
0.185374 0.641070 0.829404
0.207246 0.662063 0.841290
0.273189 0.700081 0.855531
0.539852 0.782629 0.863840
0.786357 0.861053 0.863824
0.880488 0.876752 0.834112
