All_In_One/Enrich_Colormaster/colormanagement/luts/film_response/F-8700.cube
# Copyright: (C) Copyright 2016 by IWLTBAP
# Cannot be resold, shared or otherwise redistributed
# Website: http://luts.iwltbap.com
TITLE "IWLTBAP 8700 (LOG)"
LUT_3D_SIZE 32
0.036011 0.041229 0.046570
0.041637 0.043664 0.047385
0.048177 0.046462 0.048480
0.056075 0.049755 0.050988
0.068147 0.052425 0.051727
0.085082 0.055168 0.052038
0.104409 0.058105 0.051855
0.127223 0.061849 0.051596
0.152700 0.065586 0.051246
0.180662 0.068475 0.050642
0.209772 0.070347 0.048528
0.237701 0.072390 0.047132
0.263797 0.075288 0.047572
0.293559 0.077878 0.050083
0.324811 0.079066 0.052839
0.362263 0.083215 0.055946
0.401929 0.088005 0.059155
0.443273 0.092581 0.062549
0.486616 0.097375 0.066254
0.528620 0.102068 0.069970
0.569357 0.106712 0.073671
0.609641 0.111669 0.077698
0.647336 0.116540 0.081673
0.680729 0.121182 0.085344
0.711107 0.125372 0.088827
0.738421 0.129635 0.092181
0.764383 0.134111 0.095600
0.785272 0.138005 0.098429
0.805908 0.142379 0.101503
0.823832 0.146564 0.104253
0.841004 0.151396 0.106980
0.857452 0.157867 0.109863
0.037749 0.050700 0.050465
0.043217 0.052066 0.051906
0.049386 0.053364 0.050338
0.056734 0.056652 0.051670
0.068208 0.060602 0.055217
0.086415 0.063408 0.054697
0.108128 0.066027 0.053715
0.129788 0.068891 0.052997
0.155669 0.072675 0.052127
0.183462 0.075467 0.051244
0.215108 0.077622 0.049471
0.242334 0.079565 0.046951
0.270120 0.082907 0.047867
0.301646 0.085782 0.051234
0.334783 0.087686 0.054592
0.371944 0.090543 0.057689
0.413127 0.095049 0.061127
0.454941 0.099775 0.064481
0.499157 0.104974 0.068397
0.540773 0.109974 0.072144
0.581813 0.114906 0.075977
0.620417 0.119967 0.079913
0.656517 0.124845 0.083679
0.688169 0.129513 0.087256
0.717693 0.133953 0.090728
0.745358 0.138567 0.094234
0.769433 0.142816 0.097388
0.790012 0.146837 0.100212
0.810251 0.151209 0.103277
0.827537 0.155562 0.105944
0.844652 0.161201 0.108785
0.860891 0.167235 0.111636
0.039516 0.060301 0.053648
0.044745 0.061376 0.054664
0.051259 0.063270 0.054292
0.059182 0.064702 0.053450
0.072197 0.069885 0.056303
0.090964 0.072247 0.056304
0.112097 0.074852 0.054893
0.134865 0.078188 0.053614
0.162072 0.080947 0.052232
0.193941 0.083090 0.050964
0.221623 0.084906 0.048936
0.250466 0.087085 0.047559
0.280446 0.090711 0.048884
0.313003 0.093663 0.052433
0.349117 0.096318 0.056560
0.385121 0.098274 0.059732
0.427534 0.102545 0.063296
0.468892 0.107399 0.066729
0.513678 0.112885 0.070724
0.554751 0.118092 0.074504
0.595347 0.123523 0.078455
0.632726 0.128824 0.082301
0.666784 0.133606 0.085932
0.697899 0.138578 0.089541
0.725966 0.143248 0.092896
0.752768 0.148107 0.096367
0.775996 0.152952 0.099515
0.795224 0.157369 0.102278
0.814882 0.162556 0.105324
0.833040 0.167987 0.108262
0.849099 0.173287 0.111019
0.864211 0.178841 0.113678
0.041271 0.070505 0.056136
0.046506 0.071965 0.056507
0.052808 0.074579 0.057525
0.060476 0.076024 0.057031
0.077070 0.078594 0.055533
0.095451 0.080204 0.057842
0.117522 0.083066 0.056160
0.142024 0.086400 0.054416
0.170982 0.089583 0.052829
0.200126 0.091476 0.050955
0.232099 0.093504 0.049035
0.259589 0.096420 0.048862
0.291239 0.100219 0.050790
0.324086 0.104188 0.053859
0.360240 0.107666 0.057835
0.397562 0.109978 0.061727
0.437429 0.112363 0.065317
0.480490 0.117394 0.069055
0.526284 0.123202 0.073179
0.565223 0.128349 0.076747
0.606459 0.134066 0.080877
0.643669 0.139605 0.084818
0.678235 0.145101 0.088712
0.708449 0.150215 0.092251
0.733781 0.154996 0.095325
0.759200 0.160302 0.098666
0.781677 0.165508 0.101813
0.800486 0.170120 0.104498
0.819458 0.175323 0.107503
0.837354 0.180818 0.110527
0.853619 0.186343 0.113317
0.868239 0.191444 0.115948
0.043235 0.083867 0.057766
0.048499 0.084481 0.058964
0.054575 0.086659 0.060429
0.061692 0.090108 0.061270
0.072296 0.091754 0.058147
0.098860 0.091085 0.056644
0.123861 0.092197 0.056452
0.150216 0.095005 0.055980
0.181185 0.098020 0.053581
0.210824 0.099592 0.051497
0.241373 0.102704 0.050631
0.269773 0.106301 0.051383
0.303208 0.111098 0.053283
0.337049 0.115737 0.055942
0.374584 0.120104 0.060133
0.413290 0.124010 0.064297
0.451694 0.126506 0.068108
0.491381 0.130120 0.071529
0.536488 0.136317 0.075710
0.577612 0.141934 0.079590
0.617653 0.147791 0.083636
0.653789 0.153381 0.087525
0.688144 0.159341 0.091575
0.716897 0.164578 0.094952
0.743078 0.169823 0.098308
0.766783 0.174893 0.101498
0.788475 0.180056 0.104553
0.806970 0.184904 0.107306
0.825113 0.190149 0.110191
0.841904 0.195245 0.112994
0.857290 0.200798 0.115559
0.873418 0.208419 0.118018
0.044729 0.096736 0.058369
0.050096 0.097304 0.060330
0.056173 0.100582 0.061948
0.062883 0.103631 0.062624
0.072631 0.108605 0.062896
0.096794 0.105715 0.057584
0.128083 0.102629 0.056432
0.158428 0.104635 0.055645
0.191614 0.106935 0.053869
0.220302 0.108501 0.053045
0.250137 0.111848 0.052849
0.282299 0.116092 0.054366
0.316950 0.121030 0.055898
0.351420 0.125991 0.058675
0.389695 0.131047 0.062749
0.429651 0.135990 0.066925
0.469049 0.139495 0.070903
0.509257 0.143182 0.074842
0.551770 0.149329 0.078783
0.591155 0.155580 0.082659
0.628841 0.161720 0.086572
0.664335 0.168178 0.090562
0.696544 0.174302 0.094332
0.724670 0.179663 0.097747
0.749958 0.185033 0.101020
0.773202 0.190492 0.104202
0.794861 0.196023 0.107397
0.813453 0.201193 0.110022
0.831305 0.207147 0.112322
0.850389 0.215442 0.114185
0.870003 0.226998 0.112859
0.890276 0.240166 0.111696
0.046188 0.110812 0.059625
0.051672 0.112661 0.061907
0.057584 0.115176 0.063428
0.064206 0.117493 0.064426
0.072832 0.122160 0.064792
0.093565 0.125039 0.061207
0.126272 0.118823 0.058455
0.163539 0.117229 0.055693
0.200967 0.116119 0.053898
0.231574 0.118247 0.054830
0.262786 0.122279 0.055747
0.295189 0.126742 0.057322
0.331732 0.132066 0.058915
0.368926 0.137406 0.061914
0.407531 0.142578 0.065541
0.447005 0.147178 0.069957
0.488239 0.151587 0.074374
0.528208 0.156187 0.078254
0.570180 0.162804 0.082340
0.609168 0.169734 0.086367
0.645773 0.176659 0.090204
0.678729 0.182984 0.094073
0.709717 0.189380 0.097807
0.736623 0.195917 0.101197
0.761574 0.203549 0.103890
0.785765 0.212264 0.106063
0.810278 0.223172 0.106243
0.832283 0.234383 0.105930
0.852501 0.243108 0.105304
0.872794 0.252417 0.103361
0.889969 0.260549 0.101090
0.906804 0.269112 0.098693
0.047444 0.122346 0.060768
0.053088 0.126578 0.063168
0.058931 0.130188 0.064225
0.065194 0.133770 0.064539
0.072866 0.136986 0.065193
0.090282 0.140917 0.063578
0.125353 0.141451 0.058705
0.162676 0.132348 0.058372
0.206264 0.128389 0.055076
0.241741 0.128808 0.056451
0.275222 0.133030 0.058174
0.308963 0.138013 0.059853
0.346538 0.143657 0.062166
0.384297 0.148862 0.064805
0.425475 0.154393 0.068469
0.466135 0.159325 0.073247
0.509059 0.163977 0.077901
0.549160 0.169358 0.081992
0.589498 0.175808 0.086035
0.628104 0.183365 0.090087
0.663864 0.190839 0.094109
0.696500 0.197872 0.098086
0.724349 0.205294 0.101287
0.754964 0.216637 0.103555
0.782460 0.228880 0.104588
0.805744 0.239366 0.103971
0.829149 0.249524 0.102885
0.850377 0.258654 0.101714
0.868965 0.266960 0.100275
0.886759 0.275597 0.098136
0.903888 0.284524 0.095836
0.919651 0.293786 0.093080
0.048833 0.133962 0.062463
0.054404 0.138427 0.064365
0.060166 0.143447 0.065295
0.066122 0.149791 0.064865
0.073344 0.153776 0.064586
0.085152 0.158430 0.063926
0.123384 0.162127 0.060750
0.164541 0.157264 0.058313
0.207488 0.145609 0.057795
0.249625 0.142027 0.057666
0.288874 0.144885 0.059917
0.324578 0.150023 0.062816
0.363393 0.155957 0.065512
0.400986 0.161601 0.068318
0.444205 0.167360 0.072056
0.486073 0.172363 0.076701
0.529194 0.177386 0.081357
0.570395 0.183355 0.085913
0.609738 0.190192 0.089837
0.648478 0.198719 0.094236
0.684094 0.206726 0.098448
0.714936 0.215078 0.101761
0.744962 0.225648 0.103529
0.773694 0.237932 0.104619
0.799882 0.249342 0.104556
0.823085 0.260088 0.102711
0.844529 0.269782 0.100838
0.864484 0.279267 0.100248
0.882847 0.288492 0.097420
0.899881 0.297818 0.095362
0.914818 0.308077 0.093116
0.929462 0.317396 0.091552
0.049887 0.147848 0.062774
0.055559 0.152307 0.065443
0.061583 0.156300 0.067306
0.067272 0.162659 0.066504
0.073576 0.170894 0.063498
0.083429 0.175228 0.063193
0.115470 0.180553 0.061102
0.162745 0.181982 0.057982
0.209528 0.172741 0.060989
0.255876 0.159094 0.058854
0.298486 0.158154 0.061661
0.339209 0.162637 0.065449
0.380899 0.168923 0.068846
0.419943 0.174935 0.071579
0.464383 0.181319 0.075133
0.506362 0.186109 0.079907
0.550345 0.192015 0.085296
0.589781 0.197611 0.089459
0.630658 0.206095 0.093760
0.667601 0.214330 0.098181
0.702655 0.224026 0.101874
0.734364 0.234650 0.104000
0.764610 0.246656 0.104544
0.790770 0.257883 0.104221
0.816271 0.268706 0.103566
0.838185 0.278641 0.101468
0.858005 0.288530 0.099543
0.877175 0.298219 0.097757
0.894900 0.308564 0.095928
0.909723 0.319595 0.094324
0.924829 0.330007 0.092268
0.937975 0.340561 0.091516
0.051265 0.164261 0.064309
0.056563 0.167330 0.065864
0.062646 0.170682 0.068181
0.068224 0.175915 0.067350
0.074188 0.184831 0.063758
0.082942 0.188271 0.063452
0.109314 0.195962 0.061114
0.153476 0.201992 0.060327
0.209435 0.207879 0.062899
0.260266 0.190510 0.062668
0.308557 0.176423 0.062022
0.354310 0.178211 0.066326
0.400772 0.183946 0.071534
0.441910 0.189854 0.074874
0.484964 0.196350 0.078773
0.528575 0.201944 0.084074
0.571960 0.208062 0.089029
0.611113 0.213781 0.093126
0.651939 0.223936 0.097573
0.688331 0.233193 0.101536
0.723023 0.244395 0.103463
0.753591 0.255316 0.104363
0.781822 0.266921 0.104057
0.807473 0.277368 0.103266
0.830876 0.287907 0.101802
0.850798 0.297747 0.100320
0.869940 0.308135 0.098556
0.887596 0.318972 0.097356
0.904665 0.329556 0.094801
0.919259 0.340792 0.093208
0.934222 0.352430 0.091875
0.947027 0.364047 0.090078
0.052150 0.181195 0.064625
0.057256 0.183970 0.065590
0.063104 0.188087 0.067398
0.068762 0.193086 0.067231
0.074884 0.199868 0.065414
0.082859 0.203948 0.064862
0.105483 0.213528 0.062853
0.147221 0.221815 0.061938
0.206676 0.232556 0.062788
0.261383 0.232472 0.068627
0.319855 0.207381 0.063924
0.368078 0.196812 0.066737
0.417598 0.200335 0.072245
0.462850 0.205979 0.077790
0.506586 0.211584 0.082375
0.550137 0.217962 0.088032
0.593971 0.225149 0.092652
0.633642 0.232712 0.096521
0.673255 0.242698 0.100633
0.707449 0.252424 0.102545
0.741113 0.264184 0.103536
0.770804 0.275368 0.103935
0.797709 0.286512 0.103322
0.821814 0.297073 0.102719
0.843442 0.307862 0.100859
0.862148 0.317702 0.098946
0.880310 0.328980 0.097587
0.897888 0.340212 0.095323
0.912327 0.351517 0.094151
0.926748 0.362819 0.092244
0.940516 0.375165 0.091817
0.954179 0.387597 0.089507
0.052759 0.199575 0.065531
0.057761 0.203363 0.065995
0.063397 0.208288 0.067102
0.069109 0.212404 0.067393
0.075533 0.218521 0.066663
0.083162 0.224446 0.066472
0.101422 0.234024 0.065414
0.146458 0.244589 0.064029
0.202255 0.256225 0.063706
0.264725 0.265317 0.071983
0.320219 0.257531 0.072927
0.386054 0.228235 0.066121
0.434866 0.220717 0.072012
0.483507 0.225043 0.078756
0.529148 0.230129 0.086033
0.573270 0.235768 0.091732
0.614853 0.243679 0.096103
0.654319 0.252640 0.099714
0.694150 0.263531 0.102525
0.728475 0.274627 0.103671
0.759202 0.285769 0.103994
0.786786 0.296440 0.103868
0.812959 0.307247 0.102507
0.834937 0.317946 0.101692
0.855748 0.328845 0.099378
0.873091 0.339325 0.097752
0.890515 0.350670 0.095805
0.906109 0.361944 0.093986
0.920492 0.374576 0.092422
0.934579 0.386937 0.091180
0.949220 0.400114 0.090247
0.961717 0.411626 0.090433
0.053842 0.216937 0.067874
0.058784 0.222630 0.068239
0.064268 0.228806 0.068561
0.070008 0.233350 0.068765
0.076549 0.238983 0.068693
0.084344 0.246710 0.068449
0.097721 0.256266 0.068060
0.144271 0.266722 0.066777
0.201603 0.279319 0.066074
0.267044 0.293987 0.070893
0.325610 0.299259 0.079772
0.390408 0.281997 0.074849
0.456671 0.250764 0.070778
0.504192 0.246386 0.077959
0.551106 0.251051 0.085913
0.594783 0.256332 0.094053
0.637943 0.264066 0.098786
0.676478 0.273377 0.101964
0.713669 0.284361 0.103505
0.745707 0.295218 0.104092
0.775786 0.306095 0.103430
0.802148 0.316789 0.102586
0.824784 0.327235 0.101130
0.846703 0.338441 0.099472
0.865768 0.349524 0.097619
0.882525 0.361024 0.096429
0.899391 0.372772 0.094045
0.914020 0.385014 0.092937
0.927485 0.398040 0.090787
0.942370 0.411698 0.090043
0.956375 0.424415 0.090331
0.969054 0.437041 0.091933
0.055162 0.236513 0.070414
0.060209 0.242739 0.070786
0.065821 0.250773 0.071030
0.071725 0.256199 0.071291
0.078415 0.261772 0.071281
0.086214 0.270138 0.071064
0.099993 0.279070 0.071393
0.147413 0.292280 0.069459
0.203945 0.305279 0.068742
0.267395 0.322795 0.069940
0.336379 0.334983 0.082494
0.389342 0.336333 0.086271
0.472028 0.308575 0.076097
0.527510 0.278969 0.075434
0.573529 0.275223 0.083688
0.618631 0.280642 0.092087
0.661276 0.287672 0.098953
0.698127 0.295615 0.102401
0.733401 0.305728 0.103359
0.763695 0.316343 0.103230
0.791562 0.327401 0.102468
0.816290 0.338568 0.100852
0.837987 0.349572 0.099413
0.857733 0.360410 0.097276
0.874893 0.371859 0.096117
0.891349 0.383521 0.094600
0.906918 0.397127 0.092328
0.920823 0.409304 0.091672
0.933629 0.423064 0.091298
0.947943 0.435680 0.091284
0.962299 0.449028 0.093067
0.973101 0.462178 0.093801
0.057217 0.256995 0.073325
0.062314 0.263515 0.073617
0.068064 0.272297 0.073866
0.073995 0.279874 0.074085
0.080788 0.285289 0.074214
0.088645 0.293991 0.073924
0.101474 0.304595 0.073831
0.151523 0.318555 0.072118
0.209606 0.332215 0.071180
0.271495 0.348990 0.071016
0.344934 0.367953 0.081170
0.404338 0.374229 0.091555
0.463434 0.377715 0.091877
0.546760 0.340250 0.078608
0.597312 0.309649 0.078893
0.642139 0.307053 0.087735
0.684910 0.313463 0.094481
0.719833 0.320452 0.099581
0.752100 0.328406 0.101625
0.780511 0.337976 0.101317
0.806558 0.348841 0.099920
0.828714 0.359698 0.099036
0.848993 0.370957 0.097258
0.867237 0.382574 0.095875
0.884113 0.394824 0.093519
0.898659 0.407014 0.092804
0.912889 0.421239 0.091304
0.926868 0.434664 0.091557
0.940694 0.447907 0.091713
0.955184 0.460692 0.093312
0.968535 0.473236 0.094720
0.974969 0.485809 0.097117
0.059834 0.279303 0.076469
0.064994 0.286489 0.076675
0.070703 0.295803 0.076950
0.076701 0.304368 0.077123
0.083474 0.310176 0.077140
0.091364 0.318866 0.076848
0.105372 0.330079 0.077408
0.159530 0.345675 0.074985
0.217221 0.360686 0.074208
0.277125 0.377532 0.073260
0.349341 0.399087 0.078692
0.420115 0.412258 0.092863
0.474839 0.422562 0.098730
0.534995 0.424438 0.097752
0.618384 0.378198 0.080134
0.661153 0.347559 0.079666
0.704526 0.343835 0.087663
0.738981 0.348655 0.092508
0.769891 0.355820 0.095380
0.795458 0.363140 0.097476
0.818757 0.372328 0.098094
0.839215 0.382267 0.096189
0.858156 0.394566 0.094878
0.875162 0.406585 0.093850
0.889978 0.419342 0.093096
0.904291 0.432473 0.092401
0.918192 0.445794 0.091803
0.931656 0.459856 0.092557
0.946276 0.472914 0.093176
0.961157 0.485803 0.095515
0.970694 0.499894 0.097835
0.974905 0.512549 0.099220
0.062473 0.302537 0.079586
0.067681 0.309953 0.079768
0.073497 0.320134 0.079876
0.079478 0.327689 0.080020
0.086332 0.334356 0.080017
0.094118 0.345111 0.079613
0.113035 0.357083 0.078843
0.168367 0.372354 0.077561
0.225487 0.387760 0.076727
0.285530 0.406740 0.076152
0.355488 0.429071 0.077816
0.430983 0.448768 0.092102
0.493881 0.460211 0.101405
0.540554 0.472454 0.104749
0.604423 0.466551 0.101124
0.675358 0.421008 0.083365
0.715817 0.389340 0.080376
0.752758 0.382987 0.085468
0.782819 0.386970 0.088999
0.807039 0.393352 0.090443
0.830041 0.400930 0.092749
0.848179 0.409005 0.093363
0.866564 0.419470 0.092338
0.881508 0.432153 0.092251
0.895539 0.445597 0.092010
0.909642 0.458954 0.091835
0.924011 0.472522 0.092170
0.938254 0.485559 0.093555
0.953440 0.497975 0.096038
0.964932 0.512051 0.098874
0.970075 0.525010 0.101471
0.973666 0.535215 0.102846
0.065365 0.326606 0.082778
0.070663 0.335393 0.082899
0.076454 0.344957 0.083008
0.082498 0.353434 0.083027
0.089394 0.360377 0.082942
0.097434 0.371161 0.082688
0.118834 0.385910 0.081149
0.180425 0.400987 0.080182
0.238141 0.418869 0.079466
0.298039 0.438243 0.078679
0.365672 0.460190 0.079096
0.440534 0.483807 0.090156
0.507657 0.498663 0.102202
0.557745 0.511989 0.107649
0.602786 0.524254 0.110250
0.659162 0.512448 0.106610
0.722307 0.467791 0.089279
0.757665 0.438430 0.083299
0.790822 0.429074 0.084155
0.814565 0.431113 0.085884
0.836601 0.438716 0.087352
0.853969 0.445399 0.088806
0.871562 0.452923 0.089644
0.887181 0.462423 0.091073
0.900894 0.474726 0.091488
0.914313 0.487082 0.092671
0.928936 0.500339 0.095066
0.943934 0.512190 0.096915
0.957782 0.525843 0.099552
0.965313 0.538895 0.103710
0.968795 0.549753 0.106043
0.972548 0.559825 0.107494
0.068311 0.349573 0.085926
0.073640 0.359288 0.085946
0.079502 0.370058 0.085981
0.085609 0.380131 0.085843
0.092645 0.387063 0.085738
0.100889 0.396642 0.085688
0.130078 0.412644 0.084100
0.193091 0.429161 0.082774
0.251536 0.448412 0.081946
0.310442 0.468677 0.081152
0.375526 0.490982 0.081455
0.447356 0.515555 0.087205
0.515727 0.532622 0.101476
0.573583 0.548095 0.109403
0.614238 0.561258 0.112928
0.657308 0.572695 0.115287
0.706355 0.551740 0.110526
0.757136 0.514423 0.096696
0.789519 0.488844 0.090205
0.815988 0.479661 0.089118
0.839470 0.480640 0.089348
0.856644 0.486211 0.090511
0.873729 0.492925 0.091648
0.888567 0.499676 0.093144
0.901960 0.509163 0.095245
0.917053 0.520641 0.096610
0.933788 0.530788 0.099226
0.949257 0.541541 0.101338
0.957688 0.553849 0.106250
0.963573 0.564967 0.109028
0.967435 0.576923 0.111110
0.971566 0.585243 0.112319
0.071450 0.373546 0.089167
0.076735 0.383717 0.089108
0.082720 0.395729 0.088977
0.088960 0.405643 0.088842
0.096023 0.413485 0.088666
0.105200 0.424294 0.088520
0.146507 0.441558 0.085855
0.206155 0.458780 0.085594
0.265076 0.478774 0.084620
0.323717 0.499766 0.083881
0.389334 0.521646 0.083301
0.455906 0.546499 0.085909
0.525210 0.565509 0.100150
0.583847 0.581851 0.110017
0.628650 0.596786 0.114463
0.661974 0.608683 0.117556
0.701769 0.616468 0.119860
0.741121 0.593395 0.115477
0.784969 0.559414 0.104987
0.811884 0.540982 0.100740
0.835978 0.533486 0.098741
0.857186 0.532652 0.098261
0.872544 0.537131 0.099667
0.887769 0.543917 0.100713
0.903660 0.549702 0.102002
0.919781 0.556453 0.103001
0.936802 0.566587 0.105272
0.950826 0.575147 0.108048
0.957453 0.585999 0.112307
0.962204 0.595327 0.114554
0.966822 0.604907 0.115743
0.970159 0.613541 0.117997
0.074622 0.397909 0.092241
0.080016 0.408740 0.092136
0.085999 0.421852 0.091970
0.092392 0.433112 0.091775
0.099587 0.440833 0.091412
0.109959 0.450951 0.090828
0.158934 0.469516 0.088552
0.221085 0.486477 0.088415
0.278558 0.507929 0.087739
0.337552 0.529040 0.086668
0.401021 0.551218 0.086475
0.466522 0.574988 0.086579
0.534911 0.596759 0.097960
0.591112 0.611356 0.109300
0.641389 0.627716 0.116177
0.673862 0.640391 0.119022
0.704687 0.652169 0.121612
0.735705 0.656008 0.122772
0.771063 0.628663 0.119022
0.806774 0.601187 0.113060
0.831011 0.587163 0.109861
0.852497 0.581416 0.108874
0.871297 0.580589 0.108316
0.888203 0.582787 0.109292
0.906305 0.588268 0.110101
0.922190 0.593350 0.110864
0.938464 0.599193 0.112825
0.949894 0.607076 0.115605
0.956758 0.617771 0.118252
0.960458 0.625501 0.120916
0.964645 0.632237 0.122291
0.968701 0.641107 0.123882
0.077977 0.420904 0.095325
0.083436 0.433963 0.095193
0.089483 0.448447 0.094935
0.095986 0.459502 0.094615
0.103281 0.467200 0.094253
0.115539 0.481681 0.092850
0.176591 0.497751 0.091568
0.236034 0.516680 0.091101
0.293822 0.535839 0.090164
0.353080 0.557168 0.089430
0.414682 0.580241 0.088621
0.478607 0.603002 0.088335
0.544608 0.625842 0.096665
0.599080 0.640180 0.108561
0.647768 0.655771 0.116305
0.685324 0.670856 0.120486
0.711564 0.680034 0.123115
0.738397 0.691689 0.125114
0.765854 0.690942 0.126097
0.793305 0.665373 0.123054
0.825550 0.641918 0.119783
0.848392 0.630414 0.118646
0.871135 0.626349 0.117931
0.890398 0.624911 0.117579
0.908416 0.626542 0.118455
0.924773 0.631257 0.119363
0.940048 0.635342 0.120862
0.948254 0.639333 0.123716
0.955838 0.646550 0.124361
0.959069 0.653642 0.126824
0.962099 0.661750 0.129633
0.966505 0.670295 0.130597
0.081407 0.446547 0.098505
0.086827 0.458152 0.098257
0.093078 0.472289 0.097958
0.099714 0.483605 0.097572
0.107314 0.492944 0.097215
0.129747 0.506036 0.096167
0.194211 0.524305 0.094490
0.252983 0.543623 0.093743
0.310360 0.564782 0.092739
0.370956 0.585749 0.091905
0.430263 0.608569 0.090955
0.490712 0.629525 0.090890
0.554007 0.651309 0.096426
0.606664 0.666674 0.107724
0.654067 0.681333 0.116189
0.693046 0.696193 0.121931
0.721935 0.707857 0.124233
0.743376 0.717046 0.126002
0.770480 0.728554 0.128974
0.793716 0.725934 0.129913
0.816057 0.699314 0.126382
0.844674 0.679173 0.125470
0.869201 0.669567 0.126562
0.890182 0.666924 0.126511
0.909392 0.665238 0.125826
0.927757 0.666347 0.126503
0.939899 0.668309 0.128733
0.947800 0.671334 0.130424
0.953611 0.674229 0.131480
0.957749 0.681307 0.132896
0.961972 0.690001 0.134144
0.964895 0.697589 0.136498
0.084907 0.472198 0.101516
0.090552 0.483678 0.101334
0.096735 0.498980 0.100860
0.103654 0.509344 0.100389
0.112466 0.519846 0.100194
0.147809 0.533854 0.096884
0.213209 0.552533 0.097486
0.272431 0.571480 0.096597
0.328194 0.591763 0.095225
0.385788 0.613625 0.094575
0.446035 0.634019 0.093806
0.505664 0.655709 0.092958
0.563978 0.674941 0.097322
0.614268 0.691627 0.107127
0.659292 0.704701 0.116039
0.698038 0.718756 0.122383
0.730003 0.733125 0.125511
0.753625 0.743430 0.128024
0.776959 0.753767 0.130369
0.800582 0.763671 0.133446
0.820116 0.759577 0.134140
0.837153 0.736357 0.129914
0.864963 0.715870 0.130030
0.887732 0.707327 0.132579
0.908780 0.703406 0.134070
0.928051 0.702730 0.135120
0.938609 0.700908 0.136249
0.946379 0.702143 0.137183
0.952406 0.704642 0.137280
0.956569 0.709024 0.138068
0.959903 0.715070 0.140077
0.963679 0.721435 0.141417
0.088544 0.494442 0.104641
0.094237 0.506901 0.104328
0.100641 0.523121 0.103821
0.107514 0.534421 0.103299
0.117436 0.545875 0.102407
0.170332 0.561329 0.099726
0.233902 0.577248 0.100530
0.289634 0.598027 0.099003
0.344523 0.619076 0.097957
0.402583 0.639231 0.097863
0.461377 0.658719 0.096895
0.517996 0.679814 0.096198
0.573652 0.698558 0.098737
0.621555 0.714112 0.106676
0.664875 0.727861 0.115707
0.701607 0.739246 0.122509
0.735055 0.754407 0.126588
0.764128 0.768760 0.129559
0.784944 0.777155 0.131733
0.805954 0.786627 0.134114
0.827447 0.795308 0.138030
0.842355 0.790594 0.138319
0.858230 0.767697 0.133963
0.883899 0.747460 0.134527
0.907524 0.740164 0.137466
0.926628 0.736758 0.140701
0.936564 0.734239 0.142589
0.944724 0.735038 0.143409
0.950425 0.736334 0.143336
0.954608 0.737689 0.143812
0.958609 0.740266 0.144823
0.962619 0.744055 0.145777
0.092397 0.517223 0.107863
0.098122 0.530806 0.107412
0.104653 0.549938 0.106803
0.112117 0.559218 0.106374
0.128000 0.570668 0.105842
0.196956 0.587045 0.103054
0.255377 0.603574 0.102676
0.307843 0.623969 0.102029
0.363850 0.643138 0.101518
0.419457 0.664553 0.100053
0.477085 0.684181 0.100012
0.531604 0.702735 0.099689
0.585153 0.720416 0.100944
0.630362 0.735378 0.107953
0.670551 0.750308 0.115065
0.705587 0.762655 0.121126
0.739881 0.776466 0.126629
0.769864 0.790573 0.130245
0.793775 0.801094 0.133322
0.811888 0.808926 0.135245
0.830853 0.816314 0.138726
0.848888 0.822710 0.142824
0.863707 0.817964 0.143426
0.877164 0.797218 0.139248
0.902076 0.777672 0.138954
0.926071 0.771065 0.142332
0.937182 0.766331 0.144913
0.945510 0.766825 0.145728
0.950512 0.765955 0.146502
0.954530 0.766334 0.147240
0.958677 0.767578 0.147825
0.962620 0.767886 0.148557
0.096226 0.540253 0.110918
0.102114 0.555573 0.110390
0.108769 0.572339 0.109792
0.116778 0.583030 0.109367
0.158702 0.598249 0.106417
0.221287 0.611718 0.106347
0.275204 0.628796 0.105846
0.327342 0.647375 0.105102
0.383826 0.667980 0.104079
0.438819 0.687353 0.103714
0.493172 0.707776 0.103055
0.545297 0.726650 0.102834
0.593362 0.746672 0.103488
0.636820 0.760754 0.106282
0.675145 0.773273 0.112299
0.708974 0.784371 0.119145
0.744291 0.797891 0.125871
0.772702 0.810503 0.129633
