All_In_One/Enrich_Colormaster/colormanagement/luts/film_response/F-8700.cube
# Copyright: (C) Copyright 2016 by IWLTBAP
# Cannot be resold, shared or otherwise redistributed
# Website: http://luts.iwltbap.com
TITLE "IWLTBAP 8700 (LOG)"
LUT_3D_SIZE 5
DOMAIN_MIN 0.000000 0.000000 0.000000
DOMAIN_MAX 0.903226 0.903226 0.903226
0.036011 0.041229 0.046570
0.127223 0.061849 0.051596
0.324811 0.079066 0.052839
0.609641 0.111669 0.077698
0.805908 0.142379 0.101503
0.047444 0.122346 0.060768
0.162676 0.132348 0.058372
0.425475 0.154393 0.068469
0.696500 0.197872 0.098086
0.868965 0.266960 0.100275
0.055162 0.236513 0.070414
0.147413 0.292280 0.069459
0.573529 0.275223 0.083688
0.816290 0.338568 0.100852
0.933629 0.423064 0.091298
0.074622 0.397909 0.092241
0.221085 0.486477 0.088415
0.641389 0.627716 0.116177
0.852497 0.581416 0.108874
0.956758 0.617771 0.118252
0.100293 0.562604 0.114101
0.347805 0.675652 0.107843
0.682384 0.795851 0.112340
0.852414 0.856401 0.144370
0.953110 0.820171 0.147614
0.035474 0.063843 0.115804
0.098749 0.075682 0.120523
0.304382 0.091950 0.121617
0.592079 0.126238 0.122784
0.801190 0.169886 0.135111
0.046639 0.115234 0.136845
0.101747 0.141377 0.153298
0.419998 0.164741 0.117514
0.697317 0.193930 0.125018
0.863723 0.244651 0.128090
0.063408 0.320593 0.190587
0.099293 0.297992 0.134534
0.552215 0.311388 0.110930
0.808502 0.373682 0.112547
0.925842 0.461161 0.112115
0.071930 0.467193 0.153806
0.116998 0.472070 0.134436
0.560339 0.635015 0.128057
0.841378 0.631758 0.150881
0.950273 0.651640 0.157594
0.100685 0.610772 0.224736
0.185504 0.674799 0.155651
0.619284 0.798464 0.147759
0.838824 0.860788 0.176196
0.953233 0.828459 0.173783
0.040187 0.104251 0.230144
0.070635 0.117757 0.226631
0.206607 0.127275 0.220825
0.550514 0.141390 0.195564
0.802883 0.217046 0.222886
0.053165 0.156249 0.267130
0.083666 0.182497 0.303749
0.221168 0.221635 0.283487
0.639598 0.270578 0.261207
0.854002 0.362093 0.295341
0.071725 0.249480 0.324697
0.103716 0.288625 0.366209
0.264352 0.391819 0.427541
0.745052 0.492059 0.400222
0.901806 0.547973 0.387707
0.123118 0.598587 0.611848
0.152457 0.645811 0.632052
0.303497 0.628259 0.434589
0.808459 0.702334 0.277674
0.925496 0.731092 0.359434
0.157265 0.796146 0.760896
0.174602 0.789682 0.656526
0.485879 0.810002 0.426994
0.793015 0.860074 0.433267
0.951842 0.845813 0.244139
0.053774 0.170563 0.398258
0.084359 0.183455 0.384661
0.117380 0.201875 0.378770
0.422082 0.214988 0.289837
0.775293 0.240873 0.274549
0.068347 0.234275 0.460169
0.098981 0.261824 0.504449
0.134232 0.274054 0.469030
0.550338 0.331058 0.359350
0.815422 0.396666 0.395587
0.086273 0.310300 0.531613
0.118784 0.350903 0.576120
0.176392 0.413066 0.643218
0.652307 0.546993 0.588788
0.856246 0.614373 0.627505
0.111979 0.444365 0.614566
0.145182 0.491660 0.655948
0.219637 0.567916 0.713071
0.732856 0.739210 0.706715
0.888948 0.759864 0.700041
0.155591 0.663932 0.770360
0.187906 0.709008 0.801842
0.245429 0.773227 0.833738
0.756286 0.857259 0.686464
0.926218 0.862885 0.586795
0.071843 0.262092 0.602745
0.102226 0.269172 0.580988
0.135321 0.283645 0.562745
0.218810 0.328668 0.565222
0.740205 0.367081 0.464667
0.086368 0.328362 0.655031
0.116766 0.351651 0.683601
0.151945 0.366699 0.670142
0.278762 0.432267 0.674916
0.773405 0.491347 0.615423
0.103932 0.401242 0.708720
0.135148 0.431277 0.734551
0.173260 0.467272 0.769925
0.448662 0.581735 0.780222
0.830016 0.616105 0.735641
0.123976 0.483565 0.757281
0.155301 0.519251 0.781006
0.195546 0.566609 0.810725
0.595674 0.713655 0.834984
0.862232 0.768837 0.817616
0.149554 0.605012 0.807376
0.180268 0.636312 0.826217
0.231429 0.679358 0.851998
0.631311 0.808577 0.864250
0.880488 0.876752 0.834112
