All_In_One/Enrich_Colormaster/colormanagement/luts/film_response/film_tv.cube
TITLE "Generate by Resolve"
LUT_3D_SIZE 6
0.000000 0.000000 0.000000
0.084688 0.007355 0.000000
0.202274 0.000015 0.000000
0.347219 0.000000 0.000000
0.499763 0.000000 0.000000
0.606989 0.000000 0.000000
0.000000 0.083970 0.017807
0.127398 0.117128 0.001938
0.306905 0.140215 0.000000
0.496971 0.126864 0.000000
0.668971 0.088319 0.000000
0.769528 0.067872 0.000000
0.000000 0.170901 0.001236
0.149477 0.240009 0.000000
0.380255 0.301778 0.000000
0.595468 0.331579 0.000000
0.782605 0.343526 0.000000
0.885130 0.356268 0.000000
0.000000 0.264759 0.000000
0.151492 0.367117 0.000000
0.433814 0.455283 0.000000
0.670817 0.506142 0.000000
0.866926 0.534218 0.000000
0.970474 0.555856 0.000000
0.000000 0.363500 0.000000
0.144305 0.493233 0.000000
0.475624 0.602762 0.000000
0.731319 0.668055 0.000000
0.938231 0.708339 0.000000
1.000000 0.725963 0.000000
0.000000 0.431113 0.000000
0.174334 0.586038 0.000000
0.518959 0.698192 0.000000
0.770428 0.763684 0.000000
0.971206 0.805280 0.000000
1.000000 0.821485 0.000000
0.000000 0.013596 0.100572
0.088640 0.015122 0.118105
0.225193 0.000137 0.125933
0.375097 0.000000 0.126116
0.523247 0.000000 0.120989
0.625254 0.000000 0.123095
0.000000 0.108568 0.143114
0.146853 0.146853 0.146853
0.337377 0.171359 0.172259
0.529427 0.160418 0.165881
0.695476 0.127779 0.153841
0.792584 0.118639 0.159960
0.000000 0.213336 0.164233
0.118013 0.288533 0.178927
0.405005 0.353155 0.167117
0.623621 0.380285 0.139803
0.806348 0.394324 0.118959
0.907423 0.412802 0.128161
0.000000 0.321523 0.176867
0.080919 0.433875 0.176745
0.449531 0.524407 0.135912
0.694377 0.572168 0.087526
0.886275 0.599161 0.049058
0.986053 0.621393 0.052659
0.000000 0.431281 0.189029
0.040558 0.573388 0.165896
0.475639 0.684977 0.105547
0.741466 0.744808 0.044373
0.946929 0.781964 0.041566
1.000000 0.802869 0.044953
0.000000 0.507073 0.247532
0.037552 0.673243 0.238254
0.492775 0.785122 0.191379
0.762402 0.847166 0.149874
0.967926 0.887297 0.094789
1.000000 0.904219 0.106584
0.000000 0.005936 0.204532
0.070527 0.001450 0.239872
0.227512 0.000000 0.263935
0.383001 0.000000 0.276982
0.531792 0.000000 0.285924
0.631342 0.000000 0.301045
0.000000 0.130007 0.285496
0.078706 0.170153 0.337301
0.336645 0.194064 0.368811
0.535821 0.184146 0.383124
0.703151 0.152285 0.392462
0.798352 0.148135 0.409247
0.000000 0.251194 0.332235
0.042435 0.329900 0.384360
0.402152 0.402152 0.402152
0.614755 0.426490 0.426673
0.809750 0.436820 0.427634
0.908766 0.456230 0.444862
0.000000 0.368109 0.365301
0.024231 0.481468 0.413779
0.423758 0.566461 0.437385
0.675258 0.615427 0.445533
0.879408 0.643717 0.436820
0.980591 0.665507 0.451728
0.000000 0.480797 0.398154
0.011749 0.625116 0.443854
0.425696 0.736217 0.457649
0.720546 0.795727 0.455970
0.932219 0.830686 0.451804
1.000000 0.850019 0.464698
0.000000 0.555840 0.466468
0.009262 0.721065 0.514290
0.424414 0.832349 0.526818
0.729000 0.894011 0.526284
0.946563 0.933547 0.524224
1.000000 0.948745 0.536004
0.000000 0.000000 0.299992
0.053040 0.000000 0.346273
0.229770 0.000000 0.382422
0.387366 0.000000 0.401343
0.535546 0.000000 0.414084
0.633234 0.000000 0.431220
0.000000 0.148013 0.412222
0.028351 0.185840 0.478080
0.329381 0.208865 0.522438
0.536294 0.202289 0.544732
0.705440 0.173846 0.558938
0.800397 0.171801 0.576165
0.000000 0.279393 0.472313
0.019318 0.359487 0.542138
0.380835 0.429786 0.578988
0.616831 0.461463 0.604562
0.807324 0.468894 0.617716
0.906691 0.487526 0.634821
0.000000 0.401328 0.517128
0.005234 0.516136 0.584619
0.393088 0.605447 0.621317
0.659052 0.659052 0.659052
0.869490 0.679301 0.650752
0.973037 0.699931 0.663737
0.000000 0.516045 0.556069
0.003159 0.657694 0.619928
0.373068 0.767651 0.653727
0.699641 0.824903 0.668696
0.915373 0.859831 0.674983
1.000000 0.878202 0.685008
0.000000 0.585504 0.614252
0.003326 0.748745 0.681346
0.375738 0.859342 0.710063
0.706279 0.919509 0.722881
0.927779 0.958144 0.727703
1.000000 0.973480 0.738323
0.000000 0.000000 0.388479
0.021500 0.000000 0.448737
0.233371 0.000000 0.493645
0.397436 0.000000 0.519066
0.546654 0.000000 0.538064
0.641505 0.000000 0.553689
0.000000 0.164843 0.525063
0.018601 0.204364 0.607233
0.322515 0.228534 0.662760
0.539849 0.224231 0.690547
0.712123 0.198825 0.709590
0.810056 0.202823 0.728099
0.000000 0.309850 0.602304
0.005158 0.390387 0.686351
0.348882 0.456672 0.741985
0.614816 0.485115 0.769314
0.806317 0.501732 0.786084
0.907057 0.519432 0.800061
0.000000 0.431296 0.650736
0.002884 0.546197 0.733501
0.343099 0.635904 0.785916
0.656062 0.682353 0.810101
0.860838 0.708202 0.824948
0.967041 0.727108 0.836515
0.000000 0.542901 0.691478
0.002579 0.684245 0.771710
0.330144 0.793729 0.819593
0.677729 0.850004 0.842191
0.881285 0.881285 0.881270
0.999847 0.901778 0.863951
0.000000 0.605783 0.727642
0.002853 0.768505 0.812650
0.337697 0.878050 0.856504
0.685420 0.937652 0.877180
0.913939 0.976013 0.888533
1.000000 0.990936 0.896712
0.000000 0.000000 0.465812
0.017655 0.000000 0.534463
0.228046 0.000000 0.587304
0.403677 0.000000 0.619303
0.557916 0.000000 0.642756
0.656382 0.000000 0.659785
0.000000 0.191806 0.620188
0.002976 0.236210 0.713146
0.298131 0.268757 0.779400
0.540063 0.272206 0.813458
0.721538 0.265217 0.837430
0.825071 0.273442 0.854520
0.000000 0.340795 0.701518
0.002701 0.423606 0.795972
0.306813 0.492821 0.861433
0.599039 0.524041 0.895705
0.802426 0.542702 0.917937
0.911559 0.560983 0.929595
0.000000 0.457481 0.748470
0.002518 0.571435 0.842176
0.295888 0.663478 0.906004
0.631174 0.709514 0.938552
0.850523 0.737148 0.958526
0.963577 0.756374 0.967727
0.000000 0.561532 0.784222
0.002167 0.700389 0.876280
0.272328 0.809308 0.936584
0.647242 0.866209 0.967315
0.883375 0.900786 0.985275
0.999222 0.917540 0.992538
0.000000 0.618891 0.803723
0.002441 0.776455 0.898589
0.281407 0.885695 0.952987
0.657786 0.946151 0.980850
0.896544 0.985351 0.998352
1.000000 1.000000 1.000000
