All_In_One/Enrich_Colormaster/colormanagement/luts/film_response/film_tv.cube
TITLE "Generate by Resolve"
LUT_3D_SIZE 21
0.000000 0.000000 0.000000
0.021424 0.000000 0.001251
0.038575 0.001434 0.000565
0.057847 0.007950 0.000031
0.084688 0.007355 0.000000
0.113161 0.003143 0.000000
0.140932 0.000473 0.000000
0.171679 0.000198 0.000000
0.202274 0.000015 0.000000
0.235538 0.000000 0.000000
0.268635 0.000000 0.000000
0.307179 0.000000 0.000000
0.347219 0.000000 0.000000
0.383291 0.000000 0.000000
0.418555 0.000000 0.000000
0.458045 0.000000 0.000000
0.499763 0.000000 0.000000
0.533013 0.000000 0.000000
0.564569 0.000000 0.000000
0.586328 0.000000 0.000000
0.606989 0.000000 0.000000
0.000000 0.019257 0.001404
0.021836 0.020066 0.001785
0.039826 0.024979 0.006134
0.061707 0.029877 0.005173
0.093095 0.030671 0.001450
0.124834 0.029725 0.000259
0.155779 0.025284 0.000000
0.189502 0.016785 0.000000
0.222568 0.009613 0.000000
0.258824 0.003861 0.000000
0.293843 0.000992 0.000000
0.334905 0.000427 0.000000
0.376852 0.000168 0.000000
0.414603 0.000168 0.000000
0.452018 0.000168 0.000000
0.492195 0.000168 0.000000
0.534310 0.000168 0.000000
0.568551 0.000168 0.000000
0.598795 0.000168 0.000000
0.619821 0.000168 0.000000
0.639658 0.000168 0.000000
0.000000 0.037385 0.010407
0.022416 0.039002 0.009277
0.044221 0.042878 0.009796
0.068101 0.049470 0.010727
0.103319 0.054795 0.005341
0.139406 0.058152 0.001312
0.173831 0.057237 0.000076
0.212818 0.052415 0.000000
0.249027 0.042191 0.000000
0.289113 0.026566 0.000000
0.327184 0.014694 0.000000
0.371450 0.006027 0.000000
0.416220 0.002426 0.000000
0.456107 0.001389 0.000000
0.495201 0.001053 0.000000
0.536019 0.000885 0.000000
0.578454 0.000778 0.000000
0.612863 0.000626 0.000000
0.642405 0.000565 0.000000
0.662409 0.000580 0.000000
0.681453 0.000610 0.000000
0.000000 0.058915 0.017182
0.016785 0.061952 0.016480
0.042969 0.067628 0.014206
0.075578 0.075532 0.010315
0.115236 0.083513 0.003113
0.155673 0.089586 0.000824
0.194949 0.093309 0.000015
0.238102 0.093645 0.000015
0.280034 0.092851 0.000000
0.322774 0.085756 0.000000
0.364645 0.076127 0.000000
0.412009 0.058045 0.000000
0.460121 0.037659 0.000000
0.502083 0.026871 0.000000
0.541634 0.021836 0.000000
0.583963 0.018006 0.000000
0.627222 0.015824 0.000000
0.660807 0.014084 0.000000
0.690028 0.010880 0.000000
0.709224 0.010849 0.000000
0.727504 0.011475 0.000000
0.000000 0.083970 0.017807
0.004883 0.088136 0.016556
0.039338 0.095338 0.013184
0.080583 0.105364 0.005463
0.127398 0.117128 0.001938
0.172580 0.125978 0.000259
0.215717 0.132708 0.000000
0.262547 0.137575 0.000000
0.306905 0.140215 0.000000
0.353048 0.140978 0.000000
0.397711 0.138918 0.000000
0.446860 0.134478 0.000000
0.496971 0.126864 0.000000
0.540383 0.115877 0.000000
0.582040 0.108446 0.000000
0.624994 0.098894 0.000000
0.668971 0.088319 0.000000
0.702937 0.078889 0.000000
0.732174 0.068101 0.000000
0.751247 0.064408 0.000000
0.769528 0.067872 0.000000
0.000000 0.107179 0.015518
0.002197 0.112657 0.012726
0.033982 0.121736 0.006882
0.084031 0.133837 0.002335
0.135775 0.148699 0.000702
0.186740 0.162234 0.000061
0.232288 0.170672 0.000000
0.283589 0.179187 0.000000
0.329625 0.183932 0.000000
0.378256 0.188312 0.000000
0.424750 0.190021 0.000000
0.476158 0.191180 0.000000
0.528084 0.189136 0.000000
0.572274 0.185962 0.000000
0.614420 0.182361 0.000000
0.659251 0.177417 0.000000
0.704036 0.169451 0.000000
0.738170 0.163226 0.000000
0.767697 0.158419 0.000000
0.786770 0.155932 0.000000
0.805005 0.159869 0.000000
0.000000 0.128084 0.011444
0.001022 0.135134 0.008789
0.028214 0.145968 0.003525
0.084993 0.160830 0.000336
0.142336 0.178408 0.000031
0.195956 0.193729 0.000000
0.246647 0.206409 0.000000
0.298497 0.215381 0.000000
0.348409 0.223529 0.000000
0.398123 0.229114 0.000000
0.446540 0.233677 0.000000
0.499260 0.237201 0.000000
0.552514 0.238483 0.000000
0.598505 0.239445 0.000000
0.641016 0.238254 0.000000
0.686625 0.237064 0.000000
0.732631 0.234302 0.000000
0.767010 0.232761 0.000000
0.796704 0.232776 0.000000
0.815854 0.233997 0.000000
0.834043 0.237949 0.000000
0.000000 0.149828 0.005219
0.000366 0.158465 0.003922
0.014740 0.172274 0.002655
0.080461 0.189776 0.000183
0.147158 0.210224 0.000031
0.206302 0.229068 0.000000
0.257679 0.242191 0.000000
0.314595 0.255146 0.000000
0.364813 0.263630 0.000000
0.417243 0.271992 0.000000
0.466896 0.277882 0.000000
0.520821 0.283665 0.000000
0.575723 0.287968 0.000000
0.622141 0.289845 0.000000
0.665904 0.291142 0.000000
0.712291 0.292302 0.000000
0.759106 0.292012 0.000000
0.793835 0.292256 0.000000
0.823880 0.294484 0.000000
0.842878 0.296422 0.000000
0.861036 0.300603 0.000000
0.000000 0.170901 0.001236
0.000168 0.180819 0.000687
0.011887 0.196292 0.000214
0.076905 0.217609 0.000031
0.149477 0.240009 0.000000
0.212497 0.260288 0.000000
0.268605 0.276631 0.000000
0.325887 0.289876 0.000000
0.380255 0.301778 0.000000
0.432822 0.310307 0.000000
0.484825 0.318593 0.000000
0.539620 0.325567 0.000000
0.595468 0.331579 0.000000
0.643290 0.335744 0.000000
0.687587 0.338170 0.000000
0.734676 0.340902 0.000000
0.782605 0.343526 0.000000
0.817700 0.345174 0.000000
0.848066 0.348974 0.000000
0.867033 0.351980 0.000000
0.885130 0.356268 0.000000
0.000000 0.192935 0.000519
0.000168 0.204318 0.000305
0.009094 0.221942 0.000061
0.069917 0.244862 0.000000
0.152255 0.270405 0.000000
0.220600 0.293156 0.000000
0.278172 0.310506 0.000000
0.338567 0.326207 0.000000
0.393118 0.338262 0.000000
0.448707 0.349584 0.000000
0.500786 0.357992 0.000000
0.556924 0.366751 0.000000
0.613596 0.373907 0.000000
0.662287 0.379232 0.000000
0.707530 0.382849 0.000000
0.755001 0.386862 0.000000
0.803326 0.390311 0.000000
0.839261 0.393301 0.000000
0.869749 0.397864 0.000000
0.888808 0.401465 0.000000
0.906691 0.405737 0.000000
0.000000 0.214801 0.000031
0.000168 0.227176 0.000015
0.008164 0.246296 0.000000
0.064286 0.271519 0.000000
0.151766 0.299443 0.000000
0.224979 0.323980 0.000000
0.286702 0.343282 0.000000
0.348562 0.360159 0.000000
0.405783 0.374334 0.000000
0.461494 0.385748 0.000000
0.516533 0.396918 0.000000
0.572686 0.405737 0.000000
0.630732 0.414755 0.000000
0.680186 0.421103 0.000000
0.726528 0.426154 0.000000
0.774655 0.431006 0.000000
0.823423 0.435966 0.000000
0.860410 0.440467 0.000000
0.890990 0.445655 0.000000
0.910231 0.449943 0.000000
0.927901 0.454322 0.000000
0.000000 0.239277 0.000000
0.000168 0.253437 0.000000
0.003250 0.274754 0.000000
0.052308 0.302495 0.000000
0.153033 0.333104 0.000000
0.232593 0.360342 0.000000
0.297108 0.381109 0.000000
0.361563 0.399313 0.000000
0.420157 0.414527 0.000000
0.477897 0.427482 0.000000
0.533028 0.438727 0.000000
0.592325 0.450492 0.000000
0.650355 0.459571 0.000000
0.699992 0.466590 0.000000
0.746471 0.472053 0.000000
0.796033 0.478904 0.000000
0.844678 0.484352 0.000000
0.881514 0.489265 0.000000
0.912123 0.495094 0.000000
0.931105 0.499168 0.000000
0.948989 0.504356 0.000000
0.000000 0.264759 0.000000
0.000168 0.280324 0.000000
0.001816 0.303548 0.000000
0.037934 0.333700 0.000000
0.151492 0.367117 0.000000
0.237079 0.396612 0.000000
0.305303 0.418997 0.000000
0.373236 0.439017 0.000000
0.433814 0.455283 0.000000
0.492882 0.469261 0.000000
0.550118 0.482109 0.000000
0.609522 0.493980 0.000000
0.670817 0.506142 0.000000
0.720439 0.513191 0.000000
0.766934 0.519326 0.000000
0.816831 0.526741 0.000000
0.866926 0.534218 0.000000
0.903181 0.539498 0.000000
0.933989 0.546059 0.000000
0.952422 0.549935 0.000000
0.970474 0.555856 0.000000
0.000000 0.288212 0.000000
0.000168 0.305119 0.000000
0.001511 0.330266 0.000000
0.031708 0.362631 0.000000
0.146883 0.397681 0.000000
0.239872 0.428489 0.000000
0.312810 0.453269 0.000000
0.381796 0.474006 0.000000
0.444999 0.491936 0.000000
0.505394 0.506996 0.000000
0.563851 0.520745 0.000000
0.624063 0.533455 0.000000
0.685435 0.545693 0.000000
0.738201 0.555520 0.000000
0.784695 0.561730 0.000000
0.834302 0.569528 0.000000
0.885390 0.578073 0.000000
0.921935 0.583932 0.000000
0.952361 0.590280 0.000000
0.970062 0.594354 0.000000
0.985412 0.599695 0.000000
0.000000 0.311513 0.000000
0.000168 0.329976 0.000000
0.001465 0.357046 0.000000
0.029633 0.390860 0.000000
0.146197 0.428458 0.000000
0.242756 0.460029 0.000000
0.317952 0.485344 0.000000
0.389822 0.508034 0.000000
0.454322 0.526818 0.000000
0.516091 0.543099 0.000000
0.576150 0.558251 0.000000
0.636881 0.571405 0.000000
0.699107 0.584558 0.000000
0.751949 0.594491 0.000000
0.801587 0.603326 0.000000
0.851057 0.611185 0.000000
0.901701 0.619867 0.000000
0.939483 0.626642 0.000000
0.969345 0.632517 0.000000
0.985901 0.636500 0.000000
0.996262 0.640497 0.000000
0.000000 0.337011 0.000000
0.000168 0.356435 0.000000
0.001434 0.385351 0.000000
0.028840 0.421195 0.000000
0.145022 0.460060 0.000000
0.245212 0.493767 0.000000
0.324254 0.520333 0.000000
0.398779 0.544198 0.000000
0.465126 0.564202 0.000000
0.528481 0.581430 0.000000
0.589532 0.597436 0.000000
0.652720 0.612314 0.000000
0.715618 0.625956 0.000000
0.768322 0.636286 0.000000
0.817792 0.645136 0.000000
0.869642 0.655131 0.000000
0.919722 0.663523 0.000000
0.956939 0.670222 0.000000
0.981689 0.675837 0.000000
0.994522 0.679133 0.000000
1.000000 0.682948 0.000000
0.000000 0.363500 0.000000
0.000168 0.384543 0.000000
0.001434 0.414984 0.000000
0.028870 0.452888 0.000000
0.144305 0.493233 0.000000
0.246708 0.528115 0.000000
0.328817 0.556115 0.000000
0.406027 0.581201 0.000000
0.475624 0.602762 0.000000
0.539864 0.620615 0.000000
0.602747 0.637720 0.000000
0.665873 0.652674 0.000000
0.731319 0.668055 0.000000
0.785748 0.679515 0.000000
0.834623 0.688441 0.000000
0.886122 0.698238 0.000000
0.938231 0.708339 0.000000
0.973587 0.714183 0.000000
0.994079 0.719554 0.000000
0.999298 0.722469 0.000000
1.000000 0.725963 0.000000
0.000000 0.384054 0.000000
0.000168 0.407691 0.000000
0.001480 0.440024 0.000000
0.029175 0.479301 0.000000
0.144549 0.520836 0.000000
0.248737 0.556359 0.000000
0.332967 0.584939 0.000000
0.411002 0.610620 0.000000
0.481468 0.632761 0.000000
0.546792 0.651423 0.000000
0.611139 0.669627 0.000000
0.674113 0.684627 0.000000
0.738781 0.699733 0.000000
0.793790 0.711666 0.000000
0.844816 0.721950 0.000000
0.896666 0.731960 0.000000
0.948318 0.741573 0.000000
0.983734 0.748104 0.000000
0.998428 0.753399 0.000000
1.000000 0.756497 0.000000
1.000000 0.758755 0.000000
0.000000 0.402625 0.000000
0.000168 0.427649 0.000000
0.001541 0.461646 0.000000
0.030732 0.502510 0.000000
0.149020 0.545342 0.000000
0.255161 0.581445 0.000000
0.340658 0.610300 0.000000
0.420279 0.636683 0.000000
0.491859 0.659358 0.000000
0.557351 0.678187 0.000000
0.621576 0.696468 0.000000
0.684672 0.711833 0.000000
0.749737 0.727352 0.000000
0.804425 0.739391 0.000000
0.855314 0.749660 0.000000
0.907454 0.759838 0.000000
0.958099 0.769650 0.000000
0.991958 0.776196 0.000000
0.998795 0.781369 0.000000
1.000000 0.784619 0.000000
1.000000 0.787060 0.000000
0.000000 0.414939 0.000000
0.000168 0.442588 0.000000
0.001709 0.478584 0.000000
0.034028 0.520638 0.000000
0.159854 0.564065 0.000000
0.267643 0.600504 0.000000
0.353582 0.629419 0.000000
0.432410 0.655497 0.000000
0.503380 0.677928 0.000000
0.568353 0.696635 0.000000
0.632898 0.715099 0.000000
0.695018 0.730129 0.000000
0.759243 0.745525 0.000000
0.813718 0.757641 0.000000
0.864210 0.768063 0.000000
0.915633 0.778164 0.000000
0.965621 0.787930 0.000000
0.996185 0.794644 0.000000
0.999771 0.799817 0.000000
1.000000 0.803006 0.000000
1.000000 0.805234 0.000000
0.000000 0.431113 0.000000
0.000168 0.460700 0.000000
0.001801 0.499153 0.000000
0.036606 0.542290 0.000000
0.174334 0.586038 0.000000
0.286442 0.622293 0.000000
0.372519 0.650919 0.000000
0.449546 0.676326 0.000000
0.518959 0.698192 0.000000
0.582483 0.716289 0.000000
0.645045 0.733974 0.000000
0.706905 0.748730 0.000000
0.770428 0.763684 0.000000
0.823285 0.775433 0.000000
0.871550 0.785580 0.000000
0.922316 0.795636 0.000000
0.971206 0.805280 0.000000
0.997497 0.811810 0.000000
0.999893 0.817060 0.000000
1.000000 0.820142 0.000000
1.000000 0.821485 0.000000
0.000565 0.002258 0.023728
0.021088 0.003326 0.024964
0.036530 0.008774 0.027771
0.057847 0.013260 0.027359
0.087098 0.010040 0.025803
0.117556 0.003952 0.024491
0.146624 0.000626 0.021973
0.178164 0.000229 0.016251
0.209216 0.000015 0.010681
0.242756 0.000000 0.005402
0.275914 0.000000 0.002731
0.314931 0.000000 0.001450
0.355261 0.000000 0.000778
0.391272 0.000000 0.000488
0.426627 0.000000 0.000183
0.465171 0.000000 0.000168
0.505592 0.000000 0.000168
0.539452 0.000000 0.000168
0.570199 0.000000 0.000168
0.592111 0.000000 0.000168
0.612573 0.000000 0.000168
0.000000 0.021759 0.027481
0.024628 0.024628 0.024628
0.039536 0.028824 0.031006
0.063310 0.033188 0.032502
0.097307 0.033188 0.030976
0.131624 0.031617 0.028046
0.164813 0.025132 0.023941
0.200244 0.014435 0.017594
0.234485 0.007172 0.011582
0.271992 0.002914 0.005631
0.308049 0.000626 0.002701
0.347723 0.000305 0.001175
0.388098 0.000168 0.000397
0.426551 0.000168 0.000290
0.466011 0.000168 0.000168
0.503716 0.000168 0.000168
0.542138 0.000168 0.000168
0.577981 0.000168 0.000168
0.606317 0.000168 0.000168
0.626917 0.000168 0.000168
0.645838 0.000168 0.000168
0.000000 0.039551 0.035554
0.019989 0.040681 0.033906
0.044617 0.045167 0.034958
0.071077 0.052140 0.037156
0.108644 0.057496 0.034348
0.147646 0.060563 0.028855
0.184085 0.059373 0.022599
0.224887 0.053681 0.015656
0.262516 0.042191 0.010132
0.304128 0.026688 0.005081
0.343359 0.015213 0.002319
0.384985 0.007233 0.000961
0.427283 0.003845 0.000198
0.468437 0.002075 0.000198
0.510399 0.001221 0.000168
0.548028 0.000992 0.000168
0.586496 0.000900 0.000168
0.622690 0.000824 0.000168
0.650172 0.000793 0.000168
0.669841 0.000793 0.000168
0.687999 0.000763 0.000168
0.000000 0.062440 0.040620
0.009812 0.065492 0.040558
0.041215 0.071229 0.040192
0.078584 0.079240 0.039231
0.121202 0.087449 0.034699
0.164538 0.093385 0.025757
0.205951 0.097017 0.015946
0.250507 0.097322 0.008774
0.293523 0.096361 0.004883
0.337057 0.089204 0.002411
0.379644 0.079759 0.001236
0.424262 0.063722 0.000595
0.469825 0.046510 0.000168
0.512749 0.034806 0.000168
0.554894 0.025254 0.000168
0.594675 0.020417 0.000168
0.634455 0.017975 0.000168
0.670268 0.016464 0.000168
0.697765 0.014359 0.000168
0.716899 0.013962 0.000168
0.733959 0.013092 0.000168
0.000000 0.087739 0.042481
0.002884 0.092302 0.042664
0.037110 0.100053 0.041627
0.083177 0.110887 0.037415
0.133455 0.122698 0.030106
0.182040 0.131868 0.019486
0.227573 0.138689 0.010956
0.276036 0.143648 0.004990
0.321584 0.146242 0.002289
0.369116 0.146700 0.000809
0.414755 0.144579 0.000214
0.460517 0.140215 0.000198
0.507225 0.133532 0.000168
0.552071 0.123278 0.000168
0.597436 0.114931 0.000168
0.637156 0.105715 0.000168
0.677089 0.097215 0.000168
0.714015 0.088212 0.000168
0.741344 0.080766 0.000168
0.760235 0.076967 0.000168
0.776715 0.072724 0.000168
0.000000 0.111437 0.042557
0.001389 0.117464 0.042344
0.029557 0.127169 0.039292
0.085618 0.140612 0.031113
0.141756 0.155993 0.020874
0.196216 0.169482 0.011795
0.244297 0.178103 0.005097
0.297322 0.186755 0.002853
0.344656 0.191531 0.000763
0.394583 0.195727 0.000473
0.442237 0.197269 0.000168
0.490349 0.197787 0.000168
0.538857 0.195758 0.000168
0.584329 0.193103 0.000168
0.630182 0.189471 0.000168
0.671962 0.184695 0.000168
0.712459 0.178683 0.000168
0.749722 0.172778 0.000168
0.777111 0.169390 0.000168
0.796002 0.167025 0.000168
0.812711 0.165942 0.000168
0.000000 0.132998 0.041367
0.000687 0.140673 0.039673
0.024491 0.152193 0.034333
0.085954 0.168673 0.022538
0.148425 0.187091 0.012863
0.205783 0.202502 0.005478
0.259037 0.215366 0.002594
0.312657 0.224491 0.000839
0.363973 0.232654 0.000305
0.415091 0.238056 0.000214
0.464561 0.242542 0.000168
0.514290 0.245533 0.000168
0.564172 0.246326 0.000168
0.611078 0.247349 0.000168
0.657267 0.246571 0.000168
0.699779 0.245914 0.000168
0.741283 0.243931 0.000168
0.778851 0.242924 0.000168
0.806302 0.243397 0.000168
0.825299 0.244984 0.000168
0.842359 0.246799 0.000168
0.000000 0.155520 0.037217
0.000290 0.164630 0.033570
0.013764 0.179202 0.025147
0.081529 0.198306 0.014252
0.153338 0.219959 0.006455
0.216587 0.239002 0.003189
0.270573 0.252338 0.000839
0.329427 0.265705 0.000732
0.381079 0.274189 0.000198
0.435065 0.282338 0.000183
0.485863 0.288121 0.000168
0.536950 0.293309 0.000168
0.588540 0.296986 0.000168
0.635782 0.298985 0.000168
0.682811 0.300771 0.000168
0.725978 0.302281 0.000168
0.768139 0.302617 0.000168
0.805814 0.303731 0.000168
0.833570 0.306050 0.000168
0.852384 0.308324 0.000168
0.869718 0.311315 0.000168
0.000000 0.177386 0.031769
0.000168 0.188052 0.025727
0.011063 0.204425 0.016312
0.077790 0.227344 0.008774
0.155581 0.251133 0.002945
0.222873 0.271748 0.000885
0.281910 0.288365 0.000305
0.341176 0.302068 0.000198
0.397421 0.314382 0.000168
0.451560 0.322667 0.000168
0.504799 0.330861 0.000168
0.556451 0.336919 0.000168
0.609079 0.342290 0.000168
0.658167 0.346899 0.000168
0.705531 0.349783 0.000168
0.748974 0.352605 0.000168
0.792264 0.355825 0.000168
0.830228 0.358663 0.000168
0.858045 0.362081 0.000168
0.876844 0.365332 0.000168
0.894026 0.368368 0.000168
0.000000 0.200610 0.024903
0.000168 0.213733 0.015396
0.008057 0.232609 0.008301
0.069169 0.257008 0.004059
0.157580 0.284382 0.001236
0.231022 0.307500 0.000565
0.291752 0.325216 0.000214
0.354589 0.341665 0.000183
0.411048 0.354131 0.000168
0.469230 0.365972 0.000168
0.522560 0.374289 0.000168
0.574929 0.381567 0.000168
0.628092 0.387808 0.000168
0.678645 0.394110 0.000168
0.727718 0.398932 0.000168
0.770703 0.402106 0.000168
0.814176 0.405966 0.000168
0.853162 0.410376 0.000168
0.880781 0.414099 0.000168
0.899733 0.418173 0.000168
0.916045 0.419501 0.000168
0.000000 0.223239 0.017914
0.000168 0.238346 0.007935
0.007172 0.258854 0.003693
0.062943 0.285664 0.001663
0.156512 0.315633 0.000305
0.235126 0.340673 0.000183
0.300618 0.360418 0.000168
0.365148 0.378164 0.000168
0.424628 0.392981 0.000168
0.482918 0.404913 0.000168
0.540047 0.416510 0.000168
0.592447 0.423850 0.000168
0.646448 0.431449 0.000168
0.697597 0.438605 0.000168
0.748547 0.445670 0.000168
0.792538 0.450095 0.000168
0.835355 0.454261 0.000168
0.875639 0.460487 0.000168
0.903197 0.464561 0.000168
0.922133 0.469154 0.000168
0.937652 0.469306 0.000168
0.000000 0.249088 0.009583
0.000168 0.264912 0.004532
0.003098 0.287312 0.001709
0.051911 0.316670 0.000763
0.156634 0.348669 0.000229
0.241184 0.376196 0.000183
0.309545 0.397421 0.000168
0.376547 0.416449 0.000168
0.436957 0.432105 0.000168
0.496544 0.445182 0.000168
0.553719 0.456840 0.000168
0.610361 0.467826 0.000168
0.664363 0.475410 0.000168
0.714870 0.482536 0.000168
0.765789 0.489815 0.000168
0.812345 0.496544 0.000168
0.854871 0.500679 0.000168
0.894850 0.506981 0.000168
0.922927 0.512047 0.000168
0.941497 0.515923 0.000168
0.957870 0.518380 0.000168
0.000000 0.275547 0.004257
0.000168 0.291707 0.002045
0.001770 0.315740 0.000427
0.038071 0.347646 0.000168
0.154269 0.381888 0.000168
0.244434 0.411383 0.000168
0.316258 0.434073 0.000168
0.386542 0.454841 0.000168
0.448890 0.471519 0.000168
0.509270 0.485328 0.000168
0.567712 0.498146 0.000168
0.624353 0.509163 0.000168
0.682643 0.520409 0.000168
0.733135 0.527581 0.000168
0.783230 0.534707 0.000168
0.830213 0.541939 0.000168
0.875364 0.548440 0.000168
0.914427 0.554482 0.000168
0.942855 0.560189 0.000168
0.961151 0.564141 0.000168
0.978317 0.568978 0.000168
0.000000 0.299611 0.002609
0.000168 0.317861 0.000916
0.001450 0.344182 0.000366
0.031205 0.378439 0.000168
0.148562 0.414633 0.000168
0.247135 0.445640 0.000168
0.323339 0.470314 0.000168
0.394766 0.491676 0.000168
0.460151 0.510170 0.000168
0.522576 0.525368 0.000168
0.581872 0.538918 0.000168
0.638071 0.549889 0.000168
0.696330 0.561135 0.000168
0.751186 0.571756 0.000168
0.801160 0.578866 0.000168
0.846860 0.585565 0.000168
0.893660 0.593408 0.000168
0.933089 0.600046 0.000168
0.960128 0.605249 0.000168
0.976608 0.609949 0.000168
0.990127 0.613642 0.000168
0.000000 0.323781 0.001404
0.000168 0.344961 0.000214
0.001389 0.373892 0.000214
0.028870 0.409812 0.000168
0.146075 0.449119 0.000168
0.249638 0.481254 0.000168
0.328817 0.506645 0.000168
0.403235 0.529580 0.000168
0.469886 0.548745 0.000168
0.534615 0.565560 0.000168
0.596567 0.580987 0.000168
0.652918 0.592126 0.000168
0.710460 0.603235 0.000168
0.765225 0.613840 0.000168
0.819867 0.624475 0.000168
0.865187 0.630991 0.000168
0.910414 0.638056 0.000168
0.951614 0.646097 0.000168
0.977966 0.651286 0.000168
0.990875 0.655772 0.000168
0.997024 0.656397 0.000168
0.000000 0.349416 0.000717
0.000168 0.370871 0.000168
0.001343 0.401724 0.000168
0.027848 0.439780 0.000168
0.144305 0.479927 0.000168
0.250828 0.514366 0.000168
0.334112 0.541024 0.000168
0.410666 0.564981 0.000168
0.478813 0.584955 0.000168
0.543999 0.602075 0.000168
0.607416 0.618555 0.000168
0.666987 0.632044 0.000168
0.725170 0.643671 0.000168
0.778698 0.653712 0.000168
0.832944 0.664118 0.000168
0.882536 0.673640 0.000168
0.926818 0.680156 0.000168
0.967193 0.688167 0.000168
0.987381 0.693767 0.000168
0.997559 0.697246 0.000168
1.000000 0.699062 0.000168
0.000000 0.375906 0.000168
0.000168 0.398184 0.000168
0.001282 0.430350 0.000168
0.027192 0.470558 0.000168
0.142412 0.511849 0.000168
0.251545 0.547448 0.000168
0.337514 0.575494 0.000168
0.416388 0.600488 0.000168
0.487526 0.622003 0.000168
0.553475 0.639582 0.000168
0.617395 0.656458 0.000168
0.676921 0.670008 0.000168
0.738384 0.684062 0.000168
0.794034 0.695689 0.000168
0.846738 0.705226 0.000168
0.895445 0.714214 0.000168
0.943130 0.723384 0.000168
0.981109 0.730358 0.000168
0.996048 0.735515 0.000168
0.999405 0.739132 0.000168
1.000000 0.742306 0.000168
0.000000 0.397467 0.000168
0.000168 0.423255 0.000168
0.001282 0.457160 0.000168
0.027008 0.498619 0.000168
0.140078 0.541405 0.000168
0.252674 0.578195 0.000168
0.341878 0.607126 0.000168
0.422156 0.632700 0.000168
0.494591 0.654841 0.000168
0.562539 0.673625 0.000168
0.628962 0.691981 0.000168
0.688273 0.705501 0.000168
0.748760 0.719127 0.000168
0.805112 0.731273 0.000168
0.860731 0.742702 0.000168
0.909651 0.751965 0.000168
0.955566 0.760494 0.000168
0.991958 0.768124 0.000168
0.999069 0.773022 0.000168
1.000000 0.776349 0.000168
1.000000 0.777325 0.000168
0.000000 0.416266 0.000290
0.000168 0.443198 0.000168
0.001312 0.478721 0.000168
0.027909 0.521263 0.000168
0.142611 0.564645 0.000168
0.257115 0.601526 0.000168
0.347570 0.630655 0.000168
0.428885 0.656794 0.000168
0.501900 0.679332 0.000168
0.569650 0.698207 0.000168
0.636027 0.716716 0.000168
0.696696 0.731029 0.000168
0.757961 0.745190 0.000168
0.813474 0.757351 0.000168
0.868955 0.768734 0.000168
0.919066 0.778561 0.000168
0.963073 0.787213 0.000168
0.995529 0.794522 0.000168
0.999283 0.799283 0.000168
1.000000 0.802487 0.000168
1.000000 0.804227 0.000168
0.000000 0.429252 0.001541
0.000168 0.459113 0.000168
0.001404 0.496483 0.000168
0.029831 0.539864 0.000168
0.148791 0.583017 0.000168
0.265522 0.619883 0.000168
0.356847 0.648814 0.000168
0.437186 0.674525 0.000168
0.509621 0.696864 0.000168
0.577264 0.715816 0.000168
0.643381 0.734310 0.000168
0.702617 0.748302 0.000168
0.763882 0.762692 0.000168
0.820554 0.775219 0.000168
0.875975 0.786755 0.000168
0.924651 0.796277 0.000168
0.968872 0.805234 0.000168
0.997253 0.812421 0.000168
0.999832 0.817182 0.000168
1.000000 0.820462 0.000168
1.000000 0.821927 0.000168
0.000000 0.445594 0.002884
0.000168 0.477577 0.000168
0.001511 0.517327 0.000168
0.032425 0.561120 0.000168
0.161929 0.604562 0.000168
0.280491 0.640848 0.000168
0.371527 0.669322 0.000168
0.451453 0.694484 0.000168
0.522484 0.716136 0.000168
0.586847 0.734020 0.000168
0.649943 0.751492 0.000168
0.710933 0.765896 0.000168
0.773465 0.780484 0.000168
0.827573 0.792447 0.000168
0.878477 0.803082 0.000168
0.928283 0.812863 0.000168
0.973800 0.822171 0.000168
0.998169 0.829160 0.000168
0.999924 0.834134 0.000168
1.000000 0.837446 0.000168
1.000000 0.838743 0.000168
0.000000 0.009201 0.046021
0.014908 0.010559 0.046281
0.033204 0.014496 0.047318
0.056825 0.015885 0.049683
0.088289 0.014466 0.050752
