All_In_One/Enrich_Colormaster/colormanagement/luts/film_response/film_log.cube
TITLE "Generate by Resolve"
LUT_3D_SIZE 21
0.000000 0.000000 0.000000
0.011627 0.000366 0.001144
0.024033 0.000000 0.001678
0.033310 0.000031 0.001007
0.043091 0.002518 0.000198
0.056031 0.008942 0.000000
0.078706 0.008453 0.000000
0.109682 0.003082 0.000000
0.152300 0.000122 0.000000
0.206928 0.000000 0.000000
0.270497 0.000000 0.000000
0.343297 0.000000 0.000000
0.402731 0.000000 0.000000
0.456504 0.000000 0.000000
0.503685 0.000000 0.000000
0.530694 0.000000 0.000000
0.555169 0.000000 0.000000
0.572717 0.000000 0.000000
0.584298 0.000000 0.000000
0.593378 0.000000 0.000000
0.606928 0.000000 0.000000
0.000366 0.010254 0.000366
0.012818 0.011368 0.001404
0.023270 0.012985 0.000793
0.033219 0.015396 0.002014
0.043992 0.019638 0.003525
0.057862 0.023835 0.001648
0.082918 0.022385 0.000092
0.115740 0.020661 0.000000
0.160372 0.010285 0.000000
0.217258 0.001175 0.000000
0.282734 0.000153 0.000000
0.356847 0.000153 0.000000
0.418677 0.000153 0.000000
0.472984 0.000153 0.000000
0.520577 0.000153 0.000000
0.548669 0.000153 0.000000
0.572213 0.000153 0.000000
0.589578 0.000153 0.000000
0.601007 0.000153 0.000000
0.609735 0.000153 0.000000
0.623331 0.000153 0.000000
0.000000 0.021439 0.000931
0.014893 0.021042 0.000504
0.024247 0.021988 0.001358
0.033677 0.024735 0.003769
0.045060 0.028855 0.008606
0.059678 0.032059 0.006424
0.086839 0.032822 0.002106
0.122194 0.033036 0.000092
0.169802 0.025437 0.000000
0.230243 0.009308 0.000000
0.299031 0.000809 0.000000
0.376135 0.000183 0.000000
0.439246 0.000183 0.000000
0.494606 0.000183 0.000000
0.542245 0.000183 0.000000
0.570260 0.000183 0.000000
0.593606 0.000183 0.000000
0.610071 0.000183 0.000000
0.621378 0.000183 0.000000
0.629740 0.000183 0.000000
0.642786 0.000183 0.000000
0.000000 0.031342 0.006790
0.014343 0.031647 0.004562
0.025284 0.032227 0.004486
0.035584 0.033936 0.007141
0.047807 0.037888 0.011749
0.062867 0.041825 0.010941
0.091676 0.045380 0.005982
0.129488 0.048310 0.000839
0.180880 0.044678 0.000000
0.245350 0.024903 0.000000
0.318105 0.002670 0.000000
0.398245 0.000198 0.000000
0.463905 0.000183 0.000000
0.519310 0.000183 0.000000
0.567407 0.000183 0.000000
0.595392 0.000183 0.000000
0.618311 0.000183 0.000000
0.634562 0.000183 0.000000
0.645243 0.000183 0.000000
0.653559 0.000183 0.000000
0.666209 0.000183 0.000000
0.000000 0.042649 0.013809
0.013031 0.043824 0.013092
0.024567 0.045029 0.012757
0.036103 0.047105 0.012726
0.051255 0.050584 0.013062
0.067796 0.055665 0.012528
0.098589 0.061204 0.006409
0.139086 0.066590 0.001266
0.194385 0.067399 0.000031
0.263828 0.056275 0.000000
0.340414 0.022660 0.000000
0.424292 0.002670 0.000000
0.491554 0.000397 0.000000
0.548577 0.000198 0.000000
0.596368 0.000198 0.000000
0.624842 0.000198 0.000000
0.647669 0.000198 0.000000
0.663676 0.000183 0.000000
0.674144 0.000183 0.000000
0.682002 0.000198 0.000000
0.694682 0.000198 0.000000
0.000000 0.057588 0.017655
0.009751 0.059174 0.017288
0.020325 0.060792 0.017090
0.033783 0.063813 0.016052
0.050813 0.068467 0.014038
0.071778 0.073457 0.011521
0.105867 0.080507 0.003220
0.150088 0.087755 0.000092
0.210285 0.092302 0.000000
0.285298 0.090364 0.000000
0.366720 0.075380 0.000000
0.455360 0.031815 0.000000
0.524330 0.011719 0.000000
0.581842 0.009354 0.000000
0.630808 0.007919 0.000000
0.657862 0.006806 0.000000
0.680629 0.005509 0.000000
0.696422 0.004700 0.000000
0.706432 0.004623 0.000000
0.713832 0.004791 0.000000
0.726207 0.004974 0.000000
0.000000 0.079118 0.018357
0.001678 0.081056 0.017899
0.005921 0.083314 0.017563
0.024140 0.086809 0.016403
0.051392 0.092348 0.012482
0.077028 0.098695 0.005829
0.115099 0.107927 0.001831
0.164172 0.117876 0.000000
0.229343 0.126848 0.000000
0.309209 0.131655 0.000000
0.395026 0.129671 0.000000
0.486076 0.115297 0.000000
0.557916 0.095033 0.000000
0.616602 0.082567 0.000000
0.666239 0.069688 0.000000
0.693767 0.061494 0.000000
0.716518 0.051286 0.000000
0.732265 0.045548 0.000000
0.742306 0.043870 0.000000
0.749813 0.045228 0.000000
0.762264 0.047593 0.000000
0.000000 0.104784 0.016495
0.000153 0.107576 0.015183
0.000839 0.110475 0.013870
0.017060 0.114946 0.009705
0.050477 0.121645 0.005783
0.082155 0.129747 0.001160
0.124529 0.142168 0.000046
0.178988 0.156512 0.000000
0.250019 0.169879 0.000000
0.335027 0.180377 0.000000
0.425025 0.185458 0.000000
0.520180 0.184436 0.000000
0.593515 0.179950 0.000000
0.654322 0.171344 0.000000
0.705196 0.161074 0.000000
0.732845 0.155016 0.000000
0.755779 0.149676 0.000000
0.771908 0.145998 0.000000
0.781903 0.144518 0.000000
0.789334 0.146014 0.000000
0.801923 0.149386 0.000000
0.000000 0.136416 0.008225
0.000153 0.140368 0.006836
0.000336 0.144640 0.004776
0.006012 0.150927 0.002838
0.039185 0.159930 0.000488
0.081697 0.170794 0.000046
0.132738 0.186801 0.000000
0.193637 0.205676 0.000000
0.271855 0.224796 0.000000
0.363012 0.240467 0.000000
0.457694 0.251606 0.000000
0.557076 0.258198 0.000000
0.632914 0.259693 0.000000
0.695430 0.259815 0.000000
0.748012 0.258045 0.000000
0.775677 0.257969 0.000000
0.799069 0.258946 0.000000
0.815335 0.260090 0.000000
0.825330 0.261234 0.000000
0.832547 0.262867 0.000000
0.845243 0.265736 0.000000
0.000000 0.174166 0.000717
0.000153 0.179446 0.000580
0.000183 0.185412 0.000244
0.000534 0.193896 0.000092
0.018982 0.205936 0.000015
0.072465 0.220340 0.000000
0.137133 0.240330 0.000000
0.207477 0.263584 0.000000
0.292622 0.287800 0.000000
0.390509 0.309041 0.000000
0.490303 0.325399 0.000000
0.593286 0.338170 0.000000
0.672251 0.344762 0.000000
0.736171 0.348257 0.000000
0.790845 0.351675 0.000000
0.819089 0.353033 0.000000
0.842847 0.355734 0.000000
0.859388 0.358480 0.000000
0.869307 0.360327 0.000000
0.876173 0.361547 0.000000
0.888884 0.364721 0.000000
0.000000 0.216022 0.000000
0.000153 0.222416 0.000000
0.000183 0.229801 0.000000
0.000198 0.240314 0.000000
0.012955 0.254673 0.000000
0.059174 0.272053 0.000000
0.137575 0.296193 0.000000
0.219196 0.323766 0.000000
0.311879 0.352544 0.000000
0.415427 0.378485 0.000000
0.520073 0.399390 0.000000
0.626245 0.416327 0.000000
0.708080 0.426825 0.000000
0.773846 0.433234 0.000000
0.829099 0.438911 0.000000
0.859144 0.442588 0.000000
0.883085 0.446311 0.000000
0.899748 0.449851 0.000000
0.909880 0.452384 0.000000
0.916716 0.454047 0.000000
0.929091 0.457023 0.000000
0.000000 0.262257 0.000000
0.000153 0.269902 0.000000
0.000183 0.279088 0.000000
0.000183 0.291508 0.000000
0.001083 0.308476 0.000000
0.027359 0.329168 0.000000
0.133654 0.357610 0.000000
0.229694 0.390188 0.000000
0.331594 0.423819 0.000000
0.442145 0.453788 0.000000
0.551583 0.478431 0.000000
0.663142 0.500450 0.000000
0.745296 0.512291 0.000000
0.812787 0.521477 0.000000
0.869596 0.529961 0.000000
0.898680 0.534020 0.000000
0.923125 0.539239 0.000000
0.939559 0.543053 0.000000
0.949081 0.544778 0.000000
0.955871 0.546715 0.000000
0.968795 0.551354 0.000000
0.000000 0.301015 0.000000
0.000153 0.309911 0.000000
0.000183 0.320897 0.000000
0.000183 0.335195 0.000000
0.000214 0.353964 0.000000
0.014984 0.376852 0.000000
0.124544 0.408438 0.000000
0.235492 0.443580 0.000000
0.344060 0.480720 0.000000
0.460548 0.514672 0.000000
0.574578 0.542977 0.000000
0.687694 0.566659 0.000000
0.774639 0.582620 0.000000
0.841978 0.592538 0.000000
0.899748 0.602670 0.000000
0.929915 0.607904 0.000000
0.953918 0.612665 0.000000
0.970077 0.616220 0.000000
0.979477 0.618433 0.000000
0.985306 0.619654 0.000000
0.995865 0.622934 0.000000
0.000000 0.336156 0.000000
0.000153 0.345495 0.000000
0.000183 0.357488 0.000000
0.000183 0.373251 0.000000
0.000214 0.393866 0.000000
0.014649 0.418265 0.000000
0.122957 0.451881 0.000000
0.237751 0.489372 0.000000
0.354238 0.529061 0.000000
0.474891 0.565759 0.000000
0.592294 0.596857 0.000000
0.709072 0.623331 0.000000
0.796201 0.640024 0.000000
0.866896 0.652934 0.000000
0.924041 0.663020 0.000000
0.954543 0.668376 0.000000
0.977981 0.672831 0.000000
0.991821 0.675959 0.000000
0.996536 0.677287 0.000000
0.998764 0.679194 0.000000
1.000000 0.681865 0.000000
0.000000 0.366064 0.000000
0.000153 0.376410 0.000000
0.000183 0.389166 0.000000
0.000183 0.405982 0.000000
0.000214 0.427863 0.000000
0.014435 0.453986 0.000000
0.121218 0.488914 0.000000
0.239033 0.528206 0.000000
0.360601 0.569970 0.000000
0.487663 0.609705 0.000000
0.607599 0.642267 0.000000
0.727214 0.670741 0.000000
0.816220 0.689006 0.000000
0.886168 0.701930 0.000000
0.945220 0.713542 0.000000
0.974594 0.718029 0.000000
0.993225 0.722240 0.000000
0.999542 0.725261 0.000000
1.000000 0.726558 0.000000
1.000000 0.727184 0.000000
1.000000 0.730098 0.000000
0.000000 0.382681 0.000000
0.000153 0.394659 0.000000
0.000183 0.408591 0.000000
0.000183 0.426276 0.000000
0.000214 0.449165 0.000000
0.014374 0.475914 0.000000
0.120882 0.511711 0.000000
0.240406 0.551583 0.000000
0.364034 0.593805 0.000000
0.491661 0.634241 0.000000
0.613809 0.668544 0.000000
0.731991 0.696468 0.000000
0.822751 0.715938 0.000000
0.894057 0.729625 0.000000
0.952819 0.740612 0.000000
0.983734 0.745785 0.000000
0.998230 0.750011 0.000000
1.000000 0.752834 0.000000
1.000000 0.754528 0.000000
1.000000 0.755581 0.000000
1.000000 0.756863 0.000000
0.000000 0.397543 0.000000
0.000153 0.409537 0.000000
0.000183 0.424140 0.000000
0.000183 0.442435 0.000000
0.000214 0.466087 0.000000
0.014633 0.493492 0.000000
0.122911 0.530434 0.000000
0.243732 0.570565 0.000000
0.369711 0.613581 0.000000
0.498756 0.654780 0.000000
0.620569 0.689189 0.000000
0.739773 0.717906 0.000000
0.830137 0.737209 0.000000
0.901732 0.751263 0.000000
0.960388 0.762356 0.000000
0.990478 0.767575 0.000000
0.999176 0.771649 0.000000
1.000000 0.774609 0.000000
1.000000 0.776211 0.000000
1.000000 0.777447 0.000000
1.000000 0.778836 0.000000
0.000000 0.407095 0.000000
0.000153 0.419913 0.000000
0.000183 0.435172 0.000000
0.000183 0.454063 0.000000
0.000214 0.478264 0.000000
0.015091 0.506249 0.000000
0.125994 0.543908 0.000000
0.249134 0.584894 0.000000
0.375799 0.627955 0.000000
0.506081 0.669627 0.000000
0.628443 0.704295 0.000000
0.747356 0.733181 0.000000
0.837217 0.752728 0.000000
0.908949 0.766674 0.000000
0.967483 0.777829 0.000000
0.995224 0.783001 0.000000
0.999863 0.787076 0.000000
1.000000 0.789868 0.000000
1.000000 0.791562 0.000000
1.000000 0.792844 0.000000
1.000000 0.794369 0.000000
0.000000 0.413367 0.000000
0.000153 0.426917 0.000000
0.000183 0.443412 0.000000
0.000183 0.463111 0.000000
0.000214 0.487785 0.000000
0.016037 0.516304 0.000000
0.132387 0.554116 0.000000
0.256977 0.595285 0.000000
0.383536 0.638361 0.000000
0.512810 0.679606 0.000000
0.635126 0.714336 0.000000
0.752636 0.742824 0.000000
0.842634 0.762509 0.000000
0.913237 0.776379 0.000000
0.971862 0.787503 0.000000
0.997513 0.792859 0.000000
1.000000 0.796826 0.000000
1.000000 0.799634 0.000000
1.000000 0.801328 0.000000
1.000000 0.802548 0.000000
1.000000 0.803845 0.000000
0.000000 0.419364 0.000000
0.000153 0.433356 0.000000
0.000183 0.450782 0.000000
0.000183 0.471626 0.000000
0.000214 0.496880 0.000000
0.017105 0.525841 0.000000
0.141527 0.563699 0.000000
0.268681 0.604593 0.000000
0.393683 0.647181 0.000000
0.520729 0.687770 0.000000
0.641016 0.721782 0.000000
0.757382 0.749737 0.000000
0.845884 0.769177 0.000000
0.916777 0.783154 0.000000
0.973678 0.794034 0.000000
0.997955 0.799664 0.000000
1.000000 0.803662 0.000000
1.000000 0.806424 0.000000
1.000000 0.808194 0.000000
1.000000 0.809247 0.000000
1.000000 0.810101 0.000000
0.000000 0.431067 0.000000
0.000153 0.445624 0.000000
0.000183 0.463630 0.000000
0.000183 0.485252 0.000000
0.000214 0.511131 0.000000
0.017960 0.540291 0.000000
0.148653 0.578454 0.000000
0.279576 0.619425 0.000000
0.404395 0.661768 0.000000
0.529732 0.701686 0.000000
0.648463 0.734951 0.000000
0.765087 0.762615 0.000000
0.850965 0.781476 0.000000
0.920897 0.795453 0.000000
0.977783 0.806271 0.000000
0.998581 0.811475 0.000000
1.000000 0.815610 0.000000
1.000000 0.818357 0.000000
1.000000 0.819974 0.000000
1.000000 0.820951 0.000000
1.000000 0.821424 0.000000
0.001083 0.000366 0.011856
0.014252 0.000732 0.014099
0.024079 0.000076 0.018280
0.032532 0.001831 0.019791
0.042298 0.007446 0.018692
0.056001 0.012650 0.017273
0.079744 0.009430 0.015000
0.111955 0.003204 0.014267
0.155520 0.000122 0.008347
0.210559 0.000000 0.001144
0.273960 0.000000 0.000153
0.346578 0.000000 0.000153
0.406912 0.000000 0.000153
0.459464 0.000000 0.000153
0.505959 0.000000 0.000153
0.534096 0.000000 0.000153
0.557549 0.000000 0.000153
0.575433 0.000000 0.000153
0.587289 0.000000 0.000153
0.596231 0.000000 0.000153
0.609873 0.000000 0.000153
0.000732 0.012879 0.013870
0.014511 0.014511 0.014511
0.022354 0.015793 0.018280
0.031266 0.017807 0.020554
0.042298 0.022766 0.021668
0.057359 0.026749 0.020218
0.084230 0.023316 0.017914
0.118929 0.021073 0.015076
0.164981 0.010300 0.008255
0.223209 0.001129 0.001190
0.289815 0.000153 0.000153
0.360998 0.000153 0.000153
0.425971 0.000153 0.000153
0.478477 0.000153 0.000153
0.523445 0.000153 0.000153
0.554070 0.000153 0.000153
0.575814 0.000153 0.000153
0.593149 0.000153 0.000153
0.604700 0.000153 0.000153
0.613108 0.000153 0.000153
0.626444 0.000153 0.000153
0.000000 0.022004 0.018891
0.015503 0.021653 0.018463
0.023941 0.023560 0.020462
0.032578 0.026688 0.021942
0.044678 0.031144 0.024918
0.060533 0.034562 0.024247
0.088899 0.034272 0.021286
0.125750 0.034882 0.015976
0.175143 0.025956 0.008179
0.237110 0.009094 0.001175
0.307179 0.000809 0.000153
0.380941 0.000183 0.000153
0.447013 0.000183 0.000153
0.501167 0.000183 0.000153
0.545586 0.000183 0.000153
0.576211 0.000183 0.000153
0.597925 0.000183 0.000153
0.614328 0.000183 0.000153
0.625742 0.000183 0.000153
0.633738 0.000183 0.000153
0.646403 0.000183 0.000153
0.000000 0.031647 0.024842
0.011292 0.031388 0.023239
0.024460 0.032563 0.023163
0.035325 0.034836 0.024353
0.048371 0.039200 0.026963
0.064759 0.043503 0.027695
0.094102 0.046708 0.024094
0.133669 0.049897 0.017380
0.186770 0.045823 0.008087
0.253300 0.024796 0.001144
0.327337 0.002655 0.000153
0.403265 0.000198 0.000153
0.472663 0.000183 0.000153
0.526223 0.000183 0.000153
0.571099 0.000183 0.000153
0.601740 0.000183 0.000153
0.622812 0.000183 0.000153
0.638987 0.000183 0.000153
0.649775 0.000183 0.000153
0.657816 0.000183 0.000153
0.670146 0.000183 0.000153
0.000000 0.043839 0.030167
0.006210 0.044404 0.029084
0.021332 0.045991 0.028428
0.035660 0.048188 0.027985
0.051667 0.051362 0.028336
0.069764 0.056809 0.029892
0.100923 0.062455 0.025238
0.143465 0.067659 0.015488
0.200748 0.068208 0.006134
0.271748 0.056580 0.000916
0.349905 0.023850 0.000153
0.428840 0.006867 0.000153
0.499962 0.001358 0.000153
0.555978 0.000198 0.000153
0.599863 0.000198 0.000153
0.631189 0.000198 0.000153
0.652140 0.000198 0.000153
0.667979 0.000198 0.000153
0.678599 0.000198 0.000153
0.686107 0.000183 0.000153
0.698512 0.000183 0.000153
0.000000 0.059388 0.033433
0.003143 0.060716 0.032715
0.016190 0.062699 0.032334
0.032517 0.065843 0.031495
0.050660 0.070283 0.030503
0.073732 0.075380 0.030457
0.108537 0.082582 0.024002
0.154818 0.089738 0.009659
0.216739 0.094285 0.001587
0.292805 0.092256 0.000305
0.374609 0.078386 0.000153
0.458534 0.043595 0.000153
0.531014 0.017472 0.000153
0.587610 0.010132 0.000153
0.633677 0.008682 0.000153
0.663798 0.007492 0.000153
0.685039 0.006531 0.000153
0.700786 0.005554 0.000153
0.711101 0.005432 0.000153
0.718135 0.004990 0.000153
0.729931 0.004456 0.000153
0.000000 0.080873 0.034333
0.000748 0.082689 0.033524
0.004913 0.085283 0.033494
0.023026 0.088914 0.033051
0.050950 0.094606 0.030533
0.078935 0.101472 0.026642
0.117952 0.110521 0.020356
0.169512 0.120821 0.007446
0.236881 0.130083 0.000549
0.318608 0.134844 0.000153
0.405585 0.132753 0.000153
0.490486 0.120317 0.000153
0.566979 0.099123 0.000153
0.624247 0.086854 0.000153
0.670161 0.075776 0.000153
0.701427 0.066636 0.000153
0.722408 0.058762 0.000153
0.737881 0.052201 0.000153
0.748119 0.049714 0.000153
0.755032 0.047730 0.000153
0.766384 0.044175 0.000153
0.000000 0.106493 0.033982
0.000153 0.109468 0.032990
0.000702 0.112657 0.032074
0.014771 0.117342 0.030518
0.048386 0.124315 0.025025
0.083772 0.133211 0.016205
0.127565 0.145663 0.009140
0.184222 0.160128 0.004074
0.257542 0.173892 0.000275
0.344396 0.184512 0.000153
0.435615 0.189410 0.000153
0.524697 0.188220 0.000153
0.602655 0.183871 0.000153
0.662257 0.175555 0.000153
0.709148 0.166827 0.000153
0.740826 0.160281 0.000153
0.761654 0.155642 0.000153
0.777478 0.151812 0.000153
0.787808 0.150103 0.000153
0.794903 0.150515 0.000153
0.806439 0.149645 0.000153
0.000000 0.138308 0.028473
0.000153 0.142351 0.026017
0.000305 0.147005 0.020600
0.005097 0.153414 0.017731
0.037461 0.162722 0.012314
0.083314 0.174365 0.006058
0.135958 0.190906 0.001572
0.199069 0.209781 0.000290
0.279332 0.229236 0.000168
0.372366 0.245121 0.000153
0.468147 0.256092 0.000153
0.561593 0.261906 0.000153
0.641855 0.263859 0.000153
0.703090 0.264286 0.000153
0.751629 0.262928 0.000153
0.783322 0.263340 0.000153
0.804410 0.263752 0.000153
0.820340 0.264546 0.000153
0.830762 0.265995 0.000153
0.837919 0.267750 0.000153
0.849821 0.269078 0.000153
0.000000 0.176822 0.015076
0.000153 0.182696 0.012894
0.000183 0.188922 0.006561
0.000488 0.197864 0.002487
0.019272 0.210056 0.001694
0.074403 0.225040 0.000793
0.140139 0.246296 0.000259
0.213321 0.269612 0.000153
0.300938 0.294224 0.000153
0.401434 0.316258 0.000153
0.502663 0.332509 0.000153
0.598993 0.343618 0.000153
0.683055 0.351644 0.000153
0.745007 0.355062 0.000153
0.795422 0.358740 0.000153
0.827634 0.361303 0.000153
0.848798 0.362966 0.000153
0.864820 0.364858 0.000153
0.875319 0.367346 0.000153
0.881773 0.367666 0.000153
0.893477 0.368826 0.000153
0.000000 0.219455 0.003021
0.000153 0.227787 0.002457
0.000183 0.235599 0.001129
0.000214 0.246693 0.000198
0.013291 0.261799 0.000153
0.060716 0.279438 0.000153
0.139849 0.305150 0.000153
0.225010 0.333028 0.000153
0.321218 0.362509 0.000153
0.427924 0.389685 0.000153
0.535042 0.411063 0.000153
0.633753 0.425437 0.000153
0.721416 0.438407 0.000153
0.785489 0.444907 0.000153
0.835233 0.449348 0.000153
0.869673 0.454658 0.000153
0.890761 0.456931 0.000153
0.906645 0.459266 0.000153
0.917372 0.462669 0.000153
0.923949 0.463981 0.000153
0.934310 0.462593 0.000153
0.000000 0.266392 0.000153
0.000153 0.274220 0.000153
0.000183 0.283680 0.000153
0.000183 0.296239 0.000153
0.001114 0.313817 0.000153
0.027741 0.335088 0.000153
0.134920 0.364218 0.000153
0.233722 0.396521 0.000153
0.338231 0.430457 0.000153
0.450568 0.461036 0.000153
0.560693 0.485252 0.000153
0.666331 0.505470 0.000153
0.753231 0.518715 0.000153
0.819669 0.527886 0.000153
0.872206 0.535256 0.000153
0.905379 0.540368 0.000153
0.927443 0.544030 0.000153
0.943801 0.547677 0.000153
0.953902 0.549874 0.000153
0.960693 0.552087 0.000153
0.972793 0.555444 0.000153
0.000000 0.306630 0.000153
0.000153 0.316670 0.000153
0.000183 0.328557 0.000153
0.000183 0.343236 0.000153
0.000214 0.362539 0.000153
0.014862 0.386313 0.000153
0.124575 0.419257 0.000153
0.240131 0.454520 0.000153
0.351827 0.491676 0.000153
0.471336 0.526574 0.000153
0.587030 0.554894 0.000153
0.692058 0.575326 0.000153
0.785000 0.593500 0.000153
0.850355 0.602655 0.000153
0.903502 0.611353 0.000153
0.938170 0.618051 0.000153
0.959731 0.621668 0.000153
0.975128 0.624552 0.000153
0.984710 0.627924 0.000153
0.989242 0.628534 0.000153
0.998444 0.629313 0.000153
0.000000 0.341833 0.000153
0.000153 0.352087 0.000153
0.000183 0.365164 0.000153
0.000183 0.381720 0.000153
0.000214 0.403006 0.000153
0.014527 0.428290 0.000153
0.122484 0.462943 0.000153
0.241077 0.500816 0.000153
0.360845 0.540566 0.000153
0.483818 0.577600 0.000153
0.603479 0.609064 0.000153
0.711772 0.632303 0.000153
0.803983 0.650339 0.000153
0.874647 0.663401 0.000153
0.926955 0.671626 0.000153
0.962158 0.678553 0.000153
0.983063 0.682368 0.000153
0.994858 0.685283 0.000153
0.998062 0.686931 0.000153
0.999374 0.689418 0.000153
1.000000 0.689799 0.000153
0.000000 0.371588 0.000153
0.000153 0.382086 0.000153
0.000183 0.395483 0.000153
0.000183 0.412940 0.000153
0.000214 0.435599 0.000153
0.014176 0.462699 0.000153
0.120226 0.497993 0.000153
0.241749 0.537774 0.000153
0.365682 0.579660 0.000153
0.494514 0.619532 0.000153
0.615412 0.651774 0.000153
0.727199 0.677897 0.000153
0.821332 0.697276 0.000153
0.890867 0.709926 0.000153
0.946792 0.720607 0.000153
0.980484 0.726345 0.000153
0.994888 0.729915 0.000153
0.999817 0.732998 0.000153
1.000000 0.734829 0.000153
1.000000 0.735332 0.000153
1.000000 0.737865 0.000153
0.000000 0.389120 0.000153
0.000153 0.401877 0.000153
0.000183 0.416754 0.000153
0.000183 0.434928 0.000153
0.000214 0.458457 0.000153
0.013931 0.486336 0.000153
0.118456 0.522759 0.000153
0.242954 0.563653 0.000153
0.370184 0.606363 0.000153
0.500374 0.647105 0.000153
0.625025 0.681620 0.000153
0.735027 0.706874 0.000153
0.831754 0.727825 0.000153
0.902602 0.741421 0.000153
0.957092 0.751354 0.000153
0.990982 0.757717 0.000153
0.999130 0.761288 0.000153
1.000000 0.763714 0.000153
1.000000 0.765835 0.000153
1.000000 0.766766 0.000153
1.000000 0.766613 0.000153
0.000000 0.403738 0.000153
0.000153 0.416068 0.000153
0.000183 0.431846 0.000153
0.000183 0.450599 0.000153
0.000214 0.474571 0.000153
0.014176 0.503166 0.000153
0.120073 0.540139 0.000153
0.245686 0.580896 0.000153
0.374762 0.624140 0.000153
0.505562 0.665537 0.000153
0.630045 0.700282 0.000153
0.741817 0.726635 0.000153
0.837934 0.747234 0.000153
0.909438 0.761334 0.000153
0.963455 0.771389 0.000153
0.994690 0.777508 0.000153
0.999603 0.780941 0.000153
1.000000 0.783673 0.000153
1.000000 0.785397 0.000153
1.000000 0.786618 0.000153
1.000000 0.787274 0.000153
0.000000 0.413748 0.000153
0.000153 0.426886 0.000153
0.000183 0.443259 0.000153
0.000183 0.462867 0.000153
0.000214 0.487358 0.000153
0.014572 0.516228 0.000153
0.122972 0.553582 0.000153
0.250523 0.594781 0.000153
0.380041 0.637919 0.000153
0.511162 0.679500 0.000153
0.635279 0.714244 0.000153
0.748486 0.741375 0.000153
0.843030 0.761868 0.000153
0.915007 0.776028 0.000153
0.969390 0.786328 0.000153
0.997101 0.792111 0.000153
1.000000 0.795727 0.000153
1.000000 0.798352 0.000153
1.000000 0.800198 0.000153
1.000000 0.801389 0.000153
1.000000 0.802487 0.000153
0.000000 0.420294 0.000153
0.000153 0.434363 0.000153
0.000183 0.451987 0.000153
0.000183 0.472190 0.000153
0.000214 0.497307 0.000153
0.015167 0.526574 0.000153
0.127443 0.563714 0.000153
0.257404 0.605234 0.000153
0.386816 0.648219 0.000153
0.517723 0.689540 0.000153
0.641917 0.724315 0.000153
0.753460 0.750942 0.000153
0.849485 0.771969 0.000153
0.918776 0.785626 0.000153
0.973327 0.796017 0.000153
0.998260 0.801938 0.000153
1.000000 0.805539 0.000153
1.000000 0.808148 0.000153
1.000000 0.810040 0.000153
1.000000 0.811139 0.000153
1.000000 0.811933 0.000153
0.000000 0.426276 0.000153
0.000153 0.440955 0.000153
0.000183 0.459449 0.000153
0.000183 0.480781 0.000153
0.000214 0.506111 0.000153
0.016190 0.535851 0.000153
0.135119 0.573068 0.000153
0.266957 0.614221 0.000153
0.396155 0.656916 0.000153
0.524132 0.697215 0.000153
0.647501 0.731640 0.000153
0.758526 0.757900 0.000153
0.852079 0.778347 0.000153
0.923308 0.792538 0.000153
0.974868 0.802380 0.000153
0.998505 0.808682 0.000153
1.000000 0.812406 0.000153
1.000000 0.815015 0.000153
1.000000 0.816892 0.000153
1.000000 0.818036 0.000153
1.000000 0.818341 0.000153
0.000000 0.438209 0.000153
0.000153 0.453483 0.000153
0.000183 0.472419 0.000153
0.000183 0.494591 0.000153
0.000214 0.520638 0.000153
0.017166 0.550210 0.000153
0.143084 0.588098 0.000153
0.276844 0.628901 0.000153
0.405325 0.671122 0.000153
0.531792 0.710674 0.000153
0.651011 0.743664 0.000153
0.765530 0.770703 0.000153
0.854154 0.789975 0.000153
0.924331 0.804013 0.000153
0.978515 0.814481 0.000153
0.998947 0.820172 0.000153
1.000000 0.824155 0.000153
1.000000 0.826978 0.000153
1.000000 0.828687 0.000153
1.000000 0.829694 0.000153
1.000000 0.830091 0.000153
0.000000 0.001343 0.026551
0.015686 0.002197 0.026383
0.023713 0.003021 0.027817
0.030900 0.005798 0.029770
0.040925 0.012070 0.030610
