All_In_One/Enrich_Colormaster/colormanagement/luts/film_response/film_log.cube
TITLE "Generate by Resolve"
LUT_3D_SIZE 6
0.000000 0.000000 0.000000
0.043091 0.002518 0.000198
0.152300 0.000122 0.000000
0.402731 0.000000 0.000000
0.555169 0.000000 0.000000
0.606928 0.000000 0.000000
0.000000 0.042649 0.013809
0.051255 0.050584 0.013062
0.194385 0.067399 0.000031
0.491554 0.000397 0.000000
0.647669 0.000198 0.000000
0.694682 0.000198 0.000000
0.000000 0.136416 0.008225
0.039185 0.159930 0.000488
0.271855 0.224796 0.000000
0.632914 0.259693 0.000000
0.799069 0.258946 0.000000
0.845243 0.265736 0.000000
0.000000 0.301015 0.000000
0.000214 0.353964 0.000000
0.344060 0.480720 0.000000
0.774639 0.582620 0.000000
0.953918 0.612665 0.000000
0.995865 0.622934 0.000000
0.000000 0.397543 0.000000
0.000214 0.466087 0.000000
0.369711 0.613581 0.000000
0.830137 0.737209 0.000000
0.999176 0.771649 0.000000
1.000000 0.778836 0.000000
0.000000 0.431067 0.000000
0.000214 0.511131 0.000000
0.404395 0.661768 0.000000
0.850965 0.781476 0.000000
1.000000 0.815610 0.000000
1.000000 0.821424 0.000000
0.000000 0.011017 0.051820
0.037171 0.017502 0.053971
0.164416 0.000595 0.057984
0.420539 0.000000 0.022797
0.568338 0.000000 0.010880
0.619516 0.000000 0.011627
0.000000 0.051484 0.066621
0.059068 0.059068 0.059068
0.215854 0.073533 0.070710
0.518059 0.002121 0.019532
0.665293 0.000198 0.013611
0.709224 0.000198 0.015137
0.000000 0.152407 0.081163
0.011734 0.177707 0.080537
0.292058 0.246738 0.042191
0.655604 0.278157 0.001099
0.818463 0.282673 0.000214
0.862409 0.292363 0.000214
0.000000 0.333944 0.060914
0.000198 0.392172 0.023178
0.357092 0.524681 0.000214
0.798917 0.624338 0.000183
0.971679 0.653849 0.000183
1.000000 0.662669 0.000183
0.000000 0.433768 0.028901
0.000183 0.508507 0.016281
0.375753 0.663676 0.000214
0.850278 0.782742 0.000183
1.000000 0.816388 0.000183
1.000000 0.823484 0.000183
0.000000 0.471015 0.081392
0.000183 0.558160 0.034241
0.392538 0.710323 0.000229
0.855665 0.826917 0.000214
1.000000 0.860487 0.000183
1.000000 0.866545 0.000198
0.000000 0.011887 0.165576
0.005035 0.012985 0.180240
0.170214 0.000000 0.209308
0.437949 0.000000 0.226001
0.581689 0.000000 0.232914
0.629770 0.000000 0.241535
0.000000 0.068803 0.204105
0.002579 0.074678 0.224735
0.216083 0.086351 0.259495
0.531441 0.003525 0.278798
0.677806 0.000214 0.288624
0.720668 0.000214 0.297917
0.000000 0.192889 0.258289
0.000183 0.220447 0.280644
0.297124 0.297124 0.297124
0.668925 0.325567 0.328206
0.828458 0.331914 0.332586
0.871489 0.342016 0.345495
0.000000 0.393286 0.306203
0.000183 0.454139 0.326360
0.295705 0.588800 0.345083
0.790402 0.685115 0.330434
0.965728 0.712093 0.325109
1.000000 0.721630 0.337728
0.000000 0.502846 0.346807
0.000183 0.581125 0.365881
0.265629 0.736996 0.376944
0.827131 0.853788 0.350744
0.999542 0.885908 0.342489
1.000000 0.893095 0.357031
0.000000 0.540658 0.395880
0.000183 0.629862 0.421927
0.275959 0.783368 0.435370
0.827649 0.897734 0.418509
0.999756 0.930755 0.412802
1.000000 0.935866 0.425406
0.000000 0.000000 0.332784
0.000183 0.000000 0.357015
0.164767 0.000000 0.411368
0.446555 0.000000 0.450370
0.589242 0.000000 0.464637
0.635248 0.000000 0.476158
0.000000 0.080964 0.403388
0.000183 0.084123 0.435630
0.204669 0.085878 0.502419
0.543786 0.017914 0.547097
0.687495 0.000229 0.564111
0.729381 0.000229 0.572442
0.000000 0.238758 0.499596
0.000183 0.266468 0.536965
0.224094 0.338582 0.608499
0.666102 0.375616 0.653620
0.829664 0.387854 0.668620
0.872450 0.398291 0.678645
0.000000 0.455436 0.582559
0.000183 0.517510 0.622629
0.144091 0.652033 0.687266
0.749035 0.749035 0.749035
0.947677 0.772183 0.732921
0.990265 0.779522 0.738750
0.000000 0.560967 0.625635
0.000183 0.638178 0.664256
0.134539 0.791074 0.722652
0.790707 0.905180 0.755474
0.986358 0.936187 0.762493
1.000000 0.942489 0.768627
0.000000 0.593851 0.659525
0.000183 0.681254 0.704616
0.142168 0.831907 0.758587
0.789837 0.943130 0.786954
0.988693 0.975616 0.794141
1.000000 0.980636 0.800717
0.000000 0.000000 0.424018
0.000183 0.000000 0.457145
0.156649 0.000000 0.522988
0.455817 0.000000 0.573999
0.600015 0.000000 0.594781
0.646571 0.000000 0.603510
0.000000 0.087800 0.510719
0.000183 0.089754 0.550637
0.188403 0.092988 0.630808
0.550515 0.027695 0.686946
0.699367 0.009766 0.707805
0.742382 0.013138 0.716823
0.000000 0.268421 0.626825
0.000183 0.297887 0.672831
0.160861 0.374655 0.760678
0.666468 0.415000 0.818250
0.834821 0.429877 0.837903
0.879622 0.441382 0.845701
0.000000 0.487434 0.718379
0.000183 0.547311 0.765316
0.119860 0.680339 0.846372
0.746853 0.774105 0.898222
0.936873 0.800092 0.911742
0.982345 0.808240 0.916320
0.000000 0.585412 0.753521
0.000183 0.661662 0.802335
0.106493 0.813504 0.878325
0.766629 0.925917 0.926009
0.955352 0.955352 0.955352
1.000000 0.962020 0.941131
0.000000 0.613199 0.767895
0.000183 0.699474 0.820661
0.119829 0.849012 0.894408
0.769635 0.960143 0.939193
0.975753 0.992599 0.950652
1.000000 0.996994 0.954406
0.000000 0.000000 0.465736
0.000183 0.000000 0.498909
0.149462 0.000000 0.570016
0.462791 0.000000 0.628687
0.609751 0.000000 0.651911
0.656260 0.000000 0.659632
0.000000 0.098817 0.556939
0.000183 0.101457 0.599817
0.168261 0.113649 0.685481
0.550088 0.039384 0.748363
0.709148 0.034119 0.772061
0.754147 0.035447 0.780224
0.000000 0.287984 0.675807
0.000183 0.319081 0.724010
0.123339 0.398444 0.816526
0.661112 0.443488 0.880613
0.838132 0.458610 0.902235
0.884657 0.469261 0.908354
0.000000 0.497078 0.762890
0.000183 0.556771 0.812436
0.106401 0.689158 0.899519
0.731716 0.783536 0.958816
0.931090 0.811154 0.975723
0.979217 0.819532 0.978439
0.000000 0.592645 0.794720
0.000183 0.666987 0.845823
0.090715 0.817304 0.927962
0.750423 0.929732 0.983078
0.963317 0.961700 0.997848
1.000000 0.967346 0.999313
0.000000 0.618769 0.803632
0.000183 0.702434 0.857237
0.103914 0.850568 0.936049
0.756451 0.962875 0.988464
0.968093 0.995010 1.000000
1.000000 1.000000 1.000000
