All_In_One/Enrich_Colormaster/colormanagement/luts/film_response/Fuji3510_CUSPclip.cube
TITLE "Generate by Resolve"
LUT_3D_SIZE 5
0.003922 0.000000 0.003922
0.054902 0.023529 0.015686
0.294118 0.027451 0.000000
0.517647 0.000000 0.000000
0.588235 0.000000 0.000000
0.000000 0.094118 0.043137
0.086275 0.109804 0.047059
0.392157 0.152941 0.000000
0.639216 0.176471 0.000000
0.698039 0.215686 0.000000
0.000000 0.337255 0.137255
0.000000 0.329412 0.043137
0.494118 0.423529 0.000000
0.760784 0.466667 0.000000
0.815686 0.498039 0.000000
0.058824 0.549020 0.243137
0.000000 0.572549 0.164706
0.584314 0.709804 0.000000
0.874510 0.764706 0.058824
0.921569 0.776471 0.070588
0.023529 0.615686 0.290196
0.003922 0.654902 0.000000
0.658824 0.776471 0.000000
0.933333 0.827451 0.086275
0.984314 0.835294 0.098039
0.011765 0.019608 0.070588
0.066667 0.031373 0.078431
0.345098 0.000000 0.078431
0.592157 0.000000 0.066667
0.654902 0.000000 0.078431
0.000000 0.117647 0.121569
0.090196 0.129412 0.125490
0.450980 0.164706 0.105882
0.721569 0.113725 0.043137
0.784314 0.141176 0.062745
0.000000 0.415686 0.278431
0.000000 0.400000 0.207843
0.552941 0.466667 0.098039
0.870588 0.486275 0.000000
0.929412 0.521569 0.000000
0.039216 0.603922 0.376471
0.062745 0.650980 0.345098
0.603922 0.760784 0.000000
0.972549 0.819608 0.000000
1.000000 0.831373 0.090196
0.000000 0.690196 0.529412
0.000000 0.729412 0.450980
0.623529 0.835294 0.396078
0.980392 0.894118 0.360784
1.000000 0.894118 0.411765
0.000000 0.000000 0.294118
0.086275 0.000000 0.313726
0.380392 0.000000 0.345098
0.631373 0.000000 0.360784
0.690196 0.000000 0.380392
0.000000 0.258824 0.439216
0.000000 0.180392 0.419608
0.478431 0.188235 0.450980
0.752941 0.137255 0.450980
0.807843 0.176471 0.474510
0.000000 0.521569 0.584314
0.000000 0.537255 0.592157
0.545098 0.541176 0.556863
0.886275 0.552941 0.556863
0.937255 0.588235 0.568627
0.000000 0.705882 0.678431
0.000000 0.745098 0.686275
0.545098 0.843137 0.635294
0.968628 0.901961 0.631373
1.000000 0.913726 0.643137
0.000000 0.752941 0.764706
0.000000 0.811765 0.776471
0.572549 0.898039 0.768628
0.956863 0.956863 0.768628
1.000000 0.960784 0.772549
0.000000 0.247059 0.513726
0.094118 0.007843 0.517647
0.403922 0.000000 0.576471
0.662745 0.000000 0.600000
0.717647 0.000000 0.619608
0.000000 0.345098 0.627451
0.000000 0.309804 0.643137
0.486275 0.188235 0.721569
0.768628 0.125490 0.733333
0.823529 0.180392 0.756863
0.062745 0.564706 0.741176
0.000000 0.576471 0.772549
0.513726 0.576471 0.850980
0.882353 0.588235 0.866667
0.933333 0.627451 0.878431
0.000000 0.733333 0.819608
0.000000 0.776471 0.854902
0.466667 0.890196 0.921569
0.945098 0.952941 0.941177
1.000000 0.960784 0.945098
0.039216 0.768628 0.850980
0.000000 0.831373 0.894118
0.517647 0.925490 0.949020
0.937255 0.988235 0.968628
1.000000 0.996078 0.972549
0.000000 0.294118 0.580392
0.086275 0.011765 0.615686
0.443137 0.000000 0.686275
0.709804 0.000000 0.705882
0.764706 0.000000 0.729412
0.000000 0.396078 0.674510
0.000000 0.372549 0.709804
0.490196 0.262745 0.803922
0.792157 0.235294 0.823529
0.847059 0.274510 0.843137
0.000000 0.580392 0.772549
0.000000 0.596078 0.803922
0.501961 0.607843 0.909804
0.878431 0.619608 0.929412
0.937255 0.654902 0.941177
0.000000 0.737255 0.835294
0.000000 0.776471 0.874510
0.439216 0.894118 0.964706
0.937255 0.956863 0.992157
0.996078 0.968628 0.996078
0.043137 0.768628 0.862745
0.000000 0.831373 0.909804
0.490196 0.925490 0.972549
0.929412 0.992157 0.996078
1.000000 1.000000 1.000000
