All_In_One/Enrich_Colormaster/colormanagement/luts/film_response/Fuji3513_CUSPclip.cube
TITLE "Generate by Resolve"
LUT_3D_SIZE 33
0.000000 0.000000 0.011765
0.003922 0.000000 0.011765
0.007843 0.000000 0.011765
0.015686 0.003922 0.015686
0.019608 0.007843 0.015686
0.027451 0.011765 0.015686
0.035294 0.015686 0.015686
0.047059 0.019608 0.015686
0.058824 0.023529 0.019608
0.074510 0.027451 0.015686
0.094118 0.031373 0.015686
0.121569 0.031373 0.007843
0.149020 0.035294 0.000000
0.184314 0.027451 0.000000
0.219608 0.023529 0.000000
0.254902 0.011765 0.000000
0.290196 0.000000 0.000000
0.325490 0.000000 0.000000
0.360784 0.000000 0.000000
0.392157 0.000000 0.000000
0.423529 0.000000 0.000000
0.450980 0.000000 0.000000
0.474510 0.000000 0.000000
0.494118 0.000000 0.000000
0.509804 0.000000 0.000000
0.525490 0.000000 0.000000
0.537255 0.000000 0.000000
0.545098 0.000000 0.000000
0.556863 0.000000 0.000000
0.560784 0.000000 0.000000
0.568627 0.000000 0.000000
0.572549 0.000000 0.000000
0.576471 0.000000 0.000000
0.003922 0.007843 0.015686
0.007843 0.007843 0.015686
0.011765 0.007843 0.015686
0.015686 0.007843 0.015686
0.023529 0.015686 0.015686
0.027451 0.015686 0.015686
0.035294 0.019608 0.019608
0.047059 0.023529 0.019608
0.058824 0.027451 0.019608
0.082353 0.031373 0.019608
0.098039 0.035294 0.019608
0.129412 0.039216 0.007843
0.156863 0.039216 0.000000
0.192157 0.039216 0.000000
0.227451 0.031373 0.000000
0.262745 0.027451 0.000000
0.298039 0.015686 0.000000
0.337255 0.000000 0.000000
0.372549 0.000000 0.000000
0.407843 0.000000 0.000000
0.439216 0.000000 0.000000
0.462745 0.015686 0.000000
0.490196 0.015686 0.000000
0.505882 0.000000 0.000000
0.525490 0.000000 0.000000
0.537255 0.000000 0.000000
0.549020 0.000000 0.000000
0.556863 0.000000 0.000000
0.568627 0.000000 0.000000
0.572549 0.039216 0.000000
0.580392 0.039216 0.000000
0.584314 0.039216 0.000000
0.588235 0.039216 0.000000
0.011765 0.019608 0.019608
0.011765 0.019608 0.019608
0.015686 0.019608 0.019608
0.019608 0.019608 0.019608
0.023529 0.019608 0.019608
0.031373 0.023529 0.019608
0.039216 0.023529 0.019608
0.050980 0.027451 0.019608
0.062745 0.031373 0.023529
0.086275 0.035294 0.019608
0.105882 0.039216 0.019608
0.137255 0.043137 0.007843
0.164706 0.047059 0.000000
0.200000 0.043137 0.000000
0.235294 0.043137 0.000000
0.274510 0.039216 0.000000
0.313726 0.035294 0.000000
0.352941 0.015686 0.000000
0.388235 0.000000 0.000000
0.419608 0.000000 0.000000
0.454902 0.000000 0.000000
0.478431 0.019608 0.000000
0.505882 0.035294 0.000000
0.521569 0.015686 0.000000
0.541176 0.000000 0.000000
0.552941 0.000000 0.000000
0.564706 0.000000 0.000000
0.572549 0.000000 0.000000
0.580392 0.000000 0.000000
0.584314 0.043137 0.000000
0.592157 0.082353 0.000000
0.596078 0.086275 0.000000
0.603922 0.086275 0.000000
0.011765 0.027451 0.023529
0.015686 0.027451 0.023529
0.019608 0.027451 0.019608
0.023529 0.027451 0.019608
0.027451 0.031373 0.019608
0.035294 0.031373 0.023529
0.043137 0.035294 0.023529
0.054902 0.039216 0.023529
0.066667 0.039216 0.023529
0.090196 0.047059 0.023529
0.113725 0.050980 0.019608
0.145098 0.050980 0.011765
0.172549 0.054902 0.000000
0.211765 0.054902 0.000000
0.247059 0.054902 0.000000
0.286275 0.054902 0.000000
0.325490 0.050980 0.000000
0.368627 0.050980 0.000000
0.403922 0.031373 0.000000
0.439216 0.031373 0.000000
0.470588 0.031373 0.000000
0.498039 0.043137 0.000000
0.521569 0.062745 0.000000
0.537255 0.050980 0.000000
0.556863 0.031373 0.000000
0.568627 0.035294 0.000000
0.580392 0.035294 0.000000
0.588235 0.039216 0.000000
0.596078 0.039216 0.000000
0.600000 0.062745 0.000000
0.607843 0.105882 0.000000
0.611765 0.105882 0.000000
0.615686 0.109804 0.000000
0.015686 0.039216 0.027451
0.015686 0.039216 0.023529
0.019608 0.035294 0.023529
0.023529 0.039216 0.023529
0.027451 0.039216 0.023529
0.035294 0.039216 0.027451
0.043137 0.043137 0.027451
0.058824 0.047059 0.027451
0.074510 0.050980 0.027451
0.098039 0.054902 0.023529
0.121569 0.058824 0.023529
0.152941 0.062745 0.011765
0.184314 0.066667 0.000000
0.219608 0.066667 0.000000
0.258824 0.066667 0.000000
0.298039 0.070588 0.000000
0.341176 0.070588 0.000000
0.380392 0.070588 0.000000
0.419608 0.070588 0.000000
0.454902 0.070588 0.000000
0.486275 0.070588 0.000000
0.513726 0.078431 0.000000
0.537255 0.086275 0.000000
0.556863 0.078431 0.000000
0.572549 0.070588 0.000000
0.584314 0.074510 0.000000
0.596078 0.078431 0.000000
0.603922 0.082353 0.000000
0.611765 0.086275 0.000000
0.615686 0.105882 0.000000
0.619608 0.125490 0.000000
0.627451 0.125490 0.000000
0.631373 0.129412 0.000000
0.007843 0.047059 0.031373
0.007843 0.047059 0.027451
0.011765 0.047059 0.027451
0.023529 0.047059 0.027451
0.027451 0.047059 0.027451
0.035294 0.050980 0.027451
0.047059 0.054902 0.031373
0.062745 0.058824 0.031373
0.074510 0.062745 0.031373
0.101961 0.066667 0.027451
0.125490 0.070588 0.027451
0.160784 0.074510 0.011765
0.192157 0.078431 0.000000
0.231373 0.082353 0.000000
0.270588 0.082353 0.000000
0.313726 0.086275 0.000000
0.352941 0.090196 0.000000
0.396078 0.090196 0.000000
0.435294 0.090196 0.000000
0.470588 0.094118 0.000000
0.505882 0.094118 0.000000
0.529412 0.098039 0.000000
0.556863 0.105882 0.000000
0.572549 0.109804 0.000000
0.588235 0.101961 0.000000
0.600000 0.105882 0.000000
0.611765 0.113725 0.000000
0.619608 0.117647 0.000000
0.627451 0.121569 0.000000
0.631373 0.125490 0.000000
0.635294 0.141176 0.000000
0.643137 0.149020 0.000000
0.647059 0.152941 0.000000
0.000000 0.058824 0.031373
0.000000 0.058824 0.031373
0.000000 0.058824 0.031373
0.011765 0.058824 0.031373
0.023529 0.058824 0.031373
0.035294 0.062745 0.031373
0.047059 0.066667 0.035294
0.062745 0.070588 0.035294
0.078431 0.074510 0.035294
0.105882 0.078431 0.031373
0.133333 0.082353 0.027451
0.168627 0.090196 0.015686
0.200000 0.094118 0.000000
0.243137 0.098039 0.000000
0.282353 0.101961 0.000000
0.325490 0.105882 0.000000
0.368627 0.105882 0.000000
0.411765 0.109804 0.000000
0.450980 0.109804 0.000000
0.486275 0.113725 0.000000
0.521569 0.117647 0.000000
0.549020 0.121569 0.000000
0.572549 0.121569 0.000000
0.588235 0.129412 0.000000
0.603922 0.137255 0.000000
0.615686 0.141176 0.000000
0.627451 0.145098 0.000000
0.635294 0.149020 0.000000
0.643137 0.152941 0.000000
0.647059 0.152941 0.000000
0.654902 0.156863 0.000000
0.658824 0.168627 0.000000
0.666667 0.176471 0.000000
0.000000 0.074510 0.035294
0.000000 0.074510 0.035294
0.000000 0.074510 0.035294
0.000000 0.074510 0.035294
0.011765 0.074510 0.035294
0.031373 0.074510 0.035294
0.043137 0.078431 0.035294
0.062745 0.082353 0.035294
0.078431 0.086275 0.035294
0.109804 0.094118 0.031373
0.137255 0.098039 0.031373
0.172549 0.105882 0.015686
0.207843 0.109804 0.000000
0.254902 0.117647 0.000000
0.294118 0.117647 0.000000
0.337255 0.125490 0.000000
0.384314 0.129412 0.000000
0.427451 0.133333 0.000000
0.466667 0.137255 0.000000
0.501961 0.141176 0.000000
0.537255 0.141176 0.000000
0.564706 0.149020 0.000000
0.588235 0.149020 0.000000
0.603922 0.149020 0.000000
0.619608 0.156863 0.000000
0.631373 0.160784 0.000000
0.643137 0.164706 0.000000
0.650980 0.168627 0.000000
0.658824 0.172549 0.000000
0.662745 0.184314 0.000000
0.670588 0.184314 0.000000
0.674510 0.188235 0.000000
0.678431 0.196078 0.000000
0.000000 0.086275 0.039216
0.000000 0.086275 0.039216
0.000000 0.086275 0.039216
0.000000 0.090196 0.039216
0.000000 0.090196 0.039216
0.015686 0.090196 0.039216
0.035294 0.094118 0.039216
0.058824 0.098039 0.039216
0.078431 0.101961 0.039216
0.109804 0.105882 0.035294
0.137255 0.113725 0.031373
0.176471 0.121569 0.015686
0.215686 0.129412 0.000000
0.262745 0.133333 0.000000
0.305882 0.137255 0.000000
0.352941 0.145098 0.000000
0.396078 0.149020 0.000000
0.439216 0.152941 0.000000
0.482353 0.160784 0.000000
0.517647 0.164706 0.000000
0.552941 0.168627 0.000000
0.576471 0.172549 0.000000
0.603922 0.176471 0.000000
0.619608 0.176471 0.000000
0.639216 0.176471 0.000000
0.647059 0.184314 0.000000
0.658824 0.188235 0.000000
0.666667 0.192157 0.000000
0.674510 0.196078 0.000000
0.678431 0.203922 0.000000
0.686275 0.215686 0.000000
0.690196 0.215686 0.000000
0.694118 0.219608 0.000000
0.000000 0.105882 0.047059
0.000000 0.105882 0.047059
0.000000 0.105882 0.047059
0.000000 0.105882 0.043137
0.000000 0.105882 0.043137
0.000000 0.109804 0.043137
0.019608 0.109804 0.043137
0.054902 0.117647 0.039216
0.078431 0.121569 0.039216
0.113725 0.129412 0.031373
0.141176 0.133333 0.027451
0.184314 0.141176 0.015686
0.223529 0.149020 0.000000
0.270588 0.156863 0.000000
0.317647 0.160784 0.000000
0.364706 0.168627 0.000000
0.407843 0.172549 0.000000
0.454902 0.180392 0.000000
0.498039 0.184314 0.000000
0.533333 0.192157 0.000000
0.568627 0.196078 0.000000
0.592157 0.196078 0.000000
0.619608 0.200000 0.000000
0.635294 0.203922 0.000000
0.654902 0.203922 0.000000
0.662745 0.207843 0.000000
0.674510 0.215686 0.000000
0.682353 0.219608 0.000000
0.690196 0.223529 0.000000
0.694118 0.231373 0.000000
0.698039 0.239216 0.000000
0.705882 0.243137 0.000000
0.709804 0.243137 0.000000
0.000000 0.129412 0.050980
0.000000 0.129412 0.050980
0.000000 0.129412 0.050980
0.000000 0.125490 0.050980
0.000000 0.125490 0.047059
0.000000 0.125490 0.047059
0.000000 0.129412 0.043137
0.035294 0.133333 0.043137
0.074510 0.141176 0.039216
0.109804 0.149020 0.031373
0.149020 0.156863 0.027451
0.188235 0.164706 0.011765
0.231373 0.172549 0.000000
0.278431 0.180392 0.000000
0.329412 0.184314 0.000000
0.376471 0.192157 0.000000
0.423529 0.200000 0.000000
0.466667 0.203922 0.000000
0.513726 0.211765 0.000000
0.549020 0.215686 0.000000
0.584314 0.223529 0.000000
0.607843 0.223529 0.000000
0.635294 0.227451 0.000000
0.650980 0.227451 0.000000
0.670588 0.231373 0.000000
0.678431 0.235294 0.000000
0.690196 0.239216 0.000000
0.698039 0.243137 0.000000
0.701961 0.247059 0.000000
0.709804 0.258824 0.000000
0.713726 0.266667 0.000000
0.717647 0.266667 0.000000
0.721569 0.270588 0.000000
0.000000 0.152941 0.058824
0.000000 0.152941 0.058824
0.000000 0.152941 0.058824
0.000000 0.152941 0.058824
0.000000 0.152941 0.054902
0.000000 0.152941 0.047059
0.000000 0.152941 0.047059
0.023529 0.160784 0.039216
0.062745 0.164706 0.035294
0.113725 0.172549 0.019608
0.149020 0.180392 0.015686
0.196078 0.192157 0.011765
0.239216 0.196078 0.000000
0.290196 0.207843 0.000000
0.337255 0.215686 0.000000
0.388235 0.223529 0.000000
0.435294 0.231373 0.000000
0.482353 0.235294 0.000000
0.525490 0.243137 0.000000
0.564706 0.250980 0.000000
0.600000 0.254902 0.000000
0.627451 0.258824 0.000000
0.650980 0.262745 0.000000
0.670588 0.262745 0.000000
0.686275 0.266667 0.000000
0.694118 0.270588 0.000000
0.705882 0.274510 0.000000
0.709804 0.278431 0.000000
0.717647 0.282353 0.000000
0.725490 0.286275 0.000000
0.729412 0.294118 0.000000
0.733333 0.301961 0.000000
0.737255 0.305882 0.000000
0.000000 0.180392 0.066667
0.000000 0.180392 0.066667
0.000000 0.176471 0.066667
0.000000 0.176471 0.066667
0.000000 0.176471 0.062745
0.000000 0.176471 0.054902
0.000000 0.176471 0.050980
0.023529 0.184314 0.043137
0.050980 0.188235 0.031373
0.101961 0.196078 0.015686
0.152941 0.207843 0.000000
0.200000 0.215686 0.000000
0.247059 0.223529 0.000000
0.298039 0.235294 0.000000
0.349020 0.243137 0.000000
0.400000 0.250980 0.000000
0.450980 0.262745 0.000000
0.498039 0.266667 0.000000
0.541176 0.274510 0.000000
0.580392 0.282353 0.000000
0.615686 0.286275 0.000000
0.643137 0.294118 0.000000
0.670588 0.298039 0.000000
0.686275 0.298039 0.000000
0.701961 0.301961 0.000000
0.713726 0.305882 0.000000
0.721569 0.309804 0.000000
0.729412 0.313726 0.000000
0.733333 0.317647 0.000000
0.741176 0.321569 0.000000
0.745098 0.325490 0.000000
0.749020 0.333333 0.000000
0.752941 0.341176 0.000000
0.000000 0.211765 0.082353
0.000000 0.211765 0.082353
0.000000 0.211765 0.078431
0.000000 0.211765 0.078431
0.000000 0.211765 0.074510
0.000000 0.211765 0.066667
0.000000 0.211765 0.058824
0.000000 0.211765 0.027451
0.023529 0.215686 0.015686
0.098039 0.227451 0.015686
0.149020 0.235294 0.000000
0.207843 0.247059 0.000000
0.254902 0.258824 0.000000
0.309804 0.270588 0.000000
0.360784 0.278431 0.000000
0.411765 0.290196 0.000000
0.462745 0.298039 0.000000
0.513726 0.305882 0.000000
0.556863 0.313726 0.000000
0.596078 0.317647 0.000000
0.631373 0.325490 0.000000
0.658824 0.333333 0.000000
0.686275 0.337255 0.000000
0.701961 0.341176 0.000000
0.721569 0.341176 0.000000
0.729412 0.345098 0.000000
0.737255 0.349020 0.000000
0.745098 0.352941 0.000000
0.752941 0.356863 0.000000
0.756863 0.364706 0.011765
0.760784 0.364706 0.011765
0.764706 0.368627 0.000000
0.768628 0.376471 0.000000
0.000000 0.243137 0.094118
0.000000 0.243137 0.094118
0.000000 0.243137 0.094118
0.000000 0.243137 0.090196
0.000000 0.243137 0.086275
0.000000 0.243137 0.078431
0.000000 0.243137 0.066667
0.000000 0.243137 0.035294
0.000000 0.247059 0.000000
0.070588 0.254902 0.000000
0.145098 0.266667 0.000000
0.203922 0.278431 0.000000
0.258824 0.290196 0.000000
0.313726 0.301961 0.000000
0.372549 0.317647 0.000000
0.423529 0.325490 0.000000
0.478431 0.337255 0.000000
0.529412 0.345098 0.000000
0.572549 0.352941 0.000000
0.611765 0.356863 0.000000
0.647059 0.364706 0.000000
0.674510 0.368627 0.000000
0.701961 0.376471 0.000000
0.717647 0.380392 0.000000
0.737255 0.384314 0.000000
0.745098 0.384314 0.000000
0.756863 0.388235 0.000000
0.760784 0.392157 0.000000
0.768628 0.396078 0.000000
0.772549 0.403922 0.015686
0.776471 0.407843 0.027451
0.780392 0.411765 0.011765
0.784314 0.415686 0.000000
0.000000 0.282353 0.113725
0.000000 0.286275 0.113725
0.000000 0.286275 0.113725
0.000000 0.286275 0.109804
0.000000 0.286275 0.105882
0.000000 0.286275 0.094118
0.000000 0.286275 0.086275
0.000000 0.282353 0.035294
0.000000 0.282353 0.000000
0.058824 0.294118 0.000000
0.137255 0.305882 0.000000
0.207843 0.321569 0.000000
0.262745 0.333333 0.000000
0.325490 0.349020 0.000000
0.384314 0.360784 0.000000
0.439216 0.372549 0.000000
0.494118 0.384314 0.000000
0.545098 0.392157 0.000000
0.592157 0.400000 0.000000
0.627451 0.403922 0.000000
0.666667 0.411765 0.000000
0.694118 0.415686 0.000000
0.721569 0.423529 0.000000
0.733333 0.423529 0.000000
0.752941 0.427451 0.000000
0.760784 0.427451 0.000000
0.772549 0.431373 0.000000
0.776471 0.435294 0.000000
0.784314 0.439216 0.000000
0.788235 0.443137 0.019608
0.792157 0.450980 0.035294
0.796079 0.454902 0.031373
0.800000 0.458824 0.019608
0.000000 0.325490 0.133333
0.000000 0.325490 0.133333
0.000000 0.325490 0.133333
0.000000 0.325490 0.129412
0.000000 0.325490 0.125490
0.000000 0.329412 0.113725
0.000000 0.329412 0.101961
0.000000 0.325490 0.054902
0.000000 0.321569 0.000000
0.058824 0.333333 0.000000
0.125490 0.341176 0.000000
0.200000 0.356863 0.000000
0.270588 0.372549 0.000000
0.333333 0.388235 0.000000
0.396078 0.403922 0.000000
0.454902 0.415686 0.000000
0.509804 0.431373 0.000000
0.560784 0.439216 0.000000
0.607843 0.447059 0.000000
0.647059 0.450980 0.000000
0.682353 0.458824 0.000000
0.709804 0.462745 0.000000
0.737255 0.466667 0.000000
0.752941 0.470588 0.000000
0.768628 0.470588 0.000000
0.776471 0.470588 0.000000
0.788235 0.474510 0.000000
0.792157 0.478431 0.000000
0.800000 0.478431 0.000000
0.803922 0.486275 0.019608
0.811765 0.490196 0.039216
0.815686 0.498039 0.039216
0.819608 0.505882 0.039216
0.000000 0.364706 0.156863
0.000000 0.368627 0.156863
0.000000 0.368627 0.156863
0.000000 0.368627 0.152941
0.000000 0.368627 0.149020
0.000000 0.368627 0.137255
0.000000 0.368627 0.125490
0.000000 0.368627 0.054902
0.000000 0.364706 0.003922
0.050980 0.372549 0.000000
0.113725 0.384314 0.000000
0.203922 0.403922 0.000000
0.274510 0.419608 0.000000
0.345098 0.435294 0.000000
0.407843 0.450980 0.000000
0.470588 0.466667 0.000000
0.525490 0.478431 0.000000
0.580392 0.490196 0.000000
0.627451 0.498039 0.000000
0.666667 0.505882 0.000000
0.701961 0.509804 0.000000
0.729412 0.513726 0.000000
0.756863 0.517647 0.000000
0.772549 0.517647 0.000000
0.788235 0.517647 0.000000
0.796079 0.521569 0.007843
0.807843 0.521569 0.007843
0.815686 0.525490 0.019608
0.819608 0.529412 0.019608
0.827451 0.533333 0.007843
0.831373 0.541176 0.027451
0.835294 0.545098 0.035294
0.839216 0.552941 0.035294
0.000000 0.407843 0.180392
0.000000 0.407843 0.180392
0.000000 0.411765 0.180392
0.000000 0.411765 0.176471
0.000000 0.411765 0.168627
0.000000 0.411765 0.156863
0.000000 0.411765 0.145098
0.000000 0.407843 0.078431
0.000000 0.403922 0.003922
0.050980 0.415686 0.000000
0.101961 0.423529 0.000000
0.192157 0.443137 0.000000
0.278431 0.462745 0.000000
0.349020 0.482353 0.000000
0.415686 0.498039 0.000000
0.478431 0.513726 0.000000
0.541176 0.529412 0.000000
0.596078 0.541176 0.000000
0.647059 0.552941 0.000000
0.682353 0.556863 0.000000
0.721569 0.564706 0.000000
0.749020 0.564706 0.000000
0.776471 0.568627 0.000000
0.792157 0.568627 0.000000
0.807843 0.568627 0.000000
0.819608 0.568627 0.007843
0.827451 0.572549 0.015686
0.835294 0.572549 0.027451
0.843137 0.576471 0.039216
0.847059 0.580392 0.027451
0.850980 0.588235 0.015686
0.854902 0.592157 0.023529
0.858824 0.600000 0.031373
0.000000 0.439216 0.196078
0.000000 0.443137 0.196078
0.000000 0.443137 0.196078
0.000000 0.447059 0.192157
0.000000 0.447059 0.188235
0.023529 0.447059 0.180392
0.023529 0.447059 0.168627
0.000000 0.443137 0.109804
0.000000 0.439216 0.035294
0.039216 0.450980 0.000000
0.090196 0.462745 0.000000
0.196078 0.482353 0.000000
0.286275 0.501961 0.000000
0.356863 0.521569 0.000000
0.427451 0.537255 0.000000
0.494118 0.556863 0.000000
0.556863 0.572549 0.000000
0.611765 0.588235 0.000000
0.662745 0.600000 0.000000
0.701961 0.603922 0.011765
0.737255 0.607843 0.011765
0.764706 0.611765 0.007843
0.792157 0.611765 0.007843
0.807843 0.611765 0.007843
0.827451 0.611765 0.007843
0.835294 0.611765 0.000000
0.847059 0.615686 0.007843
0.850980 0.619608 0.015686
0.858824 0.623529 0.031373
0.862745 0.623529 0.027451
0.866667 0.631373 0.011765
0.870588 0.631373 0.007843
0.874510 0.639216 0.015686
0.000000 0.470588 0.211765
0.000000 0.474510 0.211765
0.000000 0.478431 0.211765
0.000000 0.478431 0.207843
0.000000 0.478431 0.203922
0.023529 0.482353 0.196078
0.047059 0.482353 0.192157
0.027451 0.478431 0.133333
0.000000 0.478431 0.070588
0.039216 0.486275 0.035294
0.078431 0.498039 0.000000
0.184314 0.517647 0.000000
0.290196 0.541176 0.000000
0.364706 0.560784 0.000000
0.435294 0.580392 0.000000
0.501961 0.600000 0.000000
0.572549 0.615686 0.000000
0.627451 0.631373 0.000000
0.682353 0.647059 0.000000
0.717647 0.650980 0.011765
0.756863 0.654902 0.023529
0.784314 0.654902 0.019608
0.807843 0.654902 0.019608
0.827451 0.658824 0.019608
0.843137 0.658824 0.015686
0.854902 0.658824 0.007843
0.862745 0.658824 0.000000
0.870588 0.662745 0.007843
0.878431 0.666667 0.019608
0.882353 0.670588 0.015686
0.886275 0.674510 0.011765
0.886275 0.674510 0.003922
0.890196 0.678431 0.000000
0.015686 0.490196 0.219608
0.000000 0.494118 0.215686
0.000000 0.498039 0.215686
0.015686 0.501961 0.215686
0.015686 0.501961 0.211765
0.000000 0.501961 0.200000
0.023529 0.501961 0.196078
0.023529 0.505882 0.149020
0.000000 0.501961 0.086275
0.015686 0.513726 0.035294
0.054902 0.525490 0.000000
0.188235 0.545098 0.000000
0.298039 0.568627 0.000000
0.376471 0.592157 0.000000
0.447059 0.607843 0.000000
0.513726 0.627451 0.000000
0.580392 0.647059 0.000000
0.639216 0.662745 0.000000
0.694118 0.678431 0.000000
0.733333 0.682353 0.007843
0.768628 0.686275 0.019608
0.796079 0.690196 0.035294
0.823529 0.690196 0.031373
0.839216 0.690196 0.035294
0.854902 0.690196 0.035294
0.866667 0.690196 0.031373
0.874510 0.690196 0.019608
0.882353 0.694118 0.031373
0.890196 0.698039 0.039216
0.894118 0.698039 0.031373
0.898039 0.701961 0.027451
0.898039 0.705882 0.027451
0.901961 0.705882 0.023529
0.035294 0.509804 0.227451
0.019608 0.513726 0.223529
0.000000 0.513726 0.219608
0.015686 0.521569 0.219608
0.035294 0.525490 0.223529
0.019608 0.525490 0.211765
0.000000 0.521569 0.196078
0.000000 0.525490 0.152941
0.000000 0.529412 0.101961
0.015686 0.537255 0.050980
0.035294 0.549020 0.003922
0.164706 0.572549 0.000000
0.305882 0.596078 0.000000
0.384314 0.619608 0.000000
0.458824 0.639216 0.000000
0.525490 0.658824 0.000000
0.592157 0.678431 0.000000
0.647059 0.694118 0.000000
0.701961 0.709804 0.000000
0.741176 0.713726 0.007843
0.780392 0.721569 0.015686
0.807843 0.721569 0.031373
0.835294 0.721569 0.043137
0.850980 0.721569 0.047059
0.866667 0.725490 0.050980
0.878431 0.725490 0.047059
0.890196 0.725490 0.043137
0.894118 0.729412 0.054902
0.901961 0.729412 0.062745
0.905882 0.733333 0.050980
0.909804 0.733333 0.043137
0.909804 0.733333 0.047059
0.909804 0.737255 0.047059
0.043137 0.525490 0.231373
0.019608 0.525490 0.227451
0.000000 0.529412 0.227451
0.000000 0.525490 0.219608
0.015686 0.529412 0.219608
0.039216 0.537255 0.215686
0.023529 0.537255 0.200000
0.000000 0.541176 0.160784
0.000000 0.545098 0.113725
0.047059 0.556863 0.054902
0.066667 0.568627 0.003922
0.172549 0.588235 0.000000
0.309804 0.611765 0.000000
0.392157 0.635294 0.000000
0.470588 0.658824 0.000000
0.533333 0.678431 0.000000
0.596078 0.698039 0.000000
0.654902 0.713726 0.003922
0.709804 0.729412 0.003922
0.752941 0.737255 0.019608
0.792157 0.741176 0.027451
0.815686 0.741176 0.035294
0.843137 0.741176 0.050980
0.858824 0.745098 0.054902
0.878431 0.745098 0.054902
0.886275 0.745098 0.062745
0.898039 0.745098 0.058824
0.905882 0.749020 0.058824
0.909804 0.749020 0.066667
0.913726 0.752941 0.066667
0.917647 0.752941 0.058824
0.917647 0.752941 0.062745
0.921569 0.752941 0.062745
0.054902 0.537255 0.239216
0.031373 0.537255 0.235294
0.003922 0.541176 0.231373
0.000000 0.541176 0.223529
0.000000 0.537255 0.215686
0.019608 0.545098 0.211765
0.047059 0.552941 0.203922
0.023529 0.556863 0.164706
0.000000 0.564706 0.121569
0.047059 0.572549 0.062745
0.094118 0.584314 0.003922
0.203922 0.607843 0.000000
0.317647 0.631373 0.000000
0.400000 0.654902 0.000000
0.478431 0.678431 0.000000
0.541176 0.698039 0.000000
0.603922 0.713726 0.000000
0.662745 0.729412 0.003922
0.713726 0.745098 0.011765
0.756863 0.752941 0.027451
0.800000 0.760784 0.043137
0.823529 0.760784 0.047059
0.850980 0.760784 0.054902
0.866667 0.764706 0.058824
0.886275 0.764706 0.062745
0.898039 0.764706 0.066667
0.905882 0.768628 0.070588
0.913726 0.768628 0.070588
0.917647 0.768628 0.070588
0.921569 0.772549 0.070588
0.925490 0.772549 0.074510
0.925490 0.772549 0.074510
0.929412 0.772549 0.078431
0.054902 0.545098 0.243137
0.031373 0.545098 0.239216
0.003922 0.549020 0.235294
0.000000 0.549020 0.227451
0.000000 0.545098 0.219608
0.000000 0.552941 0.207843
0.019608 0.560784 0.200000
0.023529 0.564706 0.133333
0.000000 0.572549 0.086275
0.066667 0.584314 0.062745
0.117647 0.596078 0.003922
0.215686 0.619608 0.000000
0.329412 0.643137 0.000000
0.407843 0.662745 0.000000
0.486275 0.686275 0.000000
0.549020 0.705882 0.007843
0.611765 0.725490 0.007843
0.666667 0.741176 0.000000
0.721569 0.756863 0.003922
0.764706 0.764706 0.027451
0.807843 0.772549 0.047059
0.835294 0.776471 0.054902
0.858824 0.776471 0.062745
0.874510 0.776471 0.062745
0.894118 0.776471 0.066667
0.901961 0.780392 0.070588
0.913726 0.780392 0.074510
0.917647 0.780392 0.074510
0.925490 0.780392 0.074510
0.929412 0.784314 0.074510
0.933333 0.784314 0.078431
0.933333 0.784314 0.082353
0.937255 0.784314 0.082353
0.050980 0.549020 0.243137
0.027451 0.552941 0.239216
0.003922 0.556863 0.235294
0.000000 0.556863 0.231373
0.000000 0.552941 0.223529
0.000000 0.560784 0.211765
0.000000 0.568627 0.196078
0.000000 0.572549 0.125490
0.000000 0.576471 0.050980
0.066667 0.592157 0.023529
0.137255 0.607843 0.000000
0.239216 0.631373 0.000000
0.341176 0.654902 0.000000
0.415686 0.674510 0.000000
0.490196 0.698039 0.000000
0.552941 0.717647 0.007843
0.615686 0.737255 0.015686
0.674510 0.752941 0.007843
0.725490 0.764706 0.000000
0.768628 0.776471 0.023529
0.811765 0.784314 0.050980
0.843137 0.788235 0.058824
0.870588 0.792157 0.066667
0.882353 0.788235 0.070588
0.898039 0.788235 0.070588
0.909804 0.792157 0.074510
0.917647 0.792157 0.078431
0.925490 0.792157 0.078431
0.929412 0.792157 0.078431
