All_In_One/Enrich_Colormaster/colormanagement/luts/film_response/Fuji3510_ConstLmap.cube
TITLE "Generate by Resolve"
LUT_3D_SIZE 5
0.003922 0.000000 0.003922
0.054902 0.023529 0.015686
0.282353 0.058824 0.000000
0.466667 0.086275 0.011765
0.529412 0.094118 0.011765
0.019608 0.090196 0.050980
0.086275 0.109804 0.047059
0.372549 0.160784 0.011765
0.584314 0.188235 0.000000
0.643137 0.215686 0.000000
0.000000 0.262745 0.125490
0.000000 0.301961 0.094118
0.458824 0.403922 0.000000
0.713726 0.443137 0.023529
0.776471 0.478431 0.000000
0.047059 0.423529 0.188235
0.054902 0.498039 0.152941
0.541176 0.658824 0.000000
0.839216 0.733333 0.039216
0.898039 0.752941 0.058824
0.000000 0.501961 0.235294
0.164706 0.635294 0.023529
0.635294 0.745098 0.023529
0.917647 0.815686 0.082353
0.980392 0.831373 0.098039
0.011765 0.019608 0.070588
0.066667 0.031373 0.078431
0.341176 0.023529 0.082353
0.549020 0.039216 0.094118
0.607843 0.019608 0.101961
0.015686 0.113725 0.113725
0.098039 0.129412 0.125490
0.419608 0.184314 0.133333
0.705882 0.149020 0.078431
0.784314 0.145098 0.062745
0.000000 0.301961 0.203922
0.137255 0.341176 0.215686
0.525490 0.462745 0.196078
0.831373 0.494118 0.145098
0.917647 0.525490 0.000000
0.035294 0.478431 0.298039
0.098039 0.556863 0.301961
0.603922 0.752941 0.160784
0.925490 0.807843 0.266667
1.000000 0.831373 0.188235
0.000000 0.568627 0.435294
0.000000 0.701961 0.447059
0.623529 0.835294 0.396078
0.980392 0.894118 0.360784
1.000000 0.894118 0.462745
0.000000 0.086275 0.239216
0.078431 0.019608 0.298039
0.360784 0.047059 0.329412
0.584314 0.027451 0.345098
0.643137 0.039216 0.364706
0.000000 0.184314 0.305882
0.121569 0.203922 0.321569
0.454902 0.227451 0.431373
0.752941 0.145098 0.450980
0.807843 0.176471 0.474510
0.000000 0.388235 0.435294
0.168627 0.435294 0.474510
0.545098 0.541176 0.556863
0.886275 0.552941 0.556863
0.937255 0.588235 0.568627
0.000000 0.568627 0.549020
0.113725 0.647059 0.596078
0.545098 0.843137 0.635294
0.952941 0.898039 0.666667
1.000000 0.909804 0.674510
0.000000 0.643137 0.650980
0.000000 0.760784 0.729412
0.572549 0.898039 0.768628
0.956863 0.956863 0.768628
1.000000 0.956863 0.803922
0.011765 0.164706 0.337255
0.062745 0.019608 0.474510
0.380392 0.047059 0.533333
0.611765 0.058824 0.556863
0.670588 0.050980 0.576471
0.000000 0.254902 0.462745
0.054902 0.266667 0.517647
0.486275 0.188235 0.721569
0.752941 0.203922 0.717647
0.823529 0.184314 0.756863
0.054902 0.454902 0.600000
0.145098 0.501961 0.658824
0.513726 0.576471 0.850980
0.882353 0.588235 0.866667
0.933333 0.627451 0.878431
0.000000 0.635294 0.705882
0.125490 0.709804 0.776471
0.474510 0.890196 0.921569
0.945098 0.952941 0.941177
1.000000 0.960784 0.945098
0.027451 0.686275 0.760784
0.000000 0.796079 0.858824
0.517647 0.925490 0.949020
0.937255 0.988235 0.968628
1.000000 0.996078 0.976471
0.000000 0.207843 0.407843
0.039216 0.066667 0.576471
0.435294 0.000000 0.658824
0.678431 0.078431 0.670588
0.737255 0.078431 0.701961
0.000000 0.301961 0.513726
0.000000 0.313726 0.588235
0.490196 0.262745 0.803922
0.792157 0.235294 0.823529
0.847059 0.274510 0.843137
0.000000 0.482353 0.639216
0.023529 0.525490 0.705882
0.501961 0.607843 0.909804
0.878431 0.619608 0.929412
0.937255 0.654902 0.941177
0.000000 0.643137 0.729412
0.000000 0.717647 0.807843
0.439216 0.894118 0.964706
0.937255 0.956863 0.992157
0.996078 0.968628 0.996078
0.035294 0.694118 0.776471
0.019608 0.800000 0.874510
0.490196 0.925490 0.972549
0.929412 0.992157 0.996078
1.000000 1.000000 1.000000
