All_In_One/Enrich_Colormaster/colormanagement/luts/film_response/Fuji3510_ConstLclip.cube
TITLE "Generate by Resolve"
LUT_3D_SIZE 9
0.003922 0.000000 0.003922
0.023529 0.007843 0.011765
0.054902 0.023529 0.015686
0.152941 0.043137 0.019608
0.290196 0.043137 0.000000
0.392157 0.070588 0.000000
0.466667 0.086275 0.011765
0.505882 0.090196 0.015686
0.529412 0.094118 0.011765
0.023529 0.039216 0.023529
0.031373 0.039216 0.023529
0.070588 0.050980 0.027451
0.184314 0.074510 0.027451
0.325490 0.090196 0.000000
0.447059 0.109804 0.000000
0.517647 0.125490 0.027451
0.564706 0.125490 0.000000
0.580392 0.145098 0.011765
0.015686 0.094118 0.050980
0.000000 0.094118 0.047059
0.086275 0.109804 0.047059
0.215686 0.137255 0.027451
0.380392 0.156863 0.000000
0.501961 0.176471 0.000000
0.584314 0.188235 0.000000
0.623529 0.200000 0.000000
0.643137 0.215686 0.000000
0.000000 0.164706 0.086275
0.000000 0.168627 0.082353
0.043137 0.196078 0.047059
0.239216 0.231373 0.000000
0.423529 0.258824 0.000000
0.560784 0.282353 0.019608
0.647059 0.294118 0.027451
0.682353 0.301961 0.000000
0.705882 0.325490 0.000000
0.000000 0.262745 0.125490
0.015686 0.266667 0.125490
0.000000 0.301961 0.094118
0.254902 0.364706 0.000000
0.458824 0.403922 0.000000
0.619608 0.427451 0.000000
0.713726 0.443137 0.023529
0.756863 0.454902 0.000000
0.776471 0.478431 0.000000
0.000000 0.364706 0.164706
0.000000 0.376471 0.160784
0.000000 0.427451 0.133333
0.270588 0.505882 0.000000
0.505882 0.560784 0.015686
0.682353 0.600000 0.011765
0.788235 0.619608 0.031373
0.831373 0.631373 0.000000
0.850980 0.650980 0.000000
0.047059 0.423529 0.188235
0.000000 0.443137 0.180392
0.054902 0.498039 0.152941
0.294118 0.588235 0.000000
0.541176 0.658824 0.000000
0.729412 0.709804 0.000000
0.839216 0.733333 0.039216
0.882353 0.745098 0.058824
0.898039 0.752941 0.058824
0.000000 0.447059 0.192157
0.043137 0.474510 0.188235
0.000000 0.541176 0.121569
0.329412 0.623529 0.000000
0.572549 0.698039 0.003922
0.756863 0.749020 0.023529
0.866667 0.776471 0.066667
0.913726 0.788235 0.074510
0.929412 0.796079 0.086275
0.000000 0.501961 0.235294
0.054902 0.572549 0.196078
0.105882 0.643137 0.003922
0.423529 0.698039 0.000000
0.635294 0.745098 0.023529
0.807843 0.788235 0.047059
0.917647 0.815686 0.082353
0.964706 0.827451 0.098039
0.980392 0.831373 0.098039
0.011765 0.007843 0.019608
0.023529 0.011765 0.019608
0.058824 0.027451 0.023529
0.168627 0.047059 0.023529
0.313726 0.043137 0.000000
0.423529 0.074510 0.015686
0.505882 0.066667 0.000000
0.545098 0.074510 0.000000
0.572549 0.074510 0.000000
0.023529 0.043137 0.035294
0.035294 0.043137 0.035294
0.078431 0.054902 0.035294
0.203922 0.078431 0.035294
0.360784 0.086275 0.000000
0.486275 0.101961 0.000000
0.560784 0.121569 0.007843
0.600000 0.129412 0.015686
0.627451 0.137255 0.000000
0.015686 0.098039 0.058824
0.000000 0.101961 0.054902
0.090196 0.117647 0.058824
0.239216 0.145098 0.043137
0.415686 0.160784 0.000000
0.552941 0.180392 0.000000
0.627451 0.196078 0.031373
0.670588 0.200000 0.000000
0.690196 0.219608 0.000000
0.011765 0.172549 0.098039
0.003922 0.176471 0.094118
0.047059 0.207843 0.062745
0.266667 0.247059 0.000000
0.462745 0.274510 0.000000
0.611765 0.294118 0.000000
0.690196 0.305882 0.035294
0.733333 0.317647 0.000000
0.760784 0.337255 0.000000
0.000000 0.278431 0.141176
0.000000 0.286275 0.137255
0.000000 0.325490 0.113725
0.278431 0.388235 0.000000
0.501961 0.427451 0.000000
0.670588 0.454902 0.011765
0.772549 0.470588 0.023529
0.807843 0.478431 0.000000
0.827451 0.501961 0.039216
0.043137 0.388235 0.188235
0.000000 0.400000 0.180392
0.000000 0.450980 0.156863
0.290196 0.541176 0.000000
0.552941 0.600000 0.011765
0.741176 0.639216 0.000000
0.847059 0.658824 0.031373
0.890196 0.670588 0.000000
0.905882 0.686275 0.043137
0.023529 0.447059 0.215686
0.000000 0.466667 0.207843
0.000000 0.525490 0.180392
0.301961 0.627451 0.000000
0.584314 0.694118 0.000000
0.784314 0.745098 0.031373
0.898039 0.768628 0.070588
0.937255 0.780392 0.070588
0.952941 0.788235 0.078431
0.003922 0.470588 0.243137
0.000000 0.498039 0.243137
0.000000 0.568627 0.200000
0.305882 0.674510 0.000000
0.603922 0.737255 0.000000
0.807843 0.788235 0.047059
0.925490 0.815686 0.082353
0.968628 0.823529 0.090196
0.984314 0.827451 0.090196
0.000000 0.533333 0.333333
0.062745 0.600000 0.329412
0.000000 0.682353 0.262745
0.372549 0.749020 0.203922
0.647059 0.803922 0.156863
0.854902 0.843137 0.000000
0.984314 0.862745 0.000000
1.000000 0.866667 0.152941
1.000000 0.866667 0.278431
0.011765 0.019608 0.070588
0.027451 0.023529 0.070588
0.066667 0.031373 0.078431
0.184314 0.050980 0.086275
0.345098 0.000000 0.078431
0.478431 0.000000 0.074510
0.552941 0.000000 0.086275
0.588235 0.000000 0.094118
0.611765 0.000000 0.098039
0.000000 0.050980 0.090196
0.031373 0.054902 0.090196
0.086275 0.066667 0.101961
0.219608 0.086275 0.101961
0.400000 0.070588 0.090196
0.556863 0.000000 0.074510
0.639216 0.000000 0.066667
0.678431 0.000000 0.070588
0.705882 0.000000 0.074510
0.015686 0.113725 0.113725
0.015686 0.117647 0.117647
0.090196 0.129412 0.125490
0.254902 0.156863 0.125490
0.450980 0.164706 0.105882
0.623529 0.149020 0.082353
0.721569 0.113725 0.043137
0.760784 0.113725 0.043137
0.784314 0.141176 0.062745
0.011765 0.188235 0.152941
0.015686 0.196078 0.152941
0.000000 0.227451 0.149020
0.278431 0.262745 0.145098
0.505882 0.290196 0.121569
0.690196 0.294118 0.082353
0.792157 0.286275 0.043137
0.831373 0.294118 0.027451
0.850980 0.313726 0.019608
0.000000 0.301961 0.203922
0.000000 0.309804 0.203922
0.035294 0.349020 0.200000
0.278431 0.427451 0.149020
0.552941 0.466667 0.098039
0.760784 0.482353 0.000000
0.870588 0.486275 0.000000
0.905882 0.494118 0.000000
0.929412 0.521569 0.000000
0.000000 0.419608 0.258824
0.027451 0.431373 0.258824
0.000000 0.486275 0.254902
0.239216 0.600000 0.125490
0.588235 0.662745 0.000000
0.819608 0.694118 0.000000
0.933333 0.705882 0.000000
0.972549 0.709804 0.000000
0.988235 0.729412 0.000000
0.035294 0.478431 0.298039
0.000000 0.498039 0.301961
0.050980 0.556863 0.298039
0.200000 0.682353 0.156863
0.600000 0.760784 0.000000
0.847059 0.803922 0.000000
0.968628 0.819608 0.000000
1.000000 0.827451 0.003922
1.000000 0.831373 0.113725
0.027451 0.505882 0.341176
0.035294 0.537255 0.349020
0.000000 0.603922 0.349020
0.207843 0.725490 0.250980
0.600000 0.796079 0.203922
0.850980 0.843137 0.129412
0.988235 0.862745 0.000000
1.000000 0.866667 0.176471
1.000000 0.866667 0.290196
0.000000 0.568627 0.435294
0.000000 0.631373 0.450980
0.000000 0.701961 0.447059
0.313726 0.776471 0.403922
0.623529 0.835294 0.396078
0.847059 0.874510 0.372549
0.980392 0.894118 0.360784
1.000000 0.894118 0.415686
1.000000 0.898039 0.454902
0.000000 0.027451 0.164706
0.027451 0.011765 0.168627
0.074510 0.019608 0.180392
0.196078 0.035294 0.192157
0.360784 0.000000 0.196078
0.494118 0.000000 0.203922
0.568627 0.000000 0.207843
0.603922 0.035294 0.215686
0.627451 0.011765 0.223529
0.000000 0.082353 0.172549
0.000000 0.062745 0.200000
0.082353 0.070588 0.211765
0.231373 0.086275 0.223529
0.415686 0.070588 0.223529
0.572549 0.000000 0.223529
0.658824 0.000000 0.223529
0.694118 0.000000 0.231373
0.717647 0.000000 0.243137
0.000000 0.141176 0.203922
0.000000 0.141176 0.211765
0.054902 0.145098 0.254902
0.262745 0.172549 0.266667
0.470588 0.180392 0.266667
0.643137 0.160784 0.262745
0.741176 0.129412 0.258824
0.776471 0.129412 0.258824
0.796079 0.160784 0.278431
0.000000 0.223529 0.250980
0.000000 0.227451 0.258824
0.000000 0.250980 0.278431
0.270588 0.290196 0.301961
0.513726 0.313726 0.305882
0.705882 0.317647 0.298039
0.807843 0.309804 0.290196
0.847059 0.313726 0.294118
0.862745 0.341176 0.309804
0.000000 0.341176 0.309804
0.000000 0.352941 0.317647
0.000000 0.384314 0.333333
0.243137 0.462745 0.337255
0.556863 0.505882 0.337255
0.772549 0.521569 0.321569
0.882353 0.517647 0.313726
0.921569 0.529412 0.317647
0.937255 0.552941 0.329412
0.007843 0.462745 0.376471
0.027451 0.474510 0.376471
0.000000 0.525490 0.392157
0.141176 0.643137 0.368627
0.580392 0.705882 0.356863
0.827451 0.737255 0.337255
0.952941 0.745098 0.321569
0.992157 0.752941 0.325490
1.000000 0.768628 0.333333
0.000000 0.521569 0.415686
0.000000 0.541176 0.427451
0.000000 0.600000 0.443137
0.000000 0.725490 0.403922
0.580392 0.800000 0.392157
0.847059 0.847059 0.380392
0.980392 0.862745 0.352941
1.000000 0.866667 0.372549
1.000000 0.870588 0.419608
0.000000 0.545098 0.462745
0.027451 0.580392 0.478431
0.000000 0.643137 0.498039
0.003922 0.764706 0.478431
0.576471 0.835294 0.470588
0.843137 0.882353 0.454902
0.984314 0.901961 0.443137
1.000000 0.901961 0.490196
1.000000 0.901961 0.521569
0.000000 0.603922 0.545098
0.015686 0.666667 0.576471
0.000000 0.725490 0.588235
0.239216 0.811765 0.584314
0.603922 0.866667 0.584314
0.835294 0.905882 0.580392
0.972549 0.925490 0.576471
1.000000 0.929412 0.588235
1.000000 0.925490 0.643137
0.000000 0.086275 0.239216
0.000000 0.086275 0.247059
0.082353 0.000000 0.305882
0.207843 0.000000 0.329412
0.368627 0.000000 0.333333
0.505882 0.000000 0.341176
0.584314 0.027451 0.345098
0.619608 0.035294 0.352941
0.643137 0.039216 0.364706
0.000000 0.125490 0.258824
0.000000 0.125490 0.266667
0.082353 0.050980 0.356863
0.243137 0.070588 0.384314
0.431373 0.000000 0.396078
0.588235 0.000000 0.392157
0.674510 0.000000 0.396078
0.709804 0.000000 0.400000
0.733333 0.000000 0.415686
0.000000 0.184314 0.309804
0.000000 0.184314 0.317647
0.027451 0.180392 0.372549
0.262745 0.180392 0.439216
0.478431 0.188235 0.450980
0.654902 0.164706 0.454902
0.752941 0.137255 0.450980
0.788235 0.141176 0.454902
0.807843 0.176471 0.474510
0.000000 0.270588 0.364706
0.000000 0.270588 0.372549
0.000000 0.290196 0.415686
0.254902 0.317647 0.498039
0.517647 0.337255 0.505882
0.713726 0.337255 0.505882
0.815686 0.325490 0.501961
0.850980 0.337255 0.505882
0.870588 0.364706 0.521569
0.000000 0.388235 0.435294
0.007843 0.396078 0.443137
0.015686 0.435294 0.486275
0.172549 0.498039 0.545098
0.545098 0.541176 0.556863
0.772549 0.556863 0.556863
0.886275 0.552941 0.556863
0.921569 0.564706 0.556863
0.937255 0.588235 0.568627
0.000000 0.513726 0.501961
0.000000 0.525490 0.513726
0.000000 0.576471 0.549020
0.000000 0.686275 0.592157
0.552941 0.749020 0.592157
0.819608 0.780392 0.596078
0.949020 0.788235 0.592157
0.988235 0.796079 0.592157
0.996078 0.807843 0.603922
0.000000 0.568627 0.549020
0.000000 0.588235 0.560784
0.000000 0.647059 0.596078
0.000000 0.760784 0.631373
0.545098 0.843137 0.635294
0.831373 0.890196 0.635294
0.968628 0.901961 0.631373
1.000000 0.909804 0.631373
1.000000 0.913726 0.662745
0.000000 0.592157 0.580392
0.000000 0.623529 0.607843
0.000000 0.686275 0.647059
0.000000 0.792157 0.686275
0.537255 0.874510 0.694118
0.827451 0.921569 0.698039
0.968628 0.941177 0.690196
1.000000 0.941177 0.701961
1.000000 0.941177 0.737255
0.000000 0.643137 0.650980
0.000000 0.705882 0.698039
0.000000 0.760784 0.729412
0.000000 0.839216 0.756863
0.572549 0.898039 0.768628
0.815686 0.933333 0.768628
0.956863 0.956863 0.768628
1.000000 0.960784 0.768628
1.000000 0.956863 0.803922
0.000000 0.133333 0.298039
0.000000 0.133333 0.305882
0.082353 0.000000 0.419608
0.211765 0.000000 0.447059
0.380392 0.000000 0.458824
0.513726 0.035294 0.462745
0.596078 0.043137 0.466667
0.635294 0.047059 0.478431
0.658824 0.047059 0.494118
0.000000 0.172549 0.337255
0.000000 0.172549 0.349020
0.078431 0.000000 0.494118
0.247059 0.000000 0.525490
0.443137 0.000000 0.545098
0.600000 0.000000 0.545098
0.686275 0.000000 0.545098
0.721569 0.000000 0.552941
0.749020 0.000000 0.576471
0.000000 0.227451 0.400000
0.000000 0.227451 0.411765
0.000000 0.227451 0.466667
0.258824 0.180392 0.600000
0.482353 0.188235 0.619608
0.662745 0.164706 0.627451
0.760784 0.133333 0.627451
0.796079 0.133333 0.631373
0.815686 0.176471 0.647059
0.000000 0.309804 0.466667
0.000000 0.313726 0.482353
0.000000 0.329412 0.533333
0.223529 0.329412 0.662745
0.513726 0.352941 0.682353
0.717647 0.352941 0.690196
0.819608 0.341176 0.686275
0.858824 0.352941 0.694118
0.874510 0.384314 0.709804
0.031373 0.431373 0.541176
0.000000 0.439216 0.556863
0.000000 0.470588 0.600000
0.000000 0.529412 0.725490
0.529412 0.564706 0.745098
0.768628 0.580392 0.752941
0.882353 0.580392 0.752941
0.921569 0.588235 0.756863
0.937255 0.619608 0.764706
0.000000 0.552941 0.611765
0.000000 0.568627 0.627451
0.000000 0.619608 0.674510
0.000000 0.713726 0.756863
0.517647 0.780392 0.792157
0.803922 0.815686 0.800000
0.937255 0.819608 0.800000
0.976471 0.823529 0.803922
0.988235 0.843137 0.807843
0.000000 0.611765 0.650980
0.000000 0.631373 0.674510
0.000000 0.686275 0.717647
0.000000 0.788235 0.788235
0.505882 0.878431 0.827451
0.807843 0.917647 0.831373
0.956863 0.937255 0.831373
1.000000 0.941177 0.831373
1.000000 0.945098 0.839216
0.000000 0.631373 0.674510
0.000000 0.662745 0.705882
0.027451 0.721569 0.752941
0.000000 0.819608 0.823529
0.501961 0.901961 0.862745
0.803922 0.949020 0.866667
0.952941 0.968628 0.870588
1.000000 0.976471 0.870588
1.000000 0.972549 0.890196
0.000000 0.670588 0.725490
0.027451 0.729412 0.776471
0.000000 0.784314 0.819608
0.000000 0.858824 0.874510
0.537255 0.917647 0.890196
0.800000 0.956863 0.901961
0.945098 0.976471 0.901961
0.996078 0.984314 0.905882
1.000000 0.984314 0.921569
0.011765 0.164706 0.337255
0.000000 0.160784 0.360784
0.074510 0.003922 0.486275
0.215686 0.000000 0.521569
0.384314 0.000000 0.533333
0.529412 0.054902 0.549020
0.611765 0.058824 0.556863
0.650980 0.043137 0.564706
0.670588 0.050980 0.576471
0.000000 0.200000 0.392157
0.000000 0.203922 0.403922
0.066667 0.007843 0.576471
0.250980 0.000000 0.623529
0.447059 0.000000 0.643137
0.607843 0.000000 0.647059
0.698039 0.000000 0.647059
0.733333 0.000000 0.654902
0.756863 0.000000 0.674510
0.000000 0.254902 0.462745
0.000000 0.258824 0.470588
0.000000 0.258824 0.533333
0.250980 0.184314 0.698039
0.486275 0.188235 0.721569
0.670588 0.164706 0.733333
0.768628 0.125490 0.733333
0.803922 0.133333 0.745098
0.823529 0.180392 0.756863
0.000000 0.337255 0.525490
0.000000 0.341176 0.537255
0.000000 0.356863 0.600000
0.196078 0.337255 0.756863
0.505882 0.360784 0.784314
0.717647 0.364706 0.800000
0.823529 0.352941 0.803922
0.858824 0.360784 0.807843
0.874510 0.392157 0.819608
0.054902 0.454902 0.600000
0.000000 0.466667 0.615686
0.000000 0.501961 0.670588
0.000000 0.541176 0.811765
0.513726 0.576471 0.850980
0.760784 0.596078 0.862745
0.882353 0.588235 0.866667
0.917647 0.600000 0.870588
0.933333 0.627451 0.878431
0.000000 0.580392 0.674510
0.000000 0.596078 0.690196
0.000000 0.635294 0.737255
0.043137 0.725490 0.831373
0.490196 0.796079 0.898039
0.788235 0.827451 0.909804
0.929412 0.835294 0.913726
0.968628 0.839216 0.917647
0.984314 0.858824 0.921569
0.000000 0.635294 0.705882
0.000000 0.654902 0.729412
0.000000 0.709804 0.780392
0.000000 0.803922 0.862745
0.466667 0.890196 0.921569
0.796079 0.937255 0.937255
0.945098 0.952941 0.941177
0.992157 0.956863 0.941177
1.000000 0.960784 0.945098
0.054902 0.647059 0.717647
0.003922 0.678431 0.752941
0.000000 0.737255 0.803922
0.000000 0.827451 0.882353
0.466667 0.913726 0.937255
0.792157 0.960784 0.952941
0.945098 0.980392 0.956863
0.996078 0.988235 0.956863
1.000000 0.988235 0.964706
0.027451 0.686275 0.760784
0.043137 0.745098 0.811765
0.000000 0.796079 0.858824
0.000000 0.866667 0.921569
0.517647 0.925490 0.949020
0.788235 0.968628 0.960784
0.937255 0.988235 0.968628
0.992157 0.996078 0.968628
1.000000 0.996078 0.976471
0.000000 0.176471 0.364706
0.027451 0.180392 0.372549
0.078431 0.007843 0.521569
0.223529 0.000000 0.564706
0.396078 0.000000 0.580392
0.541176 0.050980 0.592157
0.623529 0.066667 0.600000
0.662745 0.058824 0.607843
0.686275 0.062745 0.627451
0.000000 0.219608 0.431373
0.000000 0.223529 0.439216
0.043137 0.007843 0.627451
0.254902 0.000000 0.674510
0.458824 0.000000 0.701961
0.627451 0.000000 0.709804
0.713726 0.000000 0.709804
0.752941 0.000000 0.717647
0.776471 0.000000 0.741176
0.000000 0.274510 0.486275
0.000000 0.278431 0.505882
0.000000 0.282353 0.556863
0.243137 0.196078 0.741176
0.482353 0.203922 0.768628
0.674510 0.184314 0.784314
0.776471 0.149020 0.788235
0.811765 0.160784 0.796079
0.831373 0.196078 0.807843
0.000000 0.352941 0.552941
0.000000 0.356863 0.568627
0.000000 0.368627 0.623529
0.188235 0.352941 0.800000
0.501961 0.372549 0.831373
0.717647 0.376471 0.847059
0.823529 0.360784 0.850980
0.862745 0.372549 0.854902
0.878431 0.403922 0.866667
0.000000 0.466667 0.627451
0.000000 0.478431 0.643137
0.000000 0.509804 0.694118
0.000000 0.552941 0.847059
0.505882 0.588235 0.890196
0.752941 0.600000 0.905882
0.878431 0.600000 0.913726
0.917647 0.607843 0.917647
0.933333 0.635294 0.925490
0.000000 0.588235 0.694118
0.000000 0.603922 0.713726
0.000000 0.650980 0.764706
0.043137 0.729412 0.862745
0.474510 0.800000 0.937255
0.780392 0.831373 0.952941
0.921569 0.839216 0.960784
0.968628 0.847059 0.964706
0.980392 0.862745 0.964706
0.000000 0.639216 0.725490
0.047059 0.662745 0.749020
0.000000 0.713726 0.800000
0.000000 0.807843 0.886275
0.447059 0.894118 0.956863
0.784314 0.937255 0.972549
0.941177 0.956863 0.980392
0.988235 0.960784 0.984314
1.000000 0.968628 0.984314
0.000000 0.654902 0.733333
0.019608 0.686275 0.768628
0.066667 0.741176 0.819608
0.000000 0.831373 0.901961
0.450980 0.917647 0.960784
0.780392 0.964706 0.980392
0.941177 0.984314 0.988235
0.992157 0.992157 0.992157
1.000000 0.996078 0.992157
0.000000 0.690196 0.772549
0.054902 0.749020 0.823529
0.000000 0.796079 0.870588
0.000000 0.870588 0.937255
0.501961 0.929412 0.964706
0.780392 0.968628 0.980392
0.933333 0.992157 0.992157
0.988235 1.000000 0.992157
1.000000 1.000000 0.996078
0.000000 0.207843 0.407843
0.000000 0.207843 0.423529
0.074510 0.007843 0.596078
0.247059 0.000000 0.647059
0.439216 0.000000 0.674510
0.596078 0.000000 0.678431
0.682353 0.000000 0.674510
0.721569 0.000000 0.686275
0.749020 0.000000 0.713726
0.000000 0.254902 0.466667
0.000000 0.258824 0.482353
0.035294 0.258824 0.541176
0.250980 0.129412 0.725490
0.474510 0.125490 0.752941
0.654902 0.078431 0.772549
0.752941 0.000000 0.776471
0.796079 0.000000 0.784314
0.811765 0.098039 0.800000
0.000000 0.301961 0.513726
0.000000 0.305882 0.533333
0.000000 0.313726 0.588235
0.231373 0.250980 0.772549
0.490196 0.262745 0.803922
0.686275 0.254902 0.819608
0.792157 0.235294 0.823529
0.831373 0.239216 0.831373
0.847059 0.274510 0.843137
0.000000 0.372549 0.572549
0.000000 0.380392 0.592157
0.000000 0.396078 0.647059
0.156863 0.384314 0.819608
0.501961 0.407843 0.850980
0.717647 0.411765 0.870588
0.835294 0.407843 0.878431
0.870588 0.403922 0.878431
0.890196 0.443137 0.890196
0.000000 0.482353 0.639216
0.058824 0.490196 0.654902
0.000000 0.525490 0.705882
0.000000 0.568627 0.858824
0.501961 0.607843 0.909804
0.752941 0.619608 0.921569
0.878431 0.619608 0.929412
0.921569 0.623529 0.933333
0.937255 0.654902 0.941177
0.000000 0.592157 0.701961
0.000000 0.607843 0.721569
0.031373 0.658824 0.776471
0.000000 0.733333 0.870588
0.458824 0.800000 0.945098
0.772549 0.835294 0.964706
0.921569 0.847059 0.972549
0.964706 0.847059 0.976471
0.976471 0.862745 0.980392
0.000000 0.643137 0.729412
0.000000 0.666667 0.756863
0.000000 0.717647 0.807843
0.066667 0.811765 0.894118
0.439216 0.894118 0.964706
0.780392 0.941177 0.980392
0.937255 0.956863 0.992157
0.988235 0.964706 0.996078
0.996078 0.968628 0.996078
0.000000 0.654902 0.737255
0.050980 0.690196 0.772549
0.000000 0.745098 0.827451
0.000000 0.831373 0.905882
0.439216 0.917647 0.968628
0.772549 0.964706 0.988235
0.933333 0.988235 0.996078
0.988235 0.992157 1.000000
1.000000 0.996078 1.000000
0.035294 0.694118 0.776471
0.003922 0.749020 0.827451
0.019608 0.800000 0.874510
0.000000 0.870588 0.941177
0.490196 0.925490 0.972549
0.772549 0.968628 0.988235
0.929412 0.992157 0.996078
0.988235 1.000000 1.000000
1.000000 1.000000 1.000000
