All_In_One/Enrich_Colormaster/colormanagement/luts/film_response/Fuji3510_ConstLclip.cube
TITLE "Generate by Resolve"
LUT_3D_SIZE 33
0.003922 0.000000 0.003922
0.007843 0.000000 0.007843
0.011765 0.003922 0.007843
0.015686 0.007843 0.011765
0.023529 0.007843 0.011765
0.027451 0.011765 0.011765
0.035294 0.015686 0.011765
0.043137 0.019608 0.011765
0.054902 0.023529 0.015686
0.074510 0.027451 0.015686
0.094118 0.035294 0.019608
0.121569 0.039216 0.019608
0.152941 0.043137 0.019608
0.188235 0.043137 0.007843
0.219608 0.047059 0.000000
0.254902 0.047059 0.000000
0.290196 0.043137 0.000000
0.317647 0.047059 0.000000
0.345098 0.050980 0.000000
0.368627 0.058824 0.000000
0.392157 0.070588 0.000000
0.411765 0.074510 0.000000
0.431373 0.078431 0.000000
0.447059 0.082353 0.007843
0.466667 0.086275 0.011765
0.474510 0.086275 0.015686
0.486275 0.086275 0.015686
0.498039 0.090196 0.015686
0.505882 0.090196 0.015686
0.513726 0.090196 0.015686
0.517647 0.094118 0.015686
0.521569 0.094118 0.011765
0.529412 0.094118 0.011765
0.011765 0.007843 0.007843
0.011765 0.007843 0.007843
0.015686 0.011765 0.011765
0.019608 0.011765 0.011765
0.023529 0.015686 0.011765
0.031373 0.015686 0.015686
0.035294 0.019608 0.015686
0.047059 0.023529 0.015686
0.058824 0.027451 0.019608
0.078431 0.031373 0.019608
0.101961 0.039216 0.019608
0.129412 0.043137 0.019608
0.160784 0.047059 0.019608
0.196078 0.050980 0.007843
0.231373 0.050980 0.000000
0.262745 0.050980 0.000000
0.298039 0.050980 0.000000
0.329412 0.058824 0.000000
0.356863 0.062745 0.000000
0.380392 0.070588 0.003922
0.403922 0.078431 0.003922
0.423529 0.082353 0.011765
0.443137 0.090196 0.011765
0.462745 0.086275 0.000000
0.478431 0.090196 0.007843
0.490196 0.090196 0.007843
0.501961 0.090196 0.007843
0.509804 0.094118 0.007843
0.517647 0.094118 0.007843
0.521569 0.101961 0.023529
0.529412 0.101961 0.019608
0.533333 0.105882 0.015686
0.537255 0.105882 0.015686
0.015686 0.019608 0.015686
0.015686 0.019608 0.015686
0.019608 0.019608 0.015686
0.023529 0.019608 0.015686
0.027451 0.023529 0.015686
0.031373 0.023529 0.015686
0.039216 0.027451 0.019608
0.050980 0.031373 0.019608
0.062745 0.035294 0.019608
0.082353 0.039216 0.023529
0.105882 0.043137 0.023529
0.137255 0.050980 0.023529
0.168627 0.054902 0.019608
0.203922 0.058824 0.011765
0.239216 0.058824 0.000000
0.270588 0.058824 0.000000
0.305882 0.058824 0.000000
0.337255 0.066667 0.000000
0.364706 0.070588 0.000000
0.392157 0.082353 0.003922
0.415686 0.090196 0.011765
0.435294 0.094118 0.015686
0.454902 0.098039 0.023529
0.474510 0.094118 0.011765
0.494118 0.094118 0.000000
0.505882 0.094118 0.000000
0.517647 0.098039 0.000000
0.525490 0.098039 0.000000
0.533333 0.098039 0.000000
0.537255 0.105882 0.015686
0.541176 0.113725 0.027451
0.545098 0.117647 0.023529
0.552941 0.117647 0.023529
0.019608 0.031373 0.019608
0.019608 0.031373 0.019608
0.023529 0.031373 0.019608
0.027451 0.031373 0.019608
0.031373 0.031373 0.019608
0.035294 0.031373 0.019608
0.043137 0.035294 0.023529
0.054902 0.039216 0.023529
0.066667 0.043137 0.023529
0.090196 0.047059 0.027451
0.113725 0.054902 0.027451
0.145098 0.058824 0.023529
0.176471 0.062745 0.023529
0.211765 0.066667 0.011765
0.250980 0.070588 0.000000
0.282353 0.074510 0.000000
0.317647 0.074510 0.000000
0.349020 0.078431 0.000000
0.376471 0.086275 0.000000
0.403922 0.090196 0.000000
0.431373 0.101961 0.007843
0.450980 0.105882 0.015686
0.470588 0.109804 0.023529
0.486275 0.109804 0.023529
0.505882 0.109804 0.011765
0.517647 0.105882 0.000000
0.533333 0.109804 0.000000
0.541176 0.109804 0.000000
0.549020 0.109804 0.000000
0.552941 0.117647 0.015686
0.552941 0.125490 0.031373
0.560784 0.129412 0.019608
0.568627 0.129412 0.015686
0.023529 0.039216 0.023529
0.023529 0.039216 0.023529
0.023529 0.039216 0.023529
0.027451 0.039216 0.023529
0.031373 0.039216 0.023529
0.039216 0.043137 0.023529
0.047059 0.043137 0.027451
0.058824 0.047059 0.027451
0.070588 0.050980 0.027451
0.094118 0.058824 0.031373
0.117647 0.062745 0.031373
0.152941 0.070588 0.027451
0.184314 0.074510 0.027451
0.223529 0.078431 0.011765
0.258824 0.078431 0.000000
0.294118 0.086275 0.000000
0.325490 0.090196 0.000000
0.356863 0.094118 0.000000
0.388235 0.101961 0.000000
0.415686 0.105882 0.000000
0.447059 0.109804 0.000000
0.466667 0.113725 0.011765
0.486275 0.121569 0.023529
0.501961 0.121569 0.027451
0.517647 0.125490 0.027451
0.533333 0.121569 0.011765
0.545098 0.121569 0.000000
0.556863 0.121569 0.000000
0.564706 0.125490 0.000000
0.564706 0.133333 0.015686
0.568627 0.137255 0.027451
0.576471 0.141176 0.019608
0.580392 0.145098 0.011765
0.019608 0.050980 0.027451
0.023529 0.050980 0.027451
0.023529 0.050980 0.027451
0.027451 0.050980 0.027451
0.031373 0.050980 0.027451
0.039216 0.054902 0.031373
0.047059 0.054902 0.031373
0.062745 0.058824 0.031373
0.074510 0.062745 0.035294
0.101961 0.070588 0.035294
0.125490 0.078431 0.035294
0.160784 0.082353 0.031373
0.196078 0.086275 0.027451
0.235294 0.090196 0.011765
0.270588 0.094118 0.000000
0.305882 0.098039 0.000000
0.341176 0.105882 0.000000
0.372549 0.109804 0.000000
0.403922 0.113725 0.000000
0.431373 0.121569 0.000000
0.458824 0.125490 0.000000
0.482353 0.129412 0.000000
0.505882 0.133333 0.011765
0.517647 0.137255 0.011765
0.533333 0.137255 0.015686
0.545098 0.141176 0.019608
0.560784 0.137255 0.003922
0.568627 0.141176 0.000000
0.576471 0.141176 0.000000
0.584314 0.145098 0.000000
0.588235 0.152941 0.015686
0.588235 0.156863 0.027451
0.596078 0.160784 0.019608
0.019608 0.062745 0.035294
0.019608 0.062745 0.035294
0.023529 0.062745 0.035294
0.027451 0.062745 0.035294
0.031373 0.062745 0.035294
0.039216 0.066667 0.035294
0.050980 0.066667 0.035294
0.066667 0.074510 0.035294
0.082353 0.078431 0.039216
0.105882 0.086275 0.039216
0.133333 0.090196 0.039216
0.168627 0.098039 0.035294
0.203922 0.101961 0.031373
0.243137 0.105882 0.015686
0.286275 0.109804 0.000000
0.321569 0.113725 0.000000
0.356863 0.117647 0.000000
0.388235 0.125490 0.000000
0.419608 0.129412 0.000000
0.447059 0.133333 0.000000
0.474510 0.141176 0.000000
0.498039 0.141176 0.000000
0.521569 0.145098 0.000000
0.537255 0.149020 0.000000
0.552941 0.152941 0.000000
0.564706 0.152941 0.003922
0.572549 0.156863 0.007843
0.584314 0.160784 0.003922
0.592157 0.160784 0.000000
0.600000 0.164706 0.000000
0.607843 0.168627 0.000000
0.607843 0.172549 0.015686
0.611765 0.180392 0.031373
0.015686 0.078431 0.043137
0.011765 0.078431 0.043137
0.011765 0.078431 0.043137
0.011765 0.078431 0.039216
0.015686 0.078431 0.039216
0.039216 0.082353 0.039216
0.047059 0.086275 0.039216
0.066667 0.090196 0.043137
0.082353 0.094118 0.043137
0.109804 0.101961 0.043137
0.137255 0.105882 0.043137
0.172549 0.113725 0.035294
0.211765 0.117647 0.031373
0.254902 0.125490 0.015686
0.294118 0.129412 0.000000
0.333333 0.133333 0.000000
0.368627 0.137255 0.000000
0.400000 0.145098 0.000000
0.431373 0.149020 0.000000
0.462745 0.152941 0.000000
0.486275 0.160784 0.000000
0.513726 0.164706 0.000000
0.537255 0.164706 0.000000
0.552941 0.164706 0.000000
0.568627 0.168627 0.000000
0.580392 0.172549 0.000000
0.588235 0.172549 0.003922
0.600000 0.176471 0.003922
0.607843 0.180392 0.000000
0.611765 0.184314 0.015686
0.619608 0.188235 0.015686
0.623529 0.192157 0.000000
0.627451 0.196078 0.015686
0.015686 0.094118 0.050980
0.007843 0.094118 0.050980
0.000000 0.094118 0.047059
0.000000 0.094118 0.047059
0.000000 0.094118 0.047059
0.019608 0.098039 0.047059
0.047059 0.101961 0.047059
0.066667 0.105882 0.047059
0.086275 0.109804 0.047059
0.113725 0.117647 0.047059
0.141176 0.125490 0.043137
0.180392 0.129412 0.035294
0.215686 0.137255 0.027451
0.258824 0.141176 0.015686
0.301961 0.145098 0.000000
0.341176 0.152941 0.000000
0.380392 0.156863 0.000000
0.411765 0.160784 0.000000
0.443137 0.168627 0.000000
0.474510 0.172549 0.000000
0.501961 0.176471 0.000000
0.525490 0.180392 0.000000
0.549020 0.184314 0.000000
0.568627 0.188235 0.000000
0.584314 0.188235 0.000000
0.596078 0.192157 0.000000
0.603922 0.192157 0.000000
0.611765 0.196078 0.000000
0.623529 0.200000 0.000000
0.627451 0.203922 0.015686
0.631373 0.211765 0.031373
0.639216 0.211765 0.015686
0.643137 0.215686 0.000000
0.011765 0.109804 0.058824
0.007843 0.109804 0.058824
0.000000 0.109804 0.058824
0.003922 0.109804 0.054902
0.007843 0.113725 0.054902
0.000000 0.117647 0.050980
0.023529 0.121569 0.050980
0.062745 0.125490 0.047059
0.082353 0.129412 0.050980
0.117647 0.137255 0.047059
0.145098 0.145098 0.043137
0.184314 0.149020 0.027451
0.223529 0.156863 0.019608
0.266667 0.164706 0.015686
0.313726 0.168627 0.000000
0.352941 0.172549 0.000000
0.388235 0.180392 0.000000
0.427451 0.184314 0.000000
0.458824 0.188235 0.000000
0.486275 0.196078 0.011765
0.513726 0.200000 0.011765
0.541176 0.203922 0.007843
0.564706 0.207843 0.007843
0.580392 0.211765 0.011765
0.600000 0.211765 0.011765
0.611765 0.211765 0.000000
0.619608 0.215686 0.000000
0.627451 0.219608 0.000000
0.639216 0.219608 0.000000
0.643137 0.227451 0.011765
0.647059 0.235294 0.027451
0.654902 0.235294 0.015686
0.658824 0.239216 0.000000
0.007843 0.125490 0.070588
0.003922 0.125490 0.066667
0.000000 0.129412 0.066667
0.003922 0.129412 0.066667
0.011765 0.129412 0.066667
0.007843 0.133333 0.058824
0.000000 0.141176 0.054902
0.039216 0.145098 0.050980
0.078431 0.149020 0.050980
0.113725 0.156863 0.047059
0.145098 0.164706 0.043137
0.188235 0.168627 0.027451
0.231373 0.176471 0.007843
0.274510 0.184314 0.003922
0.321569 0.192157 0.000000
0.360784 0.196078 0.000000
0.400000 0.203922 0.000000
0.439216 0.207843 0.000000
0.474510 0.211765 0.000000
0.501961 0.219608 0.011765
0.529412 0.227451 0.027451
0.552941 0.231373 0.023529
0.580392 0.231373 0.019608
0.596078 0.235294 0.023529
0.611765 0.235294 0.023529
0.623529 0.235294 0.011765
0.635294 0.239216 0.000000
0.647059 0.243137 0.000000
0.654902 0.243137 0.000000
0.658824 0.250980 0.011765
0.662745 0.254902 0.023529
0.670588 0.258824 0.011765
0.674510 0.262745 0.000000
0.003922 0.145098 0.078431
0.003922 0.145098 0.078431
0.000000 0.145098 0.074510
0.000000 0.149020 0.074510
0.007843 0.149020 0.074510
0.007843 0.152941 0.070588
0.000000 0.156863 0.066667
0.019608 0.168627 0.050980
0.058824 0.172549 0.050980
0.113725 0.180392 0.043137
0.145098 0.188235 0.039216
0.192157 0.196078 0.023529
0.235294 0.203922 0.003922
0.282353 0.211765 0.003922
0.325490 0.215686 0.000000
0.372549 0.223529 0.000000
0.411765 0.231373 0.000000
0.450980 0.235294 0.000000
0.486275 0.243137 0.000000
0.517647 0.247059 0.007843
0.545098 0.254902 0.023529
0.568627 0.258824 0.015686
0.596078 0.258824 0.011765
0.611765 0.262745 0.023529
0.627451 0.266667 0.027451
0.643137 0.266667 0.011765
0.654902 0.266667 0.000000
0.662745 0.270588 0.000000
0.670588 0.274510 0.000000
0.674510 0.278431 0.000000
0.678431 0.282353 0.011765
0.686275 0.290196 0.011765
0.690196 0.294118 0.000000
0.000000 0.164706 0.086275
0.000000 0.164706 0.086275
0.000000 0.164706 0.086275
0.000000 0.168627 0.082353
0.000000 0.168627 0.082353
0.000000 0.172549 0.078431
0.000000 0.176471 0.074510
0.019608 0.188235 0.062745
0.043137 0.196078 0.047059
0.094118 0.203922 0.043137
0.145098 0.211765 0.031373
0.192157 0.219608 0.015686
0.239216 0.231373 0.000000
0.286275 0.239216 0.000000
0.333333 0.243137 0.000000
0.376471 0.250980 0.000000
0.423529 0.258824 0.000000
0.458824 0.266667 0.000000
0.498039 0.270588 0.000000
0.529412 0.278431 0.007843
0.560784 0.282353 0.019608
0.584314 0.286275 0.007843
0.611765 0.286275 0.000000
0.627451 0.290196 0.015686
0.647059 0.294118 0.027451
0.658824 0.294118 0.015686
0.670588 0.298039 0.000000
0.678431 0.301961 0.000000
0.682353 0.301961 0.000000
0.690196 0.305882 0.000000
0.698039 0.309804 0.000000
0.701961 0.317647 0.000000
0.705882 0.325490 0.000000
0.003922 0.188235 0.094118
0.011765 0.188235 0.094118
0.011765 0.188235 0.094118
0.007843 0.188235 0.094118
0.007843 0.192157 0.094118
0.000000 0.196078 0.090196
0.000000 0.200000 0.086275
0.000000 0.211765 0.070588
0.019608 0.219608 0.058824
0.086275 0.235294 0.027451
0.141176 0.243137 0.015686
0.196078 0.250980 0.015686
0.243137 0.262745 0.000000
0.294118 0.270588 0.000000
0.341176 0.278431 0.000000
0.388235 0.286275 0.000000
0.431373 0.294118 0.000000
0.470588 0.298039 0.000000
0.509804 0.305882 0.000000
0.545098 0.309804 0.000000
0.576471 0.313726 0.007843
0.600000 0.317647 0.023529
0.627451 0.321569 0.015686
0.647059 0.325490 0.015686
0.662745 0.329412 0.031373
0.674510 0.329412 0.031373
0.686275 0.333333 0.015686
0.694118 0.333333 0.000000
0.701961 0.337255 0.000000
0.705882 0.345098 0.011765
0.713726 0.349020 0.011765
0.717647 0.352941 0.015686
0.725490 0.360784 0.015686
0.011765 0.207843 0.105882
0.015686 0.207843 0.105882
0.023529 0.207843 0.105882
0.019608 0.211765 0.105882
0.019608 0.211765 0.101961
0.011765 0.219608 0.101961
0.000000 0.223529 0.098039
0.000000 0.235294 0.082353
0.000000 0.247059 0.066667
0.066667 0.258824 0.035294
0.137255 0.270588 0.000000
0.192157 0.282353 0.000000
0.247059 0.294118 0.000000
0.298039 0.301961 0.000000
0.349020 0.309804 0.000000
0.396078 0.317647 0.000000
0.439216 0.325490 0.000000
0.482353 0.333333 0.000000
0.521569 0.341176 0.000000
0.556863 0.345098 0.000000
0.588235 0.349020 0.000000
0.615686 0.352941 0.015686
0.643137 0.356863 0.031373
0.658824 0.360784 0.035294
0.678431 0.364706 0.035294
0.690196 0.364706 0.035294
0.701961 0.368627 0.035294
0.709804 0.372549 0.015686
0.721569 0.372549 0.000000
0.725490 0.376471 0.011765
0.729412 0.384314 0.023529
0.733333 0.388235 0.027451
0.741176 0.396078 0.031373
0.007843 0.235294 0.117647
0.019608 0.235294 0.117647
0.023529 0.235294 0.113725
0.019608 0.239216 0.113725
0.019608 0.239216 0.113725
0.011765 0.247059 0.109804
0.000000 0.250980 0.109804
0.000000 0.262745 0.098039
0.000000 0.274510 0.082353
0.054902 0.294118 0.035294
0.125490 0.305882 0.000000
0.196078 0.317647 0.000000
0.250980 0.329412 0.000000
0.305882 0.341176 0.000000
0.356863 0.349020 0.000000
0.403922 0.356863 0.000000
0.450980 0.364706 0.000000
0.494118 0.372549 0.011765
0.533333 0.380392 0.011765
0.572549 0.384314 0.000000
0.603922 0.388235 0.000000
0.631373 0.392157 0.015686
0.658824 0.396078 0.031373
0.678431 0.400000 0.027451
0.698039 0.403922 0.031373
0.709804 0.403922 0.039216
0.721569 0.407843 0.039216
0.729412 0.411765 0.019608
0.737255 0.415686 0.000000
0.745098 0.419608 0.015686
0.749020 0.423529 0.027451
0.752941 0.431373 0.015686
0.760784 0.435294 0.015686
0.000000 0.262745 0.125490
0.011765 0.262745 0.125490
0.027451 0.262745 0.125490
0.023529 0.262745 0.125490
0.015686 0.266667 0.125490
0.007843 0.274510 0.121569
0.000000 0.282353 0.121569
0.000000 0.290196 0.109804
0.000000 0.301961 0.094118
0.054902 0.321569 0.050980
0.113725 0.341176 0.000000
0.184314 0.352941 0.000000
0.254902 0.364706 0.000000
0.309804 0.376471 0.000000
0.364706 0.388235 0.000000
0.411765 0.396078 0.000000
0.458824 0.403922 0.000000
0.505882 0.411765 0.011765
0.545098 0.419608 0.023529
0.584314 0.423529 0.011765
0.619608 0.427451 0.000000
0.647059 0.431373 0.015686
0.674510 0.435294 0.031373
0.694118 0.439216 0.027451
0.713726 0.443137 0.023529
0.725490 0.447059 0.031373
0.737255 0.447059 0.039216
0.749020 0.450980 0.019608
0.756863 0.454902 0.000000
0.760784 0.458824 0.015686
0.764706 0.466667 0.031373
0.772549 0.470588 0.015686
0.776471 0.478431 0.000000
0.000000 0.290196 0.137255
0.011765 0.290196 0.137255
0.027451 0.290196 0.137255
0.015686 0.294118 0.137255
0.007843 0.298039 0.137255
0.027451 0.301961 0.133333
0.019608 0.309804 0.133333
0.000000 0.325490 0.117647
0.000000 0.337255 0.105882
0.039216 0.356863 0.050980
0.098039 0.376471 0.003922
0.184314 0.388235 0.000000
0.258824 0.403922 0.000000
0.317647 0.415686 0.000000
0.372549 0.427451 0.000000
0.423529 0.435294 0.000000
0.470588 0.447059 0.000000
0.517647 0.454902 0.000000
0.560784 0.462745 0.011765
0.600000 0.466667 0.011765
0.635294 0.474510 0.000000
0.666667 0.478431 0.000000
0.694118 0.482353 0.015686
0.713726 0.486275 0.027451
0.733333 0.486275 0.023529
0.745098 0.490196 0.011765
0.756863 0.494118 0.019608
0.764706 0.498039 0.035294
0.776471 0.501961 0.015686
0.780392 0.505882 0.007843
0.788235 0.509804 0.023529
0.792157 0.517647 0.035294
0.796079 0.521569 0.019608
0.000000 0.317647 0.149020
0.011765 0.317647 0.149020
0.027451 0.317647 0.149020
0.015686 0.321569 0.145098
0.000000 0.325490 0.145098
0.015686 0.333333 0.145098
0.035294 0.341176 0.145098
0.019608 0.352941 0.129412
0.000000 0.368627 0.117647
0.039216 0.388235 0.062745
0.082353 0.411765 0.003922
0.168627 0.423529 0.000000
0.258824 0.439216 0.000000
0.321569 0.450980 0.000000
0.380392 0.462745 0.000000
0.431373 0.474510 0.000000
0.482353 0.486275 0.000000
0.529412 0.494118 0.000000
0.572549 0.501961 0.000000
0.611765 0.509804 0.000000
0.650980 0.517647 0.000000
0.682353 0.521569 0.000000
0.709804 0.525490 0.000000
0.729412 0.529412 0.011765
0.752941 0.533333 0.023529
0.764706 0.537255 0.011765
0.776471 0.537255 0.000000
0.784314 0.541176 0.015686
0.792157 0.545098 0.031373
0.800000 0.549020 0.023529
0.803922 0.556863 0.015686
0.811765 0.560784 0.027451
0.815686 0.568627 0.039216
0.000000 0.341176 0.156863
0.000000 0.341176 0.156863
0.011765 0.345098 0.156863
0.015686 0.349020 0.156863
0.000000 0.352941 0.152941
0.000000 0.360784 0.152941
0.015686 0.364706 0.149020
0.019608 0.380392 0.137255
0.000000 0.396078 0.125490
0.039216 0.419608 0.062745
0.086275 0.443137 0.003922
0.172549 0.458824 0.000000
0.262745 0.470588 0.000000
0.329412 0.486275 0.003922
0.388235 0.498039 0.003922
0.443137 0.513726 0.007843
0.494118 0.525490 0.007843
0.545098 0.533333 0.000000
0.588235 0.545098 0.000000
0.627451 0.552941 0.003922
0.666667 0.556863 0.003922
0.698039 0.564706 0.007843
0.729412 0.568627 0.007843
0.749020 0.572549 0.015686
0.768628 0.576471 0.027451
0.784314 0.580392 0.023529
0.796079 0.580392 0.011765
0.803922 0.584314 0.000000
0.811765 0.588235 0.015686
0.815686 0.592157 0.015686
0.823529 0.596078 0.007843
0.827451 0.603922 0.007843
0.831373 0.607843 0.019608
0.000000 0.364706 0.164706
0.000000 0.368627 0.164706
0.000000 0.368627 0.164706
0.000000 0.372549 0.164706
0.000000 0.376471 0.160784
0.000000 0.384314 0.160784
0.000000 0.392157 0.156863
0.000000 0.407843 0.145098
0.000000 0.427451 0.133333
0.039216 0.447059 0.070588
0.086275 0.474510 0.003922
0.176471 0.490196 0.000000
0.270588 0.505882 0.000000
0.333333 0.521569 0.003922
0.396078 0.533333 0.007843
0.450980 0.549020 0.011765
0.505882 0.560784 0.015686
0.552941 0.572549 0.007843
0.600000 0.584314 0.000000
0.643137 0.592157 0.003922
0.682353 0.600000 0.011765
0.713726 0.607843 0.015686
0.745098 0.611765 0.015686
0.764706 0.615686 0.023529
0.788235 0.619608 0.031373
0.800000 0.623529 0.027451
0.815686 0.627451 0.023529
0.823529 0.627451 0.011765
0.831373 0.631373 0.000000
0.835294 0.635294 0.000000
0.843137 0.639216 0.000000
0.847059 0.647059 0.000000
0.850980 0.650980 0.000000
0.015686 0.384314 0.172549
0.000000 0.384314 0.168627
0.000000 0.388235 0.168627
0.003922 0.392157 0.168627
0.007843 0.396078 0.168627
0.000000 0.407843 0.164706
0.000000 0.415686 0.160784
0.000000 0.431373 0.152941
0.000000 0.447059 0.141176
0.039216 0.470588 0.070588
0.086275 0.494118 0.003922
0.180392 0.513726 0.000000
0.274510 0.529412 0.000000
0.341176 0.545098 0.007843
0.403922 0.560784 0.011765
0.462745 0.576471 0.015686
0.517647 0.592157 0.019608
0.568627 0.603922 0.015686
0.615686 0.615686 0.007843
0.654902 0.623529 0.000000
0.694118 0.631373 0.003922
0.725490 0.639216 0.015686
0.756863 0.647059 0.019608
0.780392 0.650980 0.023529
0.803922 0.654902 0.031373
0.815686 0.658824 0.027451
0.827451 0.658824 0.023529
0.839216 0.662745 0.023529
0.847059 0.666667 0.011765
0.850980 0.670588 0.019608
0.854902 0.674510 0.019608
0.858824 0.678431 0.019608
0.866667 0.682353 0.019608
0.031373 0.400000 0.176471
0.015686 0.403922 0.176471
0.000000 0.407843 0.172549
0.003922 0.411765 0.176471
0.011765 0.415686 0.176471
0.007843 0.423529 0.172549
0.000000 0.435294 0.164706
0.000000 0.450980 0.156863
0.000000 0.470588 0.145098
0.039216 0.494118 0.078431
0.086275 0.517647 0.003922
0.180392 0.537255 0.000000
0.282353 0.552941 0.000000
0.349020 0.572549 0.007843
0.411765 0.588235 0.015686
0.470588 0.603922 0.019608
0.525490 0.619608 0.027451
0.576471 0.635294 0.019608
0.627451 0.647059 0.011765
0.666667 0.654902 0.007843
0.709804 0.666667 0.000000
0.741176 0.670588 0.007843
0.772549 0.678431 0.019608
0.796079 0.682353 0.023529
0.815686 0.686275 0.027451
0.831373 0.690196 0.023529
0.843137 0.694118 0.019608
0.850980 0.698039 0.023529
0.858824 0.698039 0.027451
0.866667 0.701961 0.035294
0.870588 0.705882 0.039216
0.874510 0.709804 0.043137
0.878431 0.713726 0.043137
0.039216 0.411765 0.184314
0.019608 0.415686 0.180392
0.000000 0.419608 0.180392
0.000000 0.423529 0.176471
0.003922 0.427451 0.176471
0.007843 0.439216 0.176471
0.000000 0.450980 0.168627
0.023529 0.466667 0.160784
0.027451 0.482353 0.149020
0.062745 0.505882 0.094118
0.105882 0.533333 0.023529
0.188235 0.552941 0.000000
0.286275 0.568627 0.000000
0.356863 0.588235 0.000000
0.419608 0.607843 0.007843
0.478431 0.623529 0.007843
0.533333 0.639216 0.011765
0.588235 0.654902 0.023529
0.635294 0.666667 0.015686
0.678431 0.678431 0.007843
0.717647 0.686275 0.000000
0.752941 0.694118 0.007843
0.784314 0.701961 0.019608
0.803922 0.705882 0.027451
0.827451 0.709804 0.031373
0.839216 0.713726 0.043137
0.854902 0.717647 0.039216
0.862745 0.721569 0.039216
0.870588 0.721569 0.043137
0.878431 0.725490 0.039216
0.882353 0.729412 0.047059
0.882353 0.729412 0.050980
0.886275 0.733333 0.050980
0.047059 0.423529 0.188235
0.027451 0.427451 0.188235
0.000000 0.431373 0.184314
0.000000 0.435294 0.180392
0.000000 0.443137 0.180392
0.000000 0.450980 0.176471
0.000000 0.462745 0.172549
0.023529 0.478431 0.164706
0.054902 0.498039 0.152941
0.090196 0.521569 0.098039
0.129412 0.549020 0.043137
0.211765 0.568627 0.019608
0.294118 0.588235 0.000000
0.360784 0.603922 0.000000
0.427451 0.623529 0.000000
0.486275 0.643137 0.000000
0.541176 0.658824 0.000000
0.596078 0.674510 0.007843
0.643137 0.690196 0.015686
0.686275 0.698039 0.007843
0.729412 0.709804 0.000000
0.760784 0.717647 0.007843
0.796079 0.725490 0.019608
0.815686 0.729412 0.027451
0.839216 0.733333 0.039216
0.850980 0.737255 0.047059
0.862745 0.741176 0.054902
0.874510 0.741176 0.058824
0.882353 0.745098 0.058824
0.886275 0.749020 0.054902
0.894118 0.752941 0.054902
0.894118 0.752941 0.054902
0.898039 0.752941 0.058824
0.023529 0.431373 0.188235
0.023529 0.435294 0.188235
0.003922 0.439216 0.188235
0.000000 0.447059 0.184314
0.000000 0.450980 0.184314
0.015686 0.462745 0.180392
0.015686 0.474510 0.176471
0.000000 0.490196 0.160784
0.023529 0.509804 0.149020
0.098039 0.533333 0.090196
0.141176 0.556863 0.031373
0.219608 0.576471 0.019608
0.301961 0.596078 0.000000
0.368627 0.615686 0.000000
0.435294 0.635294 0.000000
0.490196 0.654902 0.011765
0.549020 0.670588 0.011765
0.600000 0.686275 0.000000
0.650980 0.698039 0.007843
0.694118 0.709804 0.015686
0.737255 0.721569 0.007843
0.768628 0.729412 0.019608
0.803922 0.737255 0.027451
0.823529 0.745098 0.039216
0.847059 0.749020 0.050980
0.858824 0.749020 0.050980
0.870588 0.752941 0.062745
0.882353 0.756863 0.062745
0.890196 0.760784 0.066667
0.894118 0.760784 0.066667
0.901961 0.764706 0.066667
0.901961 0.764706 0.062745
0.905882 0.764706 0.062745
0.000000 0.439216 0.188235
0.000000 0.443137 0.188235
0.000000 0.447059 0.188235
0.000000 0.454902 0.188235
0.000000 0.462745 0.184314
0.015686 0.470588 0.184314
0.035294 0.482353 0.180392
0.019608 0.501961 0.160784
0.000000 0.521569 0.141176
0.070588 0.545098 0.082353
0.149020 0.568627 0.019608
0.231373 0.588235 0.007843
0.309804 0.607843 0.000000
0.376471 0.627451 0.000000
0.443137 0.647059 0.003922
0.498039 0.662745 0.015686
0.556863 0.682353 0.027451
0.607843 0.698039 0.011765
0.658824 0.709804 0.000000
0.701961 0.721569 0.007843
0.745098 0.733333 0.015686
0.776471 0.741176 0.027451
0.811765 0.752941 0.039216
0.831373 0.756863 0.050980
0.854902 0.760784 0.058824
0.866667 0.764706 0.062745
0.882353 0.768628 0.066667
0.890196 0.772549 0.066667
0.898039 0.772549 0.070588
