All_In_One/Enrich_Colormaster/colormanagement/luts/film_response/Fuji3510_CUSPclip.cube
TITLE "Generate by Resolve"
LUT_3D_SIZE 33
0.003922 0.000000 0.003922
0.007843 0.000000 0.007843
0.011765 0.003922 0.007843
0.015686 0.007843 0.011765
0.023529 0.007843 0.011765
0.027451 0.011765 0.011765
0.035294 0.015686 0.011765
0.043137 0.019608 0.011765
0.054902 0.023529 0.015686
0.074510 0.027451 0.015686
0.094118 0.035294 0.019608
0.121569 0.039216 0.019608
0.152941 0.043137 0.019608
0.188235 0.043137 0.007843
0.219608 0.047059 0.000000
0.258824 0.039216 0.000000
0.294118 0.027451 0.000000
0.329412 0.015686 0.000000
0.364706 0.000000 0.000000
0.396078 0.000000 0.000000
0.423529 0.000000 0.000000
0.450980 0.000000 0.000000
0.478431 0.000000 0.000000
0.498039 0.000000 0.000000
0.517647 0.000000 0.000000
0.529412 0.000000 0.000000
0.541176 0.000000 0.000000
0.552941 0.000000 0.000000
0.560784 0.000000 0.000000
0.568627 0.000000 0.000000
0.576471 0.000000 0.000000
0.580392 0.000000 0.000000
0.588235 0.000000 0.000000
0.011765 0.007843 0.007843
0.011765 0.007843 0.007843
0.015686 0.011765 0.011765
0.019608 0.011765 0.011765
0.023529 0.015686 0.011765
0.031373 0.015686 0.015686
0.035294 0.019608 0.015686
0.047059 0.023529 0.015686
0.058824 0.027451 0.019608
0.078431 0.031373 0.019608
0.101961 0.039216 0.019608
0.129412 0.043137 0.019608
0.160784 0.047059 0.019608
0.196078 0.050980 0.007843
0.231373 0.050980 0.000000
0.266667 0.047059 0.000000
0.301961 0.039216 0.000000
0.341176 0.027451 0.000000
0.376471 0.015686 0.000000
0.407843 0.007843 0.000000
0.439216 0.007843 0.000000
0.466667 0.011765 0.000000
0.490196 0.011765 0.000000
0.509804 0.000000 0.000000
0.529412 0.000000 0.000000
0.541176 0.000000 0.000000
0.552941 0.000000 0.000000
0.564706 0.000000 0.000000
0.572549 0.000000 0.000000
0.580392 0.035294 0.000000
0.588235 0.035294 0.000000
0.592157 0.035294 0.000000
0.600000 0.035294 0.000000
0.015686 0.019608 0.015686
0.015686 0.019608 0.015686
0.019608 0.019608 0.015686
0.023529 0.019608 0.015686
0.027451 0.023529 0.015686
0.031373 0.023529 0.015686
0.039216 0.027451 0.019608
0.050980 0.031373 0.019608
0.062745 0.035294 0.019608
0.082353 0.039216 0.023529
0.105882 0.043137 0.023529
0.137255 0.050980 0.023529
0.168627 0.054902 0.019608
0.203922 0.054902 0.011765
0.239216 0.058824 0.000000
0.274510 0.054902 0.000000
0.313726 0.047059 0.000000
0.352941 0.039216 0.000000
0.388235 0.031373 0.000000
0.423529 0.023529 0.000000
0.454902 0.015686 0.000000
0.482353 0.019608 0.000000
0.505882 0.027451 0.000000
0.525490 0.011765 0.000000
0.541176 0.000000 0.000000
0.556863 0.000000 0.000000
0.568627 0.000000 0.000000
0.580392 0.000000 0.000000
0.588235 0.000000 0.000000
0.596078 0.039216 0.000000
0.600000 0.074510 0.000000
0.607843 0.074510 0.000000
0.611765 0.078431 0.000000
0.019608 0.031373 0.019608
0.019608 0.031373 0.019608
0.023529 0.031373 0.019608
0.027451 0.031373 0.019608
0.031373 0.031373 0.019608
0.035294 0.031373 0.019608
0.043137 0.035294 0.023529
0.054902 0.039216 0.023529
0.066667 0.043137 0.023529
0.090196 0.047059 0.027451
0.113725 0.054902 0.027451
0.145098 0.058824 0.023529
0.176471 0.062745 0.023529
0.215686 0.066667 0.011765
0.250980 0.070588 0.000000
0.290196 0.066667 0.000000
0.325490 0.062745 0.000000
0.364706 0.062745 0.000000
0.403922 0.054902 0.000000
0.435294 0.050980 0.000000
0.470588 0.043137 0.000000
0.498039 0.047059 0.000000
0.521569 0.050980 0.000000
0.541176 0.058824 0.000000
0.556863 0.043137 0.000000
0.572549 0.031373 0.000000
0.584314 0.031373 0.000000
0.592157 0.035294 0.000000
0.603922 0.035294 0.000000
0.607843 0.058824 0.000000
0.615686 0.098039 0.000000
0.619608 0.098039 0.000000
0.627451 0.101961 0.000000
0.023529 0.039216 0.023529
0.023529 0.039216 0.023529
0.023529 0.039216 0.023529
0.027451 0.039216 0.023529
0.031373 0.039216 0.023529
0.039216 0.043137 0.023529
0.047059 0.043137 0.027451
0.058824 0.047059 0.027451
0.070588 0.050980 0.027451
0.094118 0.058824 0.031373
0.117647 0.062745 0.031373
0.152941 0.070588 0.027451
0.184314 0.074510 0.027451
0.223529 0.078431 0.011765
0.262745 0.078431 0.000000
0.298039 0.078431 0.000000
0.337255 0.078431 0.000000
0.380392 0.078431 0.000000
0.415686 0.078431 0.000000
0.450980 0.074510 0.000000
0.486275 0.070588 0.000000
0.509804 0.074510 0.000000
0.537255 0.082353 0.000000
0.556863 0.086275 0.000000
0.572549 0.090196 0.000000
0.588235 0.082353 0.000000
0.600000 0.070588 0.000000
0.607843 0.074510 0.000000
0.615686 0.078431 0.000000
0.623529 0.098039 0.000000
0.627451 0.117647 0.000000
0.635294 0.121569 0.000000
0.639216 0.121569 0.000000
0.019608 0.050980 0.027451
0.023529 0.050980 0.027451
0.023529 0.050980 0.027451
0.027451 0.050980 0.027451
0.031373 0.050980 0.027451
0.039216 0.054902 0.031373
0.047059 0.054902 0.031373
0.062745 0.058824 0.031373
0.074510 0.062745 0.035294
0.101961 0.070588 0.035294
0.125490 0.078431 0.035294
0.160784 0.082353 0.031373
0.196078 0.086275 0.027451
0.235294 0.090196 0.011765
0.274510 0.094118 0.000000
0.313726 0.094118 0.000000
0.352941 0.094118 0.000000
0.392157 0.098039 0.000000
0.431373 0.094118 0.000000
0.466667 0.098039 0.000000
0.501961 0.094118 0.000000
0.525490 0.094118 0.000000
0.552941 0.101961 0.000000
0.572549 0.105882 0.000000
0.592157 0.113725 0.000000
0.600000 0.113725 0.000000
0.615686 0.105882 0.000000
0.623529 0.109804 0.000000
0.631373 0.113725 0.000000
0.639216 0.117647 0.000000
0.643137 0.133333 0.000000
0.650980 0.145098 0.000000
0.654902 0.145098 0.000000
0.019608 0.062745 0.035294
0.019608 0.062745 0.035294
0.023529 0.062745 0.035294
0.027451 0.062745 0.035294
0.031373 0.062745 0.035294
0.039216 0.066667 0.035294
0.050980 0.066667 0.035294
0.066667 0.074510 0.035294
0.082353 0.078431 0.039216
0.105882 0.086275 0.039216
0.133333 0.090196 0.039216
0.168627 0.098039 0.035294
0.203922 0.101961 0.031373
0.243137 0.105882 0.015686
0.286275 0.109804 0.000000
0.325490 0.109804 0.000000
0.368627 0.113725 0.000000
0.407843 0.113725 0.000000
0.447059 0.113725 0.000000
0.482353 0.117647 0.000000
0.517647 0.117647 0.000000
0.541176 0.117647 0.000000
0.568627 0.121569 0.000000
0.588235 0.125490 0.000000
0.607843 0.129412 0.000000
0.619608 0.133333 0.000000
0.627451 0.137255 0.000000
0.639216 0.141176 0.000000
0.647059 0.145098 0.000000
0.654902 0.149020 0.000000
0.658824 0.152941 0.000000
0.666667 0.160784 0.000000
0.670588 0.168627 0.000000
0.011765 0.078431 0.039216
0.011765 0.078431 0.039216
0.011765 0.078431 0.039216
0.011765 0.078431 0.039216
0.015686 0.078431 0.039216
0.039216 0.082353 0.039216
0.047059 0.086275 0.039216
0.066667 0.090196 0.043137
0.082353 0.094118 0.043137
0.109804 0.101961 0.043137
0.137255 0.105882 0.043137
0.172549 0.113725 0.035294
0.211765 0.117647 0.031373
0.254902 0.125490 0.015686
0.294118 0.129412 0.000000
0.337255 0.133333 0.000000
0.380392 0.133333 0.000000
0.419608 0.137255 0.000000
0.458824 0.137255 0.000000
0.494118 0.141176 0.000000
0.529412 0.141176 0.000000
0.556863 0.145098 0.000000
0.584314 0.145098 0.000000
0.603922 0.145098 0.000000
0.623529 0.152941 0.000000
0.635294 0.156863 0.000000
0.643137 0.160784 0.000000
0.654902 0.164706 0.000000
0.662745 0.168627 0.000000
0.666667 0.176471 0.000000
0.674510 0.180392 0.000000
0.678431 0.184314 0.000000
0.686275 0.192157 0.000000
0.000000 0.094118 0.043137
0.000000 0.094118 0.043137
0.000000 0.094118 0.047059
0.000000 0.094118 0.047059
0.000000 0.094118 0.047059
0.019608 0.098039 0.047059
0.047059 0.101961 0.047059
0.066667 0.105882 0.047059
0.086275 0.109804 0.047059
0.113725 0.117647 0.047059
0.141176 0.125490 0.043137
0.180392 0.129412 0.035294
0.215686 0.137255 0.027451
0.262745 0.141176 0.015686
0.305882 0.145098 0.000000
0.349020 0.149020 0.000000
0.392157 0.152941 0.000000
0.435294 0.156863 0.000000
0.474510 0.160784 0.000000
0.509804 0.164706 0.000000
0.545098 0.164706 0.000000
0.572549 0.168627 0.000000
0.600000 0.172549 0.000000
0.619608 0.172549 0.000000
0.639216 0.176471 0.000000
0.650980 0.180392 0.000000
0.658824 0.184314 0.000000
0.670588 0.188235 0.000000
0.678431 0.188235 0.000000
0.682353 0.200000 0.000000
0.690196 0.207843 0.000000
0.694118 0.211765 0.000000
0.698039 0.215686 0.000000
0.000000 0.117647 0.050980
0.000000 0.113725 0.050980
0.000000 0.113725 0.050980
0.000000 0.113725 0.050980
0.000000 0.113725 0.050980
0.000000 0.117647 0.050980
0.023529 0.121569 0.050980
0.062745 0.125490 0.047059
0.082353 0.129412 0.050980
0.117647 0.137255 0.047059
0.145098 0.145098 0.043137
0.184314 0.149020 0.027451
0.223529 0.156863 0.019608
0.270588 0.164706 0.015686
0.313726 0.168627 0.000000
0.360784 0.172549 0.000000
0.403922 0.176471 0.000000
0.447059 0.184314 0.000000
0.486275 0.184314 0.000000
0.525490 0.192157 0.000000
0.560784 0.196078 0.000000
0.588235 0.196078 0.000000
0.615686 0.203922 0.000000
0.635294 0.203922 0.000000
0.654902 0.203922 0.000000
0.662745 0.203922 0.000000
0.674510 0.207843 0.000000
0.682353 0.211765 0.000000
0.690196 0.215686 0.000000
0.698039 0.227451 0.000000
0.701961 0.235294 0.000000
0.709804 0.239216 0.000000
0.713726 0.239216 0.000000
0.000000 0.137255 0.058824
0.000000 0.137255 0.054902
0.000000 0.137255 0.054902
0.000000 0.137255 0.054902
0.000000 0.137255 0.054902
0.000000 0.137255 0.054902
0.000000 0.141176 0.050980
0.039216 0.145098 0.050980
0.078431 0.149020 0.050980
0.113725 0.156863 0.047059
0.145098 0.164706 0.043137
0.188235 0.168627 0.027451
0.231373 0.176471 0.007843
0.274510 0.184314 0.003922
0.321569 0.192157 0.000000
0.368627 0.196078 0.000000
0.415686 0.203922 0.000000
0.458824 0.207843 0.000000
0.501961 0.211765 0.000000
0.537255 0.219608 0.000000
0.576471 0.223529 0.000000
0.603922 0.227451 0.000000
0.631373 0.231373 0.000000
0.650980 0.235294 0.000000
0.666667 0.235294 0.000000
0.678431 0.235294 0.000000
0.690196 0.235294 0.000000
0.698039 0.239216 0.000000
0.705882 0.243137 0.000000
0.713726 0.254902 0.000000
0.717647 0.262745 0.000000
0.721569 0.262745 0.000000
0.729412 0.266667 0.000000
0.000000 0.164706 0.066667
0.000000 0.160784 0.062745
0.000000 0.160784 0.062745
0.000000 0.160784 0.062745
0.000000 0.160784 0.058824
0.000000 0.160784 0.054902
0.000000 0.164706 0.054902
0.019608 0.168627 0.050980
0.058824 0.172549 0.050980
0.113725 0.180392 0.043137
0.145098 0.188235 0.039216
0.192157 0.196078 0.023529
0.235294 0.203922 0.003922
0.286275 0.211765 0.003922
0.333333 0.219608 0.000000
0.380392 0.227451 0.000000
0.427451 0.231373 0.000000
0.474510 0.239216 0.000000
0.517647 0.243137 0.000000
0.552941 0.250980 0.000000
0.592157 0.254902 0.000000
0.619608 0.258824 0.000000
0.647059 0.262745 0.000000
0.666667 0.266667 0.000000
0.682353 0.270588 0.000000
0.694118 0.270588 0.000000
0.705882 0.270588 0.000000
0.713726 0.274510 0.000000
0.721569 0.278431 0.000000
0.725490 0.282353 0.000000
0.733333 0.290196 0.000000
0.737255 0.298039 0.000000
0.741176 0.301961 0.000000
0.000000 0.188235 0.074510
0.000000 0.188235 0.070588
0.000000 0.188235 0.070588
0.000000 0.188235 0.066667
0.000000 0.188235 0.066667
0.000000 0.188235 0.062745
0.000000 0.188235 0.058824
0.019608 0.192157 0.054902
0.043137 0.196078 0.047059
0.094118 0.203922 0.043137
0.145098 0.211765 0.031373
0.192157 0.219608 0.015686
0.239216 0.231373 0.000000
0.290196 0.239216 0.000000
0.341176 0.247059 0.000000
0.392157 0.254902 0.000000
0.439216 0.262745 0.000000
0.486275 0.270588 0.000000
0.533333 0.274510 0.000000
0.568627 0.282353 0.000000
0.607843 0.286275 0.000000
0.635294 0.290196 0.000000
0.662745 0.294118 0.000000
0.682353 0.298039 0.000000
0.698039 0.301961 0.000000
0.709804 0.305882 0.000000
0.721569 0.305882 0.000000
0.729412 0.309804 0.000000
0.737255 0.313726 0.000000
0.741176 0.317647 0.000000
0.749020 0.321569 0.000000
0.752941 0.329412 0.000000
0.756863 0.337255 0.000000
0.000000 0.223529 0.086275
0.000000 0.223529 0.086275
0.000000 0.219608 0.082353
0.000000 0.219608 0.082353
0.000000 0.219608 0.078431
0.000000 0.219608 0.070588
0.000000 0.219608 0.066667
0.000000 0.219608 0.050980
0.019608 0.223529 0.043137
0.086275 0.235294 0.027451
0.141176 0.243137 0.015686
0.196078 0.254902 0.015686
0.243137 0.262745 0.000000
0.298039 0.274510 0.000000
0.349020 0.282353 0.000000
0.403922 0.290196 0.000000
0.454902 0.298039 0.000000
0.501961 0.305882 0.000000
0.549020 0.313726 0.000000
0.584314 0.317647 0.000000
0.623529 0.325490 0.000000
0.650980 0.329412 0.000000
0.678431 0.333333 0.000000
0.698039 0.337255 0.000000
0.713726 0.341176 0.000000
0.725490 0.345098 0.000000
0.737255 0.349020 0.000000
0.745098 0.349020 0.000000
0.752941 0.352941 0.000000
0.756863 0.360784 0.000000
0.760784 0.360784 0.000000
0.768628 0.368627 0.000000
0.772549 0.376471 0.000000
0.000000 0.254902 0.098039
0.000000 0.254902 0.098039
0.000000 0.254902 0.098039
0.000000 0.254902 0.094118
0.000000 0.254902 0.094118
0.000000 0.254902 0.082353
0.000000 0.250980 0.074510
0.000000 0.254902 0.058824
0.000000 0.254902 0.039216
0.066667 0.262745 0.019608
0.137255 0.270588 0.000000
0.192157 0.282353 0.000000
0.250980 0.294118 0.000000
0.305882 0.305882 0.000000
0.360784 0.317647 0.000000
0.415686 0.329412 0.000000
0.466667 0.337255 0.000000
0.517647 0.345098 0.000000
0.564706 0.352941 0.000000
0.600000 0.356863 0.000000
0.639216 0.364706 0.000000
0.666667 0.368627 0.000000
0.694118 0.372549 0.000000
0.713726 0.380392 0.000000
0.733333 0.384314 0.000000
0.741176 0.384314 0.000000
0.752941 0.388235 0.000000
0.760784 0.388235 0.000000
0.768628 0.392157 0.000000
0.772549 0.396078 0.000000
0.776471 0.403922 0.000000
0.780392 0.411765 0.000000
0.784314 0.419608 0.000000
0.000000 0.294118 0.117647
0.000000 0.294118 0.117647
0.000000 0.294118 0.117647
0.000000 0.294118 0.113725
0.000000 0.294118 0.109804
0.000000 0.294118 0.098039
0.000000 0.294118 0.090196
0.000000 0.290196 0.058824
0.000000 0.290196 0.043137
0.050980 0.298039 0.019608
0.121569 0.305882 0.000000
0.196078 0.321569 0.000000
0.250980 0.333333 0.000000
0.313726 0.349020 0.000000
0.368627 0.360784 0.000000
0.427451 0.372549 0.000000
0.482353 0.380392 0.000000
0.533333 0.392157 0.000000
0.580392 0.396078 0.000000
0.615686 0.403922 0.000000
0.654902 0.407843 0.000000
0.682353 0.411765 0.000000
0.709804 0.419608 0.000000
0.729412 0.419608 0.000000
0.745098 0.423529 0.000000
0.756863 0.427451 0.019608
0.768628 0.431373 0.019608
0.776471 0.435294 0.000000
0.780392 0.435294 0.000000
0.788235 0.439216 0.015686
0.792157 0.447059 0.015686
0.796079 0.450980 0.000000
0.800000 0.458824 0.000000
0.000000 0.337255 0.137255
0.000000 0.337255 0.137255
0.000000 0.337255 0.137255
0.000000 0.337255 0.133333
0.000000 0.333333 0.129412
0.000000 0.333333 0.117647
0.000000 0.333333 0.105882
0.000000 0.333333 0.074510
0.000000 0.329412 0.043137
0.050980 0.337255 0.023529
0.105882 0.345098 0.000000
0.180392 0.356863 0.000000
0.254902 0.372549 0.000000
0.317647 0.388235 0.000000
0.380392 0.403922 0.000000
0.439216 0.415686 0.000000
0.494118 0.423529 0.000000
0.545098 0.435294 0.000000
0.596078 0.443137 0.000000
0.631373 0.447059 0.000000
0.670588 0.454902 0.000000
0.701961 0.458824 0.000000
0.729412 0.462745 0.000000
0.745098 0.466667 0.000000
0.760784 0.466667 0.000000
0.772549 0.470588 0.019608
0.780392 0.474510 0.039216
0.788235 0.478431 0.019608
0.796079 0.478431 0.000000
0.800000 0.486275 0.015686
0.807843 0.490196 0.031373
0.811765 0.494118 0.015686
0.815686 0.498039 0.000000
0.000000 0.380392 0.160784
0.000000 0.380392 0.160784
0.000000 0.380392 0.160784
0.000000 0.376471 0.152941
0.000000 0.376471 0.149020
0.000000 0.380392 0.141176
0.000000 0.380392 0.129412
0.000000 0.372549 0.090196
0.000000 0.372549 0.058824
0.000000 0.376471 0.023529
0.050980 0.384314 0.000000
0.180392 0.400000 0.000000
0.258824 0.415686 0.000000
0.329412 0.435294 0.000000
0.392157 0.447059 0.000000
0.450980 0.462745 0.000000
0.509804 0.474510 0.000000
0.560784 0.482353 0.000000
0.607843 0.494118 0.000000
0.650980 0.498039 0.000000
0.690196 0.505882 0.000000
0.717647 0.509804 0.000000
0.745098 0.513726 0.000000
0.764706 0.513726 0.011765
0.780392 0.517647 0.011765
0.792157 0.517647 0.000000
0.800000 0.521569 0.019608
0.807843 0.525490 0.035294
0.815686 0.525490 0.015686
0.819608 0.533333 0.007843
0.827451 0.537255 0.023529
0.831373 0.541176 0.035294
0.835294 0.549020 0.019608
0.000000 0.419608 0.184314
0.000000 0.419608 0.184314
0.000000 0.419608 0.184314
0.000000 0.419608 0.176471
0.000000 0.419608 0.168627
0.000000 0.419608 0.160784
0.000000 0.423529 0.156863
0.000000 0.419608 0.117647
0.000000 0.411765 0.074510
0.000000 0.415686 0.039216
0.000000 0.423529 0.000000
0.125490 0.439216 0.000000
0.258824 0.458824 0.000000
0.329412 0.474510 0.000000
0.400000 0.494118 0.000000
0.462745 0.505882 0.000000
0.521569 0.521569 0.000000
0.572549 0.529412 0.000000
0.623529 0.541176 0.000000
0.666667 0.549020 0.000000
0.705882 0.552941 0.000000
0.733333 0.556863 0.000000
0.760784 0.560784 0.000000
0.780392 0.564706 0.011765
0.800000 0.564706 0.023529
0.807843 0.564706 0.011765
0.819608 0.568627 0.000000
0.827451 0.572549 0.015686
0.835294 0.572549 0.031373
0.839216 0.580392 0.023529
0.847059 0.584314 0.015686
0.850980 0.588235 0.027451
0.854902 0.596078 0.039216
0.000000 0.450980 0.200000
0.000000 0.454902 0.200000
0.000000 0.454902 0.200000
0.000000 0.454902 0.196078
0.000000 0.450980 0.188235
0.000000 0.454902 0.184314
0.000000 0.454902 0.176471
0.000000 0.454902 0.137255
0.000000 0.450980 0.094118
0.000000 0.454902 0.039216
0.000000 0.458824 0.000000
0.125490 0.478431 0.000000
0.258824 0.498039 0.000000
0.337255 0.517647 0.000000
0.407843 0.533333 0.000000
0.474510 0.549020 0.000000
0.533333 0.564706 0.000000
0.588235 0.576471 0.000000
0.639216 0.584314 0.000000
0.678431 0.592157 0.000000
0.721569 0.600000 0.000000
0.749020 0.603922 0.007843
0.776471 0.607843 0.007843
0.796079 0.607843 0.015686
0.815686 0.611765 0.027451
0.827451 0.611765 0.023529
0.839216 0.611765 0.011765
0.843137 0.615686 0.000000
0.850980 0.615686 0.015686
0.854902 0.619608 0.015686
0.862745 0.623529 0.007843
0.866667 0.631373 0.007843
0.870588 0.635294 0.019608
0.000000 0.482353 0.215686
0.000000 0.486275 0.215686
0.000000 0.486275 0.215686
0.000000 0.486275 0.211765
0.000000 0.486275 0.203922
0.000000 0.490196 0.200000
0.000000 0.490196 0.196078
0.000000 0.490196 0.156863
0.000000 0.486275 0.113725
0.000000 0.490196 0.058824
0.000000 0.498039 0.003922
0.125490 0.513726 0.000000
0.258824 0.533333 0.000000
0.341176 0.552941 0.000000
0.415686 0.572549 0.000000
0.482353 0.588235 0.000000
0.545098 0.607843 0.000000
0.600000 0.619608 0.000000
0.654902 0.631373 0.000000
0.694118 0.639216 0.000000
0.733333 0.647059 0.000000
0.764706 0.650980 0.007843
0.792157 0.650980 0.019608
0.811765 0.654902 0.027451
0.831373 0.654902 0.035294
0.843137 0.654902 0.027451
0.854902 0.658824 0.023529
0.862745 0.658824 0.011765
0.866667 0.658824 0.000000
0.870588 0.662745 0.000000
0.878431 0.666667 0.000000
0.882353 0.670588 0.000000
0.886275 0.674510 0.000000
0.015686 0.505882 0.223529
0.000000 0.505882 0.219608
0.000000 0.505882 0.219608
0.000000 0.509804 0.223529
0.000000 0.509804 0.215686
0.000000 0.509804 0.203922
0.000000 0.509804 0.200000
0.000000 0.513726 0.172549
0.000000 0.513726 0.129412
0.000000 0.517647 0.058824
0.000000 0.521569 0.003922
0.129412 0.541176 0.000000
0.262745 0.560784 0.000000
0.349020 0.584314 0.000000
0.427451 0.603922 0.000000
0.494118 0.623529 0.000000
0.556863 0.639216 0.000000
0.615686 0.654902 0.000000
0.666667 0.666667 0.000000
0.709804 0.674510 0.000000
0.749020 0.682353 0.000000
0.776471 0.682353 0.015686
0.803922 0.686275 0.027451
0.823529 0.686275 0.035294
0.843137 0.690196 0.043137
0.854902 0.690196 0.043137
0.866667 0.690196 0.035294
0.874510 0.690196 0.035294
0.882353 0.694118 0.023529
0.886275 0.694118 0.027451
0.890196 0.698039 0.027451
0.894118 0.701961 0.027451
0.898039 0.705882 0.027451
0.035294 0.525490 0.235294
0.019608 0.525490 0.231373
0.000000 0.525490 0.223529
0.000000 0.529412 0.223529
0.000000 0.533333 0.227451
0.000000 0.533333 0.215686
0.000000 0.529412 0.200000
0.000000 0.533333 0.172549
0.000000 0.541176 0.145098
0.000000 0.545098 0.078431
0.000000 0.549020 0.003922
0.129412 0.568627 0.000000
0.270588 0.592157 0.000000
0.352941 0.611765 0.000000
0.435294 0.631373 0.000000
0.501961 0.650980 0.000000
0.568627 0.670588 0.000000
0.623529 0.686275 0.000000
0.678431 0.701961 0.000000
0.721569 0.709804 0.000000
0.760784 0.717647 0.000000
0.792157 0.717647 0.015686
0.819608 0.717647 0.035294
0.839216 0.721569 0.043137
0.858824 0.721569 0.050980
0.866667 0.721569 0.050980
0.878431 0.725490 0.050980
0.886275 0.725490 0.050980
0.894118 0.725490 0.050980
0.898039 0.729412 0.054902
0.901961 0.733333 0.058824
0.905882 0.733333 0.058824
0.909804 0.737255 0.058824
0.047059 0.537255 0.239216
0.019608 0.537255 0.235294
0.000000 0.537255 0.231373
0.000000 0.537255 0.223529
0.000000 0.541176 0.223529
0.000000 0.545098 0.219608
0.000000 0.545098 0.207843
0.000000 0.552941 0.184314
0.000000 0.556863 0.156863
0.000000 0.560784 0.078431
0.000000 0.568627 0.003922
0.137255 0.588235 0.000000
0.278431 0.607843 0.000000
0.360784 0.631373 0.000000
0.443137 0.650980 0.000000
0.509804 0.670588 0.000000
0.576471 0.690196 0.000000
0.631373 0.705882 0.000000
0.686275 0.721569 0.000000
0.729412 0.729412 0.015686
0.772549 0.737255 0.015686
0.800000 0.741176 0.023529
0.827451 0.741176 0.043137
0.847059 0.741176 0.047059
0.866667 0.745098 0.054902
0.878431 0.745098 0.058824
0.886275 0.745098 0.062745
0.894118 0.749020 0.062745
0.901961 0.749020 0.062745
0.905882 0.749020 0.058824
0.909804 0.752941 0.062745
0.913726 0.752941 0.062745
0.913726 0.756863 0.066667
0.058824 0.549020 0.243137
0.035294 0.552941 0.239216
0.003922 0.552941 0.235294
0.000000 0.549020 0.227451
0.000000 0.545098 0.219608
0.000000 0.552941 0.215686
0.000000 0.556863 0.211765
0.000000 0.564706 0.188235
0.000000 0.572549 0.164706
0.000000 0.580392 0.086275
0.000000 0.584314 0.003922
0.137255 0.603922 0.000000
0.286275 0.627451 0.000000
0.372549 0.650980 0.000000
0.450980 0.670588 0.000000
0.517647 0.690196 0.000000
0.584314 0.709804 0.000000
0.639216 0.725490 0.000000
0.694118 0.741176 0.000000
0.741176 0.752941 0.015686
0.784314 0.760784 0.035294
0.811765 0.764706 0.043137
0.839216 0.764706 0.050980
0.854902 0.764706 0.054902
0.874510 0.764706 0.058824
0.886275 0.764706 0.066667
0.898039 0.768628 0.070588
0.905882 0.768628 0.070588
0.909804 0.772549 0.074510
0.913726 0.772549 0.070588
0.917647 0.772549 0.066667
0.921569 0.772549 0.066667
0.921569 0.776471 0.070588
0.031373 0.556863 0.243137
0.031373 0.560784 0.243137
0.003922 0.560784 0.239216
0.000000 0.560784 0.231373
0.000000 0.556863 0.223529
0.019608 0.560784 0.219608
0.019608 0.568627 0.211765
0.000000 0.572549 0.172549
0.000000 0.580392 0.149020
0.000000 0.588235 0.086275
0.000000 0.596078 0.003922
0.145098 0.615686 0.000000
0.294118 0.639216 0.000000
0.380392 0.662745 0.000000
0.458824 0.682353 0.000000
0.525490 0.701961 0.000000
0.588235 0.721569 0.000000
0.647059 0.737255 0.007843
0.701961 0.752941 0.007843
0.745098 0.764706 0.023529
0.788235 0.772549 0.039216
0.819608 0.776471 0.047059
0.847059 0.776471 0.054902
0.862745 0.776471 0.062745
0.878431 0.776471 0.066667
0.890196 0.780392 0.070588
0.901961 0.780392 0.074510
0.909804 0.780392 0.074510
0.917647 0.784314 0.078431
0.921569 0.784314 0.078431
0.925490 0.784314 0.074510
0.925490 0.784314 0.070588
0.929412 0.788235 0.074510
0.000000 0.560784 0.239216
0.000000 0.564706 0.239216
0.000000 0.568627 0.243137
0.000000 0.568627 0.235294
0.000000 0.564706 0.227451
0.019608 0.572549 0.223529
0.043137 0.576471 0.215686
0.023529 0.580392 0.176471
0.000000 0.588235 0.133333
0.000000 0.596078 0.070588
0.000000 0.607843 0.003922
0.145098 0.627451 0.000000
0.305882 0.650980 0.000000
0.388235 0.674510 0.000000
0.466667 0.694118 0.000000
0.533333 0.713726 0.000000
0.596078 0.733333 0.000000
0.654902 0.749020 0.007843
0.705882 0.764706 0.015686
0.749020 0.772549 0.031373
0.796079 0.784314 0.047059
0.823529 0.788235 0.054902
0.850980 0.792157 0.058824
0.870588 0.792157 0.066667
0.886275 0.788235 0.074510
0.898039 0.792157 0.074510
0.909804 0.792157 0.078431
0.917647 0.796079 0.078431
0.921569 0.796079 0.078431
