All_In_One/Enrich_Colormaster/colormanagement/luts/film_response/Fuji3513_CUSPclip.cube
TITLE "Generate by Resolve"
LUT_3D_SIZE 5
0.000000 0.000000 0.011765
0.058824 0.023529 0.019608
0.290196 0.000000 0.000000
0.509804 0.000000 0.000000
0.576471 0.000000 0.000000
0.000000 0.086275 0.039216
0.078431 0.101961 0.039216
0.396078 0.149020 0.000000
0.639216 0.176471 0.000000
0.694118 0.219608 0.000000
0.000000 0.325490 0.133333
0.000000 0.321569 0.000000
0.509804 0.431373 0.000000
0.768628 0.470588 0.000000
0.819608 0.505882 0.039216
0.054902 0.537255 0.239216
0.000000 0.564706 0.121569
0.603922 0.713726 0.000000
0.886275 0.764706 0.062745
0.929412 0.772549 0.078431
0.000000 0.607843 0.286275
0.125490 0.654902 0.000000
0.674510 0.780392 0.000000
0.945098 0.827451 0.090196
0.988235 0.835294 0.101961
0.000000 0.015686 0.074510
0.062745 0.027451 0.078431
0.345098 0.000000 0.074510
0.584314 0.000000 0.074510
0.643137 0.000000 0.090196
0.000000 0.113725 0.125490
0.086275 0.125490 0.121569
0.454902 0.156863 0.105882
0.721569 0.086275 0.047059
0.776471 0.121569 0.054902
0.000000 0.419608 0.286275
0.000000 0.400000 0.203922
0.564706 0.470588 0.090196
0.882353 0.490196 0.000000
0.933333 0.525490 0.000000
0.047059 0.607843 0.392157
0.070588 0.650980 0.349020
0.615686 0.764706 0.000000
0.984314 0.827451 0.003922
1.000000 0.835294 0.003922
0.011765 0.686275 0.533333
0.000000 0.729412 0.450980
0.635294 0.835294 0.396078
0.988235 0.898039 0.364706
1.000000 0.890196 0.431373
0.000000 0.113725 0.309804
0.078431 0.000000 0.305882
0.380392 0.000000 0.341176
0.623529 0.000000 0.360784
0.678431 0.000000 0.380392
0.000000 0.270588 0.447059
0.000000 0.180392 0.423529
0.478431 0.176471 0.450980
0.752941 0.121569 0.450980
0.800000 0.164706 0.474510
0.000000 0.525490 0.592157
0.000000 0.541176 0.600000
0.552941 0.549020 0.564706
0.890196 0.556863 0.556863
0.941177 0.600000 0.576471
0.000000 0.701961 0.686275
0.000000 0.749020 0.694118
0.560784 0.850980 0.643137
0.976471 0.909804 0.635294
1.000000 0.917647 0.650980
0.000000 0.752941 0.768628
0.000000 0.811765 0.784314
0.584314 0.901961 0.776471
0.964706 0.956863 0.776471
1.000000 0.960784 0.780392
0.000000 0.243137 0.501961
0.090196 0.007843 0.509804
0.400000 0.000000 0.568627
0.654902 0.000000 0.592157
0.705882 0.000000 0.607843
0.000000 0.356863 0.623529
0.000000 0.321569 0.639216
0.482353 0.176471 0.721569
0.764706 0.094118 0.737255
0.815686 0.164706 0.756863
0.000000 0.564706 0.741176
0.027451 0.584314 0.776471
0.521569 0.588235 0.854902
0.886275 0.600000 0.870588
0.933333 0.639216 0.882353
0.000000 0.725490 0.815686
0.039216 0.780392 0.858824
0.478431 0.894118 0.925490
0.952941 0.956863 0.945098
1.000000 0.968628 0.949020
0.000000 0.760784 0.850980
0.000000 0.831373 0.898039
0.525490 0.929412 0.952941
0.945098 0.988235 0.972549
1.000000 0.996078 0.976471
0.000000 0.290196 0.572549
0.082353 0.011765 0.611765
0.443137 0.000000 0.678431
0.705882 0.000000 0.701961
0.756863 0.000000 0.725490
0.000000 0.396078 0.666667
0.000000 0.372549 0.705882
0.490196 0.250980 0.800000
0.792157 0.223529 0.823529
0.839216 0.262745 0.839216
0.062745 0.588235 0.768628
0.000000 0.600000 0.807843
0.509804 0.615686 0.909804
0.886275 0.623529 0.933333
0.937255 0.662745 0.941177
0.050980 0.729412 0.831373
0.050980 0.784314 0.878431
0.450980 0.901961 0.964706
0.945098 0.964706 0.992157
1.000000 0.972549 0.996078
0.000000 0.764706 0.858824
0.043137 0.831373 0.909804
0.501961 0.929412 0.972549
0.937255 0.992157 1.000000
1.000000 1.000000 1.000000
