All_In_One/Enrich_Colormaster/colormanagement/luts/film_response/Grit.cube
#Created by: Denver Riddle
#Copyright: (C) Copyright Color Grading Central LLC
#LUT Size
LUT_3D_SIZE 5
0 0 0
0.273594 0 0
0.670176 0 0
1 0 0
1 0 0
0.0444343 0.109194 0.0437171
0.148638 0.147753 0.0734417
0.490349 0.21265 0
0.933349 0.219043 0
1 0.220249 0
0.122347 0.288396 0.120317
0.2607 0.358907 0.172213
0.440742 0.437903 0.226246
0.703914 0.54287 0.146929
0.973953 0.687388 0
0.237079 0.552728 0.233463
0.405783 0.625818 0.303563
0.584543 0.674205 0.378866
0.740353 0.73814 0.467781
0.895918 0.811612 0.470085
0.386877 0.778439 0.382544
0.563409 0.828244 0.470314
0.714 0.871717 0.570932
0.839582 0.907423 0.654032
0.935836 0.935195 0.728664
0.0745861 0 0.23386
0.0884565 0.0118257 0.0960708
0.474571 0 0.24062
0.9682 0 0.342443
1 0 0.418845
0.0404974 0.107469 0.106096
0.152651 0.152453 0.152636
0.526085 0.175631 0.182513
0.922393 0.187304 0.204105
1 0.216541 0.242222
0.128832 0.292927 0.203433
0.268391 0.365332 0.266743
0.448081 0.445808 0.33312
0.769131 0.551843 0.242618
1 0.61738 0.17995
0.242649 0.560967 0.329717
0.412467 0.630304 0.409812
0.58912 0.680171 0.490898
0.744549 0.74284 0.586053
0.918181 0.820493 0.575265
0.393927 0.785992 0.482765
0.569146 0.835737 0.566842
0.718242 0.878767 0.641825
0.844068 0.913436 0.711467
0.940505 0.940291 0.774655
0.0982376 0.00764477 0.446128
0.211902 0 0.46392
0.209354 0.0319219 0.209522
0.583001 0 0.388342
1 0 0.654307
0 0.112154 0.258534
0.0411841 0.132128 0.30309
0.299168 0.203189 0.310414
0.778515 0.208072 0.519356
1 0.214481 0.671931
0.120958 0.281331 0.271473
0.246601 0.358053 0.353994
0.452384 0.450568 0.451331
0.792752 0.511513 0.521416
1 0.591989 0.608667
0.247135 0.567514 0.432731
0.416678 0.634287 0.521096
0.592203 0.685161 0.591272
0.748623 0.747173 0.664591
0.955306 0.827054 0.696803
0.398993 0.794614 0.581796
0.572427 0.843488 0.656153
0.723339 0.885069 0.721767
0.848402 0.919234 0.778561
0.945617 0.945388 0.828809
0.110597 0.017731 0.672511
0.247074 0 0.742046
0.425849 0 0.573785
0.372107 0.0595407 0.35845
0.738323 0.043183 0.555398
0 0.115145 0.504646
0.0554055 0.1364 0.528359
0.292332 0.180255 0.600458
0.505669 0.264912 0.502052
0.884855 0.283421 0.716014
0.0168002 0.23859 0.474464
0.0563821 0.293751 0.574823
0.269627 0.40444 0.616571
0.633555 0.525154 0.638529
0.952255 0.592813 0.786389
0.236683 0.558068 0.537209
0.390112 0.633219 0.616892
0.570214 0.683986 0.677974
0.751934 0.750805 0.751842
0.977005 0.810758 0.812741
0.409125 0.801617 0.681743
0.577783 0.851133 0.750393
0.726436 0.89247 0.806531
0.852995 0.925399 0.852461
0.950912 0.95079 0.88925
0.134051 0.0243687 0.869886
0.295216 0.00123598 0.948013
0.695705 0 0.968917
0.683238 0 0.68246
0.601328 0.0942855 0.55729
0.00634775 0.117952 0.714839
0.0773022 0.142138 0.729061
0.346258 0.173617 0.821881
0.705226 0.229465 0.781521
0.736019 0.336721 0.712535
0 0.249348 0.733471
0.0736706 0.307103 0.755779
0.311391 0.411933 0.78172
0.696681 0.49575 0.855406
0.804044 0.605356 0.792523
0.146593 0.533989 0.702251
0.219638 0.614008 0.783749
0.381949 0.676463 0.831739
0.68455 0.74197 0.859571
0.891249 0.807126 0.886763
0.389715 0.805188 0.769177
0.551873 0.856992 0.830991
0.713558 0.899092 0.883619
0.850889 0.932189 0.925566
0.956619 0.956603 0.956756
