All_In_One/Enrich_Colormaster/colormanagement/luts/film_response/Grit.cube
#Created by: Denver Riddle
#Copyright: (C) Copyright Color Grading Central LLC
#LUT Size
LUT_3D_SIZE 33
0 0 0
0.0104677 0.000274662 0.000350958
0.0318608 0 0
0.0654154 0 0
0.109834 0 0
0.156115 0 0
0.194095 0 0
0.232853 0 0
0.273594 0 0
0.316365 0 0
0.361074 0 0
0.407767 0 0
0.456443 0 0
0.507118 0 0
0.559731 0 0
0.614481 0 0
0.670176 0 0
0.723522 0 0
0.774731 0 0
0.823499 0 0
0.870039 0 0
0.914412 0 0
0.956359 0 0
0.996139 0 0
1 0 0
1 0 0
1 0 0
1 0 0
1 0 0
1 0 0
1 0 0
1 0 0
1 0 0
0.00410468 0.0105135 0.0037995
0.0122835 0.0120851 0.00552377
0.0251316 0.0133669 0.00225834
0.0514992 0.0125582 0
0.090074 0.00852979 0
0.137819 0.00251774 0
0.182254 0 0
0.221469 0 0
0.262547 0 0
0.305455 0 0
0.350286 0 0
0.397055 0 0
0.445869 0 0
0.496757 0 0
0.549462 0 0
0.604334 0 0
0.660899 0 0
0.71487 0 0
0.766552 0 0
0.815824 0 0
0.862776 0 0
0.907423 0 0
0.951965 0 0
0.99202 0 0
1 0 0
1 0 0
1 0 0
1 0 0
1 0 0
1 0 0
1 0 0
1 0 0
1 0 0
0.00883497 0.0222324 0.00840772
0.0171206 0.024155 0.0106203
0.0265507 0.026154 0.0124666
0.0400854 0.0285191 0.007187
0.0696574 0.0298466 0
0.112123 0.0271458 0
0.158556 0.0226749 0
0.199741 0.0188907 0
0.240909 0.0151522 0
0.283299 0.0114595 0
0.327886 0.00761425 0
0.374929 0.00366217 0
0.424659 0 0
0.478401 0 0
0.532677 0 0
0.588434 0 0
0.645731 0 0
0.701549 0 0
0.754574 0 0
0.805081 0 0
0.853147 0 0
0.898726 0 0
0.941985 0 0
0.982818 0 0
1 0 0
1 0 0
1 0 0
1 0 0
1 0 0
1 0 0
1 0 0
1 0 0
1 0 0
0.0137484 0.0346838 0.0135653
0.0228122 0.0369726 0.0160983
0.0320592 0.0394141 0.0182193
0.0422827 0.0418555 0.0202487
0.0563058 0.0450294 0.0149538
0.0857099 0.0485084 0
0.127245 0.0492561 0
0.17052 0.0473335 0
0.215183 0.0444343 0
0.261128 0.0411383 0
0.308202 0.0375982 0
0.356207 0.0339818 0
0.40499 0.0303349 0
0.455116 0.0265965 0
0.507546 0.0226444 0
0.562142 0.0184329 0
0.618799 0.0140841 0
0.675319 0.00976577 0
0.729412 0.00575265 0
0.781109 0.00192264 0
0.830457 0 0
0.877485 0 0
0.92221 0 0
0.964599 0 0
1 0 0
1 0 0
1 0 0
1 0 0
1 0 0
1 0 0
1 0 0
1 0 0
1 0 0
0.0195163 0.0479438 0.0188907
0.0285801 0.0505379 0.0218204
0.0382391 0.053315 0.0242161
0.0485847 0.0561379 0.0266575
0.0594492 0.0590677 0.0290532
0.0738689 0.0628519 0.0249027
0.101488 0.0678416 0.00393683
0.140063 0.0723735 0
0.182712 0.073167 0
0.229618 0.0721904 0
0.278874 0.0701305 0
0.329976 0.0674601 0
0.382528 0.0643473 0
0.436362 0.0609751 0
0.491173 0.057435 0
0.547524 0.0538796 0
0.604959 0.050248 0
0.661234 0.0467079 0
0.715145 0.0432136 0
0.766583 0.0397803 0
0.815534 0.036408 0
0.862287 0.0329747 0
0.906462 0.0296788 0
0.948211 0.0263523 0
0.98764 0.0231937 0
1 0.0200504 0
1 0.0172122 0
1 0.0144503 0
1 0.0118868 0
1 0.00944533 0
1 0.00720226 0
1 0.0061799 0
1 0.00543221 0
0.0253452 0.0618753 0.0247349
0.0348211 0.0648356 0.0280461
0.0448157 0.0680095 0.0306859
0.0552529 0.0712596 0.0332952
0.0667124 0.0745098 0.035935
0.0782483 0.0779278 0.0386816
0.092958 0.0821546 0.0365454
0.117937 0.0881361 0.0197604
0.154314 0.0940261 0
0.198749 0.0995499 0
0.246159 0.101122 0
0.2972 0.100984 0
0.351156 0.0998093 0
0.407523 0.0980392 0
0.46566 0.0957046 0
0.525261 0.0928054 0
0.586236 0.0895705 0
0.646021 0.0862287 0
0.702419 0.0831159 0
0.755154 0.0801099 0
0.804547 0.0774548 0
0.850935 0.0749065 0
0.894774 0.0724804 0
0.936294 0.0700389 0
0.975418 0.067689 0
1 0.0653544 0
1 0.0630198 0
1 0.0606851 0
1 0.0584573 0
1 0.0562142 0
1 0.0539864 0
1 0.0530556 0
1 0.0523995 0
0.0315404 0.0765545 0.03093
0.0415961 0.0798962 0.0344854
0.0515602 0.0835279 0.0373693
0.0627604 0.0872206 0.0401923
0.0741436 0.0910353 0.0430152
0.086656 0.0949416 0.0457771
0.0995499 0.0989242 0.048661
0.11458 0.103578 0.0483101
0.138216 0.110338 0.0347601
0.172503 0.117632 0.0130312
0.216403 0.124575 0
0.2663 0.131151 0
0.318776 0.133684 0
0.374685 0.134249 0
0.433509 0.133806 0
0.494484 0.132784 0
0.55787 0.131304 0
0.621622 0.12929 0
0.681468 0.127108 0
0.737331 0.124788 0
0.789609 0.122301 0
0.83827 0.120027 0
0.883665 0.117937 0
0.925856 0.115969 0
0.965118 0.114305 0
1 0.112749 0
1 0.11133 0
1 0.109926 0
1 0.108553 0
1 0.107317 0
1 0.105959 0
1 0.105852 0
1 0.10602 0
0.037583 0.0924086 0.0366522
0.0478218 0.0960861 0.0406195
0.0593118 0.0999313 0.0446174
0.0705425 0.104158 0.0478981
0.0826276 0.108476 0.0509651
0.0952926 0.112978 0.0539712
0.108721 0.11751 0.0570535
0.122942 0.122148 0.0602731
0.138598 0.127275 0.0614023
0.161822 0.1346 0.0506905
0.194903 0.142962 0.0312963
0.237263 0.151369 0.00660716
0.28777 0.159319 0
0.342519 0.167407 0
0.399969 0.170871 0
0.46099 0.172244 0
0.524697 0.172412 0
0.590738 0.172015 0
0.654231 0.171481 0
0.713115 0.170947 0
0.768017 0.170123 0
0.818998 0.169131 0
0.866545 0.167834 0
0.910704 0.166476 0
0.951705 0.165179 0
0.989471 0.163958 0
1 0.162783 0
1 0.161944 0
1 0.161166 0
1 0.160632 0
1 0.160174 0
1 0.160632 0
1 0.161715 0
0.0444343 0.109194 0.0437171
0.0556191 0.113344 0.0480354
0.0673228 0.117632 0.052369
0.0791791 0.122225 0.0558328
0.0916762 0.127062 0.0593881
0.104768 0.132082 0.0629129
0.1187 0.137224 0.0662699
0.13312 0.142443 0.0697795
0.148638 0.147753 0.0734417
0.165011 0.153414 0.0757153
0.188464 0.161196 0.0669566
0.220584 0.170443 0.0499123
0.26157 0.180041 0.0272068
0.311101 0.189487 0.00030518
0.368521 0.198535 0
0.428275 0.206928 0
0.490349 0.21265 0
0.556023 0.214984 0
0.623133 0.215961 0
0.684367 0.216693 0
0.741573 0.217334 0
0.794858 0.218006 0
0.844633 0.218601 0
0.890654 0.218906 0
0.933349 0.219043 0
0.972656 0.219013 0
1 0.218708 0
1 0.218555 0
1 0.218189 0
1 0.218036 0
1 0.217914 0
1 0.218769 0
1 0.220249 0
0.0522316 0.127123 0.0511635
0.0637369 0.131807 0.0558785
0.076112 0.136599 0.0607004
0.0884413 0.141772 0.0645304
0.101289 0.147036 0.068452
0.115129 0.152438 0.0723735
0.129168 0.158007 0.0762341
0.144411 0.16376 0.079942
0.159869 0.16965 0.0837568
0.176638 0.175586 0.0878157
0.193912 0.181811 0.0910506
0.217746 0.190188 0.0842298
0.249393 0.200168 0.0690929
0.289342 0.210788 0.0483101
0.337667 0.221653 0.0231479
0.394156 0.232242 0
0.457908 0.2421 0
0.523796 0.251209 0
0.589868 0.259174 0
0.653849 0.262821 0
0.712917 0.265263 0
0.76817 0.267109 0
0.819638 0.268986 0
0.867353 0.270756 0
0.911437 0.272541 0
0.952026 0.274327 0
0.989303 0.275868 0
1 0.277134 0
1 0.278187 0
1 0.278874 0
1 0.279469 0
1 0.28072 0
1 0.282353 0
0.0604562 0.146273 0.0592813
0.0724804 0.151461 0.0644541
0.0855573 0.156741 0.0696574
0.0981155 0.162448 0.0737316
0.111788 0.168231 0.0778668
0.125689 0.174182 0.0821088
0.14078 0.180179 0.0864424
0.156085 0.186313 0.0908064
0.172488 0.192706 0.0950027
0.189242 0.199207 0.0993515
0.207004 0.205798 0.103746
0.225528 0.212634 0.107637
0.249561 0.221546 0.102708
0.280964 0.232288 0.0892042
0.320668 0.243915 0.0700542
0.368475 0.255894 0.0462196
0.42385 0.267918 0.0188907
0.486641 0.279545 0
0.556466 0.290349 0
0.624826 0.300404 0
0.68333 0.311131 0
0.73959 0.316533 0
0.792432 0.320394 0
0.841566 0.323445 0
0.886839 0.326146 0
0.928038 0.328786 0
0.963973 0.330999 0
0.995605 0.333013 0
1 0.334981 0
1 0.336736 0
1 0.338476 0
1 0.340429 0
1 0.342824 0
0.0691386 0.166827 0.0679942
0.0819562 0.17232 0.0734722
0.0952773 0.178027 0.0790875
0.108797 0.184283 0.0834974
0.12253 0.190692 0.0879835
0.137423 0.197116 0.0925612
0.152636 0.203693 0.0972
0.168826 0.210315 0.101884
0.185473 0.217136 0.106645
0.202899 0.224048 0.111269
0.221027 0.231189 0.115999
0.239826 0.238437 0.120851
0.259571 0.245914 0.125536
0.284108 0.255406 0.122164
0.315633 0.266804 0.110384
0.355367 0.279255 0.0924849
0.402731 0.292256 0.0700999
0.457603 0.305516 0.043946
0.519661 0.318517 0.0146334
0.587228 0.331182 0
0.652491 0.343435 0
0.713481 0.355276 0
0.76553 0.367315 0
0.813413 0.375189 0
0.856077 0.379156 0
0.893919 0.381735 0
0.927611 0.383978 0
0.958007 0.385992 0
0.985306 0.388342 0
1 0.390784 0
1 0.393561 0
1 0.396826 0
1 0.400168 0
0.0786603 0.188571 0.0771801
0.0916304 0.194644 0.0831464
0.106111 0.200763 0.0892348
0.119646 0.207385 0.0939498
0.13434 0.214252 0.0986496
0.149462 0.221271 0.103456
0.165469 0.228428 0.1084
0.18204 0.23566 0.113466
0.199237 0.242908 0.118608
0.217258 0.25037 0.123873
0.235798 0.257969 0.12903
0.255253 0.26566 0.134203
0.275166 0.273594 0.139437
0.296284 0.281712 0.14461
0.321187 0.291615 0.142885
0.353094 0.303639 0.132662
0.392767 0.316869 0.11603
0.439841 0.330922 0.0950027
0.494072 0.345159 0.0701152
0.555169 0.359503 0.0418708
0.618662 0.374029 0.011017
0.678294 0.38819 0
0.734524 0.401419 0
0.784039 0.412543 0
0.823911 0.421683 0
0.856413 0.430976 0
0.888945 0.43508 0
0.91957 0.438422 0
0.948363 0.441886 0
0.975265 0.445335 0
1 0.449317 0
1 0.453651 0
1 0.458289 0
0.0883803 0.211566 0.0871443
0.102449 0.218097 0.0933547
0.117128 0.224796 0.0998245
0.131594 0.231983 0.104814
0.146532 0.239277 0.109911
0.162295 0.246662 0.115099
0.178759 0.254322 0.120394
0.19585 0.26215 0.125734
0.213809 0.270069 0.131136
0.232136 0.27805 0.13669
0.25156 0.286183 0.142336
0.271244 0.294453 0.147951
0.291966 0.302724 0.153567
0.313024 0.311223 0.15935
0.335317 0.319844 0.165072
0.360784 0.330297 0.164782
0.393271 0.34284 0.155886
0.432853 0.356893 0.140734
0.479637 0.37171 0.120836
0.533318 0.387091 0.0973373
0.593072 0.402701 0.0701762
0.649256 0.418784 0.0406958
0.701534 0.433356 0.00950637
0.7467 0.445212 0
0.786648 0.455589 0
0.823621 0.465415 0
0.858076 0.475395 0
0.888838 0.487434 0
0.920287 0.496788 0
0.950866 0.503487 0
0.979339 0.509758 0
1 0.515587 0
1 0.521416 0
0.0992905 0.235798 0.0975052
0.113497 0.242924 0.104128
0.129122 0.25008 0.111131
0.143862 0.257801 0.116472
0.159411 0.265614 0.121859
0.175799 0.27361 0.12726
0.192645 0.281666 0.132815
0.210544 0.289921 0.13846
0.228733 0.298375 0.144244
0.24799 0.306966 0.150118
0.267536 0.315648 0.156191
0.288197 0.324346 0.162295
0.30898 0.333196 0.168261
0.331014 0.342107 0.174258
0.353262 0.351171 0.180377
0.376791 0.360403 0.186542
0.402975 0.371237 0.187594
0.435935 0.384344 0.180224
0.475425 0.399008 0.166567
0.521965 0.414694 0.147845
0.575051 0.430884 0.125261
0.626123 0.447303 0.0998093
0.672526 0.461646 0.0728618
0.71397 0.474266 0.0463722
0.752148 0.486183 0.0201877
0.789227 0.498436 0
0.826596 0.511635 0
0.864149 0.525811 0
0.900069 0.540032 0
0.932113 0.553826 0
0.962081 0.570367 0
0.987732 0.578683 0
1 0.586038 0
0.110414 0.261387 0.108629
0.125383 0.268879 0.115679
0.141527 0.27657 0.123033
0.156847 0.28484 0.128588
0.173022 0.293248 0.134249
0.18967 0.301793 0.140032
0.207431 0.310414 0.145937
0.225467 0.319203 0.151949
0.244724 0.327977 0.158053
0.264012 0.337011 0.164172
0.284642 0.346166 0.170413
0.305303 0.355474 0.176776
0.327138 0.364782 0.183276
0.349264 0.374243 0.189731
0.372457 0.383871 0.196246
0.395926 0.393454 0.202853
0.420462 0.403204 0.209384
0.447471 0.414374 0.211688
0.480888 0.428 0.205676
0.520378 0.443168 0.193194
0.56614 0.459281 0.175799
0.609598 0.474662 0.154833
0.649989 0.488609 0.132311
0.68777 0.501396 0.109102
0.72459 0.514763 0.0858778
0.76228 0.529717 0.0612802
0.801907 0.546883 0.0337987
0.841413 0.564691 0.00375372
0.878172 0.581674 0
0.911833 0.597833 0
0.942275 0.612772 0
0.968734 0.626749 0
0.992248 0.639429 0
0.122347 0.288396 0.120317
0.137789 0.296407 0.127581
0.154543 0.304402 0.13547
0.170504 0.31313 0.141375
0.18703 0.322133 0.147402
0.204562 0.331106 0.153475
0.2224 0.340352 0.159609
0.24152 0.349569 0.16585
0.2607 0.358907 0.172213
0.281163 0.368399 0.178698
0.301823 0.377966 0.185336
0.323461 0.387671 0.19202
0.345434 0.397559 0.198779
0.368307 0.407507 0.2056
0.39173 0.417517 0.212451
0.41593 0.42771 0.219287
0.440742 0.437903 0.226246
0.466255 0.448173 0.233265
0.494194 0.459663 0.236713
0.527443 0.473396 0.231937
0.565408 0.488014 0.220859
0.599817 0.501564 0.205203
0.634012 0.514656 0.187045
0.668376 0.528054 0.167575
0.703914 0.54287 0.146929
0.742168 0.560555 0.124163
0.782147 0.580316 0.0986648
0.820966 0.600107 0.0708934
0.857588 0.619669 0.0416114
0.89163 0.638422 0.0109255
0.922744 0.656214 0
0.950286 0.672679 0
0.973953 0.687388 0
0.134905 0.316564 0.132647
0.150729 0.325124 0.140291
0.168276 0.333623 0.148547
0.184558 0.342885 0.154742
0.201953 0.352148 0.161028
0.219562 0.361669 0.167346
0.238468 0.371344 0.173816
0.257633 0.38117 0.180392
0.277745 0.390967 0.187076
0.298344 0.400916 0.19382
0.319768 0.410941 0.200656
0.341756 0.421103 0.207584
0.364553 0.431418 0.214618
0.387823 0.441764 0.221805
0.411658 0.452247 0.229053
0.436271 0.462837 0.236316
0.461524 0.473487 0.243626
0.487495 0.484276 0.250874
0.513512 0.494667 0.258167
0.540459 0.505135 0.262348
0.568276 0.516503 0.258869
0.595972 0.528206 0.249607
0.624781 0.540703 0.236637
0.656077 0.55494 0.221225
0.690303 0.571649 0.20351
0.727779 0.591333 0.183383
0.766171 0.612268 0.160418
0.803601 0.633463 0.135714
0.839445 0.654688 0.108995
0.873304 0.675822 0.0805676
0.904768 0.694972 0.0507668
0.933104 0.712886 0.0211948
0.9579 0.729213 0
0.147951 0.345892 0.145754
0.164462 0.355047 0.153429
0.182315 0.364034 0.162142
0.199527 0.373739 0.168627
0.216892 0.383474 0.175204
0.235645 0.393454 0.181888
0.254658 0.40351 0.188632
0.274525 0.413626 0.195407
0.294987 0.424002 0.202304
0.316274 0.434424 0.209308
0.338079 0.444984 0.216449
0.360586 0.455573 0.223713
0.383734 0.466224 0.231037
0.407477 0.476997 0.238468
0.432074 0.487968 0.245914
0.456886 0.498817 0.253544
0.482231 0.509438 0.261036
0.507317 0.5196 0.268528
0.531624 0.528389 0.275914
0.55462 0.536736 0.283299
0.574639 0.54522 0.288624
0.597208 0.555306 0.286915
0.622538 0.566293 0.280369
0.651438 0.579797 0.269871
0.683955 0.595712 0.256138
0.719295 0.613687 0.239368
0.754971 0.632074 0.220035
0.790448 0.650706 0.198428
0.825116 0.669337 0.174807
0.858381 0.688014 0.149569
0.88986 0.706722 0.122362
0.918654 0.725048 0.0947585
0.944259 0.742641 0.0682383
0.161929 0.37644 0.159289
0.178393 0.386023 0.167315
0.197391 0.395499 0.176364
0.214527 0.405615 0.183108
0.232944 0.415885 0.189899
0.251713 0.426276 0.196765
0.271504 0.436744 0.203769
0.291814 0.447318 0.210925
0.312764 0.45803 0.218097
0.334478 0.468925 0.225452
0.35671 0.479835 0.232761
0.379782 0.490852 0.240208
0.403357 0.502068 0.247791
0.427741 0.513222 0.255451
0.452232 0.524269 0.263157
0.477073 0.534539 0.270909
0.50164 0.543633 0.278767
0.524849 0.550683 0.286458
0.54786 0.557626 0.294224
0.567208 0.564477 0.302434
0.586557 0.571221 0.310765
0.606027 0.579202 0.317678
0.628443 0.589059 0.318212
0.654826 0.60206 0.313603
0.684245 0.616861 0.304616
0.715892 0.632822 0.292058
0.748455 0.649409 0.276585
0.781369 0.666331 0.25832
0.814115 0.683497 0.238041
0.846128 0.700694 0.215564
0.87689 0.718044 0.191394
0.905669 0.735149 0.166171
0.931685 0.751675 0.141756
0.176013 0.408209 0.173632
0.193408 0.418143 0.181628
0.212436 0.427985 0.190997
0.230549 0.43859 0.19794
0.249073 0.449302 0.20502
0.268513 0.460075 0.212222
0.28864 0.47097 0.219516
0.309468 0.481956 0.226825
0.330922 0.493004 0.234241
0.353033 0.504219 0.241825
0.375921 0.515511 0.249409
0.399237 0.526635 0.257191
0.423331 0.53724 0.265141
0.447562 0.547478 0.273167
0.471794 0.556191 0.280949
0.49575 0.564263 0.288899
0.518746 0.570748 0.296925
0.541848 0.576928 0.305058
0.561151 0.583398 0.313848
0.580774 0.589929 0.322576
0.600122 0.597528 0.331685
0.619776 0.605234 0.340902
0.640436 0.614801 0.349157
0.663905 0.626184 0.351293
0.689494 0.639246 0.348043
0.71722 0.653239 0.340383
0.746441 0.667842 0.329229
0.776364 0.683146 0.314839
0.806745 0.698772 0.297932
0.836896 0.714534 0.278737
0.866438 0.730449 0.257649
0.894652 0.746349 0.23508
0.920592 0.761715 0.212955
0.19118 0.44094 0.188159
0.208469 0.451301 0.196445
0.228321 0.461524 0.206058
0.246586 0.472435 0.213397
0.265705 0.483894 0.220554
0.285527 0.495491 0.227863
0.305959 0.506874 0.235325
0.327352 0.518105 0.242939
0.349248 0.529213 0.250736
0.372076 0.540124 0.258686
0.395224 0.550881 0.266789
0.419165 0.56083 0.274784
0.443046 0.570123 0.282994
0.466514 0.577325 0.291005
0.489937 0.584161 0.299138
0.512871 0.590005 0.3075
0.535958 0.595758 0.315984
0.555718 0.602182 0.324971
0.575555 0.608728 0.334051
0.595392 0.616449 0.343618
0.615564 0.62443 0.353277
0.636042 0.633494 0.363149
0.65655 0.642618 0.37319
0.676707 0.652033 0.382361
0.699107 0.662867 0.385809
0.722835 0.674876 0.38381
0.748562 0.687724 0.377478
0.775418 0.701183 0.367575
0.803006 0.715206 0.354406
0.830961 0.729519 0.338857
0.858732 0.743938 0.320836
0.885817 0.758556 0.30132
0.911254 0.772778 0.281529
0.206043 0.47686 0.203021
0.223743 0.488151 0.21117
0.243732 0.498955 0.220874
0.262577 0.510292 0.228397
0.282216 0.521599 0.235981
0.302525 0.532601 0.243748
0.323827 0.543374 0.251698
0.345571 0.554025 0.2598
0.368368 0.564385 0.267918
0.391257 0.574426 0.276158
0.414633 0.5832 0.284382
0.438041 0.591485 0.292744
0.461128 0.597848 0.300954
0.48426 0.603677 0.309407
0.507317 0.609171 0.318059
0.530449 0.614511 0.326787
0.550912 0.620966 0.336019
0.571069 0.627695 0.34548
0.591394 0.635569 0.355306
0.61207 0.643931 0.365393
0.632517 0.652705 0.375753
0.652873 0.661479 0.38613
0.672709 0.670253 0.396536
0.692348 0.678981 0.407202
0.711467 0.687663 0.417121
0.732265 0.697597 0.421683
0.754406 0.708583 0.420981
0.778225 0.720378 0.4159
0.80293 0.732738 0.407141
0.82829 0.745525 0.395392
0.853971 0.758572 0.380911
0.879454 0.771756 0.364294
0.903822 0.784772 0.347417
0.221241 0.515435 0.217716
0.239139 0.526177 0.226184
0.259815 0.536416 0.236316
0.279194 0.547219 0.244221
0.299351 0.557748 0.252262
0.320531 0.568276 0.260441
0.342138 0.578576 0.268742
0.364614 0.588266 0.277043
0.387289 0.597421 0.285618
0.410117 0.604761 0.293996
0.433051 0.611688 0.302495
0.455955 0.617334 0.311025
0.479026 0.622705 0.319646
0.502083 0.628031 0.328557
0.525322 0.633326 0.337591
0.546471 0.639826 0.347204
0.567132 0.646845 0.357015
0.587808 0.654795 0.367102
0.608804 0.663294 0.377462
0.629267 0.671855 0.388006
0.649577 0.6804 0.398688
0.669367 0.688884 0.409491
0.68864 0.697017 0.420447
0.707515 0.705165 0.431403
0.726101 0.713283 0.442634
0.744198 0.721355 0.453361
0.763531 0.730388 0.459068
0.784131 0.740459 0.459464
0.806256 0.751247 0.455543
0.82887 0.762509 0.448218
0.852186 0.774151 0.437583
0.8757 0.785931 0.424369
0.898695 0.797803 0.4103
0.237079 0.552728 0.233463
0.255497 0.562921 0.242222
0.27657 0.572625 0.252461
0.296468 0.582696 0.260761
0.317403 0.592676 0.269169
0.338811 0.602457 0.277729
0.360876 0.611109 0.286336
0.38323 0.619501 0.295064
0.405783 0.625818 0.303563
0.428321 0.631601 0.31223
0.451118 0.636652 0.321035
0.474159 0.641581 0.329961
0.497383 0.646799 0.339193
0.520912 0.652186 0.348608
0.542596 0.658839 0.35848
0.563531 0.666163 0.36849
0.584543 0.674205 0.378866
0.6056 0.682597 0.38941
0.626108 0.690867 0.400214
0.646311 0.699046 0.411139
0.666026 0.707149 0.422232
0.685298 0.715129 0.433478
0.704112 0.722972 0.444831
0.722438 0.730617 0.456291
0.740353 0.73814 0.467781
0.757885 0.745647 0.479377
0.775051 0.753124 0.490898
0.793027 0.761349 0.497765
0.812146 0.770489 0.499321
0.832532 0.780331 0.496727
0.853239 0.790524 0.490455
0.874617 0.801053 0.481086
0.895918 0.811612 0.470085
0.253681 0.588327 0.249836
0.272465 0.59826 0.258656
0.29395 0.607492 0.269352
0.314549 0.616892 0.278004
0.335561 0.625727 0.28687
0.357366 0.633112 0.295521
0.379187 0.640146 0.304311
0.401465 0.645655 0.3131
0.423911 0.650874 0.322011
0.446586 0.655711 0.331106
0.469627 0.660349 0.340352
0.493172 0.665599 0.349981
0.517159 0.67129 0.359701
0.539361 0.678141 0.369757
0.560571 0.685756 0.380102
0.581704 0.693782 0.390753
0.602564 0.7019 0.401495
0.623072 0.70985 0.412543
0.643183 0.717708 0.423789
0.662806 0.725399 0.434958
0.681956 0.732967 0.446311
0.700725 0.740429 0.457923
0.719005 0.747845 0.469673
0.736934 0.755138 0.481575
0.754208 0.762203 0.493584
0.771267 0.769207 0.505699
0.787747 0.77612 0.517845
0.803967 0.78294 0.5299
0.820661 0.790448 0.537865
0.838407 0.798749 0.540749
0.857069 0.807599 0.53933
0.876036 0.816831 0.534005
0.895399 0.826154 0.526558
0.271061 0.622919 0.266941
0.29012 0.632059 0.276143
0.312016 0.640192 0.286885
0.332662 0.64828 0.295811
0.353994 0.654597 0.304662
0.37554 0.66038 0.313664
0.397635 0.665156 0.322805
0.419959 0.66981 0.332006
0.442679 0.674434 0.341375
0.465827 0.679072 0.350881
0.489464 0.684535 0.360662
0.513726 0.690578 0.370672
0.53637 0.697612 0.381094
0.557809 0.705409 0.39176
0.578973 0.713176 0.402655
0.599649 0.720943 0.413672
0.620142 0.728618 0.424842
0.640055 0.736171 0.436179
0.659663 0.743572 0.447654
0.678737 0.75082 0.459266
0.697505 0.757931 0.471107
0.715648 0.764965 0.48304
0.733562 0.771878 0.495216
0.750744 0.778668 0.507362
0.767819 0.785397 0.519768
0.7841 0.791913 0.53225
0.800229 0.798321 0.544945
0.815747 0.8047 0.557717
0.830976 0.810941 0.570443
0.846433 0.817716 0.579553
0.862852 0.825177 0.583474
0.87985 0.833097 0.583001
0.897124 0.841321 0.579446
0.288106 0.655619 0.283986
0.306355 0.663508 0.291875
0.327108 0.670314 0.301518
0.347662 0.675975 0.30988
0.369009 0.681178 0.318868
0.391043 0.685634 0.328222
0.413535 0.689815 0.337682
0.436591 0.694362 0.347387
0.459983 0.699123 0.357168
