All_In_One/Enrich_Colormaster/colormanagement/luts/film_response/Grit.cube
#Created by: Denver Riddle
#Copyright: (C) Copyright Color Grading Central LLC
#LUT Size
LUT_3D_SIZE 9
0 0 0
0.109834 0 0
0.273594 0 0
0.456443 0 0
0.670176 0 0
0.870039 0 0
1 0 0
1 0 0
1 0 0
0.0195163 0.0479438 0.0188907
0.0594492 0.0590677 0.0290532
0.182712 0.073167 0
0.382528 0.0643473 0
0.604959 0.050248 0
0.815534 0.036408 0
0.98764 0.0231937 0
1 0.0118868 0
1 0.00543221 0
0.0444343 0.109194 0.0437171
0.0916762 0.127062 0.0593881
0.148638 0.147753 0.0734417
0.26157 0.180041 0.0272068
0.490349 0.21265 0
0.741573 0.217334 0
0.933349 0.219043 0
1 0.218189 0
1 0.220249 0
0.0786603 0.188571 0.0771801
0.13434 0.214252 0.0986496
0.199237 0.242908 0.118608
0.275166 0.273594 0.139437
0.392767 0.316869 0.11603
0.618662 0.374029 0.011017
0.823911 0.421683 0
0.948363 0.441886 0
1 0.458289 0
0.122347 0.288396 0.120317
0.18703 0.322133 0.147402
0.2607 0.358907 0.172213
0.345434 0.397559 0.198779
0.440742 0.437903 0.226246
0.565408 0.488014 0.220859
0.703914 0.54287 0.146929
0.857588 0.619669 0.0416114
0.973953 0.687388 0
0.176013 0.408209 0.173632
0.249073 0.449302 0.20502
0.330922 0.493004 0.234241
0.423331 0.53724 0.265141
0.518746 0.570748 0.296925
0.600122 0.597528 0.331685
0.689494 0.639246 0.348043
0.806745 0.698772 0.297932
0.920592 0.761715 0.212955
0.237079 0.552728 0.233463
0.317403 0.592676 0.269169
0.405783 0.625818 0.303563
0.497383 0.646799 0.339193
0.584543 0.674205 0.378866
0.666026 0.707149 0.422232
0.740353 0.73814 0.467781
0.812146 0.770489 0.499321
0.895918 0.811612 0.470085
0.306889 0.684489 0.302632
0.388006 0.704387 0.337972
0.481117 0.724178 0.378119
0.572549 0.752682 0.421836
0.65304 0.78027 0.468406
0.726986 0.806073 0.517388
0.793881 0.829831 0.568963
0.853346 0.851804 0.622629
0.906462 0.872648 0.668559
0.386877 0.778439 0.382544
0.477134 0.802945 0.427039
0.563409 0.828244 0.470314
0.641443 0.851087 0.518975
0.714 0.871717 0.570932
0.780224 0.890486 0.614801
0.839582 0.907423 0.654032
0.891691 0.922408 0.691554
0.935836 0.935195 0.728664
0.0260166 0.000915541 0.0980697
0.0385138 0.00556954 0.0432288
0.202533 0 0.100816
0.406363 0 0.126375
0.623102 0 0.136355
0.832624 0 0.144427
1 0 0.154528
1 0 0.166583
1 0 0.180117
0.0193484 0.0489357 0.0481422
0.0614939 0.0611429 0.0610208
0.184039 0.0628519 0.0647593
0.373465 0.0554818 0.0607462
0.589334 0.0456092 0.0551919
0.806928 0.0329747 0.048127
0.982834 0.0206912 0.0419013
1 0.00877394 0.0367132
1 0.0416876 0.0742351
0.0470588 0.110826 0.076051
0.0941482 0.129473 0.0937209
0.151049 0.150256 0.111299
0.305638 0.180789 0.0582589
0.558724 0.186465 0.00653086
0.784955 0.179706 0
0.955459 0.168887 0
1 0.156985 0
1 0.16968 0
0.0816052 0.190631 0.113115
0.137743 0.217151 0.136507
0.202762 0.246159 0.159716
0.278889 0.277424 0.183246
0.418433 0.324483 0.148791
0.672709 0.373236 0.0559548
0.870298 0.393942 0
0.992065 0.401343 0
1 0.411093 0
0.125811 0.29099 0.160052
0.19118 0.325475 0.189364
0.264866 0.362417 0.217411
0.349462 0.401617 0.246967
0.444617 0.442176 0.277378
0.577081 0.494865 0.262272
0.730983 0.5514 0.18677
0.888533 0.618296 0.0969253
0.995712 0.660151 0.0191043
0.179629 0.411063 0.216754
0.253407 0.452735 0.251118
0.335119 0.496818 0.283162
0.427482 0.54081 0.316915
0.52195 0.57261 0.350164
0.602213 0.599832 0.385504
0.6972 0.644114 0.396017
0.824109 0.705882 0.341283
0.940078 0.76849 0.261021
0.240055 0.557229 0.279454
0.321614 0.596826 0.318349
0.409598 0.628199 0.354528
0.500969 0.649104 0.391073
0.587182 0.677516 0.432547
0.668421 0.710094 0.478401
0.742702 0.74078 0.526345
0.816724 0.773983 0.554269
0.905608 0.816144 0.519707
0.310353 0.687709 0.351354
0.394827 0.705898 0.391302
0.485893 0.727611 0.43061
0.574746 0.756237 0.476188
0.6551 0.78349 0.524941
0.729 0.808957 0.576349
0.795926 0.832517 0.618708
0.855558 0.854246 0.657588
0.90988 0.875624 0.691279
0.391135 0.782345 0.431342
0.481651 0.807324 0.477958
0.565133 0.832502 0.523049
0.643671 0.854871 0.565484
0.716411 0.875364 0.605905
0.782666 0.893828 0.64448
0.842054 0.910536 0.681285
0.894133 0.925216 0.716045
0.938277 0.937789 0.750332
0.0745861 0 0.23386
0.0951858 0 0.231846
0.0884565 0.0118257 0.0960708
0.234043 0 0.159854
0.474571 0 0.24062
0.752407 0 0.296574
0.9682 0 0.342443
1 0 0.383612
1 0 0.418845
0 0.0547036 0.1467
0.0224918 0.0616312 0.11635
0.10901 0.0752422 0.116304
0.291295 0.0637827 0.182818
0.526223 0.049485 0.224643
0.76289 0.0370184 0.249104
0.950317 0.0257877 0.271336
1 0.0142824 0.294362
1 0.0270695 0.327916
0.0404974 0.107469 0.106096
0.0889143 0.129183 0.127886
0.152651 0.152453 0.152636
0.303212 0.16849 0.170611
0.526085 0.175631 0.182513
0.745464 0.181186 0.193011
0.922393 0.187304 0.204105
1 0.194003 0.215961
1 0.216541 0.242222
0.0850843 0.191943 0.151217
0.140291 0.219379 0.177783
0.205539 0.248722 0.204623
0.281895 0.280217 0.232395
0.468635 0.326741 0.192645
0.721553 0.347036 0.163745
0.891844 0.353765 0.162112
1 0.355428 0.169574
1 0.363439 0.188205
0.128832 0.292927 0.203433
0.194629 0.327993 0.235248
0.268391 0.365332 0.266743
0.352758 0.404608 0.29987
0.448081 0.445808 0.33312
0.597162 0.501152 0.306493
0.769131 0.551843 0.242618
0.919005 0.591608 0.198444
1 0.61738 0.17995
0.182803 0.413138 0.264302
0.257145 0.454963 0.301015
0.338582 0.499916 0.336385
0.430671 0.543557 0.373419
0.52433 0.573953 0.407874
0.603616 0.601343 0.443671
0.707485 0.649348 0.446403
0.846815 0.712444 0.392294
0.961074 0.77322 0.327901
0.242649 0.560967 0.329717
0.324758 0.600183 0.371328
0.412467 0.630304 0.409812
0.503624 0.650965 0.446906
0.58912 0.680171 0.490898
0.670237 0.712444 0.539117
0.744549 0.74284 0.586053
0.822492 0.77734 0.612436
0.918181 0.820493 0.575265
0.312657 0.690639 0.403723
0.398093 0.708049 0.445289
0.491524 0.730205 0.488838
0.577295 0.75906 0.533089
0.657084 0.786358 0.574212
0.730861 0.811612 0.613947
0.797879 0.835065 0.651804
0.85771 0.856519 0.687907
0.913817 0.878431 0.715969
0.393927 0.785992 0.482765
0.48542 0.811353 0.525872
0.569146 0.835737 0.566842
0.645762 0.858396 0.604456
0.718242 0.878767 0.641825
0.784588 0.897063 0.677592
0.844068 0.913436 0.711467
0.896269 0.927947 0.743572
0.940505 0.940291 0.774655
0.0933547 0.00132753 0.316625
0.122545 0 0.340398
0.163394 0 0.272114
0.144503 0.021088 0.149218
0.273014 0.010071 0.209155
0.524376 0 0.323125
0.826108 0 0.423758
1 0 0.514626
1 0 0.591043
0 0.0462043 0.207599
0.0150454 0.0584726 0.209125
0.0620432 0.0638132 0.210101
0.171344 0.0906539 0.181949
0.339925 0.0850843 0.257832
0.615412 0.0646982 0.350561
0.875151 0.0448768 0.426902
1 0.0294041 0.492744
1 0.0208133 0.546105
0 0.111513 0.171481
0.00201419 0.126482 0.197147
0.0827802 0.140948 0.192309
0.216815 0.176974 0.225849
0.433982 0.180468 0.311284
0.695888 0.183139 0.368948
0.891905 0.18941 0.409308
1 0.196429 0.445747
1 0.209506 0.478111
0.0755474 0.184436 0.17937
0.123568 0.212924 0.210468
0.196353 0.247211 0.245243
0.283711 0.282872 0.283162
0.466407 0.311666 0.314885
0.699855 0.333791 0.342855
0.861418 0.353628 0.367483
0.964736 0.370779 0.388342
1 0.396628 0.416938
0.135027 0.293767 0.244892
0.19881 0.329854 0.281254
0.271153 0.367849 0.317479
0.355673 0.407187 0.35433
0.450889 0.448157 0.391653
0.634073 0.500786 0.358831
0.805264 0.52668 0.349584
0.933257 0.550286 0.367895
1 0.571481 0.396048
0.185901 0.414588 0.312688
0.260655 0.456916 0.352483
0.341573 0.502708 0.39086
0.433158 0.545388 0.431189
0.524895 0.575235 0.467216
0.604974 0.603052 0.50367
0.724941 0.655299 0.497475
0.875502 0.716258 0.456565
0.981506 0.773617 0.434302
0.244465 0.564462 0.381323
0.327749 0.603082 0.42591
0.414725 0.632258 0.465888
0.505516 0.652827 0.503975
0.590784 0.682628 0.54461
0.672206 0.714733 0.585733
0.746746 0.745083 0.624353
0.830793 0.781338 0.643717
0.934554 0.824491 0.635309
0.314458 0.693431 0.457359
0.400931 0.710613 0.498421
0.494179 0.733288 0.53727
0.579843 0.761944 0.578119
0.659373 0.789075 0.616464
0.73286 0.814145 0.652781
0.799878 0.837385 0.687648
0.859815 0.858701 0.720302
0.918944 0.881285 0.741512
0.396918 0.790127 0.531136
0.488273 0.815518 0.572045
0.571008 0.839521 0.61059
0.649073 0.861524 0.647196
0.720668 0.881849 0.680995
0.786679 0.900191 0.713268
0.846128 0.916335 0.743999
0.898451 0.930648 0.772808
0.942962 0.942794 0.800961
0.0982376 0.00764477 0.446128
0.128344 0.00378424 0.47042
0.211902 0 0.46392
0.232624 0 0.306996
0.209354 0.0319219 0.209522
0.329931 0.0273747 0.269642
0.583001 0 0.388342
0.884886 0 0.52987
1 0 0.654307
0.0139467 0.0414588 0.30428
0.0300755 0.0545205 0.308049
0.0730755 0.0594186 0.330648
0.174166 0.074464 0.304128
0.246067 0.109041 0.252384
0.404089 0.109239 0.331533
0.683528 0.090135 0.451316
0.93753 0.0691539 0.569375
1 0.0535897 0.673671
0 0.112154 0.258534
0.00134279 0.1252 0.28452
0.0411841 0.132128 0.30309
0.127199 0.160006 0.314748
0.299168 0.203189 0.310414
0.501686 0.210285 0.406638
0.778515 0.208072 0.519356
0.981949 0.209567 0.612757
1 0.214481 0.671931
0.0293736 0.163699 0.209018
0.0299992 0.180407 0.264897
0.0392615 0.200458 0.327443
0.190112 0.2636 0.320775
0.366918 0.317891 0.376104
0.617044 0.335088 0.482124
0.82501 0.352468 0.550317
0.941894 0.369497 0.586862
1 0.394171 0.629526
0.120958 0.281331 0.271473
0.177951 0.318395 0.311238
0.246601 0.358053 0.353994
0.343633 0.404135 0.401389
0.452384 0.450568 0.451331
0.634119 0.48452 0.489036
0.792752 0.511513 0.521416
0.920562 0.551156 0.565026
1 0.591989 0.608667
0.195331 0.414145 0.355612
0.267414 0.459083 0.400397
0.345235 0.50518 0.444724
0.434882 0.547127 0.489235
0.525429 0.576638 0.525093
0.606592 0.604517 0.557473
0.756878 0.659419 0.557229
0.902296 0.710582 0.569741
0.992981 0.760189 0.605844
0.247135 0.567514 0.432731
0.33048 0.605936 0.482048
0.416678 0.634287 0.521096
0.506539 0.655467 0.553994
0.592203 0.685161 0.591272
0.673671 0.716899 0.629282
0.748623 0.747173 0.664591
0.844678 0.785702 0.67451
0.955306 0.827054 0.696803
0.315038 0.6963 0.513542
0.403647 0.713405 0.550469
0.495308 0.736721 0.586221
0.581231 0.765194 0.624155
0.661509 0.791852 0.660105
0.734997 0.816724 0.693706
0.801923 0.839658 0.725277
0.862043 0.860929 0.754665
0.925475 0.884413 0.767544
0.398993 0.794614 0.581796
0.489693 0.819745 0.62031
0.572427 0.843488 0.656153
0.650797 0.865324 0.689952
0.723339 0.885069 0.721767
0.789075 0.903166 0.751141
0.848402 0.919234 0.778561
0.900801 0.933303 0.804349
0.945617 0.945388 0.828809
0.104234 0.0129702 0.56347
0.13724 0.00872816 0.587579
0.23183 0 0.629694
0.318395 0 0.523018
0.301885 0.00276188 0.34696
0.284566 0.0447089 0.278813
0.401038 0.0454414 0.340993
0.657389 0.0188907 0.466453
0.924392 0 0.612604
0.0238499 0.0397803 0.447059
0.0382849 0.0537728 0.438468
0.0827802 0.0588235 0.455695
0.188464 0.0641947 0.472541
0.291127 0.090425 0.378714
0.332479 0.129885 0.33254
0.484108 0.135073 0.413962
0.751507 0.119799 0.549157
0.981659 0.103365 0.678828
0 0.113985 0.390448
0.00680552 0.126513 0.40351
0.0461128 0.13312 0.418997
0.129488 0.158419 0.450385
0.282048 0.189151 0.438651
0.396353 0.232731 0.400992
0.587381 0.244221 0.500404
0.837613 0.243168 0.634653
1 0.24329 0.721706
0 0.175067 0.365072
0 0.191241 0.421057
0.0368353 0.204288 0.442008
0.120867 0.246784 0.461738
0.252415 0.296773 0.485908
0.470253 0.354681 0.479912
0.684718 0.373953 0.591226
0.869337 0.381811 0.669261
1 0.40267 0.729503
0.0692912 0.25182 0.335058
0.0864881 0.279957 0.387594
0.106859 0.309117 0.444297
0.142016 0.343282 0.499199
0.342748 0.427466 0.50547
0.547951 0.491844 0.555901
0.736614 0.508537 0.63212
0.90135 0.548348 0.693462
1 0.589197 0.740383
0.179675 0.396445 0.390066
0.243214 0.446448 0.439185
0.317601 0.49424 0.4869
0.405676 0.539559 0.534386
0.514641 0.57612 0.573068
0.607614 0.606149 0.607614
0.757137 0.645777 0.648508
0.897108 0.691524 0.695064
0.990219 0.738354 0.741268
0.256748 0.568353 0.488411
0.340429 0.607202 0.535607
0.423499 0.635142 0.572656
0.509087 0.657526 0.604181
0.593454 0.687663 0.639658
0.675242 0.719219 0.674861
0.750378 0.748837 0.707118
0.86978 0.78854 0.711543
0.976211 0.824582 0.749477
0.32134 0.697505 0.568643
0.408759 0.715328 0.601877
0.497154 0.740169 0.636439
0.582467 0.768566 0.671931
0.662776 0.794858 0.705028
0.736736 0.819455 0.735943
0.803769 0.84213 0.76463
0.864027 0.863142 0.790677
0.936294 0.887556 0.794079
0.401282 0.798733 0.633051
0.490852 0.824079 0.669978
0.573632 0.847532 0.70341
0.652064 0.869108 0.734401
0.724956 0.888685 0.763424
0.791379 0.906355 0.790249
0.850782 0.92224 0.814878
0.903273 0.93608 0.837476
0.948333 0.948074 0.858259
0.110597 0.017731 0.672511
0.147936 0.0128328 0.696086
0.247074 0 0.742046
0.375097 0 0.732708
0.425849 0 0.573785
0.387427 0.0179141 0.406943
0.372107 0.0595407 0.35845
0.485893 0.0648508 0.42327
0.738323 0.043183 0.555398
0.0324254 0.0392767 0.570367
0.0466011 0.0533761 0.559792
0.0949111 0.0587778 0.572183
0.206485 0.0598764 0.618662
0.342016 0.0712902 0.570687
0.40557 0.111711 0.455161
0.431052 0.153124 0.422858
0.584512 0.162325 0.507027
0.818906 0.15346 0.64358
0 0.115145 0.504646
0.0123293 0.127794 0.515679
0.0554055 0.1364 0.528359
0.145968 0.159167 0.559258
0.292332 0.180255 0.600458
0.44094 0.217227 0.543954
0.505669 0.264912 0.502052
0.677256 0.280751 0.600977
0.884855 0.283421 0.716014
0 0.181048 0.509071
0 0.194186 0.533272
0.0456855 0.210575 0.542657
0.13489 0.251286 0.560082
0.260273 0.293706 0.598672
0.459541 0.340139 0.62237
0.585916 0.394812 0.587335
0.741283 0.412512 0.667781
0.903273 0.423804 0.742855
0.0168002 0.23859 0.474464
0.0223697 0.259495 0.529534
0.0563821 0.293751 0.574823
0.143664 0.345296 0.593744
0.269627 0.40444 0.616571
0.444862 0.469795 0.654139
0.633555 0.525154 0.638529
0.790341 0.555138 0.715038
0.952255 0.592813 0.786389
0.126482 0.372885 0.469322
0.160021 0.419089 0.516289
0.201038 0.463127 0.563546
0.245899 0.504311 0.612741
0.311208 0.545998 0.65922
0.530983 0.599222 0.658152
0.689342 0.642344 0.693599
0.857374 0.674495 0.768277
0.982712 0.718273 0.810269
0.236683 0.558068 0.537209
0.308904 0.599207 0.579797
0.390112 0.633219 0.616892
0.479316 0.656184 0.644953
0.570214 0.683986 0.677974
0.668513 0.718944 0.715785
0.751934 0.750805 0.751842
0.872206 0.77911 0.780957
0.977005 0.810758 0.812741
0.327901 0.698268 0.616648
0.418784 0.716411 0.646525
0.505791 0.742321 0.681331
0.58822 0.770932 0.717403
0.66569 0.797711 0.750393
0.738262 0.822278 0.779477
0.805722 0.844739 0.805478
0.866209 0.865309 0.828687
0.954787 0.889235 0.825391
0.409125 0.801617 0.681743
0.497536 0.827085 0.717998
0.577783 0.851133 0.750393
0.654169 0.872908 0.780026
0.726436 0.89247 0.806531
0.793194 0.909834 0.83061
0.852995 0.925399 0.852461
0.905592 0.939025 0.872023
0.950912 0.95079 0.88925
0.120409 0.0215763 0.775464
0.160861 0.0162203 0.798733
0.263706 0.000961318 0.844236
0.464515 0 0.89485
0.577096 0 0.797452
0.5617 0 0.62855
0.489387 0.0344091 0.483879
0.472648 0.0762341 0.44828
0.598154 0.0844434 0.518853
0.0401923 0.042298 0.68162
0.0558938 0.052842 0.677989
0.107698 0.0587472 0.681804
0.22591 0.0582284 0.727932
0.391135 0.0570077 0.743954
0.511757 0.085771 0.648081
0.533059 0.135439 0.552758
0.548257 0.178256 0.526925
0.684962 0.192294 0.611917
0.000137331 0.116518 0.612741
0.0182956 0.129091 0.621286
0.0657206 0.139284 0.631342
0.163729 0.160266 0.661723
0.318242 0.175357 0.72433
0.51545 0.197818 0.715648
0.595453 0.250233 0.635431
0.626581 0.299184 0.61294
0.761608 0.320073 0.693553
0 0.183719 0.620783
0.00354009 0.196231 0.632044
0.0561227 0.216663 0.63856
0.150378 0.255207 0.654505
0.284215 0.29456 0.69427
0.496529 0.326284 0.762478
0.647868 0.381048 0.711711
0.68368 0.433066 0.675853
0.79144 0.452338 0.729793
0 0.244282 0.613947
0.00315862 0.26041 0.656794
0.0610971 0.299413 0.670512
0.158892 0.351736 0.67895
0.289815 0.408499 0.700008
0.466163 0.464378 0.753155
0.655589 0.51014 0.751492
0.718853 0.563409 0.715541
0.846082 0.598016 0.785107
0.0704356 0.356954 0.586114
0.0900893 0.401953 0.634424
0.128954 0.447105 0.67892
0.194415 0.493034 0.715648
0.318624 0.545708 0.734203
0.478981 0.591348 0.748821
0.646036 0.629602 0.777432
0.773632 0.67834 0.773434
0.902037 0.705425 0.837949
0.195346 0.543084 0.605127
0.238209 0.583734 0.645991
0.293645 0.622217 0.685832
0.357107 0.654551 0.721218
0.425269 0.677501 0.749233
0.518807 0.701076 0.776104
0.707195 0.747143 0.791943
0.822354 0.779873 0.823575
0.951629 0.799039 0.877058
0.304036 0.697719 0.666453
0.381628 0.718181 0.691691
0.467536 0.740627 0.71928
0.558312 0.769574 0.753628
0.644846 0.797147 0.78616
0.725216 0.822644 0.816205
0.804089 0.846494 0.843122
0.86836 0.86775 0.868391
0.959365 0.883833 0.884794
0.414221 0.804028 0.725414
0.503929 0.829862 0.759701
0.586557 0.85388 0.791348
0.662409 0.875669 0.820874
0.732219 0.89543 0.847669
0.796384 0.913207 0.871321
0.855146 0.928725 0.891173
0.90811 0.942168 0.908049
0.953643 0.953582 0.922301
0.134051 0.0243687 0.869886
0.175006 0.0191196 0.896193
0.295216 0.00123598 0.948013
0.528283 0 1
0.695705 0 0.968917
0.737896 0 0.837156
0.683238 0 0.68246
0.621088 0.0512703 0.584833
0.601328 0.0942855 0.55729
0.0476539 0.0464332 0.784543
0.0644236 0.0529793 0.785534
0.122621 0.0586404 0.787259
0.246464 0.0568246 0.829984
0.471504 0.0421912 0.891157
0.631373 0.0596323 0.822416
0.67509 0.108309 0.716991
0.667063 0.16228 0.650706
0.671672 0.206104 0.639918
0.00634775 0.117952 0.714839
0.0245975 0.13048 0.721004
0.0773022 0.142138 0.729061
0.182467 0.16144 0.758755
0.346258 0.173617 0.821881
0.593713 0.18175 0.860121
0.705226 0.229465 0.781521
0.724895 0.28809 0.72134
0.736019 0.336721 0.712535
0 0.185794 0.716945
0.00901808 0.19826 0.725933
0.0678264 0.22237 0.73022
0.167544 0.259022 0.745068
0.309941 0.295323 0.785672
0.544427 0.318303 0.87335
0.723995 0.362982 0.839673
0.754101 0.421546 0.761334
0.758328 0.469612 0.742214
0 0.249348 0.733471
0.00488289 0.264897 0.75491
0.0736706 0.307103 0.755779
0.175494 0.357763 0.761547
0.311391 0.411933 0.78172
0.502297 0.462699 0.840558
0.696681 0.49575 0.855406
0.782238 0.560388 0.801068
0.804044 0.605356 0.792523
0.0332341 0.34696 0.712077
0.0530098 0.393484 0.755123
0.106722 0.442435 0.782773
0.203113 0.49485 0.793912
0.338628 0.548836 0.804547
0.502358 0.589975 0.81297
0.670512 0.62565 0.854887
0.820539 0.672236 0.856962
0.850233 0.712993 0.842695
0.146593 0.533989 0.702251
0.172961 0.574884 0.744854
0.219638 0.614008 0.783749
0.285283 0.650675 0.817853
0.381949 0.676463 0.831739
0.532784 0.702083 0.833555
0.68455 0.74197 0.859571
0.835859 0.7729 0.903609
0.891249 0.807126 0.886763
0.267979 0.694316 0.731517
0.318624 0.720623 0.757702
0.385611 0.741695 0.779461
0.462303 0.766018 0.806714
0.546166 0.794034 0.840131
0.629007 0.820066 0.872023
0.724514 0.84419 0.898604
0.853986 0.870314 0.905272
0.925978 0.888365 0.924727
0.389715 0.805188 0.769177
0.466377 0.832395 0.800809
0.551873 0.856992 0.830991
0.63505 0.879225 0.858579
0.713558 0.899092 0.883619
0.78584 0.916732 0.905928
0.850889 0.932189 0.925566
0.910582 0.945251 0.941787
0.956619 0.956603 0.956756
