All_In_One/Enrich_Colormaster/colormanagement/luts/film_response/Hipstagram.3DL
#Created by: Adobe Photoshop Export Color Lookup Plugin
#Description: Hipstagram
0 33 66 99 132 165 198 231 264 297 330 363 396 429 462 495 528 561 594 627 660 693 726 759 792 825 858 891 924 957 990 1023
232 37 207
232 37 219
232 37 233
236 41 256
241 46 288
248 53 331
257 63 390
270 76 471
288 93 578
310 115 714
335 141 873
363 168 1046
391 196 1221
418 224 1390
444 249 1548
467 272 1691
487 292 1816
508 313 1945
534 339 2108
562 368 2284
586 392 2434
603 408 2535
612 418 2593
619 425 2638
628 433 2690
639 445 2762
653 459 2851
671 476 2956
687 492 3059
701 506 3141
709 514 3194
715 520 3232
232 37 207
232 37 219
232 37 233
236 41 256
241 46 288
248 53 331
257 63 390
270 76 471
288 93 578
310 115 714
335 141 873
363 168 1046
391 196 1221
418 224 1390
444 249 1548
467 272 1691
487 292 1816
508 313 1945
534 339 2108
562 368 2284
586 392 2434
603 408 2535
612 418 2593
619 425 2638
628 433 2690
639 445 2762
653 459 2851
671 476 2956
687 492 3059
701 506 3141
709 514 3194
715 520 3232
233 44 208
233 44 220
233 44 234
237 48 257
242 53 289
249 60 332
259 70 391
272 83 472
289 100 579
311 122 715
336 147 874
364 175 1047
392 203 1222
420 231 1391
445 256 1549
468 279 1692
488 299 1817
509 320 1946
535 346 2109
563 375 2285
588 399 2436
604 415 2536
614 424 2594
621 432 2639
629 440 2691
641 452 2763
655 466 2852
672 483 2957
688 499 3060
701 512 3142
710 521 3195
716 527 3233
237 67 212
237 67 223
237 67 238
241 71 261
246 76 293
253 83 336
262 92 395
275 105 475
293 123 583
315 145 719
340 170 878
368 198 1051
396 226 1225
423 253 1394
449 279 1552
472 302 1696
492 322 1821
513 343 1949
539 369 2113
567 397 2288
592 422 2439
608 438 2539
617 447 2598
624 454 2642
633 463 2695
644 474 2767
659 489 2856
675 506 2960
692 522 3064
705 535 3146
714 544 3199
720 550 3236
242 100 217
242 100 229
242 100 243
246 104 266
251 109 298
258 116 341
267 125 400
280 138 481
298 155 588
320 177 724
345 203 883
373 231 1056
401 259 1231
429 286 1400
454 311 1558
477 335 1701
497 355 1826
518 375 1955
544 402 2118
572 430 2294
597 454 2445
613 470 2545
622 480 2603
629 487 2648
638 495 2700
650 507 2772
664 521 2861
680 538 2966
697 555 3069
710 568 3151
719 577 3204
725 583 3242
248 138 223
248 138 235
248 138 249
252 142 272
257 147 304
264 154 347
274 163 406
287 176 487
304 194 594
326 216 730
351 241 890
379 269 1062
407 297 1237
435 324 1406
460 350 1564
483 373 1707
504 393 1833
524 414 1961
550 440 2124
578 468 2300
603 493 2451
619 509 2551
629 518 2610
636 525 2654
644 534 2707
655 545 2778
670 560 2868
687 577 2972
703 593 3075
717 606 3157
725 615 3210
731 621 3248
256 188 231
256 188 243
256 188 257
260 191 280
265 197 312
272 204 355
282 213 414
295 226 495
312 243 602
334 265 738
359 291 898
387 319 1070
415 347 1245
443 374 1414
468 399 1572
491 423 1715
511 443 1840
532 463 1969
558 490 2132
586 518 2308
611 542 2459
627 558 2559
636 568 2617
644 575 2662
652 583 2714
663 595 2786
678 609 2876
694 626 2980
711 643 3083
725 656 3165
733 664 3218
739 671 3256
265 257 240
267 259 253
268 261 269
272 265 292
277 270 324
284 277 367
293 286 426
306 299 506
324 316 614
346 338 750
371 364 909
399 392 1082
427 420 1257
454 447 1426
480 473 1584
503 496 1727
523 516 1852
544 536 1981
570 563 2144
598 591 2320
622 615 2470
638 631 2570
648 641 2629
655 648 2673
664 656 2726
675 668 2798
690 682 2887
706 699 2992
723 716 3095
736 729 3177
745 738 3230
751 744 3268
282 376 257
285 378 271
287 380 288
287 380 308
287 380 334
287 380 370
295 388 427
308 401 508
325 418 615
347 440 752
373 466 911
400 493 1083
429 521 1258
456 549 1427
481 574 1585
504 597 1728
524 618 1854
545 638 1982
571 664 2146
600 693 2321
624 717 2472
640 733 2572
650 742 2631
657 750 2675
665 758 2728
677 770 2799
691 784 2889
708 801 2993
724 818 3096
738 831 3178
746 839 3232
752 845 3269
314 573 289
316 575 303
319 578 320
319 578 339
319 578 366
319 578 402
319 578 452
319 578 519
325 584 615
347 606 752
373 631 911
400 659 1083
429 687 1258
456 714 1427
481 740 1585
504 763 1728
524 783 1854
545 804 1982
571 830 2146
600 859 2321
624 883 2472
640 899 2572
650 908 2631
657 915 2675
665 924 2728
677 935 2799
691 950 2889
708 967 2993
724 983 3096
738 996 3178
746 1005 3232
752 1011 3269
358 847 333
361 850 347
363 852 364
363 852 384
363 852 410
363 852 446
363 852 496
363 852 563
363 852 653
363 852 768
373 862 911
400 889 1083
429 918 1258
456 945 1427
481 970 1585
504 993 1728
524 1014 1854
545 1034 1982
571 1061 2146
600 1089 2321
624 1113 2472
640 1129 2572
650 1139 2631
657 1145 2675
665 1154 2728
677 1166 2799
691 1180 2889
708 1197 2993
724 1214 3096
738 1227 3178
746 1235 3232
752 1241 3269
410 1166 385
412 1169 399
415 1171 416
415 1171 435
415 1171 462
415 1171 498
415 1171 547
415 1171 615
415 1171 705
415 1171 819
415 1171 953
415 1171 1098
429 1185 1258
456 1212 1427
481 1238 1585
504 1261 1728
524 1281 1854
545 1302 1982
571 1328 2146
600 1357 2321
624 1381 2472
640 1397 2572
650 1406 2631
657 1414 2675
665 1422 2728
677 1433 2799
691 1448 2889
708 1464 2993
724 1481 3096
738 1494 3178
746 1503 3232
752 1509 3269
461 1487 436
464 1489 450
466 1491 467
466 1491 486
466 1491 513
466 1491 549
466 1491 599
466 1491 666
466 1491 756
466 1491 871
466 1491 1004
466 1491 1149
466 1491 1296
466 1491 1437
481 1506 1585
504 1530 1728
524 1550 1854
545 1570 1982
571 1597 2146
600 1625 2321
624 1649 2472
640 1665 2572
650 1675 2631
657 1682 2675
665 1690 2728
677 1702 2799
691 1716 2889
708 1733 2993
724 1750 3096
738 1763 3178
746 1772 3232
752 1778 3269
509 1783 484
511 1785 498
514 1788 515
514 1788 534
514 1788 561
514 1788 597
514 1788 646
514 1788 714
514 1788 804
514 1788 918
514 1788 1052
514 1788 1197
514 1788 1343
514 1788 1485
514 1788 1618
514 1788 1738
524 1799 1854
545 1819 1982
571 1845 2146
600 1874 2321
624 1898 2472
640 1914 2572
650 1924 2631
657 1931 2675
665 1939 2728
677 1951 2799
691 1965 2889
708 1982 2993
724 1998 3096
738 2012 3178
746 2021 3232
752 2027 3269
551 2047 527
554 2049 540
556 2052 557
556 2052 577
556 2052 603
556 2052 640
556 2052 689
556 2052 756
556 2052 847
556 2052 961
556 2052 1094
556 2052 1239
556 2052 1386
556 2052 1528
556 2052 1660
556 2052 1780
556 2052 1886
556 2052 1993
571 2067 2146
600 2095 2321
624 2119 2472
640 2136 2572
650 2145 2631
657 2153 2675
665 2161 2728
677 2172 2799
691 2187 2889
708 2204 2993
724 2220 3096
738 2233 3178
746 2242 3232
752 2248 3269
588 2276 563
590 2278 577
593 2281 594
593 2281 613
593 2281 640
593 2281 676
593 2281 726
593 2281 793
593 2281 884
593 2281 998
593 2281 1131
593 2281 1276
593 2281 1423
593 2281 1565
593 2281 1697
593 2281 1817
593 2281 1923
593 2281 2030
593 2281 2167
600 2287 2321
624 2311 2472
640 2328 2572
650 2337 2631
657 2344 2675
665 2353 2728
677 2364 2799
691 2378 2889
708 2396 2993
724 2412 3096
738 2425 3178
746 2434 3232
752 2440 3269
620 2469 594
622 2472 608
624 2474 625
624 2474 645
624 2474 671
624 2474 707
624 2474 757
624 2474 824
624 2474 915
624 2474 1029
624 2474 1162
624 2474 1307
624 2474 1454
624 2474 1596
624 2474 1728
624 2474 1848
624 2474 1953
624 2474 2061
624 2474 2199
624 2474 2346
624 2474 2472
640 2490 2572
650 2499 2631
657 2507 2675
665 2515 2728
677 2527 2799
691 2541 2889
708 2558 2993
724 2574 3096
738 2587 3178
746 2596 3232
752 2602 3269
645 2630 620
648 2632 634
650 2635 651
650 2635 671
650 2635 697
650 2635 733
650 2635 783
650 2635 850
650 2635 940
650 2635 1055
650 2635 1188
650 2635 1333
650 2635 1480
650 2635 1621
650 2635 1754
650 2635 1874
650 2635 1979
650 2635 2087
650 2635 2224
650 2635 2372
650 2635 2498
650 2635 2582
650 2635 2631
657 2641 2675
665 2650 2728
677 2661 2799
691 2676 2889
708 2692 2993
724 2709 3096
738 2722 3178
746 2731 3232
752 2737 3269
667 2763 642
669 2765 656
672 2768 673
672 2768 692
672 2768 719
672 2768 754
672 2768 804
672 2768 872
672 2768 962
672 2768 1076
672 2768 1209
672 2768 1354
672 2768 1501
672 2768 1643
672 2768 1775
672 2768 1896
672 2768 2001
672 2768 2109
672 2768 2246
672 2768 2393
672 2768 2520
672 2768 2603
672 2768 2653
672 2768 2690
672 2768 2734
677 2773 2799
691 2787 2889
708 2804 2993
724 2821 3096
738 2834 3178
746 2843 3232
752 2849 3269
685 2875 660
687 2877 674
690 2880 691
690 2880 710
690 2880 737
690 2880 773
690 2880 822
690 2880 890
690 2880 980
690 2880 1094
690 2880 1228
690 2880 1373
690 2880 1519
690 2880 1661
690 2880 1793
690 2880 1914
690 2880 2019
690 2880 2126
690 2880 2264
690 2880 2411
690 2880 2538
690 2880 2621
690 2880 2671
690 2880 2708
690 2880 2752
690 2880 2812
691 2881 2889
708 2898 2993
724 2914 3096
738 2928 3178
746 2937 3232
752 2943 3269
700 2971 675
702 2973 689
705 2976 706
705 2976 726
705 2976 752
705 2976 788
705 2976 838
705 2976 905
705 2976 996
705 2976 1110
705 2976 1243
705 2976 1388
705 2976 1534
705 2976 1676
705 2976 1809
705 2976 1929
705 2976 2034
705 2976 2142
705 2976 2279
705 2976 2426
705 2976 2553
705 2976 2637
705 2976 2686
705 2976 2723
705 2976 2768
705 2976 2828
705 2976 2903
708 2979 2993
724 2995 3096
738 3008 3178
746 3017 3232
752 3023 3269
714 3054 689
716 3057 702
719 3059 720
719 3059 739
719 3059 765
719 3059 801
719 3059 851
719 3059 919
719 3059 1009
719 3059 1123
719 3059 1257
719 3059 1401
719 3059 1548
719 3059 1690
719 3059 1823
719 3059 1943
719 3059 2048
719 3059 2155
719 3059 2293
719 3059 2440
719 3059 2566
719 3059 2651
719 3059 2700
719 3059 2737
719 3059 2781
719 3059 2841
719 3059 2916
719 3059 3004
724 3065 3096
738 3078 3178
746 3087 3232
752 3093 3269
725 3128 701
728 3130 714
730 3132 731
730 3132 751
730 3132 777
730 3132 814
730 3132 863
730 3132 930
730 3132 1021
730 3132 1135
730 3132 1268
730 3132 1413
730 3132 1560
730 3132 1701
730 3132 1834
730 3132 1954
730 3132 2059
730 3132 2167
730 3132 2304
730 3132 2452
730 3132 2578
730 3132 2662
730 3132 2711
730 3132 2748
730 3132 2793
730 3132 2853
730 3132 2928
730 3132 3015
730 3132 3102
738 3140 3178
746 3148 3232
752 3155 3269
736 3193 711
738 3195 725
741 3197 742
741 3197 761
741 3197 788
741 3197 824
741 3197 873
741 3197 941
741 3197 1031
741 3197 1145
741 3197 1279
741 3197 1424
741 3197 1570
741 3197 1712
741 3197 1844
741 3197 1965
741 3197 2070
741 3197 2178
741 3197 2315
741 3197 2462
741 3197 2589
741 3197 2673
741 3197 2722
741 3197 2759
741 3197 2803
741 3197 2863
741 3197 2938
741 3197 3026
741 3197 3112
741 3197 3181
746 3203 3232
752 3209 3269
746 3250 720
747 3252 734
750 3254 751
750 3254 770
750 3254 797
750 3254 833
750 3254 883
750 3254 950
750 3254 1040
750 3254 1155
750 3254 1288
750 3254 1433
750 3254 1580
750 3254 1721
750 3254 1854
750 3254 1974
750 3254 2079
750 3254 2187
750 3254 2324
750 3254 2471
750 3254 2598
750 3254 2682
750 3254 2731
750 3254 2768
750 3254 2812
750 3254 2873
750 3254 2947
750 3254 3035
750 3254 3122
750 3254 3191
750 3254 3235
752 3257 3269
753 3300 728
756 3302 742
758 3305 759
758 3305 779
758 3305 805
758 3305 841
758 3305 891
758 3305 958
758 3305 1048
758 3305 1163
758 3305 1296
758 3305 1441
758 3305 1587
758 3305 1729
758 3305 1862
758 3305 1982
758 3305 2087
758 3305 2195
758 3305 2332
758 3305 2479
758 3305 2606
758 3305 2690
758 3305 2739
758 3305 2776
758 3305 2821
758 3305 2881
758 3305 2956
758 3305 3043
758 3305 3130
758 3305 3199
758 3305 3243
758 3305 3274
760 3345 736
763 3347 749
765 3350 766
765 3350 786
765 3350 812
765 3350 849
765 3350 898
765 3350 966
765 3350 1056
765 3350 1170
765 3350 1304
765 3350 1448
765 3350 1595
765 3350 1737
765 3350 1869
765 3350 1990
765 3350 2094
765 3350 2202
765 3350 2340
765 3350 2487
765 3350 2613
765 3350 2697
765 3350 2747
765 3350 2783
765 3350 2828
765 3350 2888
765 3350 2963
765 3350 3050
765 3350 3137
765 3350 3206
765 3350 3250
765 3350 3282
767 3386 742
769 3388 756
772 3391 773
772 3391 792
772 3391 819
772 3391 855
772 3391 904
772 3391 972
772 3391 1062
772 3391 1177
772 3391 1310
772 3391 1455
772 3391 1601
772 3391 1743
772 3391 1875
772 3391 1996
772 3391 2101
772 3391 2209
772 3391 2346
772 3391 2493
772 3391 2620
772 3391 2704
772 3391 2753
772 3391 2790
772 3391 2834
772 3391 2895
772 3391 2969
772 3391 3057
772 3391 3144
772 3391 3212
772 3391 3257
772 3391 3288
773 3423 748
776 3425 762
778 3428 779
778 3428 798
