All_In_One/Enrich_Colormaster/colormanagement/luts/film_response/Hipstawash.3DL
#Created by: Adobe Photoshop Export Color Lookup Plugin
#Description: Hipstawash
0 33 66 99 132 165 198 231 264 297 330 363 396 429 462 495 528 561 594 627 660 693 726 759 792 825 858 891 924 957 990 1023
739 739 739
745 745 813
751 751 889
757 757 966
763 763 1044
769 769 1126
775 775 1211
781 781 1301
787 787 1394
793 793 1492
799 799 1593
805 805 1697
811 811 1803
817 817 1911
823 823 2020
829 829 2128
835 835 2237
841 841 2345
847 847 2451
853 853 2555
859 859 2657
865 865 2755
871 871 2849
877 877 2938
883 883 3022
889 889 3101
895 895 3175
901 901 3244
908 908 3310
914 914 3373
920 920 3433
926 926 3490
745 813 745
745 813 813
751 819 889
757 825 966
763 832 1044
769 838 1126
775 844 1211
781 850 1301
787 856 1394
793 862 1492
799 868 1593
805 874 1697
811 880 1803
817 886 1911
823 892 2020
829 898 2128
835 904 2237
841 910 2345
847 917 2451
853 923 2555
859 929 2657
865 935 2755
871 941 2849
877 947 2938
883 954 3022
889 960 3101
895 966 3175
901 972 3244
908 978 3310
914 985 3373
920 991 3433
926 997 3490
751 889 751
751 889 819
751 889 889
757 895 966
763 901 1044
769 907 1126
775 913 1211
781 919 1301
787 926 1394
793 932 1492
799 938 1593
805 944 1697
811 950 1803
817 957 1911
823 963 2020
829 969 2128
835 975 2237
841 982 2345
847 988 2451
853 994 2555
859 1000 2657
865 1007 2755
871 1013 2849
877 1019 2938
883 1025 3022
889 1032 3101
895 1038 3175
901 1045 3244
908 1051 3310
914 1057 3373
920 1064 3433
926 1070 3490
757 966 757
757 966 825
757 966 895
757 966 966
763 972 1044
769 978 1126
775 984 1211
781 991 1301
787 997 1394
793 1003 1492
799 1010 1593
805 1016 1697
811 1022 1803
817 1029 1911
823 1035 2020
829 1041 2128
835 1048 2237
841 1054 2345
847 1061 2451
853 1067 2555
859 1074 2657
865 1080 2755
871 1087 2849
877 1093 2938
883 1100 3022
889 1107 3101
895 1113 3175
901 1120 3244
908 1127 3310
914 1133 3373
920 1140 3433
926 1146 3490
763 1044 763
763 1044 832
763 1044 901
763 1044 972
763 1044 1044
769 1051 1126
775 1057 1211
781 1064 1301
787 1070 1394
793 1077 1492
799 1083 1593
805 1090 1697
811 1096 1803
817 1103 1911
823 1110 2020
829 1116 2128
835 1123 2237
841 1130 2345
847 1136 2451
853 1143 2555
859 1150 2657
865 1156 2755
871 1163 2849
877 1170 2938
883 1177 3022
889 1184 3101
895 1191 3175
901 1198 3244
908 1205 3310
914 1212 3373
920 1219 3433
926 1226 3490
769 1126 769
769 1126 838
769 1126 907
769 1126 978
769 1126 1051
769 1126 1126
775 1133 1211
781 1140 1301
787 1146 1394
793 1153 1492
799 1160 1593
805 1167 1697
811 1173 1803
817 1180 1911
823 1187 2020
829 1194 2128
835 1201 2237
841 1208 2345
847 1215 2451
853 1222 2555
859 1229 2657
865 1236 2755
871 1243 2849
877 1250 2938
883 1257 3022
889 1265 3101
895 1272 3175
901 1279 3244
908 1286 3310
914 1293 3373
920 1301 3433
926 1308 3490
775 1211 775
775 1211 844
775 1211 913
775 1211 984
775 1211 1057
775 1211 1133
775 1211 1211
781 1218 1301
787 1225 1394
793 1232 1492
799 1239 1593
805 1246 1697
811 1254 1803
817 1261 1911
823 1268 2020
829 1275 2128
835 1282 2237
841 1290 2345
847 1297 2451
853 1304 2555
859 1312 2657
865 1319 2755
871 1327 2849
877 1334 2938
883 1342 3022
889 1349 3101
895 1356 3175
901 1364 3244
908 1372 3310
914 1379 3373
920 1387 3433
926 1395 3490
781 1301 781
781 1301 850
781 1301 919
781 1301 991
781 1301 1064
781 1301 1140
781 1301 1218
781 1301 1301
787 1308 1394
793 1315 1492
799 1323 1593
805 1330 1697
811 1338 1803
817 1345 1911
823 1353 2020
829 1360 2128
835 1368 2237
841 1375 2345
847 1383 2451
853 1391 2555
859 1399 2657
865 1406 2755
871 1414 2849
877 1422 2938
883 1430 3022
889 1437 3101
895 1445 3175
901 1453 3244
908 1461 3310
914 1469 3373
920 1477 3433
926 1485 3490
787 1394 787
787 1394 856
787 1394 926
787 1394 997
787 1394 1070
787 1394 1146
787 1394 1225
787 1394 1308
787 1394 1394
793 1402 1492
799 1410 1593
805 1417 1697
811 1425 1803
817 1433 1911
823 1441 2020
829 1449 2128
835 1457 2237
841 1464 2345
847 1472 2451
853 1481 2555
859 1488 2657
865 1496 2755
871 1504 2849
877 1512 2938
883 1520 3022
889 1529 3101
895 1536 3175
901 1545 3244
908 1552 3310
914 1561 3373
920 1569 3433
926 1577 3490
793 1492 793
793 1492 862
793 1492 932
793 1492 1003
793 1492 1077
793 1492 1153
793 1492 1232
793 1492 1315
793 1492 1402
793 1492 1492
799 1500 1593
805 1508 1697
811 1516 1803
817 1524 1911
823 1532 2020
829 1540 2128
835 1548 2237
841 1556 2345
847 1565 2451
853 1573 2555
859 1581 2657
865 1589 2755
871 1598 2849
877 1606 2938
883 1614 3022
889 1622 3101
895 1631 3175
901 1639 3244
908 1648 3310
914 1655 3373
920 1664 3433
926 1672 3490
799 1593 799
799 1593 868
799 1593 938
799 1593 1010
799 1593 1083
799 1593 1160
799 1593 1239
799 1593 1323
799 1593 1410
799 1593 1500
799 1593 1593
805 1602 1697
811 1609 1803
817 1618 1911
823 1626 2020
829 1635 2128
835 1643 2237
841 1651 2345
847 1659 2451
853 1668 2555
859 1676 2657
865 1684 2755
871 1693 2849
877 1702 2938
883 1710 3022
889 1718 3101
895 1727 3175
901 1735 3244
908 1744 3310
914 1752 3373
920 1761 3433
926 1769 3490
805 1697 805
805 1697 874
805 1697 944
805 1697 1016
805 1697 1090
805 1697 1167
805 1697 1246
805 1697 1330
805 1697 1417
805 1697 1508
805 1697 1602
805 1697 1697
811 1706 1803
817 1714 1911
823 1722 2020
829 1731 2128
835 1739 2237
841 1748 2345
847 1756 2451
853 1765 2555
859 1774 2657
865 1782 2755
871 1791 2849
877 1799 2938
883 1808 3022
889 1816 3101
895 1825 3175
901 1834 3244
908 1842 3310
914 1851 3373
920 1859 3433
926 1868 3490
811 1803 811
811 1803 880
811 1803 950
811 1803 1022
811 1803 1096
811 1803 1173
811 1803 1254
811 1803 1338
811 1803 1425
811 1803 1516
811 1803 1609
811 1803 1706
811 1803 1803
817 1812 1911
823 1820 2020
829 1829 2128
835 1838 2237
841 1846 2345
847 1855 2451
853 1864 2555
859 1872 2657
865 1881 2755
871 1889 2849
877 1898 2938
883 1907 3022
889 1916 3101
895 1924 3175
901 1933 3244
908 1941 3310
914 1950 3373
920 1959 3433
926 1968 3490
817 1911 817
817 1911 886
817 1911 957
817 1911 1029
817 1911 1103
817 1911 1180
817 1911 1261
817 1911 1345
817 1911 1433
817 1911 1524
817 1911 1618
817 1911 1714
817 1911 1812
817 1911 1911
823 1919 2020
829 1928 2128
835 1937 2237
841 1946 2345
847 1954 2451
853 1963 2555
859 1972 2657
865 1981 2755
871 1989 2849
877 1998 2938
883 2007 3022
889 2015 3101
895 2024 3175
901 2033 3244
908 2042 3310
914 2050 3373
920 2059 3433
926 2068 3490
823 2020 823
823 2020 892
823 2020 963
823 2020 1035
823 2020 1110
823 2020 1187
823 2020 1268
823 2020 1353
823 2020 1441
823 2020 1532
823 2020 1626
823 2020 1722
823 2020 1820
823 2020 1919
823 2020 2020
829 2028 2128
835 2037 2237
841 2046 2345
847 2055 2451
853 2063 2555
859 2072 2657
865 2081 2755
871 2089 2849
877 2098 2938
883 2107 3022
889 2116 3101
895 2124 3175
901 2133 3244
908 2142 3310
914 2150 3373
920 2159 3433
926 2168 3490
829 2128 829
829 2128 898
829 2128 969
829 2128 1041
829 2128 1116
829 2128 1194
829 2128 1275
829 2128 1360
829 2128 1449
829 2128 1540
829 2128 1635
829 2128 1731
829 2128 1829
829 2128 1928
829 2128 2028
829 2128 2128
835 2137 2237
841 2146 2345
847 2155 2451
853 2164 2555
859 2172 2657
865 2181 2755
871 2190 2849
877 2198 2938
883 2207 3022
889 2216 3101
895 2224 3175
901 2233 3244
908 2241 3310
914 2251 3373
920 2259 3433
926 2268 3490
835 2237 835
835 2237 904
835 2237 975
835 2237 1048
835 2237 1123
835 2237 1201
835 2237 1282
835 2237 1368
835 2237 1457
835 2237 1548
835 2237 1643
835 2237 1739
835 2237 1838
835 2237 1937
835 2237 2037
835 2237 2137
835 2237 2237
841 2246 2345
847 2255 2451
853 2263 2555
859 2272 2657
865 2281 2755
871 2289 2849
877 2298 2938
883 2307 3022
889 2315 3101
895 2324 3175
901 2332 3244
908 2341 3310
914 2349 3373
920 2358 3433
926 2367 3490
841 2345 841
841 2345 910
841 2345 982
841 2345 1054
841 2345 1130
841 2345 1208
841 2345 1290
841 2345 1375
841 2345 1464
841 2345 1556
841 2345 1651
841 2345 1748
841 2345 1846
841 2345 1946
841 2345 2046
841 2345 2146
841 2345 2246
841 2345 2345
847 2353 2451
853 2362 2555
859 2371 2657
865 2379 2755
871 2388 2849
877 2396 2938
883 2405 3022
889 2413 3101
895 2422 3175
901 2430 3244
908 2439 3310
914 2447 3373
920 2456 3433
926 2464 3490
847 2451 847
847 2451 917
847 2451 988
847 2451 1061
847 2451 1136
847 2451 1215
847 2451 1297
847 2451 1383
847 2451 1472
847 2451 1565
847 2451 1659
847 2451 1756
847 2451 1855
847 2451 1954
847 2451 2055
847 2451 2155
847 2451 2255
847 2451 2353
847 2451 2451
853 2459 2555
859 2468 2657
865 2476 2755
871 2485 2849
877 2493 2938
883 2502 3022
889 2510 3101
895 2518 3175
901 2527 3244
908 2535 3310
914 2543 3373
920 2552 3433
926 2559 3490
853 2555 853
853 2555 923
853 2555 994
853 2555 1067
853 2555 1143
853 2555 1222
853 2555 1304
853 2555 1391
853 2555 1481
853 2555 1573
853 2555 1668
853 2555 1765
853 2555 1864
853 2555 1963
853 2555 2063
853 2555 2164
853 2555 2263
853 2555 2362
853 2555 2459
853 2555 2555
859 2563 2657
865 2572 2755
871 2580 2849
877 2588 2938
883 2596 3022
889 2604 3101
895 2612 3175
901 2620 3244
908 2628 3310
914 2637 3373
920 2645 3433
926 2653 3490
859 2657 859
859 2657 929
859 2657 1000
859 2657 1074
859 2657 1150
859 2657 1229
859 2657 1312
859 2657 1399
859 2657 1488
859 2657 1581
859 2657 1676
859 2657 1774
859 2657 1872
859 2657 1972
859 2657 2072
859 2657 2172
859 2657 2272
859 2657 2371
859 2657 2468
859 2657 2563
859 2657 2657
865 2665 2755
871 2673 2849
877 2681 2938
883 2688 3022
889 2696 3101
895 2704 3175
901 2712 3244
908 2720 3310
914 2728 3373
920 2736 3433
926 2743 3490
865 2755 865
865 2755 935
865 2755 1007
865 2755 1080
865 2755 1156
865 2755 1236
865 2755 1319
865 2755 1406
865 2755 1496
865 2755 1589
865 2755 1684
865 2755 1782
865 2755 1881
865 2755 1981
865 2755 2081
865 2755 2181
865 2755 2281
865 2755 2379
865 2755 2476
865 2755 2572
865 2755 2665
865 2755 2755
871 2762 2849
877 2770 2938
883 2778 3022
889 2785 3101
895 2793 3175
901 2801 3244
908 2808 3310
914 2815 3373
920 2823 3433
926 2831 3490
871 2849 871
871 2849 941
871 2849 1013
871 2849 1087
871 2849 1163
871 2849 1243
871 2849 1327
871 2849 1414
871 2849 1504
871 2849 1598
871 2849 1693
871 2849 1791
871 2849 1889
871 2849 1989
871 2849 2089
871 2849 2190
871 2849 2289
871 2849 2388
871 2849 2485
871 2849 2580
871 2849 2673
871 2849 2762
871 2849 2849
877 2856 2938
883 2864 3022
889 2870 3101
895 2878 3175
901 2885 3244
908 2892 3310
914 2899 3373
920 2907 3433
926 2914 3490
877 2938 877
877 2938 947
877 2938 1019
877 2938 1093
877 2938 1170
877 2938 1250
877 2938 1334
877 2938 1422
877 2938 1512
877 2938 1606
877 2938 1702
877 2938 1799
877 2938 1898
877 2938 1998
877 2938 2098
877 2938 2198
877 2938 2298
877 2938 2396
877 2938 2493
877 2938 2588
877 2938 2681
877 2938 2770
877 2938 2856
877 2938 2938
883 2945 3022
889 2952 3101
895 2959 3175
901 2966 3244
908 2973 3310
914 2980 3373
920 2986 3433
926 2993 3490
883 3022 883
883 3022 954
883 3022 1025
883 3022 1100
883 3022 1177
883 3022 1257
883 3022 1342
883 3022 1430
883 3022 1520
883 3022 1614
883 3022 1710
883 3022 1808
883 3022 1907
883 3022 2007
883 3022 2107
883 3022 2207
883 3022 2307
883 3022 2405
883 3022 2502
883 3022 2596
883 3022 2688
883 3022 2778
883 3022 2864
883 3022 2945
883 3022 3022
889 3029 3101
895 3035 3175
901 3042 3244
908 3048 3310
914 3055 3373
920 3061 3433
926 3067 3490
889 3101 889
889 3101 960
889 3101 1032
889 3101 1107
889 3101 1184
889 3101 1265
889 3101 1349
889 3101 1437
889 3101 1529
889 3101 1622
889 3101 1718
889 3101 1816
889 3101 1916
889 3101 2015
889 3101 2116
889 3101 2216
889 3101 2315
889 3101 2413
889 3101 2510
889 3101 2604
889 3101 2696
889 3101 2785
889 3101 2870
889 3101 2952
889 3101 3029
889 3101 3101
895 3107 3175
901 3113 3244
908 3119 3310
914 3125 3373
920 3131 3433
926 3137 3490
895 3175 895
895 3175 966
895 3175 1038
895 3175 1113
895 3175 1191
895 3175 1272
895 3175 1356
895 3175 1445
895 3175 1536
895 3175 1631
895 3175 1727
895 3175 1825
895 3175 1924
895 3175 2024
895 3175 2124
895 3175 2224
895 3175 2324
895 3175 2422
895 3175 2518
895 3175 2612
895 3175 2704
895 3175 2793
895 3175 2878
895 3175 2959
895 3175 3035
895 3175 3107
895 3175 3175
901 3181 3244
908 3186 3310
914 3192 3373
920 3198 3433
926 3203 3490
901 3244 901
901 3244 972
901 3244 1045
901 3244 1120
901 3244 1198
901 3244 1279
901 3244 1364
901 3244 1453
901 3244 1545
901 3244 1639
901 3244 1735
901 3244 1834
901 3244 1933
901 3244 2033
901 3244 2133
901 3244 2233
901 3244 2332
901 3244 2430
901 3244 2527
901 3244 2620
901 3244 2712
901 3244 2801
901 3244 2885
901 3244 2966
901 3244 3042
901 3244 3113
901 3244 3181
901 3244 3244
908 3250 3310
914 3255 3373
920 3260 3433
926 3266 3490
908 3310 908
908 3310 978
908 3310 1051
908 3310 1127
