All_In_One/Enrich_Colormaster/colormanagement/luts/film_response/KeepRed.3DL
#Created by: Adobe Photoshop Export Color Lookup Plugin
#Description: Keep Red
0 33 66 99 132 165 198 231 264 297 330 363 396 429 462 495 528 561 594 627 660 693 726 759 792 825 858 891 924 957 990 1023
0 0 0
36 36 36
72 72 72
109 109 109
146 146 146
184 184 184
223 223 223
262 262 262
304 304 304
346 346 346
391 391 391
437 437 437
485 485 485
536 536 536
589 589 589
644 644 644
703 703 703
764 764 764
828 828 828
896 896 896
968 968 968
1043 1043 1043
1122 1122 1122
1205 1205 1205
1292 1292 1292
1383 1383 1383
1477 1477 1477
1573 1573 1573
1672 1672 1672
1773 1773 1773
1875 1875 1875
1978 1978 1978
36 36 36
36 36 36
72 72 72
109 109 109
146 146 146
184 184 184
223 223 223
262 262 262
304 304 304
346 346 346
391 391 391
437 437 437
485 485 485
536 536 536
589 589 589
644 644 644
703 703 703
764 764 764
828 828 828
896 896 896
968 968 968
1043 1043 1043
1122 1122 1122
1205 1205 1205
1292 1292 1292
1383 1383 1383
1477 1477 1477
1573 1573 1573
1672 1672 1672
1773 1773 1773
1875 1875 1875
1978 1978 1978
72 72 72
72 72 72
72 72 72
109 109 109
146 146 146
184 184 184
223 223 223
262 262 262
304 304 304
346 346 346
391 391 391
437 437 437
485 485 485
536 536 536
589 589 589
644 644 644
703 703 703
764 764 764
828 828 828
896 896 896
968 968 968
1043 1043 1043
1122 1122 1122
1205 1205 1205
1292 1292 1292
1383 1383 1383
1477 1477 1477
1573 1573 1573
1672 1672 1672
1773 1773 1773
1875 1875 1875
1978 1978 1978
109 109 109
109 109 109
109 109 109
109 109 109
146 146 146
184 184 184
223 223 223
262 262 262
304 304 304
346 346 346
391 391 391
437 437 437
485 485 485
536 536 536
589 589 589
644 644 644
703 703 703
764 764 764
828 828 828
896 896 896
968 968 968
1043 1043 1043
1122 1122 1122
1205 1205 1205
1292 1292 1292
1383 1383 1383
1477 1477 1477
1573 1573 1573
1672 1672 1672
1773 1773 1773
1875 1875 1875
1978 1978 1978
146 146 146
146 146 146
146 146 146
146 146 146
146 146 146
184 184 184
223 223 223
262 262 262
304 304 304
346 346 346
391 391 391
437 437 437
485 485 485
536 536 536
589 589 589
644 644 644
703 703 703
764 764 764
828 828 828
896 896 896
968 968 968
1043 1043 1043
1122 1122 1122
1205 1205 1205
1292 1292 1292
1383 1383 1383
1477 1477 1477
1573 1573 1573
1672 1672 1672
1773 1773 1773
1875 1875 1875
1978 1978 1978
184 184 184
184 184 184
184 184 184
184 184 184
184 184 184
184 184 184
223 223 223
262 262 262
304 304 304
346 346 346
391 391 391
437 437 437
485 485 485
536 536 536
589 589 589
644 644 644
703 703 703
764 764 764
828 828 828
896 896 896
968 968 968
1043 1043 1043
1122 1122 1122
1205 1205 1205
1292 1292 1292
1383 1383 1383
1477 1477 1477
1573 1573 1573
1672 1672 1672
1773 1773 1773
1875 1875 1875
1978 1978 1978
223 223 223
223 223 223
223 223 223
223 223 223
223 223 223
223 223 223
223 223 223
262 262 262
304 304 304
346 346 346
391 391 391
437 437 437
485 485 485
536 536 536
589 589 589
644 644 644
703 703 703
764 764 764
828 828 828
896 896 896
968 968 968
1043 1043 1043
1122 1122 1122
1205 1205 1205
1292 1292 1292
1383 1383 1383
1477 1477 1477
1573 1573 1573
1672 1672 1672
1773 1773 1773
1875 1875 1875
1978 1978 1978
262 262 262
262 262 262
262 262 262
262 262 262
262 262 262
262 262 262
262 262 262
262 262 262
304 304 304
346 346 346
391 391 391
437 437 437
485 485 485
536 536 536
589 589 589
644 644 644
703 703 703
764 764 764
828 828 828
896 896 896
968 968 968
1043 1043 1043
1122 1122 1122
1205 1205 1205
1292 1292 1292
1383 1383 1383
1477 1477 1477
1573 1573 1573
1672 1672 1672
1773 1773 1773
1875 1875 1875
1978 1978 1978
304 304 304
304 304 304
304 304 304
304 304 304
304 304 304
304 304 304
304 304 304
304 304 304
304 304 304
346 346 346
391 391 391
437 437 437
485 485 485
536 536 536
589 589 589
644 644 644
703 703 703
764 764 764
828 828 828
896 896 896
968 968 968
1043 1043 1043
1122 1122 1122
1205 1205 1205
1292 1292 1292
1383 1383 1383
1477 1477 1477
1573 1573 1573
1672 1672 1672
1773 1773 1773
1875 1875 1875
1978 1978 1978
346 346 346
346 346 346
346 346 346
346 346 346
346 346 346
346 346 346
346 346 346
346 346 346
346 346 346
346 346 346
391 391 391
437 437 437
485 485 485
536 536 536
589 589 589
644 644 644
703 703 703
764 764 764
828 828 828
896 896 896
968 968 968
1043 1043 1043
1122 1122 1122
1205 1205 1205
1292 1292 1292
1383 1383 1383
1477 1477 1477
1573 1573 1573
1672 1672 1672
1773 1773 1773
1875 1875 1875
1978 1978 1978
391 391 391
391 391 391
391 391 391
391 391 391
391 391 391
391 391 391
391 391 391
391 391 391
391 391 391
391 391 391
391 391 391
437 437 437
485 485 485
536 536 536
589 589 589
644 644 644
703 703 703
764 764 764
828 828 828
896 896 896
968 968 968
1043 1043 1043
1122 1122 1122
1205 1205 1205
1292 1292 1292
1383 1383 1383
1477 1477 1477
1573 1573 1573
1672 1672 1672
1773 1773 1773
1875 1875 1875
1978 1978 1978
437 437 437
437 437 437
437 437 437
437 437 437
437 437 437
437 437 437
437 437 437
437 437 437
437 437 437
437 437 437
437 437 437
437 437 437
485 485 485
536 536 536
589 589 589
644 644 644
703 703 703
764 764 764
828 828 828
896 896 896
968 968 968
1043 1043 1043
1122 1122 1122
1205 1205 1205
1292 1292 1292
1383 1383 1383
1477 1477 1477
1573 1573 1573
1672 1672 1672
1773 1773 1773
1875 1875 1875
1978 1978 1978
485 485 485
485 485 485
485 485 485
485 485 485
485 485 485
485 485 485
485 485 485
485 485 485
485 485 485
485 485 485
485 485 485
485 485 485
485 485 485
536 536 536
589 589 589
644 644 644
703 703 703
764 764 764
828 828 828
896 896 896
968 968 968
1043 1043 1043
1122 1122 1122
1205 1205 1205
1292 1292 1292
1383 1383 1383
1477 1477 1477
1573 1573 1573
1672 1672 1672
1773 1773 1773
1875 1875 1875
1978 1978 1978
536 536 536
536 536 536
536 536 536
536 536 536
536 536 536
536 536 536
536 536 536
536 536 536
536 536 536
536 536 536
536 536 536
536 536 536
536 536 536
536 536 536
589 589 589
644 644 644
703 703 703
764 764 764
828 828 828
896 896 896
968 968 968
1043 1043 1043
1122 1122 1122
1205 1205 1205
1292 1292 1292
1383 1383 1383
1477 1477 1477
1573 1573 1573
1672 1672 1672
1773 1773 1773
1875 1875 1875
1978 1978 1978
589 589 589
589 589 589
589 589 589
589 589 589
589 589 589
589 589 589
589 589 589
589 589 589
589 589 589
589 589 589
589 589 589
589 589 589
589 589 589
589 589 589
589 589 589
644 644 644
703 703 703
764 764 764
828 828 828
896 896 896
968 968 968
1043 1043 1043
1122 1122 1122
1205 1205 1205
1292 1292 1292
1383 1383 1383
1477 1477 1477
1573 1573 1573
1672 1672 1672
1773 1773 1773
1875 1875 1875
1978 1978 1978
644 644 644
644 644 644
644 644 644
644 644 644
644 644 644
644 644 644
644 644 644
644 644 644
644 644 644
644 644 644
644 644 644
644 644 644
644 644 644
644 644 644
644 644 644
644 644 644
703 703 703
764 764 764
828 828 828
896 896 896
968 968 968
1043 1043 1043
1122 1122 1122
1205 1205 1205
1292 1292 1292
1383 1383 1383
1477 1477 1477
1573 1573 1573
1672 1672 1672
1773 1773 1773
1875 1875 1875
1978 1978 1978
703 703 703
703 703 703
703 703 703
703 703 703
703 703 703
703 703 703
703 703 703
703 703 703
703 703 703
703 703 703
703 703 703
703 703 703
703 703 703
703 703 703
703 703 703
703 703 703
703 703 703
764 764 764
828 828 828
896 896 896
968 968 968
1043 1043 1043
1122 1122 1122
1205 1205 1205
1292 1292 1292
1383 1383 1383
1477 1477 1477
1573 1573 1573
1672 1672 1672
1773 1773 1773
1875 1875 1875
1978 1978 1978
764 764 764
764 764 764
764 764 764
764 764 764
764 764 764
764 764 764
764 764 764
764 764 764
764 764 764
764 764 764
764 764 764
764 764 764
764 764 764
764 764 764
764 764 764
764 764 764
764 764 764
764 764 764
828 828 828
896 896 896
968 968 968
1043 1043 1043
1122 1122 1122
1205 1205 1205
1292 1292 1292
1383 1383 1383
1477 1477 1477
1573 1573 1573
1672 1672 1672
1773 1773 1773
1875 1875 1875
1978 1978 1978
828 828 828
828 828 828
828 828 828
828 828 828
828 828 828
828 828 828
828 828 828
828 828 828
828 828 828
828 828 828
828 828 828
828 828 828
828 828 828
828 828 828
828 828 828
828 828 828
828 828 828
828 828 828
828 828 828
896 896 896
968 968 968
1043 1043 1043
1122 1122 1122
1205 1205 1205
1292 1292 1292
1383 1383 1383
1477 1477 1477
1573 1573 1573
1672 1672 1672
1773 1773 1773
1875 1875 1875
1978 1978 1978
896 896 896
896 896 896
896 896 896
896 896 896
896 896 896
896 896 896
896 896 896
896 896 896
896 896 896
896 896 896
896 896 896
896 896 896
896 896 896
896 896 896
896 896 896
896 896 896
896 896 896
896 896 896
896 896 896
896 896 896
968 968 968
1043 1043 1043
1122 1122 1122
1205 1205 1205
1292 1292 1292
1383 1383 1383
1477 1477 1477
1573 1573 1573
1672 1672 1672
1773 1773 1773
1875 1875 1875
1978 1978 1978
968 968 968
968 968 968
968 968 968
968 968 968
968 968 968
968 968 968
968 968 968
968 968 968
968 968 968
968 968 968
968 968 968
968 968 968
968 968 968
968 968 968
968 968 968
968 968 968
968 968 968
968 968 968
968 968 968
968 968 968
968 968 968
1043 1043 1043
1122 1122 1122
1205 1205 1205
1292 1292 1292
1383 1383 1383
1477 1477 1477
1573 1573 1573
1672 1672 1672
1773 1773 1773
1875 1875 1875
1978 1978 1978
1043 1043 1043
1043 1043 1043
1043 1043 1043
1043 1043 1043
1043 1043 1043
1043 1043 1043
1043 1043 1043
1043 1043 1043
1043 1043 1043
1043 1043 1043
1043 1043 1043
1043 1043 1043
1043 1043 1043
1043 1043 1043
1043 1043 1043
1043 1043 1043
1043 1043 1043
1043 1043 1043
1043 1043 1043
1043 1043 1043
1043 1043 1043
1043 1043 1043
1122 1122 1122
1205 1205 1205
1292 1292 1292
1383 1383 1383
1477 1477 1477
1573 1573 1573
1672 1672 1672
1773 1773 1773
1875 1875 1875
1978 1978 1978
1122 1122 1122
1122 1122 1122
1122 1122 1122
1122 1122 1122
1122 1122 1122
1122 1122 1122
1122 1122 1122
1122 1122 1122
1122 1122 1122
1122 1122 1122
1122 1122 1122
1122 1122 1122
1122 1122 1122
1122 1122 1122
1122 1122 1122
1122 1122 1122
1122 1122 1122
1122 1122 1122
1122 1122 1122
1122 1122 1122
1122 1122 1122
1122 1122 1122
1122 1122 1122
1205 1205 1205
1292 1292 1292
1383 1383 1383
1477 1477 1477
1573 1573 1573
1672 1672 1672
1773 1773 1773
1875 1875 1875
1978 1978 1978
1205 1205 1205
1205 1205 1205
1205 1205 1205
1205 1205 1205
1205 1205 1205
1205 1205 1205
1205 1205 1205
1205 1205 1205
1205 1205 1205
1205 1205 1205
1205 1205 1205
1205 1205 1205
1205 1205 1205
1205 1205 1205
1205 1205 1205
1205 1205 1205
1205 1205 1205
1205 1205 1205
1205 1205 1205
1205 1205 1205
1205 1205 1205
1205 1205 1205
1205 1205 1205
1205 1205 1205
1292 1292 1292
1383 1383 1383
1477 1477 1477
1573 1573 1573
1672 1672 1672
1773 1773 1773
1875 1875 1875
1978 1978 1978
1292 1292 1292
1292 1292 1292
1292 1292 1292
1292 1292 1292
1292 1292 1292
1292 1292 1292
1292 1292 1292
1292 1292 1292
1292 1292 1292
1292 1292 1292
1292 1292 1292
1292 1292 1292
1292 1292 1292
1292 1292 1292
1292 1292 1292
1292 1292 1292
1292 1292 1292
1292 1292 1292
1292 1292 1292
1292 1292 1292
1292 1292 1292
1292 1292 1292
1292 1292 1292
1292 1292 1292
1292 1292 1292
1383 1383 1383
1477 1477 1477
1573 1573 1573
1672 1672 1672
1773 1773 1773
1875 1875 1875
1978 1978 1978
1383 1383 1383
1383 1383 1383
1383 1383 1383
1383 1383 1383
1383 1383 1383
1383 1383 1383
1383 1383 1383
1383 1383 1383
1383 1383 1383
1383 1383 1383
1383 1383 1383
1383 1383 1383
1383 1383 1383
1383 1383 1383
1383 1383 1383
1383 1383 1383
1383 1383 1383
1383 1383 1383
1383 1383 1383
1383 1383 1383
1383 1383 1383
1383 1383 1383
1383 1383 1383
1383 1383 1383
1383 1383 1383
1383 1383 1383
1477 1477 1477
1573 1573 1573
1672 1672 1672
1773 1773 1773
1875 1875 1875
1978 1978 1978
1477 1477 1477
1477 1477 1477
1477 1477 1477
1477 1477 1477
1477 1477 1477
1477 1477 1477
1477 1477 1477
1477 1477 1477
1477 1477 1477
1477 1477 1477
1477 1477 1477
1477 1477 1477
1477 1477 1477
1477 1477 1477
1477 1477 1477
1477 1477 1477
1477 1477 1477
1477 1477 1477
1477 1477 1477
1477 1477 1477
1477 1477 1477
1477 1477 1477
1477 1477 1477
1477 1477 1477
1477 1477 1477
1477 1477 1477
1477 1477 1477
1573 1573 1573
1672 1672 1672
1773 1773 1773
1875 1875 1875
1978 1978 1978
1573 1573 1573
1573 1573 1573
1573 1573 1573
1573 1573 1573
1573 1573 1573
1573 1573 1573
1573 1573 1573
1573 1573 1573
1573 1573 1573
1573 1573 1573
1573 1573 1573
1573 1573 1573
1573 1573 1573
1573 1573 1573
1573 1573 1573
1573 1573 1573
1573 1573 1573
1573 1573 1573
1573 1573 1573
1573 1573 1573
1573 1573 1573
1573 1573 1573
1573 1573 1573
1573 1573 1573
1573 1573 1573
1573 1573 1573
1573 1573 1573
1573 1573 1573
1672 1672 1672
1773 1773 1773
1875 1875 1875
1978 1978 1978
1672 1672 1672
1672 1672 1672
1672 1672 1672
1672 1672 1672
