All_In_One/Enrich_Colormaster/colormanagement/luts/film_response/Kodak2383_CUSPclip.cube
TITLE "Generate by Resolve"
LUT_3D_SIZE 9
0.000000 0.000000 0.000000
0.027451 0.007843 0.007843
0.066667 0.027451 0.011765
0.160784 0.050980 0.000000
0.341176 0.066667 0.000000
0.505882 0.101961 0.000000
0.596078 0.125490 0.000000
0.635294 0.145098 0.000000
0.650980 0.156863 0.000000
0.000000 0.031373 0.019608
0.031373 0.035294 0.019608
0.078431 0.047059 0.023529
0.192157 0.070588 0.000000
0.392157 0.094118 0.000000
0.564706 0.125490 0.000000
0.643137 0.164706 0.000000
0.674510 0.180392 0.031373
0.690196 0.188235 0.027451
0.000000 0.070588 0.039216
0.015686 0.074510 0.039216
0.098039 0.094118 0.039216
0.223529 0.121569 0.000000
0.447059 0.149020 0.000000
0.623529 0.188235 0.000000
0.698039 0.215686 0.000000
0.725490 0.231373 0.000000
0.741176 0.247059 0.035294
0.000000 0.160784 0.074510
0.000000 0.160784 0.062745
0.078431 0.180392 0.043137
0.262745 0.223529 0.000000
0.517647 0.274510 0.000000
0.698039 0.309804 0.000000
0.764706 0.329412 0.000000
0.788235 0.341176 0.000000
0.807843 0.368627 0.019608
0.000000 0.337255 0.164706
0.000000 0.341176 0.141176
0.000000 0.341176 0.003922
0.294118 0.407843 0.000000
0.600000 0.486275 0.000000
0.780392 0.521569 0.000000
0.839216 0.521569 0.000000
0.862745 0.533333 0.000000
0.886275 0.568627 0.000000
0.047059 0.482353 0.243137
0.000000 0.501961 0.227451
0.000000 0.517647 0.129412
0.305882 0.584314 0.000000
0.662745 0.690196 0.000000
0.847059 0.717647 0.031373
0.913726 0.721569 0.054902
0.933333 0.729412 0.062745
0.945098 0.741176 0.050980
0.000000 0.541176 0.262745
0.050980 0.568627 0.250980
0.000000 0.588235 0.137255
0.341176 0.670588 0.000000
0.686275 0.772549 0.011765
0.878431 0.811765 0.070588
0.941177 0.815686 0.086275
0.960784 0.819608 0.090196
0.968628 0.823529 0.094118
0.031373 0.560784 0.274510
0.000000 0.584314 0.239216
0.000000 0.615686 0.070588
0.372549 0.701961 0.000000
0.698039 0.796079 0.000000
0.886275 0.839216 0.074510
0.949020 0.843137 0.094118
0.972549 0.843137 0.094118
0.980392 0.847059 0.098039
0.000000 0.607843 0.274510
0.000000 0.631373 0.180392
0.133333 0.662745 0.000000
0.474510 0.737255 0.000000
0.729412 0.811765 0.000000
0.894118 0.847059 0.074510
0.956863 0.850980 0.094118
0.984314 0.854902 0.105882
0.992157 0.854902 0.101961
0.000000 0.003922 0.031373
0.027451 0.019608 0.031373
0.070588 0.031373 0.035294
0.172549 0.054902 0.035294
0.341176 0.047059 0.000000
0.513726 0.039216 0.000000
0.603922 0.082353 0.000000
0.643137 0.101961 0.000000
0.670588 0.054902 0.000000
0.000000 0.035294 0.039216
0.031373 0.039216 0.039216
0.082353 0.050980 0.043137
0.200000 0.074510 0.039216
0.392157 0.074510 0.000000
0.572549 0.094118 0.000000
0.654902 0.101961 0.000000
0.686275 0.117647 0.000000
0.705882 0.121569 0.000000
0.000000 0.074510 0.054902
0.000000 0.078431 0.054902
0.094118 0.098039 0.058824
0.227451 0.121569 0.047059
0.450980 0.141176 0.000000
0.635294 0.156863 0.000000
0.713726 0.188235 0.000000
0.741176 0.200000 0.000000
0.764706 0.203922 0.000000
0.000000 0.172549 0.094118
0.000000 0.172549 0.086275
0.074510 0.188235 0.070588
0.266667 0.231373 0.027451
0.521569 0.270588 0.000000
0.709804 0.305882 0.000000
0.780392 0.313726 0.000000
0.807843 0.329412 0.000000
0.823529 0.360784 0.000000
0.000000 0.352941 0.188235
0.000000 0.360784 0.172549
0.000000 0.356863 0.090196
0.286275 0.411765 0.000000
0.600000 0.490196 0.000000
0.792157 0.529412 0.000000
0.854902 0.533333 0.047059
0.878431 0.545098 0.000000
0.901961 0.576471 0.000000
0.000000 0.498039 0.258824
0.000000 0.517647 0.250980
0.000000 0.529412 0.160784
0.298039 0.596078 0.000000
0.666667 0.698039 0.000000
0.858824 0.729412 0.039216
0.925490 0.733333 0.054902
0.949020 0.741176 0.062745
0.956863 0.756863 0.078431
0.003922 0.552941 0.286275
0.003922 0.580392 0.274510
0.019608 0.603922 0.207843
0.309804 0.674510 0.000000
0.690196 0.780392 0.000000
0.886275 0.819608 0.074510
0.952941 0.823529 0.090196
0.972549 0.823529 0.098039
0.980392 0.831373 0.098039
0.043137 0.576471 0.305882
0.000000 0.607843 0.282353
0.000000 0.627451 0.176471
0.329412 0.698039 0.000000
0.694118 0.800000 0.000000
0.894118 0.843137 0.074510
0.960784 0.847059 0.098039
0.984314 0.850980 0.101961
0.992157 0.850980 0.105882
0.050980 0.623529 0.356863
0.000000 0.658824 0.309804
0.000000 0.674510 0.160784
0.407843 0.745098 0.000000
0.709804 0.815686 0.000000
0.905882 0.854902 0.003922
0.988235 0.866667 0.003922
1.000000 0.866667 0.121569
1.000000 0.870588 0.192157
0.000000 0.011765 0.074510
0.027451 0.015686 0.074510
0.070588 0.035294 0.082353
0.168627 0.054902 0.086275
0.345098 0.043137 0.078431
0.517647 0.000000 0.054902
0.615686 0.000000 0.043137
0.654902 0.000000 0.050980
0.674510 0.000000 0.054902
0.000000 0.039216 0.086275
0.027451 0.043137 0.086275
0.086275 0.058824 0.094118
0.196078 0.074510 0.094118
0.396078 0.066667 0.086275
0.576471 0.000000 0.050980
0.666667 0.000000 0.023529
0.705882 0.000000 0.019608
0.725490 0.000000 0.035294
0.000000 0.086275 0.105882
0.000000 0.090196 0.105882
0.090196 0.101961 0.109804
0.231373 0.129412 0.113725
0.454902 0.141176 0.094118
0.643137 0.109804 0.047059
0.729412 0.043137 0.000000
0.764706 0.054902 0.000000
0.784314 0.101961 0.015686
0.000000 0.192157 0.156863
0.000000 0.192157 0.149020
0.019608 0.196078 0.133333
0.258824 0.235294 0.125490
0.521569 0.274510 0.094118
0.721569 0.274510 0.000000
0.811765 0.274510 0.000000
0.843137 0.286275 0.000000
0.862745 0.317647 0.000000
0.000000 0.388235 0.262745
0.000000 0.392157 0.250980
0.000000 0.380392 0.180392
0.266667 0.423529 0.113725
0.596078 0.490196 0.000000
0.811765 0.513726 0.000000
0.894118 0.521569 0.000000
0.921569 0.537255 0.000000
0.941177 0.568627 0.000000
0.043137 0.517647 0.321569
0.050980 0.537255 0.317647
0.000000 0.564706 0.270588
0.235294 0.600000 0.000000
0.647059 0.694118 0.000000
0.874510 0.737255 0.000000
0.952941 0.741176 0.000000
0.976471 0.749020 0.000000
0.988235 0.764706 0.000000
0.000000 0.568627 0.349020
0.000000 0.596078 0.345098
0.047059 0.635294 0.305882
0.207843 0.674510 0.000000
0.662745 0.776471 0.000000
0.894118 0.827451 0.000000
0.976471 0.835294 0.003922
1.000000 0.839216 0.003922
1.000000 0.843137 0.043137
0.000000 0.600000 0.388235
0.000000 0.623529 0.376471
0.070588 0.662745 0.345098
0.223529 0.709804 0.152941
0.658824 0.803922 0.000000
0.901961 0.854902 0.000000
1.000000 0.870588 0.003922
1.000000 0.870588 0.113725
1.000000 0.866667 0.243137
0.000000 0.658824 0.482353
0.054902 0.694118 0.462745
0.000000 0.709804 0.392157
0.345098 0.768628 0.333333
0.678431 0.839216 0.309804
0.894118 0.878431 0.282353
1.000000 0.898039 0.262745
1.000000 0.894118 0.341176
1.000000 0.894118 0.376471
0.000000 0.000000 0.164706
0.027451 0.000000 0.168627
0.074510 0.015686 0.180392
0.168627 0.039216 0.196078
0.349020 0.000000 0.203922
0.529412 0.000000 0.207843
0.623529 0.000000 0.211765
0.662745 0.000000 0.219608
0.686275 0.000000 0.231373
0.000000 0.062745 0.192157
0.000000 0.043137 0.188235
0.078431 0.054902 0.200000
0.200000 0.074510 0.215686
0.403922 0.054902 0.223529
0.588235 0.000000 0.223529
0.674510 0.000000 0.227451
0.713726 0.000000 0.235294
0.733333 0.000000 0.247059
0.000000 0.129412 0.231373
0.000000 0.113725 0.227451
0.062745 0.113725 0.231373
0.227451 0.141176 0.247059
0.458824 0.149020 0.254902
0.650980 0.117647 0.254902
0.741176 0.074510 0.250980
0.772549 0.074510 0.254902
0.796079 0.121569 0.274510
0.000000 0.258824 0.309804
0.000000 0.250980 0.301961
0.000000 0.223529 0.274510
0.247059 0.254902 0.286275
0.521569 0.286275 0.290196
0.725490 0.290196 0.286275
0.811765 0.286275 0.282353
0.847059 0.298039 0.286275
0.866667 0.337255 0.301961
0.000000 0.439216 0.403922
0.000000 0.450980 0.407843
0.000000 0.447059 0.376471
0.223529 0.454902 0.317647
0.584314 0.513726 0.313726
0.811765 0.537255 0.305882
0.901961 0.537255 0.298039
0.937255 0.552941 0.301961
0.952941 0.588235 0.317647
0.015686 0.564706 0.454902
0.035294 0.584314 0.458824
0.015686 0.611765 0.443137
0.078431 0.631373 0.333333
0.619608 0.717647 0.321569
0.870588 0.756863 0.298039
0.972549 0.764706 0.286275
1.000000 0.776471 0.286275
1.000000 0.792157 0.309804
0.039216 0.615686 0.490196
0.000000 0.643137 0.494118
0.000000 0.674510 0.482353
0.000000 0.713726 0.368627
0.627451 0.807843 0.345098
0.890196 0.858824 0.321569
1.000000 0.870588 0.301961
1.000000 0.874510 0.333333
1.000000 0.874510 0.380392
0.000000 0.643137 0.537255
0.000000 0.674510 0.541176
0.000000 0.705882 0.529412
0.000000 0.745098 0.435294
0.623529 0.839216 0.419608
0.886275 0.890196 0.403922
1.000000 0.905882 0.388235
1.000000 0.905882 0.415686
1.000000 0.901961 0.443137
0.000000 0.698039 0.615686
0.000000 0.733333 0.607843
0.000000 0.756863 0.588235
0.250980 0.800000 0.533333
0.654902 0.870588 0.533333
0.878431 0.909804 0.525490
0.988235 0.929412 0.525490
1.000000 0.929412 0.529412
1.000000 0.925490 0.549020
0.000000 0.117647 0.321569
0.000000 0.003922 0.305882
0.082353 0.000000 0.321569
0.180392 0.000000 0.341176
0.364706 0.000000 0.360784
0.541176 0.000000 0.376471
0.635294 0.000000 0.380392
0.678431 0.000000 0.392157
0.698039 0.000000 0.400000
0.000000 0.188235 0.368627
0.000000 0.137255 0.356863
0.078431 0.000000 0.349020
0.203922 0.019608 0.376471
0.415686 0.000000 0.392157
0.600000 0.000000 0.403922
0.686275 0.000000 0.407843
0.721569 0.000000 0.415686
0.741176 0.000000 0.427451
0.000000 0.239216 0.415686
0.000000 0.231373 0.423529
0.000000 0.117647 0.392157
0.223529 0.137255 0.423529
0.462745 0.145098 0.443137
0.658824 0.113725 0.447059
0.745098 0.058824 0.450980
0.780392 0.070588 0.454902
0.800000 0.121569 0.474510
0.000000 0.345098 0.486275
0.000000 0.333333 0.490196
0.000000 0.309804 0.478431
0.215686 0.278431 0.478431
0.521569 0.309804 0.498039
0.725490 0.309804 0.501961
0.815686 0.301961 0.501961
0.850980 0.321569 0.513726
0.870588 0.360784 0.529412
0.000000 0.486275 0.560784
0.000000 0.498039 0.568627
0.000000 0.517647 0.580392
0.070588 0.486275 0.533333
0.568627 0.549020 0.552941
0.803922 0.568627 0.556863
0.898039 0.568627 0.556863
0.933333 0.584314 0.560784
0.949020 0.619608 0.576471
0.000000 0.619608 0.627451
0.000000 0.643137 0.635294
0.000000 0.670588 0.639216
0.000000 0.682353 0.584314
0.584314 0.756863 0.584314
0.850980 0.796079 0.584314
0.956863 0.807843 0.584314
0.992157 0.815686 0.584314
1.000000 0.835294 0.600000
0.000000 0.670588 0.654902
0.000000 0.694118 0.662745
0.000000 0.729412 0.666667
0.000000 0.764706 0.623529
0.584314 0.850980 0.615686
0.866667 0.898039 0.615686
0.980392 0.909804 0.607843
1.000000 0.917647 0.611765
1.000000 0.921569 0.623529
0.000000 0.690196 0.690196
0.000000 0.725490 0.701961
0.000000 0.756863 0.705882
0.000000 0.792157 0.666667
0.580392 0.878431 0.662745
0.862745 0.929412 0.662745
0.980392 0.945098 0.658824
1.000000 0.949020 0.658824
1.000000 0.949020 0.670588
0.000000 0.741176 0.741176
0.000000 0.772549 0.749020
0.000000 0.796079 0.745098
0.000000 0.831373 0.717647
0.619608 0.901961 0.733333
0.854902 0.945098 0.729412
0.968628 0.960784 0.733333
1.000000 0.968628 0.729412
1.000000 0.964706 0.737255
0.000000 0.219608 0.454902
0.031373 0.223529 0.462745
0.086275 0.003922 0.447059
0.188235 0.000000 0.474510
0.376471 0.000000 0.498039
0.556863 0.000000 0.517647
0.647059 0.000000 0.521569
0.690196 0.000000 0.529412
0.713726 0.000000 0.541176
0.000000 0.247059 0.482353
0.000000 0.239216 0.490196
0.074510 0.003922 0.482353
0.203922 0.000000 0.509804
0.427451 0.000000 0.541176
0.611765 0.000000 0.552941
0.698039 0.000000 0.560784
0.733333 0.000000 0.568627
0.752941 0.000000 0.580392
0.000000 0.298039 0.537255
0.000000 0.290196 0.541176
0.031373 0.262745 0.549020
0.219608 0.125490 0.572549
0.470588 0.133333 0.603922
0.662745 0.082353 0.611765
0.752941 0.000000 0.615686
0.788235 0.000000 0.623529
0.807843 0.109804 0.643137
0.000000 0.380392 0.592157
0.000000 0.384314 0.600000
0.000000 0.364706 0.615686
0.180392 0.290196 0.639216
0.513726 0.317647 0.670588
0.729412 0.325490 0.686275
0.819608 0.313726 0.686275
0.850980 0.329412 0.694118
0.874510 0.372549 0.713726
0.000000 0.517647 0.666667
0.000000 0.529412 0.678431
0.058824 0.545098 0.698039
0.000000 0.517647 0.717647
0.549020 0.568627 0.745098
0.792157 0.588235 0.756863
0.894118 0.592157 0.756863
0.929412 0.607843 0.760784
0.945098 0.647059 0.772549
0.031373 0.639216 0.729412
0.000000 0.658824 0.741176
0.019608 0.694118 0.764706
0.000000 0.725490 0.776471
0.545098 0.784314 0.788235
0.831373 0.823529 0.796079
0.945098 0.835294 0.796079
0.980392 0.843137 0.803922
0.992157 0.858824 0.807843
0.000000 0.690196 0.756863
0.047059 0.717647 0.772549
0.000000 0.752941 0.792157
0.000000 0.803922 0.807843
0.541176 0.878431 0.815686
0.839216 0.925490 0.819608
0.960784 0.941177 0.823529
1.000000 0.945098 0.819608
1.000000 0.952941 0.831373
0.000000 0.705882 0.776471
0.000000 0.741176 0.796079
0.000000 0.776471 0.815686
0.000000 0.827451 0.831373
0.541176 0.905882 0.843137
0.839216 0.952941 0.854902
0.960784 0.972549 0.854902
1.000000 0.980392 0.854902
1.000000 0.980392 0.854902
0.000000 0.745098 0.811765
0.000000 0.780392 0.831373
0.000000 0.811765 0.847059
0.000000 0.854902 0.858824
0.588235 0.921569 0.878431
0.835294 0.960784 0.886275
0.952941 0.980392 0.886275
0.996078 0.988235 0.890196
1.000000 0.988235 0.890196
0.000000 0.247059 0.513726
0.019608 0.250980 0.521569
0.066667 0.007843 0.513726
0.196078 0.000000 0.549020
0.380392 0.000000 0.580392
0.564706 0.000000 0.603922
0.662745 0.000000 0.611765
0.698039 0.000000 0.611765
0.717647 0.000000 0.623529
0.000000 0.278431 0.545098
0.000000 0.278431 0.552941
0.062745 0.007843 0.560784
0.215686 0.000000 0.600000
0.431373 0.000000 0.631373
0.619608 0.000000 0.650980
0.709804 0.000000 0.654902
0.745098 0.000000 0.658824
0.764706 0.000000 0.674510
0.000000 0.329412 0.600000
0.000000 0.325490 0.607843
0.000000 0.294118 0.611765
0.215686 0.113725 0.662745
0.470588 0.113725 0.694118
0.670588 0.050980 0.713726
0.756863 0.000000 0.713726
0.792157 0.000000 0.721569
0.815686 0.098039 0.741176
0.000000 0.403922 0.647059
0.000000 0.400000 0.658824
0.000000 0.400000 0.682353
0.156863 0.298039 0.733333
0.505882 0.321569 0.772549
0.725490 0.325490 0.788235
0.819608 0.321569 0.792157
0.854902 0.337255 0.800000
0.874510 0.376471 0.815686
0.000000 0.533333 0.725490
0.000000 0.541176 0.737255
0.000000 0.556863 0.760784
0.000000 0.525490 0.807843
0.533333 0.576471 0.850980
0.784314 0.600000 0.866667
0.890196 0.600000 0.866667
0.925490 0.611765 0.874510
0.941177 0.650980 0.886275
0.047059 0.650980 0.780392
0.000000 0.662745 0.792157
0.000000 0.694118 0.819608
0.000000 0.733333 0.854902
0.521569 0.796079 0.898039
0.819608 0.835294 0.913726
0.933333 0.843137 0.917647
0.972549 0.850980 0.917647
0.984314 0.870588 0.925490
0.000000 0.694118 0.803922
0.003922 0.721569 0.819608
0.000000 0.756863 0.843137
0.039216 0.811765 0.882353
0.501961 0.886275 0.917647
0.823529 0.937255 0.933333
0.949020 0.952941 0.937255
0.992157 0.956863 0.937255
1.000000 0.964706 0.941177
0.000000 0.709804 0.811765
0.000000 0.745098 0.835294
0.000000 0.776471 0.858824
0.000000 0.831373 0.894118
0.505882 0.913726 0.933333
0.823529 0.964706 0.949020
0.949020 0.980392 0.952941
0.992157 0.988235 0.952941
1.000000 0.992157 0.952941
0.000000 0.749020 0.843137
0.000000 0.784314 0.866667
0.000000 0.811765 0.886275
0.000000 0.858824 0.917647
0.560784 0.929412 0.945098
0.823529 0.968628 0.956863
0.945098 0.988235 0.960784
0.992157 0.996078 0.964706
1.000000 0.996078 0.964706
0.000000 0.258824 0.537255
0.000000 0.262745 0.545098
0.070588 0.007843 0.545098
0.200000 0.000000 0.580392
0.392157 0.000000 0.615686
0.576471 0.000000 0.639216
0.670588 0.000000 0.647059
0.709804 0.000000 0.654902
0.729412 0.000000 0.658824
0.000000 0.290196 0.568627
0.000000 0.294118 0.580392
0.000000 0.250980 0.600000
0.215686 0.000000 0.635294
0.439216 0.000000 0.674510
0.627451 0.000000 0.694118
0.717647 0.000000 0.698039
0.756863 0.000000 0.709804
0.772549 0.000000 0.717647
0.000000 0.345098 0.623529
0.000000 0.349020 0.635294
0.000000 0.309804 0.639216
0.207843 0.125490 0.698039
0.470588 0.121569 0.737255
0.670588 0.070588 0.756863
0.764706 0.000000 0.760784
0.800000 0.000000 0.768628
0.819608 0.121569 0.784314
0.000000 0.415686 0.670588
0.000000 0.415686 0.682353
0.000000 0.403922 0.705882
0.141176 0.305882 0.772549
0.505882 0.329412 0.811765
0.725490 0.337255 0.831373
0.819608 0.325490 0.835294
0.858824 0.341176 0.843137
0.878431 0.384314 0.858824
0.000000 0.537255 0.745098
0.000000 0.549020 0.756863
0.000000 0.560784 0.780392
0.000000 0.533333 0.835294
0.525490 0.580392 0.890196
0.776471 0.600000 0.905882
0.886275 0.603922 0.913726
0.921569 0.611765 0.917647
0.941177 0.650980 0.925490
0.027451 0.654902 0.800000
0.000000 0.666667 0.815686
0.000000 0.698039 0.839216
0.000000 0.733333 0.878431
0.505882 0.796079 0.937255
0.811765 0.831373 0.956863
0.929412 0.843137 0.960784
0.968628 0.850980 0.964706
0.984314 0.870588 0.968628
0.000000 0.694118 0.815686
0.035294 0.721569 0.835294
0.000000 0.756863 0.862745
0.000000 0.807843 0.901961
0.486275 0.890196 0.956863
0.815686 0.937255 0.972549
0.945098 0.956863 0.980392
0.984314 0.960784 0.980392
1.000000 0.968628 0.984314
0.043137 0.713726 0.827451
0.000000 0.745098 0.847059
0.058824 0.780392 0.874510
0.000000 0.831373 0.913726
0.494118 0.917647 0.964706
0.815686 0.964706 0.980392
0.945098 0.984314 0.988235
0.988235 0.992157 0.988235
1.000000 0.996078 0.988235
0.050980 0.749020 0.850980
0.000000 0.784314 0.878431
0.070588 0.811765 0.898039
0.000000 0.862745 0.937255
0.549020 0.929412 0.968628
0.815686 0.972549 0.984314
0.937255 0.992157 0.988235
0.988235 0.996078 0.992157
1.000000 1.000000 0.992157
0.000000 0.286275 0.564706
0.000000 0.278431 0.572549
0.074510 0.011765 0.588235
0.211765 0.000000 0.627451
0.423529 0.000000 0.662745
0.607843 0.000000 0.682353
0.701961 0.000000 0.686275
0.741176 0.000000 0.698039
0.764706 0.000000 0.709804
0.000000 0.329412 0.615686
0.000000 0.329412 0.623529
0.000000 0.278431 0.631373
0.211765 0.000000 0.682353
0.454902 0.000000 0.721569
0.647059 0.000000 0.741176
0.745098 0.000000 0.749020
0.780392 0.000000 0.752941
0.803922 0.000000 0.772549
0.000000 0.368627 0.647059
0.000000 0.364706 0.658824
0.000000 0.337255 0.666667
0.196078 0.188235 0.733333
0.482353 0.203922 0.776471
0.686275 0.184314 0.792157
0.780392 0.156863 0.800000
0.819608 0.168627 0.807843
0.839216 0.219608 0.819608
0.000000 0.435294 0.686275
0.000000 0.435294 0.698039
0.000000 0.427451 0.725490
0.094118 0.341176 0.792157
0.505882 0.372549 0.839216
0.729412 0.376471 0.854902
0.831373 0.372549 0.862745
0.866667 0.384314 0.866667
0.890196 0.435294 0.886275
0.000000 0.552941 0.756863
0.000000 0.560784 0.768628
0.000000 0.572549 0.792157
0.000000 0.556863 0.850980
0.517647 0.600000 0.905882
0.776471 0.619608 0.925490
0.886275 0.619608 0.929412
0.925490 0.631373 0.933333
0.941177 0.666667 0.941177
0.000000 0.639216 0.788235
0.000000 0.674510 0.823529
0.000000 0.701961 0.843137
0.043137 0.737255 0.886275
0.494118 0.796079 0.949020
0.803922 0.835294 0.968628
0.925490 0.847059 0.976471
0.968628 0.850980 0.976471
0.980392 0.870588 0.980392
0.000000 0.698039 0.823529
0.000000 0.725490 0.843137
0.000000 0.756863 0.866667
0.062745 0.811765 0.909804
0.474510 0.890196 0.968628
0.807843 0.937255 0.984314
0.941177 0.952941 0.992157
0.984314 0.960784 0.996078
0.996078 0.964706 0.996078
0.000000 0.713726 0.831373
0.000000 0.745098 0.854902
0.000000 0.780392 0.878431
0.062745 0.831373 0.917647
0.478431 0.913726 0.972549
0.807843 0.964706 0.992157
0.941177 0.984314 0.996078
0.988235 0.992157 1.000000
1.000000 0.996078 1.000000
0.000000 0.749020 0.854902
0.000000 0.784314 0.878431
0.015686 0.811765 0.901961
0.000000 0.858824 0.945098
0.529412 0.925490 0.976471
0.807843 0.972549 0.992157
0.937255 0.992157 1.000000
0.984314 1.000000 1.000000
1.000000 1.000000 1.000000
