All_In_One/Enrich_Colormaster/colormanagement/luts/film_response/Kodak2393_CUSPclip.cube
TITLE "Generate by Resolve"
LUT_3D_SIZE 5
0.003922 0.007843 0.003922
0.062745 0.023529 0.000000
0.321569 0.047059 0.000000
0.552941 0.105882 0.000000
0.603922 0.129412 0.015686
0.000000 0.062745 0.027451
0.078431 0.082353 0.000000
0.443137 0.160784 0.000000
0.666667 0.211765 0.000000
0.709804 0.239216 0.000000
0.000000 0.290196 0.133333
0.000000 0.321569 0.000000
0.600000 0.494118 0.000000
0.819608 0.517647 0.000000
0.866667 0.564706 0.023529
0.000000 0.478431 0.235294
0.000000 0.549020 0.050980
0.694118 0.752941 0.019608
0.933333 0.792157 0.082353
0.956863 0.796079 0.078431
0.000000 0.568627 0.254902
0.207843 0.639216 0.000000
0.733333 0.792157 0.019608
0.949020 0.827451 0.094118
0.980392 0.831373 0.098039
0.000000 0.023529 0.066667
0.062745 0.027451 0.074510
0.317647 0.000000 0.054902
0.568627 0.000000 0.058824
0.627451 0.000000 0.078431
0.000000 0.082353 0.098039
0.062745 0.094118 0.094118
0.435294 0.121569 0.078431
0.698039 0.003922 0.000000
0.752941 0.078431 0.000000
0.000000 0.364706 0.258824
0.000000 0.376471 0.180392
0.584314 0.482353 0.000000
0.870588 0.517647 0.000000
0.921569 0.560784 0.000000
0.043137 0.529412 0.352941
0.000000 0.607843 0.298039
0.654902 0.756863 0.000000
0.968628 0.815686 0.003922
1.000000 0.827451 0.003922
0.000000 0.643137 0.498039
0.000000 0.698039 0.403922
0.670588 0.823529 0.345098
0.992157 0.882353 0.305882
1.000000 0.886275 0.368627
0.000000 0.152941 0.301961
0.058824 0.000000 0.282353
0.349020 0.000000 0.337255
0.596078 0.000000 0.360784
0.654902 0.000000 0.384314
0.000000 0.247059 0.407843
0.000000 0.184314 0.407843
0.447059 0.133333 0.439216
0.713726 0.000000 0.450980
0.768628 0.113725 0.478431
0.035294 0.478431 0.556863
0.035294 0.521569 0.588235
0.552941 0.545098 0.556863
0.882353 0.572549 0.560784
0.933333 0.619608 0.580392
0.000000 0.635294 0.647059
0.000000 0.717647 0.670588
0.576471 0.835294 0.619608
0.968628 0.898039 0.619608
1.000000 0.909804 0.635294
0.000000 0.717647 0.737255
0.000000 0.788235 0.745098
0.607843 0.886275 0.733333
0.964706 0.949020 0.737255
1.000000 0.956863 0.741176
0.000000 0.227451 0.447059
0.050980 0.007843 0.454902
0.368627 0.000000 0.529412
0.627451 0.000000 0.560784
0.682353 0.000000 0.580392
0.000000 0.333333 0.568627
0.000000 0.301961 0.596078
0.450980 0.105882 0.678431
0.729412 0.000000 0.698039
0.788235 0.101961 0.729412
0.000000 0.529412 0.701961
0.000000 0.568627 0.752941
0.521569 0.580392 0.839216
0.878431 0.603922 0.858824
0.933333 0.658824 0.874510
0.050980 0.674510 0.780392
0.058824 0.752941 0.835294
0.501961 0.882353 0.909804
0.949020 0.949020 0.929412
1.000000 0.960784 0.933333
0.000000 0.737255 0.831373
0.000000 0.811765 0.882353
0.556863 0.921569 0.937255
0.945098 0.984314 0.956863
1.000000 0.996078 0.960784
0.000000 0.278431 0.529412
0.000000 0.239216 0.552941
0.400000 0.000000 0.623529
0.666667 0.000000 0.654902
0.721569 0.000000 0.682353
0.000000 0.364706 0.615686
0.000000 0.352941 0.658824
0.462745 0.188235 0.756863
0.756863 0.145098 0.784314
0.811765 0.207843 0.807843
0.000000 0.545098 0.733333
0.000000 0.580392 0.784314
0.509804 0.603922 0.898039
0.874510 0.623529 0.925490
0.933333 0.674510 0.937255
0.000000 0.678431 0.800000
0.043137 0.756863 0.862745
0.466667 0.890196 0.964706
0.941177 0.956863 0.988235
0.996078 0.968628 0.992157
0.000000 0.741176 0.843137
0.000000 0.811765 0.898039
0.521569 0.925490 0.972549
0.933333 0.992157 0.996078
1.000000 1.000000 1.000000
