All_In_One/Enrich_Colormaster/colormanagement/luts/film_response/Kodak2393_ConstLmap.cube
TITLE "Generate by Resolve"
LUT_3D_SIZE 33
0.000000 0.011765 0.011765
0.000000 0.011765 0.015686
0.000000 0.015686 0.015686
0.003922 0.015686 0.015686
0.007843 0.015686 0.019608
0.015686 0.019608 0.019608
0.027451 0.023529 0.019608
0.039216 0.027451 0.023529
0.050980 0.031373 0.023529
0.062745 0.035294 0.023529
0.078431 0.043137 0.023529
0.101961 0.047059 0.023529
0.125490 0.054902 0.019608
0.156863 0.058824 0.015686
0.188235 0.066667 0.011765
0.223529 0.070588 0.003922
0.262745 0.078431 0.000000
0.298039 0.082353 0.000000
0.333333 0.086275 0.000000
0.360784 0.094118 0.007843
0.388235 0.098039 0.015686
0.415686 0.098039 0.007843
0.439216 0.098039 0.000000
0.454902 0.101961 0.000000
0.466667 0.101961 0.000000
0.474510 0.105882 0.007843
0.482353 0.105882 0.011765
0.490196 0.105882 0.015686
0.498039 0.109804 0.015686
0.505882 0.109804 0.015686
0.509804 0.109804 0.015686
0.517647 0.113725 0.015686
0.521569 0.113725 0.011765
0.000000 0.011765 0.015686
0.003922 0.015686 0.015686
0.003922 0.015686 0.015686
0.007843 0.019608 0.019608
0.011765 0.019608 0.019608
0.019608 0.023529 0.019608
0.031373 0.023529 0.023529
0.043137 0.031373 0.023529
0.050980 0.035294 0.023529
0.066667 0.039216 0.023529
0.082353 0.043137 0.023529
0.105882 0.050980 0.023529
0.129412 0.054902 0.019608
0.164706 0.062745 0.011765
0.196078 0.066667 0.007843
0.235294 0.074510 0.011765
0.270588 0.082353 0.003922
0.309804 0.090196 0.003922
0.345098 0.094118 0.003922
0.376471 0.098039 0.000000
0.403922 0.101961 0.007843
0.423529 0.105882 0.019608
0.447059 0.105882 0.007843
0.462745 0.105882 0.000000
0.478431 0.105882 0.000000
0.490196 0.109804 0.000000
0.498039 0.109804 0.007843
0.501961 0.109804 0.007843
0.509804 0.113725 0.007843
0.517647 0.113725 0.007843
0.521569 0.113725 0.007843
0.525490 0.117647 0.007843
0.533333 0.117647 0.007843
0.000000 0.015686 0.019608
0.003922 0.019608 0.019608
0.011765 0.019608 0.019608
0.015686 0.019608 0.019608
0.019608 0.023529 0.019608
0.027451 0.023529 0.023529
0.035294 0.027451 0.023529
0.047059 0.031373 0.023529
0.054902 0.035294 0.027451
0.070588 0.043137 0.027451
0.086275 0.047059 0.023529
0.109804 0.054902 0.023529
0.137255 0.058824 0.019608
0.172549 0.066667 0.011765
0.203922 0.070588 0.000000
0.243137 0.078431 0.003922
0.282353 0.086275 0.011765
0.321569 0.094118 0.011765
0.356863 0.098039 0.011765
0.388235 0.101961 0.003922
0.419608 0.105882 0.000000
0.439216 0.109804 0.011765
0.458824 0.113725 0.019608
0.474510 0.109804 0.007843
0.490196 0.109804 0.000000
0.501961 0.113725 0.000000
0.509804 0.113725 0.000000
0.517647 0.113725 0.000000
0.525490 0.117647 0.000000
0.529412 0.117647 0.000000
0.537255 0.117647 0.000000
0.541176 0.121569 0.000000
0.545098 0.121569 0.000000
0.007843 0.019608 0.019608
0.007843 0.023529 0.019608
0.015686 0.023529 0.019608
0.019608 0.023529 0.019608
0.023529 0.027451 0.023529
0.031373 0.031373 0.023529
0.039216 0.031373 0.023529
0.050980 0.035294 0.027451
0.058824 0.043137 0.027451
0.078431 0.047059 0.027451
0.094118 0.050980 0.023529
0.117647 0.058824 0.019608
0.145098 0.062745 0.019608
0.180392 0.070588 0.015686
0.215686 0.078431 0.003922
0.254902 0.086275 0.003922
0.294118 0.094118 0.011765
0.333333 0.101961 0.015686
0.372549 0.105882 0.015686
0.403922 0.113725 0.007843
0.435294 0.113725 0.000000
0.454902 0.121569 0.011765
0.474510 0.121569 0.023529
0.490196 0.121569 0.011765
0.505882 0.121569 0.000000
0.513726 0.121569 0.000000
0.525490 0.121569 0.000000
0.533333 0.125490 0.000000
0.537255 0.125490 0.000000
0.545098 0.129412 0.000000
0.549020 0.129412 0.000000
0.556863 0.129412 0.000000
0.560784 0.133333 0.000000
0.015686 0.027451 0.023529
0.015686 0.027451 0.023529
0.019608 0.027451 0.023529
0.023529 0.031373 0.023529
0.023529 0.031373 0.023529
0.031373 0.035294 0.023529
0.039216 0.035294 0.027451
0.054902 0.043137 0.027451
0.066667 0.047059 0.027451
0.082353 0.050980 0.027451
0.098039 0.054902 0.023529
0.125490 0.062745 0.019608
0.152941 0.066667 0.015686
0.188235 0.074510 0.011765
0.223529 0.082353 0.011765
0.266667 0.090196 0.011765
0.305882 0.101961 0.011765
0.345098 0.109804 0.015686
0.384314 0.113725 0.019608
0.415686 0.121569 0.007843
0.450980 0.125490 0.000000
0.470588 0.129412 0.011765
0.490196 0.133333 0.027451
0.505882 0.133333 0.011765
0.517647 0.129412 0.000000
0.529412 0.133333 0.000000
0.537255 0.133333 0.000000
0.545098 0.137255 0.000000
0.552941 0.137255 0.000000
0.560784 0.141176 0.000000
0.564706 0.141176 0.000000
0.568627 0.141176 0.000000
0.576471 0.145098 0.000000
0.019608 0.031373 0.027451
0.019608 0.031373 0.027451
0.023529 0.035294 0.027451
0.023529 0.035294 0.027451
0.027451 0.039216 0.027451
0.035294 0.039216 0.027451
0.043137 0.043137 0.027451
0.058824 0.047059 0.027451
0.070588 0.050980 0.027451
0.086275 0.058824 0.023529
0.105882 0.062745 0.023529
0.133333 0.070588 0.011765
0.160784 0.074510 0.007843
0.200000 0.086275 0.015686
0.239216 0.094118 0.011765
0.282353 0.101961 0.003922
0.321569 0.109804 0.007843
0.364706 0.117647 0.007843
0.400000 0.125490 0.007843
0.431373 0.129412 0.007843
0.466667 0.133333 0.000000
0.486275 0.141176 0.011765
0.505882 0.145098 0.023529
0.521569 0.145098 0.011765
0.537255 0.141176 0.000000
0.545098 0.145098 0.000000
0.552941 0.145098 0.000000
0.556863 0.152941 0.015686
0.564706 0.152941 0.015686
0.572549 0.156863 0.007843
0.580392 0.156863 0.007843
0.584314 0.160784 0.000000
0.588235 0.160784 0.000000
0.023529 0.039216 0.031373
0.023529 0.039216 0.031373
0.023529 0.039216 0.031373
0.027451 0.043137 0.031373
0.027451 0.043137 0.031373
0.035294 0.047059 0.027451
0.047059 0.050980 0.027451
0.058824 0.054902 0.027451
0.074510 0.058824 0.027451
0.090196 0.066667 0.023529
0.109804 0.070588 0.019608
0.141176 0.078431 0.011765
0.172549 0.082353 0.000000
0.211765 0.094118 0.007843
0.250980 0.101961 0.011765
0.294118 0.113725 0.007843
0.337255 0.121569 0.000000
0.380392 0.129412 0.000000
0.419608 0.137255 0.000000
0.450980 0.141176 0.000000
0.482353 0.145098 0.000000
0.501961 0.149020 0.007843
0.521569 0.156863 0.019608
0.537255 0.152941 0.011765
0.552941 0.152941 0.000000
0.560784 0.156863 0.000000
0.568627 0.156863 0.000000
0.572549 0.164706 0.015686
0.580392 0.168627 0.031373
0.588235 0.172549 0.027451
0.596078 0.176471 0.019608
0.600000 0.176471 0.007843
0.603922 0.180392 0.000000
0.027451 0.047059 0.035294
0.027451 0.047059 0.035294
0.027451 0.047059 0.035294
0.027451 0.050980 0.035294
0.031373 0.054902 0.035294
0.035294 0.058824 0.027451
0.043137 0.062745 0.027451
0.062745 0.066667 0.027451
0.074510 0.070588 0.023529
0.098039 0.078431 0.023529
0.117647 0.082353 0.019608
0.149020 0.090196 0.011765
0.180392 0.098039 0.000000
0.227451 0.105882 0.007843
0.266667 0.117647 0.015686
0.309804 0.129412 0.015686
0.356863 0.137255 0.011765
0.396078 0.145098 0.000000
0.435294 0.152941 0.000000
0.466667 0.156863 0.011765
0.498039 0.160784 0.011765
0.517647 0.164706 0.011765
0.537255 0.168627 0.023529
0.556863 0.172549 0.011765
0.572549 0.172549 0.000000
0.580392 0.172549 0.000000
0.588235 0.176471 0.000000
0.592157 0.176471 0.000000
0.600000 0.184314 0.019608
0.603922 0.188235 0.027451
0.611765 0.192157 0.019608
0.615686 0.196078 0.011765
0.623529 0.200000 0.000000
0.027451 0.054902 0.039216
0.027451 0.054902 0.039216
0.027451 0.054902 0.039216
0.031373 0.058824 0.039216
0.031373 0.062745 0.039216
0.035294 0.066667 0.035294
0.043137 0.070588 0.027451
0.058824 0.078431 0.027451
0.078431 0.082353 0.023529
0.098039 0.086275 0.019608
0.121569 0.094118 0.015686
0.156863 0.101961 0.007843
0.192157 0.109804 0.000000
0.235294 0.121569 0.007843
0.282353 0.133333 0.015686
0.325490 0.145098 0.019608
0.372549 0.156863 0.019608
0.415686 0.164706 0.011765
0.454902 0.168627 0.000000
0.482353 0.176471 0.015686
0.509804 0.180392 0.027451
0.533333 0.184314 0.027451
0.556863 0.184314 0.023529
0.572549 0.188235 0.011765
0.588235 0.188235 0.000000
0.596078 0.192157 0.000000
0.603922 0.192157 0.000000
0.611765 0.196078 0.000000
0.619608 0.200000 0.000000
0.623529 0.203922 0.011765
0.627451 0.211765 0.019608
0.635294 0.215686 0.007843
0.639216 0.215686 0.000000
0.027451 0.062745 0.043137
0.027451 0.066667 0.043137
0.027451 0.066667 0.043137
0.027451 0.070588 0.043137
0.031373 0.074510 0.043137
0.031373 0.082353 0.035294
0.035294 0.086275 0.031373
0.058824 0.094118 0.019608
0.078431 0.098039 0.019608
0.105882 0.105882 0.015686
0.129412 0.109804 0.011765
0.168627 0.121569 0.007843
0.203922 0.129412 0.000000
0.250980 0.141176 0.003922
0.294118 0.152941 0.011765
0.345098 0.164706 0.007843
0.388235 0.176471 0.011765
0.431373 0.184314 0.023529
0.470588 0.192157 0.011765
0.505882 0.196078 0.000000
0.533333 0.203922 0.015686
0.552941 0.203922 0.019608
0.576471 0.207843 0.015686
0.592157 0.211765 0.011765
0.607843 0.211765 0.000000
0.615686 0.215686 0.015686
0.623529 0.219608 0.015686
0.627451 0.223529 0.015686
0.635294 0.223529 0.015686
0.643137 0.227451 0.000000
0.647059 0.235294 0.011765
0.650980 0.239216 0.023529
0.658824 0.243137 0.015686
0.027451 0.074510 0.050980
0.027451 0.074510 0.050980
0.027451 0.078431 0.050980
0.027451 0.082353 0.047059
0.027451 0.086275 0.047059
0.027451 0.094118 0.039216
0.027451 0.101961 0.031373
0.050980 0.105882 0.023529
0.078431 0.113725 0.015686
0.105882 0.121569 0.011765
0.133333 0.129412 0.007843
0.176471 0.141176 0.003922
0.215686 0.152941 0.000000
0.262745 0.164706 0.003922
0.309804 0.176471 0.007843
0.356863 0.184314 0.003922
0.407843 0.196078 0.000000
0.447059 0.207843 0.011765
0.490196 0.215686 0.027451
0.521569 0.219608 0.011765
0.552941 0.223529 0.000000
0.576471 0.227451 0.003922
0.596078 0.231373 0.007843
0.611765 0.231373 0.003922
0.627451 0.235294 0.000000
0.635294 0.239216 0.015686
0.639216 0.247059 0.035294
0.647059 0.247059 0.031373
0.654902 0.250980 0.031373
0.658824 0.254902 0.015686
0.666667 0.258824 0.000000
0.670588 0.262745 0.015686
0.674510 0.270588 0.031373
0.023529 0.090196 0.054902
0.015686 0.094118 0.054902
0.015686 0.094118 0.054902
0.015686 0.098039 0.054902
0.015686 0.101961 0.054902
0.019608 0.109804 0.050980
0.019608 0.117647 0.043137
0.047059 0.129412 0.019608
0.074510 0.137255 0.011765
0.109804 0.149020 0.007843
0.141176 0.156863 0.003922
0.184314 0.168627 0.003922
0.227451 0.180392 0.003922
0.278431 0.196078 0.003922
0.325490 0.203922 0.007843
0.376471 0.215686 0.015686
0.423529 0.227451 0.011765
0.470588 0.235294 0.000000
0.509804 0.247059 0.015686
0.545098 0.250980 0.019608
0.576471 0.254902 0.003922
0.600000 0.258824 0.000000
0.619608 0.262745 0.003922
0.635294 0.266667 0.015686
0.650980 0.270588 0.011765
0.658824 0.274510 0.015686
0.662745 0.278431 0.035294
0.670588 0.282353 0.031373
0.674510 0.286275 0.031373
0.682353 0.290196 0.015686
0.690196 0.294118 0.000000
0.694118 0.298039 0.000000
0.698039 0.305882 0.015686
0.015686 0.105882 0.062745
0.007843 0.105882 0.062745
0.000000 0.109804 0.062745
0.000000 0.117647 0.058824
0.000000 0.121569 0.058824
0.007843 0.129412 0.054902
0.011765 0.137255 0.050980
0.039216 0.149020 0.031373
0.070588 0.160784 0.007843
0.105882 0.172549 0.003922
0.149020 0.184314 0.000000
0.192157 0.196078 0.003922
0.239216 0.207843 0.003922
0.290196 0.223529 0.007843
0.341176 0.235294 0.007843
0.392157 0.247059 0.015686
0.443137 0.258824 0.023529
0.490196 0.270588 0.011765
0.533333 0.278431 0.000000
0.564706 0.282353 0.007843
0.596078 0.286275 0.011765
0.619608 0.290196 0.003922
0.643137 0.294118 0.000000
0.658824 0.301961 0.015686
0.670588 0.305882 0.027451
0.678431 0.309804 0.031373
0.686275 0.313726 0.035294
0.694118 0.313726 0.031373
0.698039 0.317647 0.027451
0.705882 0.321569 0.011765
0.713726 0.325490 0.000000
0.717647 0.333333 0.000000
0.725490 0.341176 0.000000
0.015686 0.125490 0.070588
0.007843 0.129412 0.070588
0.000000 0.133333 0.070588
0.003922 0.137255 0.070588
0.003922 0.145098 0.070588
0.007843 0.152941 0.066667
0.015686 0.160784 0.062745
0.027451 0.180392 0.031373
0.054902 0.192157 0.007843
0.109804 0.203922 0.003922
0.152941 0.215686 0.000000
0.203922 0.231373 0.000000
0.250980 0.247059 0.003922
0.305882 0.262745 0.003922
0.360784 0.278431 0.003922
0.415686 0.290196 0.015686
0.462745 0.301961 0.023529
0.509804 0.309804 0.011765
0.556863 0.317647 0.000000
0.588235 0.325490 0.011765
0.619608 0.329412 0.019608
0.647059 0.333333 0.007843
0.670588 0.337255 0.000000
0.682353 0.341176 0.000000
0.698039 0.345098 0.015686
0.705882 0.349020 0.027451
0.713726 0.352941 0.031373
0.717647 0.356863 0.019608
0.725490 0.360784 0.015686
0.729412 0.368627 0.011765
0.737255 0.372549 0.000000
0.745098 0.380392 0.000000
0.749020 0.388235 0.000000
0.015686 0.145098 0.078431
0.007843 0.149020 0.078431
0.000000 0.152941 0.082353
0.003922 0.160784 0.082353
0.011765 0.168627 0.082353
0.015686 0.176471 0.078431
0.019608 0.188235 0.074510
0.031373 0.203922 0.043137
0.043137 0.223529 0.007843
0.098039 0.235294 0.003922
0.156863 0.250980 0.000000
0.207843 0.266667 0.000000
0.262745 0.282353 0.000000
0.321569 0.298039 0.000000
0.376471 0.317647 0.000000
0.431373 0.329412 0.011765
0.486275 0.345098 0.019608
0.533333 0.352941 0.011765
0.580392 0.360784 0.000000
0.611765 0.368627 0.011765
0.643137 0.372549 0.027451
0.670588 0.376471 0.011765
0.694118 0.380392 0.000000
0.709804 0.384314 0.000000
0.721569 0.388235 0.000000
0.729412 0.392157 0.011765
0.737255 0.396078 0.023529
0.745098 0.400000 0.011765
0.752941 0.403922 0.000000
0.756863 0.411765 0.000000
0.760784 0.419608 0.000000
0.768628 0.427451 0.000000
0.776471 0.435294 0.000000
0.007843 0.168627 0.090196
0.007843 0.172549 0.090196
0.000000 0.180392 0.094118
0.000000 0.188235 0.094118
0.003922 0.196078 0.094118
0.003922 0.211765 0.090196
0.011765 0.223529 0.086275
0.027451 0.239216 0.070588
0.039216 0.258824 0.035294
0.101961 0.278431 0.003922
0.160784 0.290196 0.000000
0.223529 0.309804 0.000000
0.274510 0.325490 0.000000
0.337255 0.345098 0.000000
0.396078 0.360784 0.000000
0.454902 0.376471 0.000000
0.505882 0.392157 0.011765
0.556863 0.403922 0.019608
0.603922 0.411765 0.007843
0.639216 0.419608 0.000000
0.670588 0.423529 0.015686
0.694118 0.427451 0.011765
0.717647 0.431373 0.000000
0.733333 0.435294 0.000000
0.749020 0.439216 0.000000
0.756863 0.443137 0.019608
0.764706 0.443137 0.031373
0.768628 0.450980 0.019608
0.776471 0.454902 0.007843
0.780392 0.462745 0.015686
0.788235 0.466667 0.015686
0.792157 0.474510 0.011765
0.800000 0.482353 0.011765
0.000000 0.196078 0.101961
0.000000 0.200000 0.101961
0.000000 0.203922 0.105882
0.000000 0.215686 0.105882
0.000000 0.223529 0.105882
0.000000 0.239216 0.101961
0.000000 0.254902 0.098039
0.019608 0.274510 0.078431
0.039216 0.294118 0.062745
0.101961 0.313726 0.031373
0.164706 0.329412 0.000000
0.227451 0.349020 0.000000
0.290196 0.368627 0.000000
0.352941 0.388235 0.000000
0.415686 0.407843 0.000000
0.474510 0.423529 0.000000
0.529412 0.439216 0.000000
0.580392 0.450980 0.007843
0.627451 0.462745 0.015686
0.662745 0.470588 0.007843
0.698039 0.478431 0.000000
0.721569 0.478431 0.000000
0.745098 0.482353 0.000000
0.756863 0.486275 0.000000
0.772549 0.486275 0.000000
0.780392 0.490196 0.019608
0.788235 0.494118 0.039216
0.796079 0.498039 0.027451
0.800000 0.501961 0.019608
0.807843 0.509804 0.023529
0.811765 0.517647 0.031373
0.819608 0.525490 0.027451
0.823529 0.533333 0.023529
0.000000 0.219608 0.113725
0.000000 0.227451 0.113725
0.000000 0.231373 0.113725
0.000000 0.243137 0.117647
0.000000 0.254902 0.117647
0.000000 0.270588 0.113725
0.000000 0.286275 0.109804
0.000000 0.309804 0.090196
0.019608 0.329412 0.070588
0.105882 0.352941 0.031373
0.172549 0.372549 0.000000
0.239216 0.392157 0.011765
0.301961 0.411765 0.011765
0.368627 0.435294 0.003922
0.431373 0.454902 0.003922
0.490196 0.470588 0.000000
0.549020 0.486275 0.000000
0.600000 0.501961 0.003922
0.647059 0.509804 0.011765
0.686275 0.521569 0.007843
0.721569 0.529412 0.000000
0.745098 0.533333 0.007843
0.768628 0.537255 0.007843
0.784314 0.537255 0.007843
0.796079 0.541176 0.007843
0.807843 0.541176 0.000000
0.815686 0.545098 0.019608
0.819608 0.549020 0.019608
0.827451 0.556863 0.011765
0.831373 0.560784 0.027451
0.835294 0.568627 0.035294
0.843137 0.572549 0.015686
0.847059 0.584314 0.011765
0.000000 0.243137 0.121569
0.000000 0.250980 0.125490
0.000000 0.258824 0.125490
0.000000 0.270588 0.125490
0.000000 0.282353 0.125490
0.000000 0.298039 0.125490
0.000000 0.317647 0.117647
0.000000 0.337255 0.101961
0.000000 0.360784 0.078431
0.086275 0.384314 0.043137
0.180392 0.407843 0.000000
0.247059 0.431373 0.011765
0.317647 0.454902 0.023529
0.380392 0.474510 0.019608
0.447059 0.498039 0.011765
0.505882 0.513726 0.007843
0.568627 0.533333 0.003922
0.619608 0.545098 0.003922
0.670588 0.560784 0.007843
0.709804 0.568627 0.003922
0.745098 0.576471 0.000000
0.768628 0.580392 0.007843
0.792157 0.588235 0.019608
0.807843 0.588235 0.019608
0.823529 0.592157 0.019608
0.831373 0.592157 0.007843
0.839216 0.596078 0.000000
0.847059 0.600000 0.000000
0.850980 0.603922 0.000000
0.854902 0.611765 0.019608
0.858824 0.615686 0.035294
0.866667 0.623529 0.015686
0.870588 0.627451 0.000000
0.011765 0.262745 0.133333
0.000000 0.270588 0.133333
0.000000 0.282353 0.133333
0.015686 0.294118 0.137255
0.015686 0.305882 0.137255
0.000000 0.321569 0.133333
0.000000 0.341176 0.129412
0.000000 0.364706 0.105882
0.000000 0.388235 0.086275
0.090196 0.415686 0.054902
0.184314 0.439216 0.015686
0.258824 0.466667 0.000000
0.325490 0.490196 0.011765
0.392157 0.509804 0.023529
0.458824 0.533333 0.019608
0.521569 0.552941 0.007843
0.584314 0.568627 0.000000
0.639216 0.584314 0.007843
0.686275 0.600000 0.011765
0.725490 0.607843 0.003922
0.764706 0.619608 0.000000
0.788235 0.623529 0.000000
0.815686 0.627451 0.007843
0.827451 0.631373 0.007843
0.843137 0.635294 0.007843
0.850980 0.639216 0.007843
0.858824 0.639216 0.000000
0.866667 0.643137 0.000000
0.870588 0.647059 0.000000
0.874510 0.650980 0.000000
0.878431 0.654902 0.019608
0.882353 0.658824 0.043137
0.886275 0.666667 0.023529
0.027451 0.282353 0.141176
0.015686 0.290196 0.141176
0.000000 0.301961 0.141176
0.015686 0.313726 0.145098
0.031373 0.329412 0.145098
0.019608 0.345098 0.141176
0.000000 0.364706 0.137255
0.000000 0.388235 0.113725
0.000000 0.415686 0.094118
0.090196 0.443137 0.062745
0.192157 0.470588 0.031373
0.262745 0.494118 0.015686
0.333333 0.521569 0.000000
0.403922 0.545098 0.011765
0.470588 0.564706 0.023529
0.533333 0.588235 0.011765
0.596078 0.607843 0.000000
0.650980 0.623529 0.003922
0.705882 0.639216 0.011765
0.745098 0.647059 0.007843
0.784314 0.658824 0.000000
0.807843 0.662745 0.000000
0.835294 0.670588 0.000000
0.850980 0.674510 0.000000
0.862745 0.678431 0.000000
0.874510 0.682353 0.000000
0.882353 0.682353 0.000000
0.886275 0.686275 0.000000
0.890196 0.690196 0.000000
0.894118 0.694118 0.000000
0.898039 0.694118 0.000000
0.901961 0.701961 0.023529
0.905882 0.705882 0.047059
0.015686 0.298039 0.145098
0.015686 0.305882 0.149020
0.000000 0.317647 0.149020
0.000000 0.333333 0.149020
0.015686 0.345098 0.149020
0.031373 0.364706 0.149020
0.019608 0.380392 0.141176
0.000000 0.407843 0.121569
0.000000 0.435294 0.098039
0.094118 0.462745 0.047059
0.192157 0.490196 0.015686
0.270588 0.517647 0.015686
0.341176 0.541176 0.000000
0.411765 0.568627 0.007843
0.482353 0.592157 0.019608
0.545098 0.611765 0.011765
0.607843 0.631373 0.000000
0.666667 0.650980 0.000000
0.717647 0.666667 0.007843
0.756863 0.678431 0.019608
0.796079 0.686275 0.011765
0.823529 0.694118 0.023529
0.847059 0.698039 0.023529
0.862745 0.701961 0.027451
0.878431 0.705882 0.027451
0.886275 0.709804 0.027451
0.894118 0.709804 0.027451
0.898039 0.713726 0.031373
0.901961 0.717647 0.031373
0.905882 0.717647 0.031373
0.909804 0.721569 0.031373
0.913726 0.725490 0.035294
0.917647 0.729412 0.058824
0.000000 0.309804 0.152941
0.000000 0.321569 0.152941
0.000000 0.333333 0.156863
0.000000 0.345098 0.156863
0.000000 0.360784 0.152941
0.015686 0.380392 0.152941
0.035294 0.400000 0.149020
0.019608 0.427451 0.125490
0.000000 0.454902 0.101961
0.094118 0.482353 0.050980
0.196078 0.509804 0.003922
0.274510 0.537255 0.000000
0.349020 0.564706 0.000000
0.419608 0.588235 0.007843
0.490196 0.615686 0.015686
0.556863 0.635294 0.007843
0.619608 0.658824 0.000000
0.674510 0.674510 0.000000
0.729412 0.694118 0.000000
0.768628 0.705882 0.011765
0.807843 0.713726 0.023529
0.835294 0.721569 0.035294
0.858824 0.725490 0.050980
0.874510 0.729412 0.050980
0.890196 0.733333 0.054902
0.898039 0.737255 0.054902
0.905882 0.737255 0.054902
0.909804 0.741176 0.058824
0.917647 0.741176 0.066667
0.917647 0.745098 0.066667
0.921569 0.749020 0.066667
0.925490 0.749020 0.066667
0.925490 0.752941 0.070588
0.000000 0.321569 0.156863
0.015686 0.333333 0.156863
0.015686 0.341176 0.160784
0.015686 0.360784 0.160784
0.015686 0.372549 0.160784
0.000000 0.396078 0.152941
0.015686 0.415686 0.149020
0.039216 0.439216 0.129412
0.023529 0.466667 0.101961
0.101961 0.494118 0.050980
0.203922 0.525490 0.003922
0.282353 0.549020 0.000000
0.356863 0.576471 0.000000
0.427451 0.603922 0.000000
0.498039 0.627451 0.007843
0.564706 0.650980 0.015686
0.627451 0.674510 0.007843
0.682353 0.694118 0.000000
0.737255 0.709804 0.000000
0.776471 0.721569 0.023529
0.815686 0.733333 0.035294
0.843137 0.737255 0.043137
0.866667 0.745098 0.058824
0.882353 0.749020 0.058824
0.898039 0.749020 0.062745
0.905882 0.752941 0.062745
0.913726 0.756863 0.062745
0.917647 0.756863 0.066667
0.925490 0.760784 0.070588
0.925490 0.760784 0.066667
0.929412 0.764706 0.070588
0.933333 0.764706 0.070588
0.933333 0.768628 0.070588
0.000000 0.329412 0.160784
0.015686 0.341176 0.164706
0.031373 0.352941 0.164706
0.031373 0.368627 0.164706
0.031373 0.388235 0.164706
0.015686 0.407843 0.156863
0.000000 0.427451 0.149020
0.023529 0.454902 0.129412
0.047059 0.482353 0.105882
0.125490 0.509804 0.054902
0.207843 0.537255 0.003922
0.286275 0.564706 0.000000
0.360784 0.592157 0.000000
0.435294 0.615686 0.000000
0.505882 0.643137 0.000000
0.568627 0.666667 0.007843
0.635294 0.690196 0.011765
0.690196 0.705882 0.007843
0.745098 0.725490 0.000000
0.784314 0.737255 0.023529
0.823529 0.749020 0.047059
0.850980 0.756863 0.054902
0.874510 0.760784 0.066667
0.890196 0.764706 0.066667
0.905882 0.768628 0.070588
0.913726 0.768628 0.070588
0.921569 0.772549 0.070588
0.925490 0.776471 0.074510
0.933333 0.776471 0.078431
0.933333 0.776471 0.074510
0.937255 0.780392 0.070588
0.941177 0.780392 0.070588
0.941177 0.784314 0.070588
0.000000 0.337255 0.164706
0.000000 0.349020 0.164706
0.015686 0.364706 0.168627
0.015686 0.384314 0.164706
0.015686 0.400000 0.164706
0.039216 0.419608 0.160784
0.027451 0.439216 0.152941
0.000000 0.466667 0.113725
0.023529 0.494118 0.090196
0.133333 0.517647 0.070588
0.219608 0.545098 0.019608
0.290196 0.572549 0.000000
0.368627 0.600000 0.000000
0.439216 0.623529 0.007843
0.509804 0.650980 0.007843
0.576471 0.674510 0.000000
0.639216 0.698039 0.007843
0.694118 0.717647 0.019608
0.749020 0.733333 0.011765
0.788235 0.745098 0.027451
0.827451 0.756863 0.050980
0.854902 0.764706 0.058824
0.882353 0.772549 0.066667
0.894118 0.776471 0.070588
0.909804 0.776471 0.074510
0.917647 0.780392 0.074510
0.929412 0.784314 0.074510
0.933333 0.784314 0.078431
0.937255 0.788235 0.082353
0.941177 0.788235 0.078431
0.945098 0.788235 0.074510
0.945098 0.792157 0.074510
0.945098 0.792157 0.074510
0.000000 0.341176 0.168627
0.000000 0.356863 0.168627
0.000000 0.372549 0.168627
0.000000 0.392157 0.168627
0.000000 0.411765 0.164706
0.023529 0.431373 0.160784
0.050980 0.450980 0.152941
0.027451 0.478431 0.117647
0.000000 0.505882 0.074510
0.105882 0.529412 0.054902
0.223529 0.556863 0.039216
0.301961 0.580392 0.019608
0.372549 0.607843 0.000000
0.443137 0.635294 0.007843
0.513726 0.658824 0.015686
0.580392 0.682353 0.007843
0.643137 0.705882 0.000000
0.698039 0.725490 0.011765
0.752941 0.741176 0.023529
0.792157 0.752941 0.039216
0.831373 0.764706 0.050980
0.858824 0.772549 0.062745
0.886275 0.780392 0.070588
0.901961 0.784314 0.074510
0.917647 0.788235 0.078431
0.925490 0.792157 0.078431
0.933333 0.792157 0.078431
0.937255 0.796079 0.082353
0.941177 0.796079 0.086275
