All_In_One/Enrich_Colormaster/colormanagement/luts/film_response/Kodak2383_CUSPclip.cube
TITLE "Generate by Resolve"
LUT_3D_SIZE 5
0.000000 0.000000 0.000000
0.066667 0.027451 0.011765
0.341176 0.066667 0.000000
0.596078 0.125490 0.000000
0.650980 0.156863 0.000000
0.000000 0.070588 0.039216
0.098039 0.094118 0.039216
0.447059 0.149020 0.000000
0.698039 0.215686 0.000000
0.741176 0.247059 0.035294
0.000000 0.337255 0.164706
0.000000 0.341176 0.003922
0.600000 0.486275 0.000000
0.839216 0.521569 0.000000
0.886275 0.568627 0.000000
0.000000 0.541176 0.262745
0.000000 0.588235 0.137255
0.686275 0.772549 0.011765
0.941177 0.815686 0.086275
0.968628 0.823529 0.094118
0.000000 0.607843 0.274510
0.133333 0.662745 0.000000
0.729412 0.811765 0.000000
0.956863 0.850980 0.094118
0.992157 0.854902 0.101961
0.000000 0.011765 0.074510
0.070588 0.035294 0.082353
0.345098 0.043137 0.078431
0.615686 0.000000 0.043137
0.674510 0.000000 0.054902
0.000000 0.086275 0.105882
0.090196 0.101961 0.109804
0.454902 0.141176 0.094118
0.729412 0.043137 0.000000
0.784314 0.101961 0.015686
0.000000 0.388235 0.262745
0.000000 0.380392 0.180392
0.596078 0.490196 0.000000
0.894118 0.521569 0.000000
0.941177 0.568627 0.000000
0.000000 0.568627 0.349020
0.047059 0.635294 0.305882
0.662745 0.776471 0.000000
0.976471 0.835294 0.003922
1.000000 0.843137 0.043137
0.000000 0.658824 0.482353
0.000000 0.709804 0.392157
0.678431 0.839216 0.309804
1.000000 0.898039 0.262745
1.000000 0.894118 0.376471
0.000000 0.117647 0.321569
0.082353 0.000000 0.321569
0.364706 0.000000 0.360784
0.635294 0.000000 0.380392
0.698039 0.000000 0.400000
0.000000 0.239216 0.415686
0.000000 0.117647 0.392157
0.462745 0.145098 0.443137
0.745098 0.058824 0.450980
0.800000 0.121569 0.474510
0.000000 0.486275 0.560784
0.000000 0.517647 0.580392
0.568627 0.549020 0.552941
0.898039 0.568627 0.556863
0.949020 0.619608 0.576471
0.000000 0.670588 0.654902
0.000000 0.729412 0.666667
0.584314 0.850980 0.615686
0.980392 0.909804 0.607843
1.000000 0.921569 0.623529
0.000000 0.741176 0.741176
0.000000 0.796079 0.745098
0.619608 0.901961 0.733333
0.968628 0.960784 0.733333
1.000000 0.964706 0.737255
0.000000 0.247059 0.513726
0.066667 0.007843 0.513726
0.380392 0.000000 0.580392
0.662745 0.000000 0.611765
0.717647 0.000000 0.623529
0.000000 0.329412 0.600000
0.000000 0.294118 0.611765
0.470588 0.113725 0.694118
0.756863 0.000000 0.713726
0.815686 0.098039 0.741176
0.000000 0.533333 0.725490
0.000000 0.556863 0.760784
0.533333 0.576471 0.850980
0.890196 0.600000 0.866667
0.941177 0.650980 0.886275
0.000000 0.694118 0.803922
0.000000 0.756863 0.843137
0.501961 0.886275 0.917647
0.949020 0.952941 0.937255
1.000000 0.964706 0.941177
0.000000 0.749020 0.843137
0.000000 0.811765 0.886275
0.560784 0.929412 0.945098
0.945098 0.988235 0.960784
1.000000 0.996078 0.964706
0.000000 0.286275 0.564706
0.074510 0.011765 0.588235
0.423529 0.000000 0.662745
0.701961 0.000000 0.686275
0.764706 0.000000 0.709804
0.000000 0.368627 0.647059
0.000000 0.337255 0.666667
0.482353 0.203922 0.776471
0.780392 0.156863 0.800000
0.839216 0.219608 0.819608
0.000000 0.552941 0.756863
0.000000 0.572549 0.792157
0.517647 0.600000 0.905882
0.886275 0.619608 0.929412
0.941177 0.666667 0.941177
0.000000 0.698039 0.823529
0.000000 0.756863 0.866667
0.474510 0.890196 0.968628
0.941177 0.952941 0.992157
0.996078 0.964706 0.996078
0.000000 0.749020 0.854902
0.015686 0.811765 0.901961
0.529412 0.925490 0.976471
0.937255 0.992157 1.000000
1.000000 1.000000 1.000000
