All_In_One/Enrich_Colormaster/colormanagement/luts/film_response/Kodak2393_CUSPclip.cube
TITLE "Generate by Resolve"
LUT_3D_SIZE 33
0.003922 0.007843 0.003922
0.007843 0.007843 0.007843
0.015686 0.011765 0.007843
0.019608 0.011765 0.007843
0.023529 0.015686 0.007843
0.031373 0.015686 0.003922
0.043137 0.019608 0.000000
0.050980 0.023529 0.000000
0.062745 0.023529 0.000000
0.078431 0.027451 0.000000
0.094118 0.031373 0.000000
0.121569 0.035294 0.000000
0.152941 0.035294 0.000000
0.192157 0.039216 0.000000
0.231373 0.039216 0.000000
0.274510 0.043137 0.000000
0.321569 0.047059 0.000000
0.360784 0.050980 0.000000
0.403922 0.058824 0.000000
0.439216 0.070588 0.000000
0.474510 0.086275 0.000000
0.498039 0.086275 0.000000
0.521569 0.086275 0.000000
0.537255 0.094118 0.000000
0.552941 0.105882 0.000000
0.560784 0.109804 0.000000
0.568627 0.113725 0.000000
0.576471 0.117647 0.000000
0.584314 0.121569 0.000000
0.592157 0.125490 0.007843
0.596078 0.129412 0.015686
0.600000 0.129412 0.015686
0.603922 0.129412 0.015686
0.000000 0.011765 0.007843
0.007843 0.011765 0.007843
0.015686 0.015686 0.007843
0.019608 0.015686 0.011765
0.023529 0.019608 0.011765
0.035294 0.019608 0.007843
0.043137 0.023529 0.003922
0.054902 0.027451 0.000000
0.066667 0.027451 0.000000
0.082353 0.031373 0.000000
0.098039 0.035294 0.000000
0.129412 0.039216 0.000000
0.156863 0.039216 0.000000
0.200000 0.043137 0.000000
0.239216 0.043137 0.000000
0.286275 0.050980 0.000000
0.333333 0.054902 0.000000
0.376471 0.066667 0.000000
0.419608 0.070588 0.000000
0.450980 0.078431 0.000000
0.486275 0.094118 0.000000
0.509804 0.101961 0.000000
0.533333 0.101961 0.000000
0.549020 0.098039 0.000000
0.564706 0.109804 0.000000
0.572549 0.113725 0.000000
0.580392 0.117647 0.000000
0.588235 0.121569 0.000000
0.596078 0.125490 0.000000
0.600000 0.129412 0.000000
0.603922 0.129412 0.007843
0.607843 0.133333 0.007843
0.615686 0.133333 0.007843
0.000000 0.019608 0.011765
0.007843 0.019608 0.011765
0.015686 0.019608 0.011765
0.019608 0.019608 0.011765
0.027451 0.023529 0.011765
0.035294 0.023529 0.011765
0.043137 0.027451 0.011765
0.054902 0.031373 0.003922
0.070588 0.031373 0.000000
0.086275 0.035294 0.000000
0.101961 0.039216 0.000000
0.133333 0.043137 0.000000
0.164706 0.043137 0.000000
0.203922 0.047059 0.000000
0.247059 0.050980 0.000000
0.298039 0.054902 0.000000
0.345098 0.062745 0.000000
0.392157 0.074510 0.000000
0.435294 0.086275 0.000000
0.466667 0.094118 0.000000
0.501961 0.098039 0.000000
0.525490 0.109804 0.000000
0.545098 0.121569 0.000000
0.560784 0.117647 0.000000
0.572549 0.113725 0.000000
0.584314 0.117647 0.000000
0.592157 0.121569 0.000000
0.600000 0.125490 0.000000
0.607843 0.129412 0.000000
0.611765 0.133333 0.000000
0.615686 0.133333 0.000000
0.619608 0.137255 0.000000
0.623529 0.137255 0.000000
0.000000 0.023529 0.015686
0.003922 0.023529 0.015686
0.015686 0.023529 0.015686
0.019608 0.027451 0.015686
0.027451 0.027451 0.015686
0.035294 0.031373 0.015686
0.047059 0.031373 0.011765
0.058824 0.035294 0.003922
0.070588 0.039216 0.000000
0.090196 0.043137 0.000000
0.105882 0.047059 0.000000
0.141176 0.047059 0.000000
0.172549 0.050980 0.000000
0.215686 0.054902 0.000000
0.258824 0.058824 0.000000
0.309804 0.066667 0.000000
0.356863 0.074510 0.000000
0.407843 0.086275 0.000000
0.450980 0.098039 0.000000
0.482353 0.109804 0.000000
0.517647 0.113725 0.000000
0.541176 0.125490 0.011765
0.560784 0.137255 0.011765
0.572549 0.133333 0.000000
0.588235 0.129412 0.000000
0.596078 0.133333 0.000000
0.603922 0.137255 0.000000
0.611765 0.141176 0.000000
0.619608 0.141176 0.000000
0.623529 0.145098 0.000000
0.627451 0.145098 0.000000
0.631373 0.149020 0.000000
0.635294 0.149020 0.000000
0.000000 0.031373 0.019608
0.003922 0.031373 0.019608
0.011765 0.031373 0.019608
0.019608 0.031373 0.019608
0.027451 0.031373 0.019608
0.035294 0.035294 0.015686
0.047059 0.039216 0.015686
0.058824 0.039216 0.007843
0.074510 0.043137 0.000000
0.094118 0.047059 0.000000
0.113725 0.050980 0.000000
0.145098 0.054902 0.000000
0.180392 0.058824 0.000000
0.223529 0.062745 0.000000
0.270588 0.070588 0.000000
0.321569 0.078431 0.000000
0.372549 0.086275 0.000000
0.419608 0.098039 0.000000
0.466667 0.109804 0.000000
0.498039 0.121569 0.000000
0.533333 0.129412 0.000000
0.552941 0.141176 0.015686
0.576471 0.152941 0.027451
0.588235 0.149020 0.011765
0.600000 0.145098 0.000000
0.607843 0.149020 0.000000
0.615686 0.152941 0.000000
0.623529 0.152941 0.000000
0.631373 0.156863 0.000000
0.639216 0.156863 0.000000
0.643137 0.160784 0.000000
0.647059 0.160784 0.000000
0.650980 0.160784 0.000000
0.000000 0.035294 0.019608
0.000000 0.039216 0.019608
0.003922 0.039216 0.019608
0.015686 0.039216 0.019608
0.023529 0.039216 0.019608
0.035294 0.043137 0.019608
0.047059 0.043137 0.015686
0.062745 0.047059 0.007843
0.078431 0.050980 0.000000
0.098039 0.054902 0.000000
0.117647 0.058824 0.000000
0.152941 0.062745 0.000000
0.188235 0.066667 0.000000
0.239216 0.078431 0.000000
0.286275 0.082353 0.000000
0.337255 0.094118 0.000000
0.388235 0.101961 0.000000
0.435294 0.109804 0.000000
0.482353 0.121569 0.000000
0.513726 0.129412 0.000000
0.549020 0.141176 0.000000
0.572549 0.152941 0.000000
0.592157 0.164706 0.015686
0.603922 0.164706 0.015686
0.615686 0.160784 0.000000
0.623529 0.160784 0.000000
0.631373 0.164706 0.000000
0.639216 0.172549 0.015686
0.647059 0.176471 0.015686
0.654902 0.176471 0.011765
0.658824 0.180392 0.011765
0.662745 0.180392 0.000000
0.666667 0.180392 0.000000
0.000000 0.043137 0.023529
0.000000 0.043137 0.023529
0.000000 0.047059 0.023529
0.007843 0.047059 0.023529
0.019608 0.047059 0.023529
0.031373 0.050980 0.019608
0.047059 0.050980 0.019608
0.062745 0.054902 0.011765
0.078431 0.058824 0.000000
0.098039 0.062745 0.000000
0.121569 0.066667 0.000000
0.156863 0.074510 0.000000
0.196078 0.078431 0.000000
0.247059 0.086275 0.000000
0.298039 0.098039 0.000000
0.352941 0.105882 0.000000
0.403922 0.117647 0.000000
0.450980 0.125490 0.000000
0.498039 0.133333 0.000000
0.529412 0.145098 0.000000
0.564706 0.152941 0.000000
0.588235 0.164706 0.000000
0.611765 0.176471 0.000000
0.619608 0.176471 0.000000
0.631373 0.176471 0.000000
0.639216 0.176471 0.000000
0.643137 0.176471 0.000000
0.654902 0.188235 0.019608
0.666667 0.196078 0.035294
0.670588 0.196078 0.031373
0.678431 0.200000 0.023529
0.682353 0.200000 0.011765
0.686275 0.203922 0.000000
0.000000 0.050980 0.023529
0.000000 0.054902 0.023529
0.000000 0.054902 0.023529
0.000000 0.054902 0.023529
0.007843 0.058824 0.023529
0.027451 0.058824 0.019608
0.043137 0.062745 0.019608
0.062745 0.066667 0.011765
0.078431 0.070588 0.000000
0.105882 0.078431 0.000000
0.125490 0.082353 0.000000
0.168627 0.090196 0.000000
0.203922 0.094118 0.000000
0.258824 0.105882 0.000000
0.313726 0.113725 0.000000
0.368627 0.129412 0.000000
0.423529 0.141176 0.000000
0.470588 0.149020 0.000000
0.513726 0.156863 0.000000
0.545098 0.168627 0.000000
0.580392 0.176471 0.000000
0.600000 0.180392 0.011765
0.623529 0.196078 0.011765
0.639216 0.196078 0.000000
0.647059 0.192157 0.000000
0.654902 0.196078 0.000000
0.662745 0.196078 0.000000
0.670588 0.200000 0.000000
0.678431 0.207843 0.019608
0.682353 0.215686 0.031373
0.690196 0.215686 0.023529
0.694118 0.219608 0.011765
0.698039 0.223529 0.000000
0.000000 0.062745 0.027451
0.000000 0.062745 0.027451
0.000000 0.062745 0.027451
0.000000 0.066667 0.023529
0.000000 0.066667 0.023529
0.019608 0.070588 0.023529
0.039216 0.074510 0.019608
0.058824 0.078431 0.011765
0.078431 0.082353 0.000000
0.105882 0.090196 0.000000
0.129412 0.094118 0.000000
0.172549 0.101961 0.000000
0.215686 0.109804 0.000000
0.270588 0.121569 0.000000
0.325490 0.133333 0.000000
0.384314 0.149020 0.000000
0.443137 0.160784 0.000000
0.486275 0.172549 0.000000
0.533333 0.180392 0.000000
0.564706 0.192157 0.000000
0.596078 0.203922 0.000000
0.615686 0.207843 0.011765
0.639216 0.211765 0.027451
0.650980 0.211765 0.011765
0.666667 0.211765 0.000000
0.674510 0.215686 0.000000
0.682353 0.215686 0.000000
0.686275 0.219608 0.000000
0.694118 0.223529 0.000000
0.698039 0.231373 0.011765
0.701961 0.235294 0.023529
0.705882 0.239216 0.011765
0.709804 0.239216 0.000000
0.000000 0.074510 0.031373
0.000000 0.078431 0.031373
0.000000 0.078431 0.031373
0.000000 0.082353 0.027451
0.000000 0.082353 0.023529
0.000000 0.086275 0.015686
0.019608 0.090196 0.011765
0.058824 0.094118 0.011765
0.078431 0.098039 0.000000
0.109804 0.109804 0.000000
0.137255 0.113725 0.000000
0.184314 0.125490 0.000000
0.227451 0.133333 0.000000
0.282353 0.145098 0.000000
0.341176 0.156863 0.000000
0.400000 0.172549 0.000000
0.454902 0.184314 0.000000
0.505882 0.200000 0.000000
0.549020 0.211765 0.000000
0.580392 0.215686 0.000000
0.611765 0.227451 0.000000
0.635294 0.231373 0.003922
0.654902 0.235294 0.019608
0.666667 0.239216 0.015686
0.682353 0.235294 0.000000
0.690196 0.243137 0.019608
0.698039 0.247059 0.019608
0.701961 0.247059 0.015686
0.709804 0.250980 0.015686
0.713726 0.254902 0.000000
0.717647 0.258824 0.011765
0.721569 0.266667 0.027451
0.725490 0.266667 0.015686
0.000000 0.090196 0.035294
0.000000 0.090196 0.035294
0.000000 0.094118 0.035294
0.000000 0.094118 0.031373
0.000000 0.098039 0.027451
0.000000 0.101961 0.015686
0.000000 0.105882 0.003922
0.035294 0.109804 0.000000
0.074510 0.117647 0.000000
0.105882 0.125490 0.000000
0.141176 0.133333 0.000000
0.188235 0.145098 0.000000
0.239216 0.156863 0.000000
0.294118 0.168627 0.000000
0.356863 0.184314 0.000000
0.411765 0.196078 0.000000
0.470588 0.211765 0.000000
0.521569 0.227451 0.000000
0.568627 0.239216 0.000000
0.600000 0.247059 0.000000
0.631373 0.250980 0.000000
0.650980 0.254902 0.003922
0.674510 0.258824 0.007843
0.686275 0.262745 0.003922
0.698039 0.262745 0.000000
0.705882 0.266667 0.019608
0.713726 0.274510 0.039216
0.721569 0.278431 0.035294
0.725490 0.278431 0.035294
0.729412 0.282353 0.015686
0.733333 0.282353 0.000000
0.737255 0.290196 0.019608
0.741176 0.298039 0.035294
0.000000 0.113725 0.043137
0.000000 0.117647 0.043137
0.000000 0.117647 0.043137
0.000000 0.121569 0.039216
0.000000 0.121569 0.035294
0.000000 0.125490 0.015686
0.000000 0.129412 0.000000
0.023529 0.133333 0.000000
0.062745 0.141176 0.000000
0.109804 0.152941 0.000000
0.145098 0.160784 0.000000
0.200000 0.176471 0.000000
0.247059 0.188235 0.000000
0.313726 0.203922 0.000000
0.372549 0.219608 0.000000
0.431373 0.235294 0.000000
0.490196 0.247059 0.000000
0.541176 0.258824 0.000000
0.588235 0.274510 0.000000
0.619608 0.282353 0.007843
0.650980 0.286275 0.007843
0.674510 0.290196 0.000000
0.694118 0.294118 0.003922
0.705882 0.298039 0.019608
0.717647 0.298039 0.015686
0.725490 0.301961 0.019608
0.733333 0.309804 0.039216
0.741176 0.309804 0.035294
0.745098 0.313726 0.031373
0.749020 0.317647 0.015686
0.752941 0.317647 0.000000
0.756863 0.325490 0.000000
0.760784 0.333333 0.019608
0.000000 0.137255 0.054902
0.000000 0.141176 0.050980
0.000000 0.141176 0.050980
0.000000 0.145098 0.047059
0.000000 0.145098 0.039216
0.000000 0.149020 0.023529
0.000000 0.152941 0.000000
0.023529 0.156863 0.000000
0.054902 0.164706 0.000000
0.101961 0.176471 0.000000
0.149020 0.188235 0.000000
0.203922 0.203922 0.000000
0.258824 0.219608 0.000000
0.321569 0.235294 0.000000
0.388235 0.254902 0.000000
0.450980 0.270588 0.000000
0.509804 0.286275 0.000000
0.560784 0.298039 0.000000
0.607843 0.305882 0.000000
0.639216 0.313726 0.007843
0.670588 0.321569 0.015686
0.694118 0.325490 0.007843
0.713726 0.325490 0.000000
0.725490 0.333333 0.015686
0.741176 0.337255 0.031373
0.745098 0.337255 0.035294
0.752941 0.341176 0.039216
0.760784 0.345098 0.035294
0.764706 0.349020 0.027451
0.768628 0.352941 0.015686
0.772549 0.356863 0.000000
0.776471 0.360784 0.000000
0.784314 0.368627 0.000000
0.000000 0.172549 0.070588
0.000000 0.176471 0.070588
0.000000 0.176471 0.066667
0.000000 0.180392 0.062745
0.000000 0.184314 0.058824
0.000000 0.188235 0.047059
0.000000 0.188235 0.023529
0.000000 0.192157 0.000000
0.027451 0.200000 0.000000
0.101961 0.215686 0.000000
0.149020 0.227451 0.000000
0.215686 0.247059 0.000000
0.270588 0.262745 0.000000
0.341176 0.282353 0.000000
0.407843 0.301961 0.000000
0.470588 0.317647 0.000000
0.533333 0.333333 0.000000
0.580392 0.345098 0.000000
0.627451 0.352941 0.000000
0.658824 0.360784 0.015686
0.690196 0.368627 0.023529
0.713726 0.368627 0.007843
0.733333 0.372549 0.000000
0.749020 0.372549 0.000000
0.760784 0.380392 0.015686
0.768628 0.380392 0.027451
0.776471 0.384314 0.031373
0.780392 0.388235 0.019608
0.784314 0.392157 0.015686
0.788235 0.396078 0.015686
0.792157 0.400000 0.000000
0.800000 0.407843 0.000000
0.803922 0.415686 0.000000
0.000000 0.207843 0.090196
0.000000 0.211765 0.086275
0.000000 0.215686 0.086275
0.000000 0.219608 0.082353
0.000000 0.223529 0.074510
0.000000 0.223529 0.062745
0.000000 0.227451 0.047059
0.000000 0.231373 0.023529
0.000000 0.235294 0.000000
0.074510 0.250980 0.000000
0.152941 0.266667 0.000000
0.215686 0.286275 0.000000
0.282353 0.305882 0.000000
0.356863 0.325490 0.000000
0.427451 0.349020 0.000000
0.490196 0.364706 0.000000
0.556863 0.384314 0.000000
0.603922 0.392157 0.000000
0.647059 0.403922 0.000000
0.678431 0.407843 0.015686
0.713726 0.411765 0.031373
0.733333 0.411765 0.015686
0.756863 0.415686 0.000000
0.768628 0.419608 0.000000
0.780392 0.419608 0.000000
0.788235 0.423529 0.011765
0.796079 0.427451 0.027451
0.800000 0.431373 0.011765
0.803922 0.435294 0.000000
0.811765 0.439216 0.000000
0.815686 0.447059 0.000000
0.819608 0.454902 0.000000
0.823529 0.462745 0.000000
0.000000 0.250980 0.113725
0.000000 0.254902 0.109804
0.000000 0.254902 0.109804
0.000000 0.262745 0.101961
0.000000 0.266667 0.098039
0.000000 0.270588 0.078431
0.000000 0.270588 0.066667
0.000000 0.274510 0.027451
0.000000 0.278431 0.000000
0.070588 0.294118 0.000000
0.149020 0.309804 0.000000
0.231373 0.337255 0.000000
0.298039 0.356863 0.000000
0.376471 0.380392 0.000000
0.447059 0.400000 0.000000
0.513726 0.419608 0.000000
0.576471 0.439216 0.000000
0.627451 0.450980 0.007843
0.674510 0.458824 0.007843
0.705882 0.462745 0.000000
0.737255 0.466667 0.015686
0.756863 0.466667 0.015686
0.780392 0.466667 0.000000
0.788235 0.466667 0.000000
0.800000 0.470588 0.000000
0.807843 0.470588 0.019608
0.815686 0.474510 0.031373
0.819608 0.478431 0.023529
0.823529 0.482353 0.007843
0.831373 0.490196 0.015686
0.839216 0.498039 0.015686
0.843137 0.505882 0.011765
0.847059 0.513726 0.011765
0.000000 0.290196 0.133333
0.000000 0.294118 0.133333
0.000000 0.298039 0.133333
0.000000 0.305882 0.125490
0.000000 0.309804 0.121569
0.000000 0.313726 0.101961
0.000000 0.317647 0.082353
0.000000 0.321569 0.043137
0.000000 0.321569 0.000000
0.070588 0.341176 0.000000
0.149020 0.356863 0.000000
0.231373 0.380392 0.000000
0.313726 0.407843 0.000000
0.392157 0.431373 0.000000
0.466667 0.454902 0.000000
0.533333 0.474510 0.000000
0.600000 0.494118 0.000000
0.650980 0.501961 0.007843
0.698039 0.513726 0.015686
0.729412 0.517647 0.007843
0.760784 0.517647 0.000000
0.780392 0.521569 0.000000
0.803922 0.521569 0.000000
0.811765 0.517647 0.000000
0.819608 0.517647 0.000000
0.827451 0.517647 0.019608
0.831373 0.521569 0.039216
0.839216 0.525490 0.031373
0.843137 0.529412 0.019608
0.850980 0.541176 0.027451
0.858824 0.549020 0.031373
0.862745 0.556863 0.027451
0.866667 0.564706 0.023529
0.000000 0.333333 0.160784
0.000000 0.337255 0.160784
0.000000 0.341176 0.156863
0.000000 0.349020 0.149020
0.000000 0.352941 0.145098
0.000000 0.356863 0.129412
0.000000 0.360784 0.109804
0.000000 0.364706 0.043137
0.000000 0.364706 0.003922
0.074510 0.384314 0.000000
0.152941 0.403922 0.000000
0.243137 0.431373 0.000000
0.325490 0.458824 0.000000
0.407843 0.482353 0.000000
0.486275 0.505882 0.000000
0.556863 0.529412 0.000000
0.619608 0.545098 0.000000
0.670588 0.556863 0.003922
0.717647 0.564706 0.011765
0.752941 0.568627 0.007843
0.784314 0.572549 0.000000
0.803922 0.572549 0.007843
0.823529 0.572549 0.007843
0.835294 0.572549 0.007843
0.843137 0.572549 0.007843
0.850980 0.572549 0.000000
0.854902 0.576471 0.019608
0.862745 0.576471 0.019608
0.866667 0.580392 0.011765
0.870588 0.588235 0.031373
0.878431 0.596078 0.035294
0.882353 0.603922 0.015686
0.886275 0.607843 0.011765
0.000000 0.372549 0.184314
0.000000 0.376471 0.184314
0.000000 0.384314 0.184314
0.000000 0.392157 0.176471
0.000000 0.396078 0.168627
0.000000 0.400000 0.152941
0.000000 0.403922 0.133333
0.000000 0.407843 0.070588
0.000000 0.407843 0.003922
0.074510 0.427451 0.000000
0.156863 0.447059 0.000000
0.247059 0.478431 0.000000
0.341176 0.505882 0.000000
0.419608 0.533333 0.000000
0.501961 0.556863 0.000000
0.572549 0.580392 0.000000
0.639216 0.600000 0.000000
0.690196 0.607843 0.003922
0.737255 0.615686 0.007843
0.772549 0.619608 0.003922
0.803922 0.623529 0.000000
0.823529 0.623529 0.007843
0.843137 0.623529 0.019608
0.854902 0.623529 0.019608
0.866667 0.623529 0.019608
0.874510 0.623529 0.007843
0.882353 0.627451 0.000000
0.886275 0.631373 0.000000
0.890196 0.631373 0.000000
0.894118 0.639216 0.019608
0.898039 0.643137 0.039216
0.901961 0.647059 0.019608
0.905882 0.654902 0.000000
0.019608 0.400000 0.200000
0.000000 0.403922 0.196078
0.000000 0.411765 0.196078
0.019608 0.423529 0.196078
0.023529 0.427451 0.188235
0.000000 0.435294 0.172549
0.000000 0.439216 0.156863
0.000000 0.439216 0.074510
0.000000 0.443137 0.003922
0.082353 0.462745 0.000000
0.160784 0.482353 0.000000
0.258824 0.513726 0.000000
0.349020 0.541176 0.000000
0.435294 0.572549 0.000000
0.513726 0.596078 0.000000
0.584314 0.619608 0.000000
0.654902 0.639216 0.000000
0.705882 0.650980 0.003922
0.756863 0.658824 0.011765
0.788235 0.658824 0.003922
0.819608 0.662745 0.000000
0.839216 0.662745 0.011765
0.858824 0.662745 0.023529
0.874510 0.666667 0.023529
0.882353 0.666667 0.023529
0.890196 0.666667 0.015686
0.898039 0.666667 0.007843
0.901961 0.670588 0.019608
0.905882 0.674510 0.019608
0.909804 0.674510 0.019608
0.913726 0.682353 0.039216
0.913726 0.686275 0.047059
0.917647 0.690196 0.031373
0.043137 0.427451 0.215686
0.023529 0.431373 0.211765
0.000000 0.439216 0.207843
0.019608 0.450980 0.207843
0.043137 0.462745 0.203922
0.023529 0.466667 0.192157
0.000000 0.470588 0.176471
0.000000 0.470588 0.094118
0.000000 0.474510 0.003922
0.082353 0.494118 0.000000
0.168627 0.517647 0.000000
0.266667 0.549020 0.000000
0.360784 0.580392 0.000000
0.443137 0.607843 0.000000
0.525490 0.635294 0.000000
0.600000 0.658824 0.000000
0.670588 0.678431 0.000000
0.721569 0.690196 0.003922
0.772549 0.698039 0.011765
0.803922 0.701961 0.007843
0.835294 0.701961 0.000000
0.854902 0.701961 0.011765
0.878431 0.705882 0.027451
0.890196 0.705882 0.027451
0.901961 0.705882 0.027451
0.905882 0.705882 0.019608
0.913726 0.709804 0.015686
0.917647 0.709804 0.027451
0.921569 0.713726 0.039216
0.925490 0.713726 0.039216
0.925490 0.717647 0.039216
0.929412 0.721569 0.050980
0.933333 0.725490 0.062745
0.023529 0.443137 0.219608
0.023529 0.450980 0.219608
0.000000 0.458824 0.215686
0.000000 0.466667 0.207843
0.019608 0.474510 0.207843
0.043137 0.482353 0.200000
0.023529 0.490196 0.184314
0.000000 0.494118 0.094118
0.000000 0.498039 0.007843
0.082353 0.517647 0.000000
0.172549 0.541176 0.000000
0.274510 0.572549 0.000000
0.368627 0.603922 0.000000
0.454902 0.631373 0.007843
0.537255 0.658824 0.007843
0.603922 0.682353 0.000000
0.678431 0.701961 0.000000
0.733333 0.717647 0.019608
0.780392 0.725490 0.023529
0.811765 0.725490 0.035294
0.847059 0.729412 0.027451
0.866667 0.729412 0.031373
0.886275 0.733333 0.047059
0.898039 0.733333 0.047059
0.909804 0.733333 0.047059
0.917647 0.733333 0.047059
0.925490 0.733333 0.039216
0.929412 0.737255 0.043137
0.929412 0.737255 0.054902
0.933333 0.741176 0.058824
0.937255 0.741176 0.058824
0.937255 0.745098 0.058824
0.941177 0.749020 0.070588
0.000000 0.454902 0.223529
0.000000 0.462745 0.223529
0.000000 0.474510 0.223529
0.000000 0.482353 0.215686
0.000000 0.490196 0.211765
0.019608 0.498039 0.200000
0.039216 0.505882 0.188235
0.023529 0.513726 0.101961
0.000000 0.517647 0.007843
0.082353 0.541176 0.000000
0.176471 0.560784 0.000000
0.274510 0.592157 0.000000
0.376471 0.623529 0.000000
0.462745 0.654902 0.007843
0.545098 0.686275 0.019608
0.615686 0.705882 0.011765
0.682353 0.725490 0.000000
0.737255 0.741176 0.019608
0.792157 0.752941 0.035294
0.823529 0.752941 0.047059
0.854902 0.756863 0.054902
0.878431 0.756863 0.062745
0.898039 0.760784 0.066667
0.909804 0.760784 0.066667
0.921569 0.760784 0.066667
0.925490 0.760784 0.066667
0.933333 0.760784 0.066667
0.937255 0.760784 0.070588
0.941177 0.764706 0.074510
0.945098 0.764706 0.074510
0.945098 0.768628 0.078431
0.949020 0.768628 0.078431
0.949020 0.772549 0.078431
0.000000 0.466667 0.227451
0.019608 0.478431 0.227451
0.023529 0.486275 0.227451
0.019608 0.498039 0.223529
0.019608 0.505882 0.215686
0.000000 0.509804 0.200000
0.019608 0.517647 0.188235
0.019608 0.529412 0.121569
0.000000 0.533333 0.027451
0.090196 0.552941 0.000000
0.184314 0.576471 0.000000
0.286275 0.607843 0.000000
0.384314 0.639216 0.000000
0.466667 0.666667 0.000000
0.549020 0.694118 0.007843
0.619608 0.717647 0.019608
0.690196 0.741176 0.007843
0.745098 0.756863 0.023529
0.796079 0.768628 0.039216
0.831373 0.772549 0.050980
0.862745 0.772549 0.062745
0.882353 0.772549 0.066667
0.901961 0.776471 0.074510
0.913726 0.776471 0.074510
0.925490 0.776471 0.074510
0.933333 0.776471 0.074510
0.941177 0.776471 0.074510
0.945098 0.776471 0.078431
0.949020 0.780392 0.082353
0.949020 0.780392 0.074510
0.949020 0.780392 0.078431
0.952941 0.780392 0.078431
0.952941 0.784314 0.078431
0.000000 0.478431 0.235294
0.019608 0.486275 0.231373
0.043137 0.498039 0.231373
0.043137 0.509804 0.227451
0.039216 0.517647 0.219608
0.019608 0.525490 0.203922
0.000000 0.529412 0.184314
0.000000 0.541176 0.117647
0.000000 0.549020 0.050980
0.090196 0.568627 0.023529
0.192157 0.592157 0.000000
0.294118 0.623529 0.000000
0.396078 0.654902 0.000000
0.474510 0.678431 0.000000
0.556863 0.705882 0.000000
0.623529 0.729412 0.007843
0.694118 0.752941 0.019608
0.749020 0.768628 0.031373
0.803922 0.784314 0.047059
0.835294 0.788235 0.054902
0.870588 0.792157 0.066667
0.890196 0.792157 0.074510
0.909804 0.792157 0.078431
0.921569 0.792157 0.078431
0.933333 0.792157 0.082353
0.937255 0.792157 0.082353
0.945098 0.792157 0.082353
0.949020 0.792157 0.082353
0.952941 0.796079 0.086275
0.952941 0.796079 0.082353
0.956863 0.796079 0.074510
0.956863 0.796079 0.078431
0.956863 0.796079 0.078431
0.000000 0.486275 0.235294
0.000000 0.494118 0.231373
0.019608 0.505882 0.231373
0.023529 0.513726 0.223529
0.019608 0.521569 0.215686
0.047059 0.537255 0.203922
0.035294 0.541176 0.188235
0.000000 0.545098 0.098039
0.000000 0.556863 0.027451
0.101961 0.580392 0.023529
0.203922 0.600000 0.000000
0.298039 0.631373 0.000000
0.400000 0.662745 0.000000
0.478431 0.686275 0.007843
0.560784 0.713726 0.007843
0.627451 0.737255 0.000000
0.698039 0.760784 0.007843
0.752941 0.776471 0.035294
0.803922 0.788235 0.047059
0.839216 0.796079 0.058824
0.874510 0.800000 0.070588
0.894118 0.800000 0.074510
0.913726 0.800000 0.082353
0.925490 0.800000 0.082353
0.937255 0.800000 0.082353
0.941177 0.800000 0.082353
0.949020 0.800000 0.082353
0.952941 0.803922 0.086275
0.956863 0.803922 0.090196
0.956863 0.803922 0.086275
0.960784 0.803922 0.078431
0.960784 0.803922 0.082353
0.960784 0.803922 0.082353
0.000000 0.490196 0.239216
0.000000 0.501961 0.235294
0.000000 0.513726 0.231373
0.000000 0.521569 0.223529
0.000000 0.525490 0.211765
0.027451 0.537255 0.200000
0.062745 0.552941 0.188235
0.035294 0.556863 0.101961
0.000000 0.564706 0.007843
0.101961 0.588235 0.000000
0.215686 0.611765 0.000000
0.313726 0.639216 0.000000
0.407843 0.670588 0.000000
0.486275 0.694118 0.007843
0.564706 0.721569 0.015686
0.631373 0.745098 0.007843
0.701961 0.768628 0.000000
0.756863 0.784314 0.023529
0.807843 0.796079 0.050980
0.843137 0.800000 0.058824
0.878431 0.807843 0.070588
0.894118 0.807843 0.078431
0.913726 0.807843 0.082353
0.925490 0.807843 0.086275
0.941177 0.807843 0.086275
0.945098 0.807843 0.086275
0.952941 0.811765 0.086275
0.956863 0.811765 0.090196
0.960784 0.811765 0.094118
