All_In_One/Enrich_Colormaster/colormanagement/luts/film_response/Kodak2383_CUSPclip.cube
TITLE "Generate by Resolve"
LUT_3D_SIZE 33
0.000000 0.000000 0.000000
0.007843 0.000000 0.000000
0.015686 0.000000 0.000000
0.019608 0.003922 0.003922
0.027451 0.007843 0.007843
0.035294 0.015686 0.007843
0.043137 0.019608 0.011765
0.054902 0.023529 0.011765
0.066667 0.027451 0.011765
0.086275 0.035294 0.003922
0.101961 0.039216 0.000000
0.133333 0.047059 0.000000
0.160784 0.050980 0.000000
0.203922 0.054902 0.000000
0.243137 0.058824 0.000000
0.294118 0.062745 0.000000
0.341176 0.066667 0.000000
0.388235 0.074510 0.000000
0.435294 0.078431 0.000000
0.470588 0.090196 0.000000
0.505882 0.101961 0.000000
0.533333 0.105882 0.000000
0.560784 0.105882 0.000000
0.576471 0.117647 0.000000
0.596078 0.125490 0.000000
0.607843 0.129412 0.000000
0.615686 0.137255 0.000000
0.627451 0.141176 0.000000
0.635294 0.145098 0.000000
0.639216 0.149020 0.000000
0.647059 0.152941 0.000000
0.650980 0.152941 0.000000
0.650980 0.156863 0.000000
0.000000 0.011765 0.007843
0.007843 0.007843 0.007843
0.015686 0.007843 0.007843
0.019608 0.007843 0.007843
0.027451 0.015686 0.011765
0.035294 0.015686 0.011765
0.047059 0.023529 0.011765
0.058824 0.027451 0.011765
0.070588 0.031373 0.011765
0.090196 0.035294 0.011765
0.105882 0.043137 0.007843
0.137255 0.047059 0.000000
0.168627 0.054902 0.000000
0.211765 0.058824 0.000000
0.250980 0.062745 0.000000
0.301961 0.066667 0.000000
0.352941 0.070588 0.000000
0.403922 0.078431 0.000000
0.447059 0.086275 0.000000
0.486275 0.098039 0.000000
0.521569 0.109804 0.000000
0.545098 0.109804 0.000000
0.572549 0.113725 0.000000
0.588235 0.121569 0.000000
0.607843 0.129412 0.000000
0.615686 0.133333 0.000000
0.627451 0.141176 0.000000
0.635294 0.145098 0.000000
0.643137 0.149020 0.000000
0.647059 0.152941 0.000000
0.654902 0.152941 0.000000
0.658824 0.156863 0.000000
0.662745 0.160784 0.000000
0.003922 0.019608 0.015686
0.011765 0.019608 0.015686
0.015686 0.019608 0.011765
0.023529 0.019608 0.011765
0.027451 0.019608 0.011765
0.039216 0.023529 0.015686
0.047059 0.027451 0.015686
0.058824 0.031373 0.015686
0.074510 0.035294 0.015686
0.094118 0.039216 0.015686
0.113725 0.047059 0.011765
0.141176 0.050980 0.007843
0.176471 0.058824 0.000000
0.219608 0.062745 0.000000
0.262745 0.066667 0.000000
0.313726 0.070588 0.000000
0.364706 0.074510 0.000000
0.415686 0.082353 0.000000
0.462745 0.090196 0.000000
0.501961 0.101961 0.000000
0.537255 0.117647 0.000000
0.560784 0.117647 0.000000
0.584314 0.117647 0.000000
0.600000 0.125490 0.000000
0.615686 0.133333 0.000000
0.627451 0.141176 0.000000
0.639216 0.145098 0.000000
0.647059 0.149020 0.000000
0.650980 0.152941 0.000000
0.654902 0.156863 0.000000
0.662745 0.156863 0.000000
0.666667 0.160784 0.000000
0.670588 0.160784 0.000000
0.003922 0.023529 0.015686
0.011765 0.027451 0.019608
0.015686 0.023529 0.015686
0.023529 0.027451 0.015686
0.031373 0.027451 0.015686
0.039216 0.027451 0.019608
0.050980 0.031373 0.019608
0.062745 0.035294 0.019608
0.078431 0.043137 0.019608
0.098039 0.047059 0.019608
0.117647 0.050980 0.015686
0.152941 0.058824 0.007843
0.184314 0.062745 0.000000
0.227451 0.070588 0.000000
0.270588 0.074510 0.000000
0.325490 0.078431 0.000000
0.376471 0.082353 0.000000
0.427451 0.094118 0.000000
0.478431 0.098039 0.000000
0.513726 0.109804 0.000000
0.552941 0.121569 0.000000
0.576471 0.133333 0.000000
0.600000 0.133333 0.000000
0.615686 0.141176 0.000000
0.627451 0.149020 0.000000
0.639216 0.156863 0.011765
0.650980 0.160784 0.011765
0.654902 0.164706 0.015686
0.662745 0.164706 0.015686
0.666667 0.168627 0.015686
0.670588 0.168627 0.015686
0.674510 0.172549 0.011765
0.682353 0.172549 0.011765
0.000000 0.031373 0.019608
0.007843 0.031373 0.019608
0.015686 0.031373 0.019608
0.023529 0.031373 0.019608
0.031373 0.035294 0.019608
0.043137 0.035294 0.023529
0.050980 0.039216 0.023529
0.066667 0.043137 0.023529
0.078431 0.047059 0.023529
0.101961 0.054902 0.019608
0.121569 0.058824 0.019608
0.156863 0.066667 0.007843
0.192157 0.070588 0.000000
0.235294 0.074510 0.000000
0.282353 0.082353 0.000000
0.337255 0.086275 0.000000
0.392157 0.094118 0.000000
0.443137 0.101961 0.000000
0.494118 0.109804 0.000000
0.529412 0.117647 0.000000
0.564706 0.125490 0.000000
0.588235 0.137255 0.000000
0.611765 0.149020 0.000000
0.627451 0.156863 0.000000
0.643137 0.164706 0.000000
0.650980 0.172549 0.015686
0.662745 0.176471 0.031373
0.666667 0.180392 0.031373
0.674510 0.180392 0.031373
0.678431 0.180392 0.031373
0.682353 0.184314 0.031373
0.686275 0.184314 0.027451
0.690196 0.188235 0.027451
0.000000 0.039216 0.023529
0.003922 0.039216 0.023529
0.011765 0.039216 0.023529
0.023529 0.043137 0.023529
0.031373 0.043137 0.023529
0.043137 0.047059 0.027451
0.054902 0.047059 0.027451
0.070588 0.050980 0.027451
0.082353 0.054902 0.027451
0.105882 0.062745 0.023529
0.129412 0.066667 0.023529
0.164706 0.074510 0.011765
0.200000 0.082353 0.000000
0.250980 0.086275 0.000000
0.294118 0.094118 0.000000
0.349020 0.098039 0.000000
0.403922 0.101961 0.000000
0.454902 0.113725 0.000000
0.505882 0.121569 0.000000
0.545098 0.129412 0.000000
0.580392 0.137255 0.000000
0.603922 0.149020 0.000000
0.627451 0.160784 0.000000
0.643137 0.168627 0.000000
0.658824 0.176471 0.000000
0.666667 0.184314 0.015686
0.674510 0.188235 0.035294
0.682353 0.192157 0.035294
0.686275 0.192157 0.035294
0.690196 0.196078 0.035294
0.694118 0.196078 0.035294
0.698039 0.196078 0.027451
0.701961 0.200000 0.023529
0.000000 0.047059 0.027451
0.003922 0.047059 0.027451
0.007843 0.047059 0.027451
0.019608 0.050980 0.027451
0.031373 0.050980 0.031373
0.043137 0.054902 0.031373
0.054902 0.058824 0.031373
0.070588 0.062745 0.031373
0.086275 0.066667 0.031373
0.109804 0.070588 0.027451
0.133333 0.078431 0.027451
0.172549 0.086275 0.011765
0.207843 0.094118 0.000000
0.258824 0.098039 0.000000
0.309804 0.105882 0.000000
0.360784 0.109804 0.000000
0.415686 0.113725 0.000000
0.470588 0.125490 0.000000
0.517647 0.133333 0.000000
0.556863 0.141176 0.000000
0.596078 0.149020 0.000000
0.619608 0.160784 0.000000
0.643137 0.172549 0.000000
0.658824 0.180392 0.000000
0.674510 0.188235 0.000000
0.682353 0.196078 0.015686
0.690196 0.200000 0.035294
0.698039 0.203922 0.039216
0.701961 0.207843 0.039216
0.705882 0.207843 0.035294
0.709804 0.207843 0.035294
0.713726 0.211765 0.027451
0.717647 0.211765 0.019608
0.000000 0.058824 0.035294
0.000000 0.058824 0.031373
0.003922 0.058824 0.035294
0.011765 0.062745 0.035294
0.023529 0.062745 0.035294
0.043137 0.066667 0.035294
0.054902 0.070588 0.035294
0.074510 0.074510 0.035294
0.090196 0.078431 0.035294
0.113725 0.086275 0.031373
0.141176 0.090196 0.027451
0.180392 0.098039 0.011765
0.215686 0.105882 0.000000
0.270588 0.113725 0.000000
0.321569 0.121569 0.000000
0.376471 0.125490 0.000000
0.431373 0.133333 0.000000
0.482353 0.141176 0.000000
0.533333 0.149020 0.000000
0.572549 0.160784 0.000000
0.607843 0.168627 0.000000
0.635294 0.172549 0.000000
0.658824 0.184314 0.000000
0.670588 0.192157 0.000000
0.686275 0.203922 0.000000
0.694118 0.207843 0.011765
0.701961 0.211765 0.031373
0.709804 0.215686 0.019608
0.713726 0.219608 0.019608
0.721569 0.219608 0.019608
0.725490 0.219608 0.019608
0.725490 0.227451 0.035294
0.729412 0.227451 0.027451
0.000000 0.070588 0.039216
0.000000 0.070588 0.039216
0.000000 0.070588 0.039216
0.007843 0.074510 0.039216
0.015686 0.074510 0.039216
0.035294 0.078431 0.039216
0.054902 0.082353 0.039216
0.074510 0.086275 0.039216
0.098039 0.094118 0.039216
0.117647 0.098039 0.035294
0.145098 0.105882 0.031373
0.184314 0.113725 0.015686
0.223529 0.121569 0.000000
0.278431 0.129412 0.000000
0.333333 0.137255 0.000000
0.388235 0.141176 0.000000
0.447059 0.149020 0.000000
0.498039 0.156863 0.000000
0.549020 0.168627 0.000000
0.584314 0.180392 0.000000
0.623529 0.188235 0.000000
0.647059 0.196078 0.000000
0.670588 0.200000 0.000000
0.682353 0.207843 0.000000
0.698039 0.215686 0.000000
0.705882 0.219608 0.011765
0.713726 0.223529 0.023529
0.717647 0.227451 0.011765
0.725490 0.231373 0.000000
0.729412 0.231373 0.000000
0.737255 0.231373 0.000000
0.737255 0.239216 0.019608
0.741176 0.247059 0.035294
0.000000 0.090196 0.047059
0.000000 0.086275 0.043137
0.000000 0.086275 0.043137
0.000000 0.090196 0.043137
0.007843 0.090196 0.043137
0.027451 0.094118 0.043137
0.050980 0.098039 0.043137
0.074510 0.105882 0.043137
0.094118 0.109804 0.043137
0.125490 0.117647 0.039216
0.149020 0.125490 0.035294
0.192157 0.133333 0.015686
0.231373 0.141176 0.000000
0.290196 0.149020 0.000000
0.345098 0.156863 0.000000
0.403922 0.168627 0.000000
0.462745 0.176471 0.000000
0.517647 0.184314 0.000000
0.564706 0.196078 0.000000
0.603922 0.203922 0.000000
0.639216 0.215686 0.000000
0.662745 0.219608 0.000000
0.686275 0.223529 0.000000
0.698039 0.227451 0.000000
0.709804 0.231373 0.000000
0.717647 0.239216 0.000000
0.725490 0.243137 0.011765
0.733333 0.250980 0.031373
0.737255 0.250980 0.019608
0.745098 0.254902 0.000000
0.749020 0.258824 0.000000
0.752941 0.262745 0.019608
0.756863 0.270588 0.035294
0.000000 0.105882 0.050980
0.000000 0.105882 0.050980
0.000000 0.105882 0.050980
0.000000 0.105882 0.047059
0.000000 0.109804 0.047059
0.019608 0.113725 0.047059
0.043137 0.117647 0.047059
0.070588 0.125490 0.047059
0.094118 0.129412 0.047059
0.125490 0.137255 0.039216
0.152941 0.145098 0.035294
0.196078 0.152941 0.019608
0.243137 0.160784 0.000000
0.298039 0.172549 0.000000
0.356863 0.180392 0.000000
0.419608 0.192157 0.000000
0.478431 0.200000 0.000000
0.533333 0.211765 0.000000
0.584314 0.223529 0.000000
0.623529 0.231373 0.000000
0.658824 0.239216 0.000000
0.678431 0.247059 0.000000
0.701961 0.250980 0.000000
0.713726 0.250980 0.000000
0.725490 0.250980 0.000000
0.733333 0.258824 0.000000
0.741176 0.262745 0.000000
0.745098 0.270588 0.023529
0.752941 0.278431 0.039216
0.756863 0.278431 0.019608
0.764706 0.282353 0.000000
0.768628 0.290196 0.019608
0.772549 0.298039 0.035294
0.000000 0.133333 0.062745
0.000000 0.133333 0.062745
0.000000 0.133333 0.062745
0.000000 0.133333 0.058824
0.000000 0.133333 0.054902
0.000000 0.137255 0.050980
0.019608 0.141176 0.050980
0.062745 0.149020 0.047059
0.086275 0.156863 0.047059
0.129412 0.164706 0.031373
0.156863 0.172549 0.027451
0.207843 0.184314 0.019608
0.250980 0.192157 0.000000
0.313726 0.203922 0.000000
0.372549 0.215686 0.000000
0.439216 0.227451 0.000000
0.498039 0.235294 0.000000
0.552941 0.250980 0.000000
0.607843 0.262745 0.000000
0.643137 0.266667 0.000000
0.678431 0.274510 0.000000
0.698039 0.282353 0.000000
0.717647 0.286275 0.000000
0.733333 0.290196 0.000000
0.745098 0.290196 0.000000
0.752941 0.294118 0.003922
0.760784 0.298039 0.003922
0.764706 0.301961 0.000000
0.768628 0.309804 0.023529
0.772549 0.313726 0.031373
0.780392 0.317647 0.007843
0.784314 0.325490 0.007843
0.788235 0.333333 0.027451
0.000000 0.160784 0.074510
0.000000 0.160784 0.074510
0.000000 0.160784 0.070588
0.000000 0.160784 0.066667
0.000000 0.160784 0.062745
0.000000 0.164706 0.058824
0.000000 0.168627 0.050980
0.039216 0.172549 0.047059
0.078431 0.180392 0.043137
0.121569 0.192157 0.031373
0.160784 0.200000 0.019608
0.211765 0.211765 0.011765
0.262745 0.223529 0.000000
0.325490 0.235294 0.000000
0.388235 0.247059 0.000000
0.450980 0.262745 0.000000
0.517647 0.274510 0.000000
0.572549 0.286275 0.000000
0.627451 0.298039 0.000000
0.662745 0.301961 0.000000
0.698039 0.309804 0.000000
0.717647 0.313726 0.000000
0.737255 0.321569 0.000000
0.749020 0.325490 0.000000
0.764706 0.329412 0.000000
0.768628 0.329412 0.003922
0.776471 0.333333 0.011765
0.784314 0.337255 0.003922
0.788235 0.341176 0.000000
0.792157 0.345098 0.011765
0.796079 0.352941 0.019608
0.800000 0.360784 0.019608
0.807843 0.368627 0.019608
0.000000 0.200000 0.094118
0.000000 0.200000 0.090196
0.000000 0.200000 0.090196
0.000000 0.200000 0.082353
0.000000 0.200000 0.078431
0.000000 0.200000 0.066667
0.000000 0.203922 0.058824
0.000000 0.207843 0.031373
0.039216 0.215686 0.027451
0.117647 0.227451 0.023529
0.160784 0.235294 0.011765
0.219608 0.250980 0.007843
0.270588 0.262745 0.000000
0.341176 0.282353 0.000000
0.403922 0.294118 0.000000
0.470588 0.309804 0.000000
0.537255 0.321569 0.000000
0.592157 0.333333 0.000000
0.647059 0.345098 0.000000
0.682353 0.352941 0.000000
0.717647 0.356863 0.000000
0.737255 0.360784 0.015686
0.756863 0.368627 0.015686
0.768628 0.372549 0.019608
0.780392 0.372549 0.019608
0.788235 0.376471 0.000000
0.796079 0.376471 0.003922
0.800000 0.384314 0.027451
0.807843 0.384314 0.019608
0.811765 0.392157 0.000000
0.815686 0.396078 0.011765
0.819608 0.407843 0.027451
0.823529 0.415686 0.023529
0.000000 0.239216 0.113725
0.000000 0.239216 0.109804
0.000000 0.239216 0.109804
0.000000 0.239216 0.101961
0.000000 0.239216 0.094118
0.000000 0.239216 0.082353
0.000000 0.243137 0.070588
0.000000 0.247059 0.039216
0.000000 0.250980 0.007843
0.074510 0.262745 0.003922
0.156863 0.274510 0.000000
0.215686 0.290196 0.000000
0.278431 0.305882 0.000000
0.349020 0.321569 0.000000
0.423529 0.341176 0.000000
0.490196 0.356863 0.000000
0.556863 0.372549 0.000000
0.611765 0.384314 0.000000
0.666667 0.396078 0.000000
0.701961 0.400000 0.000000
0.737255 0.407843 0.000000
0.756863 0.411765 0.015686
0.776471 0.415686 0.035294
0.788235 0.415686 0.039216
0.800000 0.419608 0.043137
0.807843 0.419608 0.019608
0.815686 0.423529 0.000000
0.819608 0.427451 0.023529
0.827451 0.431373 0.043137
0.831373 0.439216 0.019608
0.835294 0.443137 0.000000
0.839216 0.450980 0.015686
0.843137 0.458824 0.031373
0.000000 0.290196 0.137255
0.000000 0.290196 0.137255
0.000000 0.290196 0.133333
0.000000 0.290196 0.125490
0.000000 0.290196 0.117647
0.000000 0.290196 0.101961
0.000000 0.290196 0.090196
0.000000 0.290196 0.035294
0.000000 0.294118 0.003922
0.062745 0.305882 0.000000
0.141176 0.317647 0.000000
0.223529 0.341176 0.000000
0.286275 0.356863 0.000000
0.364706 0.376471 0.000000
0.439216 0.396078 0.000000
0.509804 0.411765 0.000000
0.580392 0.427451 0.000000
0.635294 0.439216 0.000000
0.686275 0.450980 0.000000
0.721569 0.458824 0.000000
0.756863 0.466667 0.000000
0.780392 0.466667 0.003922
0.800000 0.470588 0.023529
0.807843 0.466667 0.019608
0.819608 0.470588 0.023529
0.827451 0.474510 0.039216
0.835294 0.474510 0.015686
0.839216 0.478431 0.000000
0.843137 0.482353 0.023529
0.847059 0.490196 0.027451
0.854902 0.494118 0.003922
0.862745 0.505882 0.000000
0.866667 0.513726 0.015686
0.000000 0.337255 0.164706
0.000000 0.337255 0.160784
0.000000 0.337255 0.156863
0.000000 0.337255 0.149020
0.000000 0.341176 0.141176
0.000000 0.341176 0.125490
0.000000 0.341176 0.109804
0.000000 0.341176 0.058824
0.000000 0.341176 0.003922
0.062745 0.352941 0.000000
0.129412 0.364706 0.000000
0.211765 0.388235 0.000000
0.294118 0.407843 0.000000
0.372549 0.427451 0.000000
0.454902 0.450980 0.000000
0.525490 0.466667 0.000000
0.600000 0.486275 0.000000
0.654902 0.498039 0.000000
0.709804 0.509804 0.000000
0.745098 0.517647 0.000000
0.780392 0.521569 0.000000
0.800000 0.525490 0.003922
0.823529 0.525490 0.011765
0.831373 0.521569 0.007843
0.839216 0.521569 0.000000
0.847059 0.521569 0.015686
0.850980 0.525490 0.031373
0.858824 0.529412 0.015686
0.862745 0.533333 0.000000
0.866667 0.541176 0.007843
0.870588 0.549020 0.011765
0.878431 0.556863 0.007843
0.886275 0.568627 0.000000
0.000000 0.380392 0.192157
0.015686 0.388235 0.192157
0.019608 0.388235 0.188235
0.000000 0.388235 0.180392
0.000000 0.388235 0.168627
0.000000 0.392157 0.156863
0.000000 0.392157 0.141176
0.000000 0.392157 0.098039
0.000000 0.392157 0.043137
0.035294 0.400000 0.000000
0.098039 0.411765 0.000000
0.215686 0.435294 0.000000
0.298039 0.458824 0.000000
0.388235 0.482353 0.000000
0.470588 0.505882 0.000000
0.545098 0.525490 0.000000
0.619608 0.545098 0.000000
0.674510 0.556863 0.000000
0.729412 0.568627 0.000000
0.764706 0.572549 0.000000
0.800000 0.580392 0.000000
0.819608 0.580392 0.015686
0.843137 0.580392 0.023529
0.850980 0.580392 0.023529
0.858824 0.576471 0.015686
0.866667 0.580392 0.000000
0.874510 0.580392 0.015686
0.878431 0.584314 0.015686
0.886275 0.588235 0.000000
0.886275 0.596078 0.019608
0.890196 0.600000 0.027451
0.894118 0.607843 0.007843
0.901961 0.615686 0.000000
0.000000 0.423529 0.215686
0.015686 0.431373 0.215686
0.039216 0.435294 0.219608
0.019608 0.435294 0.207843
0.000000 0.435294 0.200000
0.000000 0.439216 0.184314
0.000000 0.443137 0.168627
0.000000 0.443137 0.129412
0.000000 0.439216 0.082353
0.035294 0.447059 0.043137
0.070588 0.458824 0.000000
0.184314 0.482353 0.000000
0.301961 0.505882 0.000000
0.392157 0.533333 0.000000
0.482353 0.556863 0.000000
0.560784 0.580392 0.000000
0.635294 0.600000 0.000000
0.694118 0.611765 0.000000
0.749020 0.627451 0.000000
0.784314 0.631373 0.000000
0.819608 0.631373 0.000000
0.839216 0.631373 0.015686
0.858824 0.635294 0.035294
0.870588 0.631373 0.035294
0.882353 0.631373 0.035294
0.890196 0.635294 0.015686
0.898039 0.635294 0.000000
0.901961 0.639216 0.000000
0.905882 0.643137 0.000000
0.909804 0.647059 0.019608
0.913726 0.654902 0.039216
0.917647 0.658824 0.019608
0.917647 0.666667 0.000000
0.023529 0.454902 0.227451
0.015686 0.458824 0.227451
0.035294 0.462745 0.227451
0.023529 0.466667 0.223529
0.000000 0.470588 0.211765
0.000000 0.470588 0.203922
0.000000 0.474510 0.188235
0.000000 0.482353 0.149020
0.000000 0.478431 0.105882
0.000000 0.486275 0.043137
0.035294 0.498039 0.003922
0.184314 0.521569 0.000000
0.305882 0.545098 0.000000
0.403922 0.576471 0.000000
0.494118 0.600000 0.000000
0.572549 0.623529 0.000000
0.650980 0.647059 0.000000
0.709804 0.658824 0.007843
0.764706 0.670588 0.007843
0.796079 0.674510 0.015686
0.831373 0.674510 0.015686
0.854902 0.678431 0.023529
0.874510 0.678431 0.043137
0.886275 0.678431 0.043137
0.898039 0.678431 0.043137
0.905882 0.678431 0.043137
0.909804 0.678431 0.027451
0.913726 0.682353 0.031373
0.921569 0.686275 0.031373
0.921569 0.690196 0.031373
0.925490 0.694118 0.050980
0.929412 0.698039 0.043137
0.933333 0.701961 0.023529
0.047059 0.482353 0.243137
0.043137 0.486275 0.243137
0.035294 0.494118 0.239216
0.019608 0.498039 0.235294
0.000000 0.501961 0.227451
0.000000 0.505882 0.215686
0.000000 0.505882 0.203922
0.000000 0.513726 0.168627
0.000000 0.517647 0.129412
0.000000 0.525490 0.066667
0.000000 0.533333 0.003922
0.145098 0.556863 0.000000
0.305882 0.584314 0.000000
0.407843 0.611765 0.000000
0.505882 0.643137 0.000000
0.584314 0.666667 0.000000
0.662745 0.690196 0.000000
0.721569 0.701961 0.007843
0.780392 0.713726 0.011765
0.811765 0.717647 0.023529
0.847059 0.717647 0.031373
0.866667 0.721569 0.039216
0.890196 0.721569 0.050980
0.901961 0.721569 0.050980
0.913726 0.721569 0.054902
0.917647 0.721569 0.054902
0.925490 0.721569 0.054902
0.929412 0.725490 0.058824
0.933333 0.729412 0.062745
0.937255 0.733333 0.058824
0.941177 0.733333 0.058824
0.941177 0.737255 0.054902
0.945098 0.741176 0.050980
0.023529 0.501961 0.247059
0.023529 0.505882 0.247059
0.019608 0.509804 0.243137
0.015686 0.517647 0.243137
0.000000 0.521569 0.235294
0.000000 0.525490 0.223529
0.000000 0.525490 0.211765
0.000000 0.537255 0.184314
0.000000 0.541176 0.145098
0.000000 0.552941 0.066667
0.000000 0.560784 0.003922
0.156863 0.584314 0.000000
0.313726 0.611765 0.000000
0.415686 0.639216 0.000000
0.509804 0.670588 0.000000
0.592157 0.694118 0.000000
0.670588 0.717647 0.000000
0.733333 0.729412 0.019608
0.788235 0.745098 0.027451
0.819608 0.745098 0.035294
0.854902 0.749020 0.047059
0.878431 0.749020 0.050980
0.898039 0.752941 0.062745
0.909804 0.752941 0.062745
0.921569 0.752941 0.062745
0.929412 0.752941 0.062745
0.933333 0.752941 0.062745
0.937255 0.752941 0.066667
0.945098 0.756863 0.070588
0.945098 0.756863 0.074510
0.949020 0.760784 0.070588
0.949020 0.764706 0.070588
0.952941 0.768628 0.066667
0.000000 0.517647 0.250980
0.000000 0.521569 0.250980
0.000000 0.525490 0.247059
0.000000 0.533333 0.247059
0.000000 0.541176 0.243137
0.000000 0.545098 0.231373
0.000000 0.545098 0.219608
0.000000 0.556863 0.192157
0.000000 0.564706 0.160784
0.000000 0.576471 0.086275
0.000000 0.584314 0.003922
0.156863 0.611765 0.000000
0.325490 0.639216 0.000000
0.423529 0.666667 0.000000
0.517647 0.694118 0.000000
0.600000 0.721569 0.000000
0.678431 0.745098 0.000000
0.741176 0.756863 0.019608
0.796079 0.772549 0.043137
0.831373 0.772549 0.050980
0.862745 0.776471 0.062745
0.886275 0.776471 0.066667
0.909804 0.780392 0.074510
0.921569 0.780392 0.074510
0.933333 0.780392 0.074510
0.937255 0.780392 0.074510
0.945098 0.780392 0.074510
0.949020 0.784314 0.078431
0.952941 0.784314 0.082353
0.952941 0.788235 0.082353
0.956863 0.788235 0.082353
0.956863 0.792157 0.082353
0.960784 0.792157 0.082353
0.000000 0.529412 0.258824
0.000000 0.533333 0.254902
0.000000 0.537255 0.254902
0.023529 0.545098 0.250980
0.027451 0.552941 0.247059
0.031373 0.556863 0.235294
0.031373 0.560784 0.223529
0.000000 0.568627 0.180392
0.000000 0.576471 0.149020
0.011765 0.592157 0.086275
0.011765 0.600000 0.003922
0.164706 0.627451 0.000000
0.333333 0.654902 0.000000
0.431373 0.682353 0.000000
0.525490 0.709804 0.000000
0.603922 0.733333 0.003922
0.682353 0.756863 0.003922
0.745098 0.776471 0.023529
0.803922 0.788235 0.047059
0.839216 0.792157 0.054902
0.870588 0.796079 0.066667
0.890196 0.792157 0.070588
0.913726 0.796079 0.078431
0.925490 0.796079 0.078431
0.937255 0.796079 0.082353
0.945098 0.796079 0.078431
0.949020 0.800000 0.078431
0.952941 0.800000 0.082353
0.956863 0.800000 0.086275
0.960784 0.803922 0.086275
0.960784 0.803922 0.090196
0.964706 0.803922 0.090196
0.964706 0.807843 0.090196
0.000000 0.541176 0.262745
0.000000 0.545098 0.258824
0.000000 0.552941 0.258824
0.023529 0.560784 0.254902
0.050980 0.568627 0.250980
0.058824 0.568627 0.243137
0.062745 0.572549 0.227451
0.031373 0.580392 0.184314
0.000000 0.588235 0.137255
0.011765 0.600000 0.070588
0.027451 0.615686 0.003922
0.176471 0.643137 0.000000
0.341176 0.670588 0.000000
0.439216 0.698039 0.000000
0.533333 0.725490 0.000000
0.611765 0.749020 0.003922
0.686275 0.772549 0.011765
0.749020 0.788235 0.031373
0.807843 0.803922 0.050980
0.843137 0.807843 0.058824
0.878431 0.811765 0.070588
0.898039 0.811765 0.074510
0.917647 0.811765 0.082353
0.929412 0.811765 0.082353
0.941177 0.815686 0.086275
0.949020 0.815686 0.086275
0.952941 0.815686 0.086275
0.960784 0.815686 0.086275
0.960784 0.819608 0.090196
0.964706 0.819608 0.090196
0.968628 0.819608 0.094118
0.968628 0.819608 0.094118
0.968628 0.823529 0.094118
0.011765 0.545098 0.266667
0.027451 0.552941 0.262745
0.027451 0.560784 0.262745
0.003922 0.568627 0.254902
0.023529 0.576471 0.250980
0.027451 0.580392 0.239216
0.031373 0.580392 0.223529
0.031373 0.588235 0.188235
0.000000 0.596078 0.141176
0.043137 0.611765 0.070588
0.058824 0.623529 0.003922
0.188235 0.650980 0.000000
0.349020 0.678431 0.000000
0.443137 0.705882 0.000000
0.537255 0.733333 0.000000
0.615686 0.756863 0.000000
0.690196 0.780392 0.003922
0.752941 0.796079 0.031373
0.811765 0.811765 0.050980
0.847059 0.815686 0.062745
0.882353 0.823529 0.070588
0.901961 0.819608 0.078431
0.921569 0.819608 0.082353
0.933333 0.823529 0.086275
0.945098 0.823529 0.090196
0.952941 0.823529 0.090196
0.956863 0.823529 0.086275
0.960784 0.827451 0.090196
0.964706 0.827451 0.094118
0.968628 0.827451 0.094118
0.968628 0.827451 0.094118
0.972549 0.827451 0.098039
0.972549 0.831373 0.098039
0.019608 0.552941 0.266667
0.035294 0.560784 0.266667
0.054902 0.568627 0.266667
0.031373 0.576471 0.258824
0.003922 0.584314 0.250980
0.000000 0.588235 0.235294
0.000000 0.588235 0.223529
0.000000 0.596078 0.184314
0.000000 0.607843 0.141176
0.043137 0.619608 0.074510
0.086275 0.631373 0.003922
0.219608 0.658824 0.000000
0.356863 0.690196 0.000000
0.450980 0.713726 0.000000
0.541176 0.741176 0.000000
0.619608 0.764706 0.000000
0.694118 0.788235 0.000000
0.752941 0.803922 0.023529
0.811765 0.819608 0.050980
0.847059 0.823529 0.062745
0.882353 0.831373 0.074510
0.901961 0.831373 0.078431
0.921569 0.827451 0.082353
0.933333 0.831373 0.086275
0.949020 0.831373 0.090196
0.952941 0.831373 0.090196
0.960784 0.831373 0.090196
0.964706 0.835294 0.094118
0.968628 0.835294 0.094118
