All_In_One/Enrich_Colormaster/colormanagement/luts/film_response/Legend.cube
TITLE "Legend"
LUT_3D_SIZE 5
DOMAIN_MIN 0.000000 0.000000 0.000000
DOMAIN_MAX 0.903226 0.903226 0.903226
0.0706 0.0706 0.0706
0.1255 0.1255 0.1255
0.2196 0.2196 0.2196
0.3804 0.3804 0.3804
0.5804 0.5804 0.5804
0.1647 0.1647 0.1647
0.1882 0.1882 0.1882
0.2784 0.2784 0.2784
0.4314 0.4314 0.4314
0.6157 0.6157 0.6157
0.3490 0.3490 0.3490
0.3686 0.3686 0.3686
0.4314 0.4314 0.4314
0.5569 0.5569 0.5569
0.7137 0.7137 0.7137
0.6275 0.6275 0.6275
0.6431 0.6431 0.6431
0.6824 0.6824 0.6824
0.7529 0.7529 0.7529
0.8471 0.8471 0.8471
0.8667 0.8667 0.8667
0.8706 0.8706 0.8706
0.8902 0.8902 0.8902
0.9176 0.9176 0.9176
0.9490 0.9490 0.9490
0.0902 0.0902 0.0902
0.1255 0.1255 0.1255
0.2196 0.2196 0.2196
0.3804 0.3804 0.3804
0.5804 0.5804 0.5804
0.1647 0.1647 0.1647
0.1882 0.1882 0.1882
0.2784 0.2784 0.2784
0.4353 0.4353 0.4353
0.6275 0.6275 0.6275
0.3490 0.3490 0.3490
0.3608 0.3608 0.3608
0.4078 0.4078 0.4078
0.5569 0.5569 0.5569
0.7216 0.7216 0.7216
0.6275 0.6275 0.6275
0.6392 0.6392 0.6392
0.6784 0.6784 0.6784
0.7412 0.7412 0.7412
0.8471 0.8471 0.8471
0.8667 0.8667 0.8667
0.8706 0.8706 0.8706
0.8902 0.8902 0.8902
0.9137 0.9137 0.9137
0.9451 0.9451 0.9451
0.1176 0.1176 0.1176
0.1451 0.1451 0.1451
0.2196 0.2196 0.2196
0.3804 0.3804 0.3804
0.5804 0.5804 0.5804
0.1843 0.1843 0.1843
0.2196 0.2196 0.2196
0.2784 0.2784 0.2784
0.4353 0.4353 0.4353
0.6275 0.6275 0.6275
0.3490 0.3490 0.3490
0.3608 0.3608 0.3608
0.4314 0.4314 0.4314
0.5647 0.5647 0.5647
0.7412 0.7412 0.7412
0.6275 0.6275 0.6275
0.6392 0.6392 0.6392
0.6667 0.6667 0.6667
0.7216 0.7216 0.7216
0.8549 0.8549 0.8549
0.8667 0.8667 0.8667
0.8706 0.8706 0.8706
0.8902 0.8902 0.8902
0.9137 0.9137 0.9137
0.9451 0.9451 0.9451
0.1608 0.1608 0.1608
0.1843 0.1843 0.1843
0.2588 0.2588 0.2588
0.3804 0.3804 0.3804
0.5804 0.5804 0.5804
0.2196 0.2196 0.2196
0.2706 0.2706 0.2706
0.3294 0.3294 0.3294
0.4353 0.4353 0.4353
0.6275 0.6275 0.6275
0.3843 0.3843 0.3843
0.4157 0.4157 0.4157
0.4902 0.4902 0.4902
0.5647 0.5647 0.5647
0.7412 0.7412 0.7412
0.6275 0.6275 0.6275
0.6392 0.6392 0.6392
0.6667 0.6667 0.6667
0.7529 0.7529 0.7529
0.8667 0.8667 0.8667
0.8667 0.8667 0.8667
0.8706 0.8706 0.8706
0.8902 0.8902 0.8902
0.9176 0.9176 0.9176
0.9412 0.9412 0.9412
0.2196 0.2196 0.2196
0.2431 0.2431 0.2431
0.3098 0.3098 0.3098
0.4235 0.4235 0.4235
0.5804 0.5804 0.5804
0.2745 0.2745 0.2745
0.3255 0.3255 0.3255
0.3843 0.3843 0.3843
0.4902 0.4902 0.4902
0.6275 0.6275 0.6275
0.4314 0.4314 0.4314
0.4667 0.4667 0.4667
0.5686 0.5686 0.5686
0.6431 0.6431 0.6431
0.7412 0.7412 0.7412
0.6588 0.6588 0.6588
0.6824 0.6824 0.6824
0.7412 0.7412 0.7412
0.8157 0.8157 0.8157
0.8667 0.8667 0.8667
0.8667 0.8667 0.8667
0.8706 0.8706 0.8706
0.8902 0.8902 0.8902
0.9176 0.9176 0.9176
0.9490 0.9490 0.9490
