All_In_One/Enrich_Colormaster/colormanagement/luts/film_response/LifeGivingTree.cube
TITLE "Generate by Resolve"
LUT_3D_SIZE 33
0 0 0
0 0 0
0.0698558 0 0
0.114656 0 0
0.14435 0 0
0.164248 0 0
0.180972 0 0
0.196796 0 0
0.211734 0 0
0.223926 0 0
0.232151 0 0
0.236072 0 0
0.23563 0 0
0.230365 0 0
0.219821 0 0
0.203098 0 0
0.178012 0 0
0.133104 0.00540169 0
0.0561074 0.0334173 0.031342
0.0573892 0.0420539 0.0437629
0.064744 0.0493019 0.052018
0.0722515 0.0565042 0.0602121
0.0799725 0.0636606 0.0682536
0.0878767 0.0707713 0.076173
0.0959793 0.0778363 0.0839551
0.10425 0.0848554 0.0916304
0.112673 0.0918441 0.0992142
0.121233 0.0988022 0.106691
0.129915 0.105745 0.114076
0.13872 0.112642 0.12137
0.147539 0.119554 0.128573
0.154986 0.126787 0.136706
0.161929 0.134127 0.145129
0 0 0
0 0 0
0.0718853 0 0
0.125887 0 0
0.167422 0 0
0.194949 0 0
0.211795 0 0
0.224506 0 0
0.23595 0 0
0.246647 0 0
0.255528 0 0
0.261189 0 0
0.262959 0 0
0.260365 0 0
0.252918 0 0
0.239857 0 0
0.220188 0.00604257 0
0.185733 0.0237888 0
0.0995499 0.053666 0.0467079
0.0785229 0.0677195 0.0715038
0.0844892 0.0753033 0.0806134
0.0919051 0.0825208 0.0888991
0.0995346 0.0896925 0.0970474
0.107393 0.0968032 0.105043
0.115434 0.103883 0.112917
0.123674 0.110903 0.120653
0.132052 0.117906 0.128298
0.140597 0.124865 0.135836
0.149264 0.131792 0.143267
0.158038 0.138705 0.150591
0.166857 0.145617 0.157778
0.174334 0.152834 0.165881
0.181353 0.160174 0.174182
0 0 0
0 0 0
0 0 0
0.0684062 0 0
0.14078 0 0
0.189929 0 0
0.214817 0 0
0.231052 0 0
0.244297 0 0
0.255955 0 0
0.266133 0 0
0.274083 0 0
0.278843 0 0
0.279774 0 0
0.276188 0.00672923 0
0.267506 0.0176852 0
0.252888 0.0301213 0
0.228779 0.0449226 0
0.176028 0.0665141 0.0381018
0.103441 0.0925154 0.0968795
0.104326 0.101259 0.109529
0.11165 0.108492 0.11783
0.119188 0.115679 0.126085
0.126955 0.12282 0.134203
0.134936 0.1299 0.142153
0.143114 0.136934 0.149981
0.151461 0.143938 0.157702
0.15996 0.150912 0.165301
0.168597 0.157839 0.172778
0.17734 0.164752 0.180163
0.18613 0.171679 0.18732
0.193591 0.178897 0.195407
0.200656 0.186236 0.203616
0 0.00335698 0
0 0.0125277 0
0 0.0173953 0
0.0167086 0.0191196 0
0.0752575 0.0119631 0
0.138643 0.00270085 0
0.194415 0 0
0.229587 0 0
0.24686 0 0
0.258427 0.00270085 0
0.268254 0.00827039 0
0.27718 0.0142367 0
0.284566 0.020737 0
0.289357 0.0279698 0
0.290211 0.0362249 0
0.286259 0.0456703 0
0.276844 0.0565042 0
0.260868 0.0689708 0.00773632
0.227359 0.0855879 0.0426947
0.130846 0.11667 0.121172
0.124529 0.127077 0.138689
0.131609 0.134386 0.147005
0.139025 0.141604 0.155383
0.146685 0.14876 0.163592
0.154574 0.155856 0.171649
0.162676 0.162905 0.179568
0.170962 0.169924 0.18735
0.1794 0.176898 0.19501
0.187991 0.183841 0.202533
0.196704 0.190753 0.209964
0.205463 0.197696 0.217121
0.212833 0.204944 0.225208
0.219928 0.212284 0.233295
0 0.0321965 0
0 0.0417029 0
0 0.0487068 0
0.00645457 0.0532692 0
0.0457771 0.0545815 0
0.0911116 0.0499886 0
0.142596 0.0436561 0
0.191852 0.038819 0
0.232258 0.0364385 0
0.258 0.0377356 0
0.272419 0.0418097 0
0.281773 0.0471809 0
0.289174 0.0532235 0
0.294896 0.0598459 0
0.297978 0.067216 0
0.297566 0.0755169 0
0.292699 0.0849317 0.000427253
0.282338 0.0956893 0.0251469
0.258335 0.109636 0.05832
0.188037 0.134203 0.123262
0.148211 0.152056 0.16582
0.151934 0.160143 0.176425
0.159258 0.167376 0.184817
0.166812 0.174563 0.193118
0.174609 0.181689 0.201251
0.182605 0.188754 0.209232
0.190784 0.195789 0.217075
0.199145 0.202792 0.224781
0.20766 0.209751 0.23238
0.216297 0.216678 0.239872
0.224948 0.223651 0.247044
0.232151 0.230945 0.255192
0.239231 0.2383 0.263172
0 0.059678 0
0 0.0692454 0
0 0.077348 0
0.0103761 0.082948 0
0.0388647 0.0876631 0
0.0742351 0.0888838 0
0.111101 0.0861372 0
0.153368 0.082063 0
0.195224 0.0790112 0
0.233326 0.0775158 0
0.263005 0.0782177 0
0.282979 0.0809949 0
0.29543 0.0855268 0
0.302647 0.0914015 0
0.306981 0.098085 0
0.308354 0.105592 0
0.306157 0.114031 0.0180819
0.29926 0.123629 0.0440681
0.283879 0.135195 0.0752728
0.243412 0.152499 0.123552
0.172244 0.176959 0.192721
0.172564 0.185794 0.206043
0.179889 0.193042 0.214282
0.187411 0.200229 0.222599
0.195132 0.20737 0.230762
0.203052 0.214466 0.238773
0.211154 0.22153 0.246662
0.219409 0.22855 0.254459
0.227817 0.235523 0.262135
0.236347 0.242481 0.269703
0.244846 0.249485 0.27689
0.251789 0.256855 0.285191
0.258793 0.26424 0.29308
0 0.0860914 0
0 0.0956283 0
0.00276188 0.104219 0
0.0221714 0.11104 0
0.0473335 0.11603 0
0.0758068 0.120455 0
0.108721 0.122164 0
0.142748 0.121202 0
0.182483 0.118502 0
0.222034 0.115999 0
0.25626 0.115053 0
0.282856 0.115892 0
0.301762 0.118532 0
0.313863 0.12282 0
0.320424 0.128496 0
0.322393 0.135378 0.00383001
0.32076 0.143206 0.0316472
0.315358 0.152026 0.0607767
0.303212 0.162417 0.0940108
0.273899 0.176699 0.139101
0.194293 0.202319 0.221012
0.193484 0.211337 0.235904
0.200809 0.218585 0.244175
0.208331 0.225772 0.252384
0.216022 0.232944 0.260441
0.223865 0.24007 0.26836
0.231876 0.24715 0.276188
0.24004 0.2542 0.283925
0.248325 0.261219 0.291569
0.256748 0.268223 0.299138
0.265049 0.275273 0.306416
0.27158 0.282734 0.314931
0.278599 0.290135 0.322591
0.00358587 0.111818 0
0.0108644 0.121202 0
0.0223545 0.129244 0
0.0379797 0.136217 0
0.0602579 0.141939 0
0.0836805 0.147234 0
0.109758 0.151904 0
0.138582 0.154086 0
0.167178 0.154589 0
0.200153 0.153857 0
0.234226 0.153033 0
0.265217 0.153002 0
0.291051 0.154223 0
0.310857 0.156802 0
0.324697 0.160739 0
0.332723 0.165988 0.0157931
0.335409 0.172519 0.0440223
0.332692 0.180316 0.075227
0.322423 0.189822 0.111482
0.299413 0.202167 0.156863
0.233219 0.224186 0.234134
0.216327 0.236469 0.264027
0.222171 0.244038 0.273396
0.229709 0.25124 0.281544
0.2374 0.258412 0.28957
0.245228 0.265538 0.297505
0.253178 0.272648 0.305364
0.261265 0.279713 0.31313
0.269474 0.286763 0.320836
0.277806 0.293767 0.32845
0.285939 0.300877 0.335775
0.292058 0.308431 0.344564
0.298909 0.315877 0.352209
0.0264744 0.136614 0.0222934
0.0330663 0.145937 0.0120241
0.0421607 0.15462 0.000717174
0.0548867 0.162234 0
0.0723583 0.167865 0
0.0931563 0.173068 0
0.116167 0.178271 0
0.140291 0.183169 0
0.16553 0.186099 0
0.190265 0.187778 0
0.218372 0.188525 0
0.248157 0.188968 0
0.276234 0.189868 0
0.300587 0.191608 0
0.320043 0.194385 0.015198
0.334112 0.198291 0.0367285
0.342519 0.203387 0.0625772
0.344869 0.209781 0.0928969
0.338857 0.21796 0.129702
0.324071 0.228046 0.17319
0.27892 0.2448 0.239963
0.240772 0.261295 0.29041
0.244099 0.269383 0.302205
0.251606 0.2766 0.310323
0.259266 0.283772 0.318395
0.267079 0.290898 0.326345
0.274998 0.298009 0.334234
0.283024 0.305104 0.342046
0.291157 0.312154 0.349783
0.299397 0.319203 0.357427
0.307347 0.326345 0.364813
0.313024 0.334005 0.373907
0.319631 0.341527 0.381628
0.0505989 0.160845 0.0556649
0.0566415 0.170092 0.0477455
0.0647135 0.178805 0.0391699
0.0750744 0.187045 0.028687
0.0887922 0.194034 0.0207065
0.106065 0.199329 0.0190738
0.12517 0.204517 0.0133516
0.146609 0.209705 0.00111391
0.169314 0.214481 0
0.192187 0.217975 0
0.213947 0.220615 0.000396735
0.238087 0.222538 0.0127108
0.264103 0.224079 0.0237736
0.289311 0.225818 0.0352636
0.311681 0.228122 0.0491188
0.329885 0.23122 0.0668803
0.343084 0.235279 0.0895247
0.350744 0.240421 0.11696
0.350729 0.247074 0.151568
0.343038 0.255253 0.193088
0.314717 0.26775 0.252033
0.264836 0.286244 0.316945
0.266667 0.294606 0.330327
0.274174 0.301823 0.338445
0.281804 0.30898 0.346639
0.289525 0.316136 0.354696
0.297368 0.323262 0.362661
0.305318 0.330373 0.37052
0.313405 0.337438 0.378271
0.321538 0.344503 0.385962
0.329335 0.35169 0.393393
0.334646 0.359442 0.402777
0.340963 0.367025 0.41059
0.0757 0.184619 0.0906233
0.0812695 0.193805 0.0847334
0.0885481 0.202518 0.0784314
0.0975814 0.210925 0.0701915
0.108949 0.218585 0.0625467
0.122957 0.225147 0.0579843
0.139193 0.230625 0.0574807
0.156786 0.235966 0.0546731
0.176455 0.241199 0.0469978
0.197375 0.245975 0.0401465
0.218326 0.249912 0.0415503
0.238178 0.253223 0.052079
0.259327 0.256031 0.0642863
0.282155 0.258442 0.0758068
0.304463 0.260914 0.0883955
0.324422 0.263783 0.103746
0.340642 0.267277 0.123293
0.352026 0.271641 0.148089
0.357198 0.277058 0.17995
0.35491 0.283818 0.219928
0.336645 0.29369 0.275273
0.289784 0.311009 0.342443
0.289799 0.319738 0.357748
0.297185 0.32697 0.366049
0.304921 0.334096 0.374228
0.312642 0.341238 0.382345
0.320424 0.348379 0.390372
0.328298 0.355505 0.398306
0.336233 0.362615 0.406149
0.344244 0.369696 0.413916
0.351858 0.376944 0.421408
0.356939 0.384726 0.430976
0.36289 0.392416 0.438972
0.10164 0.208026 0.126879
0.106767 0.217151 0.122789
0.113375 0.225895 0.118334
0.121355 0.234409 0.112001
0.131258 0.242329 0.106035
0.143038 0.249577 0.101228
0.156863 0.255894 0.0996262
0.171878 0.261707 0.0994125
0.188083 0.267277 0.0983139
0.206058 0.272663 0.0941176
0.225177 0.277562 0.091371
0.244282 0.281834 0.094667
0.262486 0.285695 0.104753
0.281376 0.289143 0.117189
0.301503 0.292226 0.129839
0.321004 0.295308 0.144503
0.33843 0.298695 0.161883
0.352071 0.302617 0.184695
0.36051 0.307317 0.214572
0.362036 0.313054 0.253574
0.349722 0.321355 0.307301
0.313344 0.336141 0.368643
0.312428 0.345006 0.385153
0.319936 0.352193 0.393637
0.328008 0.359243 0.401587
0.336004 0.366323 0.409537
0.343923 0.373434 0.417441
0.351797 0.380545 0.425345
0.35967 0.387671 0.433234
0.36759 0.394781 0.441108
0.375051 0.40206 0.448707
0.379934 0.409888 0.458442
0.385443 0.417685 0.466667
0.128328 0.231098 0.164233
0.132998 0.240192 0.161715
0.13901 0.248951 0.15877
0.146136 0.257572 0.154055
0.154879 0.26569 0.149599
0.165148 0.273274 0.145907
0.176989 0.280217 0.143908
0.190234 0.286503 0.144228
0.204196 0.292561 0.144732
0.219089 0.298405 0.144732
0.235477 0.304006 0.142901
0.252903 0.309133 0.142901
0.270298 0.313726 0.148058
0.286885 0.317983 0.158968
0.30367 0.32192 0.172564
0.32134 0.325567 0.186847
0.338216 0.329137 0.204074
0.352514 0.332952 0.226261
0.362692 0.33724 0.255406
0.36672 0.342367 0.293462
0.357 0.349889 0.347509
0.333654 0.361959 0.397574
0.333837 0.37055 0.413581
0.341756 0.37763 0.421775
0.350362 0.384573 0.429267
0.358831 0.391546 0.436866
0.367117 0.398581 0.444434
0.37528 0.405646 0.45211
0.383352 0.412726 0.459876
0.391348 0.419806 0.46772
0.398718 0.427115 0.475349
0.403616 0.434928 0.485054
0.408759 0.442817 0.493507
0.155779 0.253819 0.202731
0.159976 0.262913 0.201572
0.165362 0.271748 0.199802
0.17174 0.280461 0.196399
0.179507 0.288716 0.193256
0.188571 0.296559 0.190677
0.198932 0.303883 0.189151
0.210575 0.310643 0.189593
0.222995 0.317082 0.190906
0.236011 0.323339 0.192233
0.24976 0.329412 0.193378
0.264729 0.335195 0.19379
0.280568 0.34052 0.196353
0.29633 0.345403 0.20351
0.311299 0.349981 0.215961
0.325948 0.354314 0.231876
0.340978 0.358343 0.249912
0.354818 0.36228 0.272206
0.365682 0.36643 0.300862
0.370642 0.371283 0.339162
0.360067 0.378805 0.396048
0.3523 0.388052 0.428656
0.355474 0.396017 0.441947
0.362737 0.403235 0.450843
0.371588 0.410147 0.457893
0.380575 0.417014 0.465019
0.389425 0.423926 0.472129
0.398077 0.430884 0.479377
0.406577 0.437873 0.486793
0.414969 0.444877 0.494362
0.42269 0.45211 0.501656
0.42797 0.459846 0.511025
0.432837 0.467796 0.5196
0.184131 0.276127 0.242573
0.187778 0.285283 0.242573
0.192538 0.294209 0.241688
0.198184 0.303029 0.239307
0.205081 0.311452 0.237186
0.213077 0.319509 0.235508
0.222217 0.327138 0.234699
0.232441 0.33431 0.235172
0.243626 0.341039 0.237324
0.255268 0.347616 0.239567
0.267414 0.354009 0.242008
0.28014 0.360235 0.244617
0.293812 0.366155 0.247425
0.308141 0.371649 0.252735
0.322301 0.37673 0.262623
0.335531 0.381521 0.277989
0.347951 0.386099 0.297887
0.360098 0.390417 0.32134
0.37052 0.394659 0.350469
0.375616 0.39942 0.389517
0.36437 0.406806 0.45005
0.370779 0.41413 0.460334
0.377035 0.42153 0.470222
0.383001 0.428962 0.480659
0.391897 0.435889 0.487572
0.401312 0.442679 0.494194
0.410697 0.44947 0.500877
0.419989 0.456291 0.507607
0.42916 0.463142 0.514443
0.438132 0.470024 0.521523
0.446357 0.477165 0.528283
0.452293 0.484779 0.536995
0.457176 0.492744 0.545388
0.21355 0.297963 0.284077
0.216541 0.307225 0.284932
0.2206 0.316289 0.284688
0.225528 0.325246 0.283085
0.231601 0.333837 0.281819
0.238651 0.342092 0.280888
0.246723 0.349981 0.28069
0.255787 0.357458 0.281605
0.265736 0.364523 0.28397
0.276295 0.371313 0.287297
0.287221 0.377981 0.290761
0.298543 0.384466 0.294713
0.310307 0.390784 0.299245
0.322744 0.39678 0.304936
0.335576 0.402365 0.31368
0.348058 0.407553 0.327367
0.35938 0.412451 0.347158
0.369375 0.417166 0.372778
0.378286 0.421653 0.403861
0.383612 0.426322 0.443275
0.382269 0.432776 0.484535
0.390127 0.439979 0.491722
0.397726 0.447166 0.499809
0.402991 0.454688 0.51136
0.411841 0.461646 0.518074
0.4215 0.468421 0.524239
0.431327 0.475135 0.530526
0.441154 0.481834 0.536812
0.450874 0.488579 0.543145
0.460472 0.495323 0.54963
0.469337 0.502342 0.555657
0.476112 0.509804 0.563485
0.481224 0.517754 0.57145
0.244297 0.319188 0.327718
0.246494 0.328634 0.32903
0.249775 0.337896 0.329213
0.253941 0.347036 0.328161
0.259174 0.35581 0.327474
0.265339 0.364263 0.327199
0.27245 0.372366 0.327565
0.280446 0.380118 0.328893
0.289311 0.387488 0.331518
0.298863 0.394491 0.335592
0.308766 0.401358 0.340108
0.31899 0.408072 0.345174
0.329534 0.414588 0.351125
0.340352 0.420905 0.358404
0.351553 0.426886 0.367834
0.362875 0.432456 0.381155
0.373541 0.437629 0.400198
0.382757 0.442527 0.426337
0.389944 0.447227 0.460197
0.394385 0.451774 0.503502
0.401404 0.458518 0.517632
0.409644 0.465721 0.523766
0.417685 0.472862 0.530968
0.423087 0.480339 0.542687
0.431846 0.487343 0.549172
0.441505 0.494148 0.554971
0.451545 0.500832 0.560891
0.461738 0.507469 0.566796
0.471931 0.514122 0.572702
0.482048 0.520775 0.578668
0.491447 0.527703 0.583993
0.499092 0.534997 0.590845
0.504692 0.54287 0.598154
0.276738 0.33962 0.374075
0.277943 0.349386 0.375326
0.280339 0.358892 0.375753
0.283635 0.368246 0.375021
0.288014 0.377218 0.374762
0.293294 0.385901 0.374975
0.299474 0.394232 0.375814
0.306508 0.402228 0.377554
0.314336 0.409873 0.380468
0.322896 0.417151 0.384848
0.331914 0.42417 0.390341
0.341222 0.431037 0.396582
0.350774 0.43772 0.403861
0.360555 0.44419 0.412665
0.370443 0.450401 0.423728
0.380423 0.456245 0.438178
0.390204 0.461631 0.457664
0.399115 0.46656 0.48426
0.406561 0.471077 0.51931
0.413855 0.476677 0.543923
0.421515 0.484047 0.549966
0.429557 0.49131 0.556069
0.437507 0.498527 0.56289
0.443458 0.505882 0.574044
0.452049 0.512963 0.580438
0.461601 0.519814 0.586099
0.471641 0.526528 0.59173
0.481971 0.533165 0.597314
0.49247 0.539757 0.602838
0.502983 0.546334 0.608377
0.51284 0.553201 0.613092
0.521324 0.560327 0.619089
0.527443 0.568109 0.625772
0.308476 0.360357 0.419471
0.311269 0.369284 0.424414
0.312627 0.379095 0.424826
0.314992 0.388708 0.424308
0.318395 0.397971 0.424247
0.322759 0.406882 0.424781
0.328008 0.415457 0.426017
0.334096 0.423697 0.428138
0.340963 0.431586 0.431373
0.348547 0.439124 0.436011
0.356725 0.446326 0.442252
0.365209 0.453346 0.44947
0.373953 0.460136 0.458
0.38291 0.466712 0.468238
0.392004 0.472984 0.480919
0.401129 0.478889 0.497292
0.410178 0.484321 0.518471
0.419104 0.489113 0.546426
0.427634 0.494499 0.569497
0.434867 0.501991 0.575723
0.442344 0.509392 0.582055
0.450034 0.516747 0.588205
0.457649 0.524056 0.595178
0.464225 0.53135 0.605188
0.472633 0.538476 0.611536
0.48191 0.545403 0.617288
0.491798 0.552178 0.622812
0.502113 0.558846 0.628122
0.512718 0.565438 0.633341
0.523476 0.571984 0.63859
0.533745 0.578759 0.642893
0.542962 0.585763 0.648188
0.549661 0.593439 0.654261
0.33048 0.385519 0.449836
0.336736 0.392859 0.460227
0.343221 0.400214 0.470069
0.348333 0.408331 0.476143
0.350759 0.417853 0.476417
0.354131 0.427024 0.477256
0.358419 0.435859 0.478843
0.363516 0.444358 0.481224
0.369451 0.452491 0.484825
0.376104 0.460273 0.489738
0.383413 0.46772 0.496269
0.39118 0.474845 0.504356
0.399268 0.481743 0.513939
0.40766 0.488334 0.525628
0.416281 0.494591 0.539971
0.425147 0.500389 0.558068
0.434562 0.505486 0.581399
0.442283 0.512184 0.594064
0.449195 0.519722 0.600732
0.456306 0.52723 0.607156
0.463645 0.534676 0.613458
0.471092 0.542077 0.619806
0.478248 0.549432 0.627604
0.48539 0.556725 0.635981
0.493645 0.563897 0.642329
0.502632 0.570901 0.648219
0.512245 0.577752 0.653834
0.522393 0.584466 0.659144
0.532967 0.591089 0.66421
0.543832 0.59762 0.669215
0.554253 0.604379 0.673381
0.563928 0.611292 0.67837
0.571069 0.61886 0.684123
0.352468 0.410681 0.480232
0.358694 0.418082 0.490272
0.365164 0.425406 0.500298
0.371588 0.432898 0.508751
0.378195 0.44033 0.517388
0.384802 0.447761 0.526009
0.39118 0.455299 0.534112
0.395331 0.464042 0.537026
0.40032 0.472419 0.540978
0.406088 0.48043 0.546242
0.412573 0.48809 0.553063
0.419684 0.495354 0.561746
0.427283 0.502312 0.572229
0.435355 0.508873 0.585
0.444053 0.514977 0.600641
0.450858 0.522347 0.609216
0.457496 0.52987 0.616785
0.464195 0.537408 0.624125
0.471015 0.544945 0.631174
0.478019 0.552453 0.637842
0.485267 0.559915 0.644251
0.492592 0.567346 0.65069
0.499504 0.574701 0.659236
0.506996 0.58204 0.666163
0.515084 0.589258 0.672572
0.523796 0.596323 0.678706
0.53312 0.603235 0.68455
0.543008 0.609995 0.690166
0.553338 0.616648 0.695506
0.564019 0.62324 0.70074
0.574456 0.629999 0.704967
0.584436 0.636835 0.709651
0.592111 0.644282 0.714946
0.374472 0.435828 0.510704
0.380636 0.44329 0.520302
0.387091 0.450614 0.530465
0.3935 0.458122 0.538872
0.400107 0.465553 0.547463
0.406714 0.472984 0.556039
0.413336 0.480415 0.564599
0.419959 0.487846 0.573114
0.426581 0.495277 0.581613
0.433204 0.502724 0.590066
0.439841 0.51017 0.598474
0.446479 0.517617 0.606867
0.453117 0.525063 0.615137
0.459709 0.532555 0.623194
0.466285 0.540078 0.631052
0.472877 0.547601 0.638758
0.47953 0.555123 0.646296
0.486244 0.562661 0.653635
0.493034 0.570184 0.660777
0.499977 0.577691 0.66775
0.507149 0.585138 0.674418
0.514443 0.592599 0.680781
0.521584 0.59997 0.688457
0.529076 0.607324 0.695338
0.53698 0.614557 0.702144
0.545403 0.621668 0.708659
0.554421 0.628611 0.714916
0.56405 0.635416 0.720974
0.574121 0.642115 0.726726
0.584604 0.648722 0.73228
0.594903 0.655512 0.736645
0.605066 0.662303 0.741238
0.613214 0.669657 0.746197
0.39646 0.46099 0.541222
0.402579 0.468513 0.550286
0.409033 0.475822 0.560525
0.415427 0.483345 0.568841
0.422034 0.490776 0.577386
0.428641 0.498222 0.585916
0.435264 0.505653 0.5944
0.441901 0.5131 0.602869
0.448524 0.520531 0.611292
0.455161 0.527993 0.619669
0.461799 0.535439 0.628
0.468452 0.542885 0.636286
0.475105 0.550347 0.644511
0.481758 0.557809 0.652567
0.488365 0.565316 0.660395
0.494987 0.572854 0.66804
0.501656 0.580392 0.675502
0.508385 0.587915 0.682811
0.515206 0.595438 0.689921
0.522148 0.60293 0.69688
0.529229 0.610407 0.703685
0.536416 0.617884 0.710216
0.543816 0.625284 0.71693
0.551431 0.632609 0.72372
0.559289 0.639826 0.730739
0.567498 0.646952 0.737636
0.576272 0.653941 0.744289
0.585657 0.660777 0.750896
0.595514 0.667491 0.757153
0.605737 0.674113 0.76318
0.6159 0.680888 0.767987
0.626047 0.687663 0.772824
0.634562 0.694926 0.777584
0.418494 0.486122 0.57174
0.424552 0.493721 0.58024
0.430991 0.501045 0.590448
0.437354 0.508598 0.598657
0.443961 0.51603 0.607141
0.450584 0.523476 0.615595
0.457206 0.530922 0.624002
0.463844 0.538369 0.632395
0.470481 0.545815 0.640726
0.477134 0.553277 0.649027
0.483787 0.560723 0.657267
0.490455 0.568185 0.665461
0.497154 0.575631 0.673609
0.503853 0.583093 0.681651
0.510536 0.5906 0.689464
0.517205 0.598108 0.697047
0.523903 0.605646 0.704448
0.530648 0.613169 0.711635
0.537514 0.620691 0.718685
0.544503 0.628168 0.725597
0.551537 0.635721 0.732036
0.55877 0.643198 0.738369
0.566217 0.650614 0.744808
0.573999 0.657862 0.751675
0.581933 0.66508 0.758511
0.590127 0.672206 0.76556
0.598733 0.67921 0.772686
0.607904 0.686046 0.779873
0.617533 0.69276 0.786694
0.627588 0.699382 0.79324
0.637522 0.706157 0.798566
0.647654 0.712901 0.80383
0.656428 0.720104 0.808637
0.440558 0.511269 0.602243
0.446555 0.518944 0.610193
0.452964 0.526284 0.620233
0.459297 0.533852 0.628275
0.465919 0.541299 0.636683
0.472541 0.548745 0.64506
0.479179 0.556191 0.653422
0.485832 0.563653 0.661723
0.492485 0.571115 0.669978
0.499153 0.578561 0.678172
0.505837 0.586023 0.686305
0.512535 0.593469 0.694408
0.519265 0.600931 0.702434
0.526009 0.608392 0.710399
0.532753 0.615885 0.718166
0.539513 0.623377 0.725734
0.546273 0.630884 0.733043
0.553079 0.638422 0.740124
0.559991 0.64593 0.747036
0.566949 0.653483 0.753552
0.574075 0.661021 0.759869
0.581384 0.668467 0.76614
0.588968 0.675822 0.772641
0.596796 0.683101 0.779232
0.604852 0.690318 0.785824
0.613169 0.697429 0.792859
0.62179 0.704402 0.800153
0.630823 0.711208 0.807828
0.640284 0.717906 0.815259
0.650156 0.724514 0.822385
0.659922 0.731304 0.828214
0.669932 0.738064 0.834043
0.678889 0.74519 0.838987
0.462654 0.5364 0.632685
0.468589 0.544152 0.64007
0.474952 0.551537 0.649866
0.48127 0.559136 0.657725
0.487892 0.566583 0.666056
0.494545 0.574029 0.674357
0.501198 0.581491 0.682628
0.507866 0.588952 0.690837
0.514549 0.596414 0.698985
0.521233 0.603861 0.707073
0.527947 0.611322 0.715099
0.534691 0.618784 0.723064
0.541466 0.626261 0.730968
0.548272 0.633707 0.738811
0.555108 0.641154 0.746548
0.561929 0.648646 0.754009
0.56878 0.656138 0.761273
0.575692 0.663645 0.768261
0.582666 0.671183 0.775006
0.589746 0.678706 0.781476
0.596979 0.686183 0.787808
0.60441 0.693614 0.794018
0.61207 0.700969 0.800259
0.619959 0.708263 0.806546
0.628107 0.71548 0.813001
0.63653 0.722576 0.81976
0.645274 0.729519 0.827024
0.654383 0.736278 0.834867
0.663767 0.742931 0.842847
0.673472 0.749538 0.850614
0.683131 0.756329 0.856947
0.692988 0.763073 0.863188
0.702037 0.770138 0.868391
0.484794 0.561532 0.663035
0.490654 0.56936 0.669902
0.496986 0.576791 0.679347
0.503273 0.584421 0.687007
0.509926 0.591867 0.695247
0.516594 0.599344 0.703456
0.523262 0.60679 0.711604
0.529961 0.614252 0.719707
0.53666 0.621714 0.727733
0.543389 0.629175 0.735698
0.550149 0.636637 0.743587
0.556954 0.644114 0.751415
0.563775 0.65156 0.759182
0.570642 0.659007 0.766857
0.577569 0.666453 0.774456
0.584512 0.673899 0.781872
0.591501 0.681361 0.78912
0.598535 0.688853 0.796094
0.605661 0.696345 0.802792
0.612894 0.703807 0.809262
0.620264 0.711254 0.815564
0.627787 0.718669 0.821653
0.635569 0.725994 0.827787
0.643595 0.733318 0.833906
0.65182 0.74052 0.840101
0.660304 0.747616 0.846616
0.6692 0.754498 0.853819
0.678431 0.761242 0.861555
0.687907 0.767865 0.869657
0.697597 0.774472 0.877958
0.707485 0.781003 0.885817
0.71809 0.787182 0.894987
0.728359 0.793484 0.903899
0.507439 0.586419 0.694377
0.513252 0.594308 0.700694
0.519371 0.601953 0.70869
0.525307 0.609857 0.714565
0.531991 0.617395 0.722103
0.538705 0.624903 0.729747
0.545449 0.632395 0.737362
0.552209 0.639872 0.744991
0.55903 0.647349 0.75259
