All_In_One/Enrich_Colormaster/colormanagement/luts/film_response/LifeGivingTree.cube
TITLE "Generate by Resolve"
LUT_3D_SIZE 9
0 0 0
0.14435 0 0
0.211734 0 0
0.23563 0 0
0.178012 0 0
0.064744 0.0493019 0.052018
0.0959793 0.0778363 0.0839551
0.129915 0.105745 0.114076
0.161929 0.134127 0.145129
0 0.0321965 0
0.0457771 0.0545815 0
0.232258 0.0364385 0
0.289174 0.0532235 0
0.292699 0.0849317 0.000427253
0.148211 0.152056 0.16582
0.174609 0.181689 0.201251
0.20766 0.209751 0.23238
0.239231 0.2383 0.263172
0.0264744 0.136614 0.0222934
0.0723583 0.167865 0
0.16553 0.186099 0
0.276234 0.189868 0
0.342519 0.203387 0.0625772
0.27892 0.2448 0.239963
0.259266 0.283772 0.318395
0.291157 0.312154 0.349783
0.319631 0.341527 0.381628
0.128328 0.231098 0.164233
0.154879 0.26569 0.149599
0.204196 0.292561 0.144732
0.270298 0.313726 0.148058
0.338216 0.329137 0.204074
0.357 0.349889 0.347509
0.350362 0.384573 0.429267
0.383352 0.412726 0.459876
0.408759 0.442817 0.493507
0.244297 0.319188 0.327718
0.259174 0.35581 0.327474
0.289311 0.387488 0.331518
0.329534 0.414588 0.351125
0.373541 0.437629 0.400198
0.401404 0.458518 0.517632
0.431846 0.487343 0.549172
0.471931 0.514122 0.572702
0.504692 0.54287 0.598154
0.352468 0.410681 0.480232
0.378195 0.44033 0.517388
0.40032 0.472419 0.540978
0.427283 0.502312 0.572229
0.457496 0.52987 0.616785
0.485267 0.559915 0.644251
0.515084 0.589258 0.672572
0.553338 0.616648 0.695506
0.592111 0.644282 0.714946
0.440558 0.511269 0.602243
0.465919 0.541299 0.636683
0.492485 0.571115 0.669978
0.519265 0.600931 0.702434
0.546273 0.630884 0.733043
0.574075 0.661021 0.759869
0.604852 0.690318 0.785824
0.640284 0.717906 0.815259
0.678889 0.74519 0.838987
0.529503 0.611887 0.721675
0.554208 0.642985 0.747875
0.581598 0.672755 0.779065
0.609796 0.702419 0.809308
0.638865 0.731807 0.839811
0.668025 0.761135 0.870069
0.700999 0.789975 0.894926
0.738476 0.817014 0.924239
0.778714 0.842527 0.959411
0.618051 0.712886 0.839216
0.643854 0.743862 0.863371
0.674006 0.773587 0.887373
0.704952 0.802563 0.916609
0.737408 0.830961 0.94638
0.769329 0.85948 0.977523
0.804776 0.887419 1
0.84271 0.914549 1
0.884565 0.939879 1
0 0 0
0.0273289 0 0.0482032
0.139315 0 0.0425269
0.179873 0 0.0322118
0.172152 0 0.0328374
0.0772717 0.055436 0.0639506
0.099443 0.0861067 0.101717
0.129931 0.114824 0.133867
0.159564 0.14374 0.166766
0 0.0210117 0.0245365
0.0387274 0.0436713 0.0451514
0.236408 0.029633 0.00822461
0.28336 0.0538338 0.0370947
0.306996 0.0845655 0.0696727
0.266865 0.131914 0.124895
0.178408 0.190036 0.217212
0.208576 0.218784 0.250172
0.238972 0.247532 0.282307
0.0530709 0.130892 0.110246
0.0774395 0.165972 0.0974594
0.161501 0.191943 0
0.337377 0.180453 0.00823987
0.378927 0.199649 0.100404
0.380667 0.231632 0.182574
0.262852 0.292149 0.334615
0.289387 0.321736 0.370001
0.319051 0.350851 0.400839
0.141115 0.233097 0.21622
0.160418 0.268894 0.211322
0.200137 0.300969 0.183276
0.280171 0.322621 0.141299
0.3823 0.330892 0.169482
0.446418 0.345937 0.238987
0.39028 0.385687 0.410513
0.375906 0.423148 0.488289
0.40325 0.452903 0.519661
0.243946 0.328618 0.344854
0.257832 0.36527 0.347463
0.283314 0.399649 0.338399
0.326635 0.428275 0.333944
0.387213 0.451865 0.329503
0.452369 0.46894 0.377371
0.471427 0.490043 0.516411
0.469337 0.523476 0.597162
0.498726 0.552789 0.626932
0.36025 0.417975 0.494774
0.367941 0.455924 0.502815
0.383352 0.492454 0.502251
0.41178 0.524697 0.50605
0.450584 0.552712 0.52134
0.495506 0.576043 0.565133
0.525154 0.596338 0.682643
0.557778 0.624643 0.712871
0.594888 0.652384 0.735973
0.448539 0.518593 0.615885
0.473899 0.548714 0.649454
0.500465 0.5785 0.683009
0.522805 0.610788 0.704311
0.550622 0.640742 0.732738
0.58204 0.668101 0.775876
0.613214 0.697322 0.801526
0.647471 0.725368 0.82974
0.686122 0.752438 0.855329
0.537636 0.618982 0.737072
0.562188 0.649851 0.766049
0.589151 0.679713 0.797696
0.61677 0.70956 0.82768
0.645762 0.739178 0.856077
0.675929 0.768429 0.88484
0.708873 0.797101 0.910567
0.746273 0.824216 0.939391
0.786847 0.849638 0.974975
0.626017 0.720302 0.852003
0.651972 0.751369 0.875135
0.681208 0.780972 0.902663
0.712001 0.810025 0.931441
0.744717 0.838483 0.960784
0.778759 0.866346 0.991165
0.813321 0.894362 1
0.851102 0.921599 1
0.892897 0.946914 1
0 0 0
0 0 0.0793317
0.0874037 0 0.135805
0.151705 0 0.131411
0.161273 0 0.110094
0.095552 0.0587015 0.0875868
0.104662 0.0939803 0.118074
0.133104 0.123201 0.151415
0.161425 0.152453 0.184939
0 0.0242313 0.0662699
0.0408179 0.04654 0.120439
0.13611 0.051545 0.196857
0.235142 0.0632486 0.195056
0.269795 0.0945449 0.189914
0.266194 0.13611 0.195346
0.190997 0.196262 0.227939
0.212772 0.227008 0.266041
0.241672 0.256092 0.299519
0.0762036 0.130343 0.157321
0.110704 0.157763 0.190661
0.158495 0.182315 0.213214
0.327962 0.176303 0.180072
0.378882 0.199435 0.207752
0.396765 0.23154 0.243671
0.365377 0.276463 0.297124
0.29366 0.330007 0.38526
0.322469 0.359228 0.417609
0.161059 0.233845 0.259785
0.183642 0.265843 0.282887
0.208011 0.300008 0.279408
0.277409 0.328466 0.199817
0.434348 0.324117 0.194034
0.47718 0.343709 0.278355
0.480446 0.375418 0.358511
0.380423 0.43122 0.50486
0.406165 0.461112 0.539605
0.255085 0.333486 0.373663
0.270146 0.368322 0.390753
0.28957 0.403555 0.391089
0.32459 0.436484 0.368536
0.396353 0.460685 0.325643
0.49366 0.471534 0.342977
0.557824 0.487144 0.407141
0.506569 0.525475 0.577737
0.495659 0.562051 0.654032
0.364401 0.426795 0.504982
0.368505 0.465476 0.51635
0.382712 0.501915 0.520317
0.406744 0.53666 0.512245
0.447974 0.566354 0.503899
0.509346 0.590555 0.492058
0.577462 0.607279 0.535592
0.595422 0.627848 0.681651
0.594797 0.661234 0.757946
0.455894 0.526284 0.627924
0.48191 0.556161 0.661967
0.48986 0.594293 0.668193
0.504875 0.631388 0.664149
0.534325 0.663981 0.662379
0.576883 0.691417 0.67306
0.627085 0.713085 0.717998
0.657771 0.732082 0.842573
0.691859 0.760235 0.87068
0.54522 0.626627 0.748837
0.570245 0.657237 0.778927
0.597177 0.687083 0.811002
0.624628 0.716884 0.84152
0.648753 0.749249 0.857832
0.680598 0.778378 0.882963
0.717159 0.803998 0.92723
0.755627 0.830579 0.958129
0.794446 0.857084 0.988937
0.63389 0.727779 0.864424
0.659709 0.758541 0.891096
0.688121 0.78822 0.919951
0.718441 0.817517 0.947829
0.751324 0.846052 0.975998
0.786313 0.873701 1
0.822003 0.901228 1
0.859754 0.928389 1
0.901503 0.953719 1
0 0 0
0 0 0.0713359
0.0466468 0 0.136797
0.109514 0 0.164523
0.134844 0.0106813 0.150896
0.0950332 0.0677043 0.109926
0.110292 0.101823 0.133593
0.138247 0.131167 0.167224
0.165759 0.160616 0.20119
0.00808728 0.0295262 0.0886091
0.0466926 0.0531319 0.147677
0.106584 0.0689403 0.221302
0.188983 0.0802625 0.273182
0.245365 0.104417 0.274296
0.256458 0.143389 0.262058
0.207111 0.200397 0.249531
0.218463 0.234867 0.281224
0.246174 0.26424 0.315358
0.0911116 0.134371 0.183291
0.122713 0.161685 0.22623
0.163729 0.185672 0.274495
0.244053 0.195743 0.344762
0.330983 0.210376 0.349569
0.362219 0.242084 0.350286
0.363745 0.281636 0.360525
0.305074 0.336797 0.394141
0.327688 0.367178 0.433249
0.178515 0.236988 0.287114
0.204196 0.266728 0.323354
0.236973 0.294621 0.357244
0.280125 0.320287 0.382391
0.422782 0.321752 0.354101
0.475853 0.34432 0.38114
0.494453 0.376211 0.417014
0.470222 0.419242 0.468208
0.412863 0.46865 0.555001
0.270375 0.33753 0.398306
0.288045 0.37023 0.428824
0.310399 0.402182 0.453208
0.334203 0.436011 0.45452
0.394781 0.466361 0.3823
0.541619 0.466041 0.36701
0.588144 0.485023 0.446723
0.595178 0.51574 0.525765
0.502297 0.569574 0.669779
0.372961 0.433982 0.518456
0.379232 0.470726 0.542565
0.394415 0.50547 0.560372
0.413245 0.540825 0.561608
0.446448 0.574533 0.537377
0.518685 0.599512 0.486732
0.619364 0.610025 0.498711
0.681804 0.625467 0.569787
0.629847 0.663523 0.742367
0.463737 0.534325 0.63476
0.486473 0.564889 0.67187
0.490181 0.603876 0.682139
0.503624 0.640955 0.683162
0.527916 0.676371 0.668788
0.573297 0.705684 0.653269
0.641871 0.727993 0.640543
0.710445 0.742931 0.69926
0.721813 0.764126 0.855238
0.55317 0.634409 0.757885
0.578363 0.664607 0.791714
0.605295 0.694408 0.824216
0.611994 0.733471 0.826215
0.627527 0.771389 0.81445
0.661677 0.80354 0.804837
0.712764 0.828702 0.812909
0.772213 0.846479 0.868208
0.804364 0.863203 1
0.64303 0.734691 0.878477
0.667811 0.76582 0.904616
0.696025 0.79556 0.933532
0.726299 0.824887 0.961349
0.759243 0.853361 0.98967
0.787381 0.88481 1
0.82594 0.911757 1
0.869139 0.934691 1
0.912077 0.959106 1
0 0 0
0 0 0.0422827
0.0242161 0 0.104005
0.0716259 0.000442512 0.141649
0.096849 0.0341802 0.139757
0.0867781 0.0808118 0.114183
0.115511 0.109865 0.148318
0.143709 0.139132 0.182132
0.172274 0.168292 0.215579
0.021912 0.0364691 0.0888685
0.054139 0.0616007 0.151629
0.098558 0.0829633 0.215854
0.156374 0.100908 0.274372
0.211337 0.122774 0.302556
0.235798 0.157092 0.297322
0.207935 0.209125 0.270497
0.224735 0.242603 0.295918
0.252155 0.272053 0.33019
0.106218 0.139773 0.195087
0.133806 0.167514 0.245609
0.169802 0.192538 0.298299
0.221103 0.211902 0.362097
0.290929 0.227161 0.411917
0.342046 0.252079 0.421027
0.356756 0.289052 0.418036
0.320195 0.341466 0.413062
0.334066 0.374899 0.447883
0.194736 0.241672 0.302724
0.218051 0.271397 0.346197
0.248661 0.299138 0.387823
0.286687 0.324376 0.432456
0.355093 0.338491 0.497719
0.434852 0.354604 0.509087
0.466423 0.38584 0.513558
0.471809 0.424002 0.526192
0.420432 0.476127 0.568444
0.287541 0.341894 0.414206
0.304219 0.373983 0.45391
0.329519 0.403845 0.490272
0.361028 0.432059 0.524498
0.401892 0.45832 0.5505
0.531365 0.463645 0.523095
0.589639 0.484779 0.549096
0.612726 0.51548 0.583658
0.579812 0.560678 0.6392
0.383642 0.440894 0.528054
0.393866 0.47509 0.56611
0.411551 0.50779 0.596765
0.433326 0.539925 0.621103
0.456458 0.57409 0.621698
0.51809 0.604913 0.542947
0.667033 0.60444 0.524483
0.712383 0.62298 0.611551
0.704509 0.656916 0.701015
0.471489 0.54197 0.645853
0.495125 0.572 0.685664
0.501015 0.608988 0.709163
0.515419 0.644221 0.725368
0.533593 0.680369 0.72192
0.569848 0.71426 0.688258
0.651102 0.736965 0.635676
0.747417 0.746075 0.673701
0.78941 0.764996 0.767605
0.561334 0.641917 0.769192
0.586526 0.671977 0.804364
0.60972 0.703044 0.835584
0.611505 0.743038 0.843366
0.624079 0.781231 0.837415
0.651286 0.817166 0.811597
0.70692 0.844236 0.78883
0.787686 0.861906 0.786374
0.854307 0.874098 0.875593
0.651576 0.741924 0.891142
0.675975 0.773114 0.918029
0.704082 0.802915 0.947311
0.734218 0.832181 0.975143
0.73695 0.873075 0.973846
0.755154 0.911421 0.952224
0.798413 0.941558 0.936355
0.860945 0.963272 0.946258
0.930175 0.976379 1
0 0 0
0 0 0
0.00820935 0.000640879 0.0296025
0.0386206 0.0287938 0.0677958
0.0628824 0.0603189 0.0907912
0.0917525 0.0891585 0.12668
0.1205 0.11812 0.161715
0.148928 0.14725 0.196078
0.179324 0.175906 0.229114
0.0386511 0.0453803 0.0611124
0.0634928 0.0723125 0.127749
0.0975509 0.0966659 0.192798
0.139498 0.119646 0.248264
0.181689 0.144488 0.284535
0.206134 0.177783 0.289479
0.202625 0.221241 0.275975
0.230686 0.250462 0.310414
0.258335 0.27985 0.344579
0.125765 0.14612 0.184451
0.14641 0.174685 0.247196
0.177218 0.200916 0.303288
0.216922 0.224414 0.360174
0.26688 0.245197 0.413901
0.315847 0.268513 0.445289
0.341268 0.301625 0.449134
0.322744 0.349798 0.433051
0.341024 0.382467 0.462242
0.21413 0.246876 0.303792
0.231769 0.277272 0.357382
0.259037 0.305409 0.40502
0.292851 0.331456 0.453941
0.33814 0.353201 0.511849
0.400351 0.370672 0.562173
0.450034 0.395392 0.57734
0.467964 0.4309 0.57937
0.433814 0.482078 0.579828
0.303471 0.347478 0.421942
0.319341 0.379065 0.468788
0.342855 0.408804 0.511543
0.372763 0.436805 0.552789
0.409491 0.462577 0.595819
0.473396 0.478141 0.659709
0.554864 0.4934 0.674281
0.590692 0.5234 0.678691
0.590021 0.563149 0.694286
0.391318 0.448325 0.541772
0.409964 0.479759 0.582254
0.42742 0.51165 0.621424
0.452369 0.541588 0.657923
0.483574 0.569894 0.692287
0.524498 0.596414 0.715908
0.658747 0.600488 0.687312
0.71841 0.621057 0.71545
0.728588 0.655146 0.754406
0.479347 0.549264 0.660334
0.505867 0.578622 0.698146
0.51606 0.613092 0.733516
0.533227 0.646036 0.763836
0.554589 0.678523 0.786816
0.577462 0.713603 0.780377
0.652033 0.742199 0.688197
0.783734 0.74226 0.714092
0.814939 0.764263 0.806256
0.568673 0.649775 0.779644
0.59469 0.679362 0.81677
0.618753 0.70988 0.850736
0.623011 0.747509 0.874098
0.636103 0.783612 0.886763
0.65391 0.821088 0.873365
0.699336 0.853819 0.826017
0.796109 0.870909 0.783993
0.880949 0.878141 0.870634
0.65951 0.749508 0.902159
0.684215 0.780362 0.931456
0.712154 0.810178 0.96112
0.735378 0.841413 0.990448
0.733608 0.88275 0.998291
0.746105 0.922377 0.981369
0.780713 0.957626 0.941543
0.851713 0.980652 0.915541
0.946471 0.992355 0.930709
0 0 0
0 0 0
0.012665 0.0104829 0.0288701
0.0405432 0.0395666 0.0652934
0.0686961 0.0685588 0.101747
0.0970779 0.0975052 0.137972
0.125582 0.126482 0.173709
0.153979 0.15555 0.208804
0.189029 0.182879 0.241077
0.0456397 0.0532387 0.0725109
0.0727398 0.0826429 0.108034
0.0998703 0.112032 0.143603
0.128283 0.140093 0.188556
0.156878 0.168917 0.225528
0.181125 0.200198 0.250874
0.208408 0.22948 0.286976
0.236133 0.258656 0.323018
0.264103 0.287831 0.358251
0.134356 0.153918 0.191623
0.16144 0.183322 0.227192
0.186282 0.211048 0.28603
0.218006 0.23682 0.343984
0.255619 0.26154 0.394873
0.293706 0.287556 0.431708
0.318166 0.320119 0.443641
0.322362 0.360174 0.441169
0.348684 0.389868 0.476143
0.222873 0.25452 0.312154
0.248844 0.28394 0.350851
0.270604 0.312749 0.40795
0.300221 0.339742 0.460014
0.336736 0.364599 0.512871
0.381811 0.387015 0.564675
0.428092 0.410773 0.599557
0.455299 0.442771 0.609003
0.440391 0.489479 0.596902
0.310933 0.355215 0.43299
0.336721 0.384756 0.471061
0.35581 0.414939 0.522484
0.382818 0.443259 0.568948
0.415656 0.469718 0.61648
0.458976 0.492103 0.673274
0.522377 0.508843 0.727077
0.576608 0.532052 0.743954
0.595117 0.567452 0.745953
0.398733 0.456016 0.553765
0.425422 0.485527 0.58938
0.442359 0.516793 0.636225
0.465858 0.546487 0.679133
0.495766 0.574365 0.720851
0.533165 0.599786 0.764782
0.606058 0.612116 0.833799
0.693858 0.626078 0.843549
0.726284 0.657496 0.845655
0.487037 0.556725 0.673625
0.513771 0.586206 0.709728
0.532799 0.617487 0.750072
0.549874 0.649454 0.789624
0.574914 0.679362 0.826291
0.606897 0.707439 0.860533
0.650538 0.734264 0.873884
0.782559 0.737667 0.859617
0.833753 0.760693 0.887892
0.576394 0.657221 0.793042
0.602838 0.686778 0.828962
0.629923 0.716381 0.862989
0.639307 0.750896 0.900771
0.655604 0.784192 0.930434
0.676371 0.817273 0.95082
0.699626 0.853956 0.929824
0.799207 0.876493 0.825986
0.897108 0.877592 0.934997
0.666224 0.757671 0.911391
0.692515 0.787625 0.944701
0.720287 0.817441 0.974838
0.744183 0.84799 1
0.745953 0.886091 1
0.757336 0.923537 1
0.776257 0.962463 1
0.838605 0.991669 0.953613
0.953796 1 0.931075
0 0 0
0 0 0.00404364
0.0194095 0.0184176 0.0401312
0.0470893 0.0475929 0.0763256
0.0749065 0.0767071 0.112596
0.102907 0.105776 0.148791
0.131029 0.134829 0.184771
0.159182 0.163912 0.220386
0.194461 0.190997 0.254475
0.0529793 0.0609903 0.0838026
0.0796826 0.0905165 0.119371
0.106813 0.119921 0.154879
0.133883 0.149325 0.190448
0.160937 0.178729 0.226078
0.187961 0.208148 0.261814
0.215015 0.237522 0.297673
0.242191 0.266865 0.333669
0.269642 0.296101 0.369741
0.141375 0.161822 0.202548
0.168444 0.191226 0.238071
0.195453 0.220661 0.273625
0.222416 0.250095 0.309239
0.24979 0.278859 0.350332
0.277241 0.30811 0.386236
0.302998 0.338476 0.416327
0.329763 0.367956 0.452094
0.35642 0.397467 0.487846
0.230076 0.262379 0.322896
0.256992 0.291814 0.358602
0.283864 0.321263 0.394354
0.309163 0.349386 0.447837
0.339315 0.376059 0.501472
0.374228 0.401831 0.550057
0.410132 0.428367 0.587961
0.435111 0.460349 0.60412
0.444007 0.49836 0.608164
0.318318 0.363012 0.443793
0.345083 0.392493 0.479545
0.371359 0.421836 0.518151
0.393927 0.450675 0.57261
0.423041 0.477928 0.623224
0.458671 0.503014 0.675792
0.504372 0.52491 0.730404
0.554696 0.547082 0.768795
0.585397 0.578149 0.777813
0.406256 0.463752 0.564706
0.433021 0.493233 0.600427
0.459174 0.522637 0.638697
0.478859 0.552575 0.690135
0.505943 0.580728 0.737194
0.539361 0.606744 0.786328
0.586633 0.627268 0.848936
0.661265 0.640436 0.905272
0.720729 0.662821 0.916396
0.494606 0.56437 0.685496
0.521599 0.593805 0.721065
0.548653 0.623224 0.756481
0.565591 0.654261 0.804791
0.589075 0.683833 0.848356
0.619547 0.71136 0.890776
0.65893 0.735759 0.938048
0.753292 0.74107 1
0.844129 0.755642 1
0.58381 0.664851 0.805447
0.610956 0.694255 0.840909
0.638163 0.723735 0.87541
0.65745 0.754726 0.918151
0.673701 0.786786 0.958251
0.698909 0.816648 0.995071
0.732174 0.84445 1
0.793759 0.867262 1
0.90721 0.874205 1
0.674418 0.764904 0.925841
0.700832 0.794888 0.957763
0.728496 0.824659 0.988632
0.758236 0.854032 1
0.764248 0.888273 1
0.779461 0.922148 1
0.799191 0.956146 1
0.826215 0.994278 1
0.957641 1 0.954162
0 0 0
0 0 0.0154726
0.026215 0.0263371 0.0514076
0.0537575 0.0555734 0.0874037
0.0813764 0.0847639 0.123445
0.109087 0.113939 0.159487
0.136889 0.143099 0.195438
0.164736 0.172244 0.231235
0.192599 0.201434 0.266773
0.0594644 0.0690013 0.0952316
0.0866407 0.0983902 0.130648
0.113756 0.127794 0.166094
0.140841 0.157214 0.201602
0.167865 0.186648 0.23714
0.194858 0.216068 0.27277
0.221836 0.245487 0.308476
0.248829 0.274907 0.344289
0.275914 0.304265 0.380224
0.148363 0.169726 0.213489
0.175433 0.19913 0.248951
0.202441 0.228565 0.284459
0.229404 0.258015 0.320027
0.256306 0.287465 0.355642
0.283177 0.31693 0.391302
0.310002 0.346395 0.427008
0.336812 0.37586 0.462745
0.363592 0.405341 0.498512
0.237201 0.270268 0.333593
0.264134 0.299687 0.369284
0.29102 0.329137 0.405005
0.317876 0.358602 0.440772
0.344671 0.388067 0.476555
0.372244 0.416938 0.51606
0.399527 0.446265 0.55172
0.424933 0.476509 0.583886
0.451774 0.505974 0.619562
0.325612 0.370855 0.45449
0.352407 0.40032 0.490272
0.379156 0.429801 0.526055
0.405905 0.459281 0.561852
0.432044 0.487343 0.613397
0.461845 0.514153 0.666072
0.497078 0.539605 0.716289
0.535348 0.565072 0.757488
0.563272 0.596139 0.774609
0.413703 0.471519 0.575525
0.440528 0.500984 0.611307
0.46743 0.530419 0.647089
0.49427 0.559548 0.685969
0.517266 0.588083 0.740917
0.546853 0.614908 0.79324
0.584726 0.638758 0.850172
0.637858 0.657755 0.911192
0.697169 0.677485 0.948379
0.502251 0.572061 0.696529
0.529335 0.60145 0.732235
0.556512 0.630823 0.767849
0.583337 0.659968 0.806622
0.602747 0.689677 0.859525
0.630091 0.717418 0.908125
0.665248 0.742351 0.961517
0.723461 0.758358 1
0.815579 0.766751 1
0.591669 0.672404 0.817197
0.619028 0.701762 0.852598
0.646372 0.731136 0.887556
0.673701 0.760662 0.921584
0.690608 0.79115 0.973922
0.713771 0.820569 1
0.744976 0.847684 1
0.788678 0.86981 1
0.914321 0.865965 1
0.681849 0.772686 0.936767
0.709209 0.802152 0.970626
0.736751 0.831891 1
0.766308 0.861341 1
0.784344 0.891279 1
0.799558 0.923598 1
0.824979 0.953414 1
0.859693 0.980728 1
0.950896 0.995148 1
