All_In_One/Enrich_Colormaster/colormanagement/luts/film_response/LifeGivingTree.cube
TITLE "Generate by Resolve"
LUT_3D_SIZE 5
0 0 0
0.211734 0 0
0.178012 0 0
0.0959793 0.0778363 0.0839551
0.161929 0.134127 0.145129
0.0264744 0.136614 0.0222934
0.16553 0.186099 0
0.342519 0.203387 0.0625772
0.259266 0.283772 0.318395
0.319631 0.341527 0.381628
0.244297 0.319188 0.327718
0.289311 0.387488 0.331518
0.373541 0.437629 0.400198
0.431846 0.487343 0.549172
0.504692 0.54287 0.598154
0.440558 0.511269 0.602243
0.492485 0.571115 0.669978
0.546273 0.630884 0.733043
0.604852 0.690318 0.785824
0.678889 0.74519 0.838987
0.618051 0.712886 0.839216
0.674006 0.773587 0.887373
0.737408 0.830961 0.94638
0.804776 0.887419 1
0.884565 0.939879 1
0 0 0
0.0874037 0 0.135805
0.161273 0 0.110094
0.104662 0.0939803 0.118074
0.161425 0.152453 0.184939
0.0762036 0.130343 0.157321
0.158495 0.182315 0.213214
0.378882 0.199435 0.207752
0.365377 0.276463 0.297124
0.322469 0.359228 0.417609
0.255085 0.333486 0.373663
0.28957 0.403555 0.391089
0.396353 0.460685 0.325643
0.557824 0.487144 0.407141
0.495659 0.562051 0.654032
0.455894 0.526284 0.627924
0.48986 0.594293 0.668193
0.534325 0.663981 0.662379
0.627085 0.713085 0.717998
0.691859 0.760235 0.87068
0.63389 0.727779 0.864424
0.688121 0.78822 0.919951
0.751324 0.846052 0.975998
0.822003 0.901228 1
0.901503 0.953719 1
0 0 0
0.0242161 0 0.104005
0.096849 0.0341802 0.139757
0.115511 0.109865 0.148318
0.172274 0.168292 0.215579
0.106218 0.139773 0.195087
0.169802 0.192538 0.298299
0.290929 0.227161 0.411917
0.356756 0.289052 0.418036
0.334066 0.374899 0.447883
0.287541 0.341894 0.414206
0.329519 0.403845 0.490272
0.401892 0.45832 0.5505
0.589639 0.484779 0.549096
0.579812 0.560678 0.6392
0.471489 0.54197 0.645853
0.501015 0.608988 0.709163
0.533593 0.680369 0.72192
0.651102 0.736965 0.635676
0.78941 0.764996 0.767605
0.651576 0.741924 0.891142
0.704082 0.802915 0.947311
0.73695 0.873075 0.973846
0.798413 0.941558 0.936355
0.930175 0.976379 1
0 0 0
0.012665 0.0104829 0.0288701
0.0686961 0.0685588 0.101747
0.125582 0.126482 0.173709
0.189029 0.182879 0.241077
0.134356 0.153918 0.191623
0.186282 0.211048 0.28603
0.255619 0.26154 0.394873
0.318166 0.320119 0.443641
0.348684 0.389868 0.476143
0.310933 0.355215 0.43299
0.35581 0.414939 0.522484
0.415656 0.469718 0.61648
0.522377 0.508843 0.727077
0.595117 0.567452 0.745953
0.487037 0.556725 0.673625
0.532799 0.617487 0.750072
0.574914 0.679362 0.826291
0.650538 0.734264 0.873884
0.833753 0.760693 0.887892
0.666224 0.757671 0.911391
0.720287 0.817441 0.974838
0.745953 0.886091 1
0.776257 0.962463 1
0.953796 1 0.931075
0 0 0
0.026215 0.0263371 0.0514076
0.0813764 0.0847639 0.123445
0.136889 0.143099 0.195438
0.192599 0.201434 0.266773
0.148363 0.169726 0.213489
0.202441 0.228565 0.284459
0.256306 0.287465 0.355642
0.310002 0.346395 0.427008
0.363592 0.405341 0.498512
0.325612 0.370855 0.45449
0.379156 0.429801 0.526055
0.432044 0.487343 0.613397
0.497078 0.539605 0.716289
0.563272 0.596139 0.774609
0.502251 0.572061 0.696529
0.556512 0.630823 0.767849
0.602747 0.689677 0.859525
0.665248 0.742351 0.961517
0.815579 0.766751 1
0.681849 0.772686 0.936767
0.736751 0.831891 1
0.784344 0.891279 1
0.824979 0.953414 1
0.950896 0.995148 1
