All_In_One/Enrich_Colormaster/colormanagement/luts/film_response/RedPink.3DL
#Created by: Adobe Photoshop Export Color Lookup Plugin
#Description: Red Pink
0 33 66 99 132 165 198 231 264 297 330 363 396 429 462 495 528 561 594 627 660 693 726 759 792 825 858 891 924 957 990 1023
1394 1167 1212
1394 1167 1212
1394 1167 1212
1394 1167 1212
1394 1167 1212
1394 1167 1215
1394 1167 1247
1394 1167 1293
1394 1167 1367
1394 1167 1475
1394 1167 1605
1394 1167 1745
1394 1167 1883
1394 1167 2016
1394 1167 2147
1394 1167 2279
1394 1167 2413
1394 1167 2544
1394 1167 2663
1394 1167 2769
1394 1167 2863
1394 1167 2944
1394 1167 3012
1394 1167 3062
1394 1167 3092
1394 1167 3104
1394 1167 3104
1394 1167 3095
1394 1167 3083
1394 1167 3075
1394 1167 3076
1394 1167 3083
1394 1160 1212
1394 1160 1212
1394 1160 1212
1394 1160 1212
1394 1160 1212
1394 1160 1215
1394 1160 1247
1394 1160 1293
1394 1160 1367
1394 1160 1475
1394 1160 1605
1394 1160 1745
1394 1160 1883
1394 1160 2016
1394 1160 2147
1394 1160 2279
1394 1160 2413
1394 1160 2544
1394 1160 2663
1394 1160 2769
1394 1160 2863
1394 1160 2944
1394 1160 3012
1394 1160 3062
1394 1160 3092
1394 1160 3104
1394 1160 3104
1394 1160 3095
1394 1160 3083
1394 1160 3075
1394 1160 3076
1394 1160 3083
1394 1145 1212
1394 1145 1212
1394 1145 1212
1394 1145 1212
1394 1145 1212
1394 1145 1215
1394 1145 1247
1394 1145 1293
1394 1145 1367
1394 1145 1475
1394 1145 1605
1394 1145 1745
1394 1145 1883
1394 1145 2016
1394 1145 2147
1394 1145 2279
1394 1145 2413
1394 1145 2544
1394 1145 2663
1394 1145 2769
1394 1145 2863
1394 1145 2944
1394 1145 3012
1394 1145 3062
1394 1145 3092
1394 1145 3104
1394 1145 3104
1394 1145 3095
1394 1145 3083
1394 1145 3075
1394 1145 3076
1394 1145 3083
1394 1134 1212
1394 1134 1212
1394 1134 1212
1394 1134 1212
1394 1134 1212
1394 1134 1215
1394 1134 1247
1394 1134 1293
1394 1134 1367
1394 1134 1475
1394 1134 1605
1394 1134 1745
1394 1134 1883
1394 1134 2016
1394 1134 2147
1394 1134 2279
1394 1134 2413
1394 1134 2544
1394 1134 2663
1394 1134 2769
1394 1134 2863
1394 1134 2944
1394 1134 3012
1394 1134 3062
1394 1134 3092
1394 1134 3104
1394 1134 3104
1394 1134 3095
1394 1134 3083
1394 1134 3075
1394 1134 3076
1394 1134 3083
1394 1130 1212
1394 1130 1212
1394 1130 1212
1394 1130 1212
1394 1130 1212
1394 1130 1215
1394 1130 1247
1394 1130 1293
1394 1130 1367
1394 1130 1475
1394 1130 1605
1394 1130 1745
1394 1130 1883
1394 1130 2016
1394 1130 2147
1394 1130 2279
1394 1130 2413
1394 1130 2544
1394 1130 2663
1394 1130 2769
1394 1130 2863
1394 1130 2944
1394 1130 3012
1394 1130 3062
1394 1130 3092
1394 1130 3104
1394 1130 3104
1394 1130 3095
1394 1130 3083
1394 1130 3075
1394 1130 3076
1394 1130 3083
1394 1136 1212
1394 1136 1212
1394 1136 1212
1394 1136 1212
1394 1136 1212
1394 1136 1215
1394 1136 1247
1394 1136 1293
1394 1136 1367
1394 1136 1475
1394 1136 1605
1394 1136 1745
1394 1136 1883
1394 1136 2016
1394 1136 2147
1394 1136 2279
1394 1136 2413
1394 1136 2544
1394 1136 2663
1394 1136 2769
1394 1136 2863
1394 1136 2944
1394 1136 3012
1394 1136 3062
1394 1136 3092
1394 1136 3104
1394 1136 3104
1394 1136 3095
1394 1136 3083
1394 1136 3075
1394 1136 3076
1394 1136 3083
1394 1154 1212
1394 1154 1212
1394 1154 1212
1394 1154 1212
1394 1154 1212
1394 1154 1215
1394 1154 1247
1394 1154 1293
1394 1154 1367
1394 1154 1475
1394 1154 1605
1394 1154 1745
1394 1154 1883
1394 1154 2016
1394 1154 2147
1394 1154 2279
1394 1154 2413
1394 1154 2544
1394 1154 2663
1394 1154 2769
1394 1154 2863
1394 1154 2944
1394 1154 3012
1394 1154 3062
1394 1154 3092
1394 1154 3104
1394 1154 3104
1394 1154 3095
1394 1154 3083
1394 1154 3075
1394 1154 3076
1394 1154 3083
1394 1187 1212
1394 1187 1212
1394 1187 1212
1394 1187 1212
1394 1187 1212
1394 1187 1215
1394 1187 1247
1394 1187 1293
1394 1187 1367
1394 1187 1475
1394 1187 1605
1394 1187 1745
1394 1187 1883
1394 1187 2016
1394 1187 2147
1394 1187 2279
1394 1187 2413
1394 1187 2544
1394 1187 2663
1394 1187 2769
1394 1187 2863
1394 1187 2944
1394 1187 3012
1394 1187 3062
1394 1187 3092
1394 1187 3104
1394 1187 3104
1394 1187 3095
1394 1187 3083
1394 1187 3075
1394 1187 3076
1394 1187 3083
1394 1240 1212
1394 1240 1212
1394 1240 1212
1394 1240 1212
1394 1240 1212
1394 1240 1215
1394 1240 1247
1394 1240 1293
1394 1240 1367
1394 1240 1475
1394 1240 1605
1394 1240 1745
1394 1240 1883
1394 1240 2016
1394 1240 2147
1394 1240 2279
1394 1240 2413
1394 1240 2544
1394 1240 2663
1394 1240 2769
1394 1240 2863
1394 1240 2944
1394 1240 3012
1394 1240 3062
1394 1240 3092
1394 1240 3104
1394 1240 3104
1394 1240 3095
1394 1240 3083
1394 1240 3075
1394 1240 3076
1394 1240 3083
1394 1313 1212
1394 1313 1212
1394 1313 1212
1394 1313 1212
1394 1313 1212
1394 1313 1215
1394 1313 1247
1394 1313 1293
1394 1313 1367
1394 1313 1475
1394 1313 1605
1394 1313 1745
1394 1313 1883
1394 1313 2016
1394 1313 2147
1394 1313 2279
1394 1313 2413
1394 1313 2544
1394 1313 2663
1394 1313 2769
1394 1313 2863
1394 1313 2944
1394 1313 3012
1394 1313 3062
1394 1313 3092
1394 1313 3104
1394 1313 3104
1394 1313 3095
1394 1313 3083
1394 1313 3075
1394 1313 3076
1394 1313 3083
1394 1405 1212
1394 1405 1212
1394 1405 1212
1394 1405 1212
1394 1405 1212
1394 1405 1215
1394 1405 1247
1394 1405 1293
1394 1405 1367
1394 1405 1475
1394 1405 1605
1394 1405 1745
1394 1405 1883
1394 1405 2016
1394 1405 2147
1394 1405 2279
1394 1405 2413
1394 1405 2544
1394 1405 2663
1394 1405 2769
1394 1405 2863
1394 1405 2944
1394 1405 3012
1394 1405 3062
1394 1405 3092
1394 1405 3104
1394 1405 3104
1394 1405 3095
1394 1405 3083
1394 1405 3075
1394 1405 3076
1394 1405 3083
1394 1511 1212
1394 1511 1212
1394 1511 1212
1394 1511 1212
1394 1511 1212
1394 1511 1215
1394 1511 1247
1394 1511 1293
1394 1511 1367
1394 1511 1475
1394 1511 1605
1394 1511 1745
1394 1511 1883
1394 1511 2016
1394 1511 2147
1394 1511 2279
1394 1511 2413
1394 1511 2544
1394 1511 2663
1394 1511 2769
1394 1511 2863
1394 1511 2944
1394 1511 3012
1394 1511 3062
1394 1511 3092
1394 1511 3104
1394 1511 3104
1394 1511 3095
1394 1511 3083
1394 1511 3075
1394 1511 3076
1394 1511 3083
1394 1629 1212
1394 1629 1212
1394 1629 1212
1394 1629 1212
1394 1629 1212
1394 1629 1215
1394 1629 1247
1394 1629 1293
1394 1629 1367
1394 1629 1475
1394 1629 1605
1394 1629 1745
1394 1629 1883
1394 1629 2016
1394 1629 2147
1394 1629 2279
1394 1629 2413
1394 1629 2544
1394 1629 2663
1394 1629 2769
1394 1629 2863
1394 1629 2944
1394 1629 3012
1394 1629 3062
1394 1629 3092
1394 1629 3104
1394 1629 3104
1394 1629 3095
1394 1629 3083
1394 1629 3075
1394 1629 3076
1394 1629 3083
1394 1754 1212
1394 1754 1212
1394 1754 1212
1394 1754 1212
1394 1754 1212
1394 1754 1215
1394 1754 1247
1394 1754 1293
1394 1754 1367
1394 1754 1475
1394 1754 1605
1394 1754 1745
1394 1754 1883
1394 1754 2016
1394 1754 2147
1394 1754 2279
1394 1754 2413
1394 1754 2544
1394 1754 2663
1394 1754 2769
1394 1754 2863
1394 1754 2944
1394 1754 3012
1394 1754 3062
1394 1754 3092
1394 1754 3104
1394 1754 3104
1394 1754 3095
1394 1754 3083
1394 1754 3075
1394 1754 3076
1394 1754 3083
1394 1882 1212
1394 1882 1212
1394 1882 1212
1394 1882 1212
1394 1882 1212
1394 1882 1215
1394 1882 1247
1394 1882 1293
1394 1882 1367
1394 1882 1475
1394 1882 1605
1394 1882 1745
1394 1882 1883
1394 1882 2016
1394 1882 2147
1394 1882 2279
1394 1882 2413
1394 1882 2544
1394 1882 2663
1394 1882 2769
1394 1882 2863
1394 1882 2944
1394 1882 3012
1394 1882 3062
1394 1882 3092
1394 1882 3104
1394 1882 3104
1394 1882 3095
1394 1882 3083
1394 1882 3075
1394 1882 3076
1394 1882 3083
1394 2011 1212
1394 2011 1212
1394 2011 1212
1394 2011 1212
1394 2011 1212
1394 2011 1215
1394 2011 1247
1394 2011 1293
1394 2011 1367
1394 2011 1475
1394 2011 1605
1394 2011 1745
1394 2011 1883
1394 2011 2016
1394 2011 2147
1394 2011 2279
1394 2011 2413
1394 2011 2544
1394 2011 2663
1394 2011 2769
1394 2011 2863
1394 2011 2944
1394 2011 3012
1394 2011 3062
1394 2011 3092
1394 2011 3104
1394 2011 3104
1394 2011 3095
1394 2011 3083
1394 2011 3075
1394 2011 3076
1394 2011 3083
1394 2137 1212
1394 2137 1212
1394 2137 1212
1394 2137 1212
1394 2137 1212
1394 2137 1215
1394 2137 1247
1394 2137 1293
1394 2137 1367
1394 2137 1475
1394 2137 1605
1394 2137 1745
1394 2137 1883
1394 2137 2016
1394 2137 2147
1394 2137 2279
1394 2137 2413
1394 2137 2544
1394 2137 2663
1394 2137 2769
1394 2137 2863
1394 2137 2944
1394 2137 3012
1394 2137 3062
1394 2137 3092
1394 2137 3104
1394 2137 3104
1394 2137 3095
1394 2137 3083
1394 2137 3075
1394 2137 3076
1394 2137 3083
1394 2262 1212
1394 2262 1212
1394 2262 1212
1394 2262 1212
1394 2262 1212
1394 2262 1215
1394 2262 1247
1394 2262 1293
1394 2262 1367
1394 2262 1475
1394 2262 1605
1394 2262 1745
1394 2262 1883
1394 2262 2016
1394 2262 2147
1394 2262 2279
1394 2262 2413
1394 2262 2544
1394 2262 2663
1394 2262 2769
1394 2262 2863
1394 2262 2944
1394 2262 3012
1394 2262 3062
1394 2262 3092
1394 2262 3104
1394 2262 3104
1394 2262 3095
1394 2262 3083
1394 2262 3075
1394 2262 3076
1394 2262 3083
1394 2383 1212
1394 2383 1212
1394 2383 1212
1394 2383 1212
1394 2383 1212
1394 2383 1215
1394 2383 1247
1394 2383 1293
1394 2383 1367
1394 2383 1475
1394 2383 1605
1394 2383 1745
1394 2383 1883
1394 2383 2016
1394 2383 2147
1394 2383 2279
1394 2383 2413
1394 2383 2544
1394 2383 2663
1394 2383 2769
1394 2383 2863
1394 2383 2944
1394 2383 3012
1394 2383 3062
1394 2383 3092
1394 2383 3104
1394 2383 3104
1394 2383 3095
1394 2383 3083
1394 2383 3075
1394 2383 3076
1394 2383 3083
1394 2502 1212
1394 2502 1212
1394 2502 1212
1394 2502 1212
1394 2502 1212
1394 2502 1215
1394 2502 1247
1394 2502 1293
1394 2502 1367
1394 2502 1475
1394 2502 1605
1394 2502 1745
1394 2502 1883
1394 2502 2016
1394 2502 2147
1394 2502 2279
1394 2502 2413
1394 2502 2544
1394 2502 2663
1394 2502 2769
1394 2502 2863
1394 2502 2944
1394 2502 3012
1394 2502 3062
1394 2502 3092
1394 2502 3104
1394 2502 3104
1394 2502 3095
1394 2502 3083
1394 2502 3075
1394 2502 3076
1394 2502 3083
1394 2618 1212
1394 2618 1212
1394 2618 1212
1394 2618 1212
1394 2618 1212
1394 2618 1215
1394 2618 1247
1394 2618 1293
1394 2618 1367
1394 2618 1475
1394 2618 1605
1394 2618 1745
1394 2618 1883
1394 2618 2016
1394 2618 2147
1394 2618 2279
1394 2618 2413
1394 2618 2544
1394 2618 2663
1394 2618 2769
1394 2618 2863
1394 2618 2944
1394 2618 3012
1394 2618 3062
1394 2618 3092
1394 2618 3104
1394 2618 3104
1394 2618 3095
1394 2618 3083
1394 2618 3075
1394 2618 3076
1394 2618 3083
1394 2729 1212
1394 2729 1212
1394 2729 1212
1394 2729 1212
1394 2729 1212
1394 2729 1215
1394 2729 1247
1394 2729 1293
1394 2729 1367
1394 2729 1475
1394 2729 1605
1394 2729 1745
1394 2729 1883
1394 2729 2016
1394 2729 2147
1394 2729 2279
1394 2729 2413
1394 2729 2544
1394 2729 2663
1394 2729 2769
1394 2729 2863
1394 2729 2944
1394 2729 3012
1394 2729 3062
1394 2729 3092
1394 2729 3104
1394 2729 3104
1394 2729 3095
1394 2729 3083
1394 2729 3075
1394 2729 3076
1394 2729 3083
1394 2835 1212
1394 2835 1212
1394 2835 1212
1394 2835 1212
1394 2835 1212
1394 2835 1215
1394 2835 1247
1394 2835 1293
1394 2835 1367
1394 2835 1475
1394 2835 1605
1394 2835 1745
1394 2835 1883
1394 2835 2016
1394 2835 2147
1394 2835 2279
1394 2835 2413
1394 2835 2544
1394 2835 2663
1394 2835 2769
1394 2835 2863
1394 2835 2944
1394 2835 3012
1394 2835 3062
1394 2835 3092
1394 2835 3104
1394 2835 3104
1394 2835 3095
1394 2835 3083
1394 2835 3075
1394 2835 3076
1394 2835 3083
1394 2931 1212
1394 2931 1212
1394 2931 1212
1394 2931 1212
1394 2931 1212
1394 2931 1215
1394 2931 1247
1394 2931 1293
1394 2931 1367
1394 2931 1475
1394 2931 1605
1394 2931 1745
1394 2931 1883
1394 2931 2016
1394 2931 2147
1394 2931 2279
1394 2931 2413
1394 2931 2544
1394 2931 2663
1394 2931 2769
1394 2931 2863
1394 2931 2944
1394 2931 3012
1394 2931 3062
1394 2931 3092
1394 2931 3104
1394 2931 3104
1394 2931 3095
1394 2931 3083
1394 2931 3075
1394 2931 3076
1394 2931 3083
1394 3018 1212
1394 3018 1212
1394 3018 1212
1394 3018 1212
1394 3018 1212
1394 3018 1215
1394 3018 1247
1394 3018 1293
1394 3018 1367
1394 3018 1475
1394 3018 1605
1394 3018 1745
1394 3018 1883
1394 3018 2016
1394 3018 2147
1394 3018 2279
1394 3018 2413
1394 3018 2544
1394 3018 2663
1394 3018 2769
1394 3018 2863
1394 3018 2944
1394 3018 3012
1394 3018 3062
1394 3018 3092
1394 3018 3104
1394 3018 3104
1394 3018 3095
1394 3018 3083
1394 3018 3075
1394 3018 3076
1394 3018 3083
1394 3092 1212
1394 3092 1212
1394 3092 1212
1394 3092 1212
1394 3092 1212
1394 3092 1215
1394 3092 1247
1394 3092 1293
1394 3092 1367
1394 3092 1475
1394 3092 1605
1394 3092 1745
1394 3092 1883
1394 3092 2016
1394 3092 2147
1394 3092 2279
1394 3092 2413
1394 3092 2544
1394 3092 2663
1394 3092 2769
1394 3092 2863
1394 3092 2944
1394 3092 3012
1394 3092 3062
1394 3092 3092
1394 3092 3104
1394 3092 3104
1394 3092 3095
1394 3092 3083
1394 3092 3075
1394 3092 3076
1394 3092 3083
1394 3153 1212
1394 3153 1212
1394 3153 1212
1394 3153 1212
1394 3153 1212
1394 3153 1215
1394 3153 1247
1394 3153 1293
1394 3153 1367
1394 3153 1475
1394 3153 1605
1394 3153 1745
1394 3153 1883
1394 3153 2016
1394 3153 2147
1394 3153 2279
1394 3153 2413
1394 3153 2544
1394 3153 2663
1394 3153 2769
1394 3153 2863
1394 3153 2944
1394 3153 3012
1394 3153 3062
1394 3153 3092
1394 3153 3104
1394 3153 3104
1394 3153 3095
1394 3153 3083
1394 3153 3075
1394 3153 3076
1394 3153 3083
1394 3199 1212
1394 3199 1212
1394 3199 1212
1394 3199 1212
1394 3199 1212
1394 3199 1215
1394 3199 1247
1394 3199 1293
1394 3199 1367
1394 3199 1475
1394 3199 1605
1394 3199 1745
1394 3199 1883
1394 3199 2016
1394 3199 2147
1394 3199 2279
1394 3199 2413
1394 3199 2544
1394 3199 2663
1394 3199 2769
1394 3199 2863
1394 3199 2944
1394 3199 3012
1394 3199 3062
1394 3199 3092
1394 3199 3104
1394 3199 3104
1394 3199 3095
1394 3199 3083
1394 3199 3075
1394 3199 3076
1394 3199 3083
1394 3234 1212
1394 3234 1212
1394 3234 1212
1394 3234 1212
