All_In_One/Enrich_Colormaster/colormanagement/luts/film_response/Slog2_to_Rec709.cube
TITLE "Generate by Resolve"
LUT_3D_SIZE 5
0 0 0
0.253758 0 0
0.840406 0 0
1 0 0
1 0 0
0 0.175982 0
0.157443 0.157443 0
0.76379 0.0927596 0
1 0 0
1 0 0
0 0.626047 0
0 0.604364 0
0.535271 0.535271 0
1 0.438285 0
1 0.406302 0
0 1 0
0 1 0
0.240787 1 0
0.952346 0.952346 0
1 0.905684 0
0 1 0
0 1 0
0.0792096 1 0
0.757305 1 0
1 1 0
0 0 0.276814
0.236271 0 0.236271
0.826123 0 0.155093
1 0 0.0476234
1 0 0.00598154
0 0.163363 0.163363
0.147692 0.147692 0.147692
0.753048 0.0820172 0.0820172
1 0 0
1 0 0
0 0.614572 0
0 0.592905 0
0.523781 0.523781 0
1 0.428931 0
1 0.401343 0
0 1 0
0 1 0
0.230335 1 0
0.940551 0.940536 0
1 0.89192 0
0 1 0
0 1 0
0.0594186 1 0
0.734661 1 0
1 1 0
0 0 0.911299
0.201282 0 0.872312
0.79704 0 0.79704
1 0 0.687617
1 0 0.649332
0 0.135409 0.806439
0.119524 0.119524 0.790539
0.723873 0.0528573 0.723888
1 0 0.626612
1 0 0.582025
0 0.584817 0.584817
0 0.563134 0.563134
0.49424 0.49424 0.49424
1 0.403967 0.403967
1 0.377325 0.37734
0 1 0.272541
0 1 0.266499
0.201251 1 0.201251
0.909957 0.909957 0.102815
1 0.859358 0.0522164
0 1 0.142519
0 1 0.111971
0.0187991 1 0.0187991
0.696452 1 0
1 1 0
0 0 1
0.156207 0 1
0.750301 0 1
1 0 1
1 0 1
0 0.0973068 1
0.079881 0.0798962 1
0.683314 0.0122988 1
1 0 1
1 0 1
0 0.543999 1
0 0.522362 1
0.454215 0.454231 1
1 0.3691 1
1 0.340856 1
0 1 1
0 1 1
0.161044 0.9682 0.9682
0.868009 0.868009 0.868009
1 0.814939 0.814939
0 1 0.906645
0 1 0.873091
0 1 0.772396
0.647181 1 0.647166
1 1 0.577401
0 0 1
0.133349 0 1
0.725582 0 1
1 0 1
1 0 1
0 0.0788281 1
0.0604257 0.060441 1
0.663157 0 1
1 0 1
1 0 1
0 0.523674 1
0 0.502159 1
0.436118 0.436118 1
1 0.355413 1
1 0.322713 1
0 1 1
0 1 1
0.140505 0.947662 1
0.845502 0.845502 1
1 0.789517 1
0 1 1
0 1 1
0 1 1
0.618341 1 1
1 1 1
