All_In_One/Enrich_Colormaster/colormanagement/luts/film_response/Slog2_to_Rec709.cube
TITLE "Generate by Resolve"
LUT_3D_SIZE 33
0 0 0
0 0 0
0 0 0
0 0 0
0.0464485 0 0
0.0878309 0 0
0.13109 0 0
0.18613 0 0
0.253758 0 0
0.324849 0 0
0.396368 0 0
0.468009 0 0
0.540658 0 0
0.614099 0 0
0.688502 0 0
0.764019 0 0
0.840406 0 0
0.918776 0 0
1 0 0
1 0 0
1 0 0
1 0 0
1 0 0
1 0 0
1 0 0
1 0 0
1 0 0
1 0 0
1 0 0
1 0 0
1 0 0
1 0 0
1 0 0
0 0 0
0 0 0
0 0 0
0 0 0
0.0299535 0 0
0.0715496 0 0
0.115007 0 0
0.170291 0 0
0.238163 0 0
0.309545 0 0
0.381369 0 0
0.453376 0 0
0.526452 0 0
0.600381 0 0
0.675395 0 0
0.751675 0 0
0.829145 0 0
0.909377 0 0
0.992706 0 0
1 0 0
1 0 0
1 0 0
1 0 0
1 0 0
1 0 0
1 0 0
1 0 0
1 0 0
1 0 0
1 0 0
1 0 0
1 0 0
1 0 0
0 0 0
0 0 0
0 0 0
0 0 0
0.0143587 0 0
0.0562142 0 0
0.0999771 0 0
0.155581 0 0
0.223835 0 0
0.295659 0 0
0.368017 0 0
0.440681 0 0
0.514626 0 0
0.589822 0 0
0.667475 0 0
0.743328 0 0
0.818814 0 0
0.896391 0 0
0.977188 0 0
1 0 0
1 0 0
1 0 0
1 0 0
1 0 0
1 0 0
1 0 0
1 0 0
1 0 0
1 0 0
1 0 0
1 0 0
1 0 0
1 0 0
0 0 0
0 0 0
0 0 0
0 0 0
3.0518e-05 0 0
0.0422827 0 0
0.0865034 0 0
0.142687 0 0
0.211658 0 0
0.284474 0 0
0.358358 0 0
0.433173 0 0
0.505852 0 0
0.578958 0 0
0.652995 0 0
0.72813 0 0
0.804288 0 0
0.882887 0 0
0.964889 0 0
1 0 0
1 0 0
1 0 0
1 0 0
1 0 0
1 0 0
1 0 0
1 0 0
1 0 0
1 0 0
1 0 0
1 0 0
1 0 0
1 0 0
0 0.00334173 0
0 0 0
0 0 0
0 0 0
0 0 0
0.030869 0 0
0.0762188 0 0
0.134417 0 0
0.204334 0 0
0.275486 0 0
0.346899 0 0
0.418631 0 0
0.491218 0 0
0.56527 0 0
0.640269 0 0
0.716731 0 0
0.794797 0 0
0.874784 0 0
0.958389 0 0
1 0 0
1 0 0
1 0 0
1 0 0
1 0 0
1 0 0
1 0 0
1 0 0
1 0 0
1 0 0
1 0 0
1 0 0
1 0 0
1 0 0
0 0.0417029 0
0 0.038117 0
0 0.0349584 0
0 0.0324865 0
0 0.0317235 0
0.0299382 0.0299382 0
0.0732433 0.0268406 0
0.128618 0.0209354 0
0.196399 0.0115663 0
0.268009 0.00170901 0
0.340414 0 0
0.413184 0 0
0.48748 0 0
0.563027 0 0
0.639796 0 0
0.717708 0 0
0.796353 0 0
0.877043 0 0
0.960937 0 0
1 0 0
1 0 0
1 0 0
1 0 0
1 0 0
1 0 0
1 0 0
1 0 0
1 0 0
1 0 0
1 0 0
1 0 0
1 0 0
1 0 0
0 0.0843366 0
0 0.0826734 0
0 0.0781109 0
0 0.0734875 0
0 0.0690776 0
0.0204471 0.0668345 0
0.0644846 0.0644846 0
0.120897 0.059617 0
0.189792 0.0513619 0
0.263096 0.0431983 0
0.337346 0.0355383 0
0.411444 0.0276799 0
0.486976 0.0200656 0
0.563394 0.0124819 0
0.640574 0.00460822 0
0.718395 0 0
0.797086 0 0
0.87747 0 0
0.961105 0 0
1 0 0
1 0 0
1 0 0
1 0 0
1 0 0
1 0 0
1 0 0
1 0 0
1 0 0
1 0 0
1 0 0
1 0 0
1 0 0
1 0 0
0 0.128588 0
0 0.124025 0
0 0.119539 0
0 0.115892 0
0 0.112444 0
0.00390631 0.111589 0
0.0498665 0.111147 0
0.107652 0.107652 0
0.178256 0.101106 0
0.252583 0.0939651 0
0.327092 0.0865644 0
0.401801 0.0793164 0
0.477348 0.0717174 0
0.553475 0.063859 0
0.630121 0.0554513 0
0.707942 0.046952 0
0.786389 0.0382086 0
0.866545 0.0289158 0
0.949981 0.0186923 0
1 0.00544747 0
1 0 0
1 0 0
1 0 0
1 0 0
1 0 0
1 0 0
1 0 0
1 0 0
1 0 0
1 0 0
1 0 0
1 0 0
1 0 0
0 0.175982 0
0 0.172503 0
0 0.169635 0
0 0.16759 0
0 0.165896 0
0 0.166445 0
0.0281071 0.166537 0
0.0865644 0.163714 0
0.157443 0.157443 0
0.231464 0.149981 0
0.305852 0.142473 0
0.380285 0.134936 0
0.455573 0.127092 0
0.531456 0.118975 0
0.607904 0.110369 0
0.685527 0.101671 0
0.76379 0.0927596 0
0.843778 0.083299 0
0.927062 0.0729229 0
1 0.059617 0
1 0.0442969 0
1 0.030396 0
1 0.0184939 0
1 0.00723278 0
1 0 0
1 0 0
1 0 0
1 0 0
1 0 0
1 0 0
1 0 0
1 0 0
1 0 0
0 0.229709 0
0 0.227558 0
0 0.225986 0
0 0.224643 0
0 0.223148 0
0 0.223789 0
0.00399786 0.223896 0
0.0621653 0.220783 0
0.132769 0.214237 0
0.20647 0.20647 0
0.28069 0.198795 0
0.354925 0.191058 0
0.430014 0.183017 0
0.505714 0.174701 0
0.582025 0.165957 0
0.65948 0.157122 0
0.737606 0.148058 0
0.817487 0.138476 0
0.900649 0.127977 0
0.993957 0.114733 0
1 0.0991531 0
1 0.0851606 0
1 0.0731823 0
1 0.0618448 0
1 0.0511177 0
1 0.0413825 0
1 0.032639 0
1 0.0263218 0
1 0.0242466 0
1 0.0208133 0
1 0.0160983 0
1 0.011368 0
1 0.00662242 0
0 0.286809 0
0 0.285252 0
0 0.283635 0
0 0.281971 0
0 0.280201 0
0 0.280613 0
0 0.280491 0
0.0366369 0.27715 0
0.106996 0.270375 0
0.18056 0.262455 0
0.254612 0.254612 0
0.328679 0.246708 0
0.403632 0.238529 0
0.479225 0.230121 0
0.555383 0.22121 0
0.632731 0.212268 0
0.71075 0.203098 0
0.790524 0.193423 0
0.87361 0.182834 0
0.966842 0.169512 0
1 0.154116 0
1 0.139834 0
1 0.127764 0
1 0.116381 0
1 0.105623 0
1 0.0958419 0
1 0.087068 0
1 0.0807813 0
1 0.0788891 0
1 0.0754406 0
1 0.0707256 0
1 0.0657511 0
1 0.0609903 0
0 0.344106 0
0 0.34226 0
0 0.340398 0
0 0.338308 0
0 0.336522 0
0 0.336736 0
0 0.336431 0
0.0104372 0.332921 0
0.0806897 0.326024 0
0.15407 0.317937 0
0.228 0.309957 0
0.301946 0.301946 0
0.376791 0.293645 0
0.452293 0.285145 0
0.528588 0.276387 0
0.605768 0.267262 0
0.683558 0.257877 0
0.763272 0.248127 0
0.846281 0.237491 0
0.939467 0.224109 0
1 0.208667 0
1 0.194568 0
1 0.182498 0
1 0.171054 0
1 0.160052 0
1 0.15024 0
1 0.141451 0
1 0.135164 0
1 0.133272 0
1 0.129824 0
1 0.125124 0
1 0.120409 0
1 0.115679 0
0 0.400885 0
0 0.39884 0
0 0.396796 0
0 0.394522 0
0 0.392584 0
0 0.392645 0
0 0.392203 0
0 0.388571 0
0.0530861 0.381567 0
0.126467 0.373465 0
0.200198 0.365301 0
0.274052 0.357183 0
0.348821 0.348821 0
0.424247 0.340246 0
0.500496 0.331426 0
0.577707 0.322332 0
0.655604 0.313039 0
0.735012 0.303014 0
0.817975 0.292317 0
0.911131 0.278904 0
1 0.263447 0
1 0.249332 0
1 0.237232 0
1 0.225818 0
1 0.21503 0
1 0.205234 0
1 0.196445 0
1 0.190082 0
1 0.188037 0
1 0.184604 0
1 0.179919 0
1 0.175235 0
1 0.17055 0
0 0.457313 0
0 0.4551 0
0 0.452903 0
0 0.450614 0
0 0.448432 0
0 0.448402 0
0 0.447852 0
0 0.444129 0
0.0245518 0.437034 0
0.0980087 0.429007 0
0.171649 0.420737 0
0.245304 0.412451 0
0.320012 0.404013 0
0.395407 0.395407 0
0.471595 0.386542 0
0.548775 0.377401 0
0.626642 0.368093 0
0.706294 0.358297 0
0.789242 0.347585 0
0.882383 0.334157 0
0.982971 0.318486 0
1 0.304311 0
1 0.29221 0
1 0.280797 0
1 0.270039 0
1 0.260258 0
1 0.251484 0
1 0.245228 0
1 0.243412 0
1 0.240009 0
1 0.235355 0
1 0.230732 0
1 0.226108 0
0 0.513558 0
0 0.511223 0
0 0.508919 0
0 0.506676 0
0 0.504295 0
0 0.504143 0
0 0.503532 0
0 0.499733 0
0 0.492576 0
0.0684367 0.484504 0
0.142168 0.476326 0
0.215915 0.468101 0
0.290593 0.459648 0
0.365698 0.450767 0
0.441871 0.441855 0
0.51902 0.4327 0
0.596872 0.423377 0
0.676524 0.413581 0
0.759472 0.402869 0
0.852613 0.389441 0
0.953414 0.373983 0
1 0.359899 0
1 0.347814 0
1 0.336416 0
1 0.325612 0
1 0.315679 0
1 0.306935 0
1 0.30071 0
1 0.298955 0
1 0.295628 0
1 0.291157 0
1 0.286976 0
1 0.282979 0
0 0.569802 0
0 0.567391 0
0 0.565011 0
0 0.562692 0
0 0.560464 0
0 0.560281 0
0 0.559442 0
0 0.555535 0
0 0.548333 0
0.0378576 0.54023 0
0.111559 0.532021 0
0.18529 0.523796 0
0.259953 0.515312 0
0.335302 0.506661 0
0.411475 0.49778 0
0.488548 0.488548 0
0.56643 0.47924 0
0.645899 0.469245 0
0.728862 0.458564 0
0.822019 0.445151 0
0.92285 0.429709 0
1 0.415656 0
1 0.403616 0
1 0.392248 0
1 0.381567 0
1 0.371893 0
1 0.363241 0
1 0.35729 0
1 0.356054 0
1 0.353368 0
1 0.349538 0
1 0.346136 0
1 0.343191 0
0 0.626047 0
0 0.623575 0
0 0.621134 0
0 0.618769 0
0 0.61651 0
0 0.616297 0
0 0.615595 0
0 0.611734 0
0 0.604364 0
0.00668345 0.596231 0
0.080293 0.58793 0
0.154009 0.579705 0
0.228672 0.571221 0
0.304021 0.56257 0
0.380224 0.553719 0
0.457389 0.544579 0
0.535271 0.535271 0
0.614969 0.525505 0
0.697978 0.51487 0
0.791165 0.501488 0
0.892027 0.486091 0
0.987823 0.472084 0
1 0.459907 0
1 0.4486 0
1 0.438285 0
1 0.429191 0
1 0.42118 0
1 0.415885 0
1 0.415534 0
1 0.414008 0
1 0.411292 0
1 0.408682 0
1 0.406302 0
0 0.68304 0
0 0.680369 0
0 0.677867 0
0 0.675395 0
0 0.673121 0
0 0.672877 0
0 0.672175 0
0 0.668315 0
0 0.661097 0
0 0.652979 0
0.0476692 0.644785 0
0.121431 0.636561 0
0.195987 0.627985 0
0.271397 0.619394 0
0.347448 0.610376 0
0.424659 0.601282 0
0.502571 0.592004 0
0.5823 0.582284 0
0.66537 0.57171 0
0.758618 0.558404 0
0.859693 0.543206 0
0.955962 0.529656 0
1 0.518318 0
1 0.507713 0
1 0.498116 0
1 0.490028 0
1 0.483223 0
1 0.47895 0
1 0.479271 0
1 0.478248 0
1 0.476036 0
1 0.473747 0
1 0.471321 0
0 0.740887 0
0 0.738338 0
0 0.735851 0
0 0.733455 0
0 0.731136 0
0 0.730678 0
0 0.729976 0
0 0.726131 0
0 0.718944 0
0 0.710826 0
0.011902 0.702663 0
0.0856947 0.694484 0
0.160403 0.686061 0
0.235813 0.677455 0
0.312093 0.668681 0
0.389364 0.659648 0
0.467369 0.650477 0
0.547402 0.641047 0
0.631022 0.631006 0
0.724895 0.618326 0
0.826429 0.603586 0
0.923613 0.590982 0
1 0.58053 0
1 0.571069 0
1 0.562371 0
1 0.554864 0
1 0.548531 0
1 0.544732 0
1 0.545266 0
1 0.544045 0
1 0.541421 0
1 0.53872 0
1 0.535744 0
0 0.802457 0
0 0.799924 0
0 0.797436 0
0 0.795041 0
0 0.792782 0
0 0.792569 0
0 0.791867 0
0 0.788067 0
0 0.780911 0
0 0.772763 0
0 0.764691 0
0.0410163 0.756359 0
0.115724 0.747951 0
0.191287 0.739498 0
0.267948 0.731106 0
0.34583 0.722683 0
0.424475 0.714137 0
0.505165 0.705379 0
0.5897 0.696254 0
0.684779 0.684764 0
0.787579 0.671305 0
0.88542 0.659342 0
0.975952 0.649607 0
1 0.640681 0
1 0.63238 0
1 0.624933 0
1 0.618326 0
1 0.614084 0
1 0.614176 0
1 0.612314 0
1 0.608713 0
1 0.604883 0
1 0.600961 0
0 0.867155 0
0 0.86453 0
0 0.861906 0
0 0.859525 0
0 0.857298 0
0 0.857114 0
0 0.856458 0
0 0.852689 0
0 0.845609 0
0 0.837598 0
0 0.829694 0
0 0.822065 0
0.0658427 0.814343 0
0.142031 0.806516 0
0.21944 0.798871 0
0.29836 0.791485 0
0.378195 0.784131 0
0.459876 0.776364 0
0.545068 0.767895 0
0.640635 0.756909 0
0.743832 0.743832 0
0.841794 0.731991 0
0.932418 0.722347 0
1 0.712902 0
1 0.704082 0
1 0.696147 0
1 0.688777 0
1 0.683482 0
1 0.682475 0
1 0.679805 0
1 0.675685 0
1 0.671382 0
1 0.667033 0
0 0.929747 0
0 0.927275 0
0 0.924849 0
0 0.922499 0
0 0.920333 0
0 0.920211 0
0 0.919676 0
0 0.916228 0
0 0.909636 0
0 0.902083 0
0 0.894774 0
0 0.887968 0
0.0230716 0.881361 0
0.100404 0.874708 0
0.178683 0.867918 0
0.258137 0.861067 0
0.338476 0.854215 0
0.420615 0.846906 0
0.505959 0.83859 0
0.601328 0.82739 0
0.704204 0.814008 0
0.801907 0.801907 0
0.891798 0.791531 0
0.978714 0.781353 0
1 0.771496 0
1 0.762554 0
1 0.754482 0
1 0.748699 0
1 0.747234 0
1 0.744152 0
1 0.739742 0
1 0.735256 0
1 0.730709 0
0 0.989731 0
0 0.987259 0
0 0.984909 0
0 0.982727 0
0 0.980972 0
0 0.98146 0
0 0.981552 0
0 0.97879 0
0 0.97319 0
0 0.967025 0
0 0.96083 0
0 0.954757 0
0 0.948669 0
0.0679637 0.942519 0
0.146609 0.93611 0
0.226108 0.92929 0
0.306127 0.922118 0
0.387839 0.914382 0
0.472724 0.905623 0
0.567407 0.893736 0
0.669291 0.879347 0
0.765866 0.866133 0
0.854856 0.854841 0
0.941161 0.844053 0
1 0.833753 0
1 0.824338 0
1 0.815793 0
1 0.809888 0
1 0.808225 0
1 0.804883 0
1 0.800229 0
1 0.795697 0
1 0.790906 0
0 1 0
0 1 0
0 1 0
0 1 0
0 1 0
0 1 0
0 1 0
0 1 0
0 1 0
0 1 0
0 1 0
0 1 0
0 1 0
0.0373388 1 0
0.115572 1 0
0.194553 0.994842 0
0.273777 0.986877 0
0.354421 0.978073 0
0.438239 0.968231 0
0.532143 0.955566 0
0.633509 0.940658 0
0.729625 0.926986 0
0.818173 0.915267 0
0.904173 0.904173 0
0.987701 0.893645 0
1 0.884062 0
1 0.875441 0
1 0.869261 0
1 0.867399 0
1 0.863874 0
1 0.859052 0
1 0.854154 0
1 0.849119 0
0 1 0
0 1 0
0 1 0
0 1 0
0 1 0
0 1 0
0 1 0
0 1 0
0 1 0
0 1 0
0 1 0
0 1 0
0 1 0
0.00714122 1 0
0.0842298 1 0
0.162219 1 0
0.240787 1 0
0.320928 1 0
0.404288 1 0
0.497795 1 0
0.598886 1 0
0.69482 0.986221 0
0.783185 0.974319 0
0.869017 0.963043 0
0.952346 0.952346 0
1 0.942535 0
1 0.933654 0
1 0.927245 0
1 0.925139 0
1 0.92134 0
1 0.916197 0
1 0.911009 0
1 0.905684 0
0 1 0
0 1 0
0 1 0
0 1 0
0 1 0
0 1 0
0 1 0
0 1 0
0 1 0
0 1 0
0 1 0
0 1 0
0 1 0
0 1 0
0.0537575 1 0
0.131197 1 0
0.209339 1 0
0.289433 1 0
0.372503 1 0
0.465766 1 0
0.56669 1 0
0.662547 1 0
0.750591 1 0
0.836133 1 0
0.919234 1 0
0.998672 0.998672 0
1 0.989441 0
1 0.982651 0
1 0.980255 0
1 0.976379 0
1 0.97084 0
1 0.96524 0
1 0.959579 0
0 1 0
0 1 0
0 1 0
0 1 0
0 1 0
0 1 0
0 1 0
0 1 0
0 1 0
0 1 0
0 1 0
0 1 0
0 1 0
0 1 0
0.0254978 1 0
0.102861 1 0
0.18088 1 0
0.260639 1 0
0.343587 1 0
0.436667 1 0
0.537346 1 0
0.632853 1 0
0.720714 1 0
0.805966 1 0
0.888792 1 0
0.967819 1 0
1 1 0
1 1 0
1 1 0
1 1 0
1 1 0
1 1 0
1 1 0
0 1 0
0 1 0
0 1 0
0 1 0
0 1 0
0 1 0
0 1 0
0 1 0
0 1 0
