All_In_One/Enrich_Colormaster/colormanagement/luts/film_response/Slog2_to_Rec709.cube
TITLE "Generate by Resolve"
LUT_3D_SIZE 9
0 0 0
0.0464485 0 0
0.253758 0 0
0.540658 0 0
0.840406 0 0
1 0 0
1 0 0
1 0 0
1 0 0
0 0.00334173 0
0 0 0
0.204334 0 0
0.491218 0 0
0.794797 0 0
1 0 0
1 0 0
1 0 0
1 0 0
0 0.175982 0
0 0.165896 0
0.157443 0.157443 0
0.455573 0.127092 0
0.76379 0.0927596 0
1 0.0442969 0
1 0 0
1 0 0
1 0 0
0 0.400885 0
0 0.392584 0
0.0530861 0.381567 0
0.348821 0.348821 0
0.655604 0.313039 0
1 0.263447 0
1 0.21503 0
1 0.188037 0
1 0.17055 0
0 0.626047 0
0 0.61651 0
0 0.604364 0
0.228672 0.571221 0
0.535271 0.535271 0
0.892027 0.486091 0
1 0.438285 0
1 0.415534 0
1 0.406302 0
0 0.867155 0
0 0.857298 0
0 0.845609 0
0.0658427 0.814343 0
0.378195 0.784131 0
0.743832 0.743832 0
1 0.704082 0
1 0.682475 0
1 0.667033 0
0 1 0
0 1 0
0 1 0
0 1 0
0.240787 1 0
0.598886 1 0
0.952346 0.952346 0
1 0.925139 0
1 0.905684 0
0 1 0
0 1 0
0 1 0
0 1 0
0.152834 1 0
0.507012 1 0
0.855894 1 0
1 1 0
1 1 0
0 1 0
0 1 0
0 1 0
0 1 0
0.0792096 1 0
0.422492 1 0
0.757305 1 0
1 1 0
1 1 0
0 0 0.0576181
0.0377508 0 0.0377508
0.24538 0 0.0164492
0.532784 0 0
0.833417 0 0
1 0 0
1 0 0
1 0 0
1 0 0
0 0 0
0 0 0
0.195926 0 0
0.484123 0 0
0.790097 0 0
1 0 0
1 0 0
1 0 0
1 0 0
0 0.16936 0
0 0.161547 0
0.153094 0.153094 0
0.450828 0.122347 0
0.75877 0.0877394 0
1 0.0393378 0
1 0 0
1 0 0
1 0 0
0 0.396048 0
0 0.387747 0
0.047837 0.376303 0
0.343572 0.343572 0
0.650141 0.307591 0
1 0.258198 0
1 0.209522 0
1 0.182834 0
1 0.165408 0
0 0.620874 0
0 0.611124 0
0 0.599023 0
0.223453 0.566003 0
0.529839 0.529839 0
0.886671 0.480735 0
1 0.434028 0
1 0.412955 0
1 0.404486 0
0 0.861662 0
0 0.85214 0
0 0.840574 0
0.0615396 0.81004 0
0.375463 0.781399 0
0.741665 0.741665 0
1 0.701289 0
1 0.678279 0
1 0.662242 0
0 1 0
0 1 0
0 1 0
0 1 0
0.236103 1 0
0.593774 0.99498 0
0.946853 0.946853 0
1 0.919234 0
1 0.899351 0
0 1 0
0 1 0
0 1 0
0 1 0
0.147005 1 0
0.500633 1 0
0.848844 1 0
1 1 0
1 1 0
0 1 0
0 1 0
0 1 0
0 1 0
0.0704814 1 0
0.411597 1 0
0.745525 1 0
1 1 0
1 1 0
0 0 0.276814
0.0282597 0 0.257206
0.236271 0 0.236271
0.524239 0 0.195773
0.826123 0 0.155093
1 0 0.103365
1 0 0.0476234
1 0 0.0201267
1 0 0.00598154
0 0 0.216434
0 0 0.204379
0.186847 0 0.186847
0.47657 0 0.148089
0.784833 0 0.113802
1 0 0.0679637
1 0 0.0218967
1 0 0
1 0 0
0 0.163363 0.163363
0 0.156619 0.156619
0.147692 0.147692 0.147692
0.445335 0.116869 0.116869
0.753048 0.0820172 0.0820172
1 0.0332036 0.0332036
1 0 0
1 0 0
1 0 0
0 0.390463 0.0619974
0 0.381689 0.0532235
0.0416876 0.370153 0.0416876
0.337377 0.337377 0.00891127
0.644038 0.301472 0
1 0.25182 0
1 0.203418 0
1 0.176715 0
1 0.159167 0
0 0.614572 0
0 0.604929 0
0 0.592905 0
0.21709 0.55964 0
0.523781 0.523781 0
0.880751 0.474815 0
1 0.428931 0
1 0.409323 0
1 0.401343 0
0 0.855573 0
0 0.845914 0
0 0.834806 0
0.0575113 0.805997 0
0.372549 0.778485 0
0.738552 0.738552 0
1 0.696788 0
1 0.672847 0
1 0.656443 0
0 1 0
0 1 0
0 1 0
0 1 0
0.230335 1 0
0.587808 0.989013 0
0.940551 0.940536 0
1 0.912428 0
1 0.89192 0
0 1 0
0 1 0
0 1 0
0 1 0
0.140093 1 0
0.493172 1 0
0.840711 1 0
1 1 0
1 1 0
0 1 0
0 1 0
0 1 0
0 1 0
0.0594186 1 0
0.399191 1 0
0.734661 1 0
0.994156 1 0
1 1 0
0 0 0.587533
0.0108186 0 0.568231
0.219242 0 0.547723
0.507927 0 0.507927
0.811887 0 0.469337
1 0 0.414679
1 0 0.360555
1 0 0.335225
1 0 0.321172
0 0 0.52903
0 0 0.518807
0.169833 0 0.498314
0.46247 0 0.462486
0.771832 0 0.429282
1 0 0.383001
1 0 0.336828
1 0 0.311238
1 0 0.294209
0 0.149828 0.478294
0 0.143709 0.472175
0.134356 0.134371 0.462837
0.431464 0.102983 0.431464
0.738933 0.0679179 0.396384
1 0.0191806 0.347662
1 0 0.299321
1 0 0.272679
1 0 0.254795
0 0.376486 0.376486
0 0.367773 0.367773
0.0275731 0.356054 0.356054
0.32311 0.32311 0.32311
0.629602 0.287037 0.287037
0.98613 0.237629 0.237644
1 0.188983 0.188998
1 0.162387 0.162387
1 0.145159 0.145159
0 0.600397 0.257847
0 0.590463 0.247913
0 0.578454 0.235889
0.202914 0.54548 0.202914
0.509697 0.509697 0.167132
0.866865 0.460929 0.118379
1 0.416617 0.0740673
1 0.398306 0.0557717
1 0.390173 0.0476234
0 0.841199 0.0926986
0 0.8318 0.0833143
0 0.821622 0.0731365
0.0460059 0.794491 0.0460059
0.361456 0.767391 0.0189059
0.726833 0.726833 0
1 0.683497 0
1 0.658885 0
1 0.642222 0
0 1 0
0 1 0
0 1 0
0 1 0
0.216571 1 0
0.573739 0.974945 0
0.92607 0.92607 0
1 0.897475 0
1 0.876417 0
0 1 0
0 1 0
0 1 0
0 1 0
0.12459 1 0
0.477119 1 0
0.823911 1 0
1 1 0
1 1 0
0 1 0
0 1 0
0 1 0
0 1 0
0.0398413 1 0
0.378332 1 0
0.716136 1 0
0.975586 1 0
1 1 0
0 0 0.911299
0 0 0.892332
0.201282 0 0.872312
0.490867 0 0.833417
0.79704 0 0.79704
1 0 0.73904
1 0 0.687617
1 0 0.663844
1 0 0.649332
0 0 0.855161
0 0 0.842878
0.152682 0 0.823713
0.4477 0 0.790249
0.757778 0 0.757794
1 0 0.71107
1 0 0.664347
1 0 0.638544
1 0 0.621607
0 0.135409 0.806439
0 0.129244 0.800275
0.119524 0.119524 0.790539
0.416342 0.0878614 0.758892
0.723873 0.0528573 0.723888
1 0.00373846 0.674769
1 0 0.626612
1 0 0.599664
1 0 0.582025
0 0.361547 0.704097
0 0.352407 0.694957
0.0120851 0.340566 0.683116
0.307683 0.307698 0.650248
0.614145 0.271595 0.614145
0.97052 0.222019 0.564584
1 0.173678 0.516228
1 0.147143 0.489693
1 0.130129 0.472679
0 0.584817 0.584817
0 0.575128 0.575128
0 0.563134 0.563134
0.187396 0.529946 0.529946
0.49424 0.49424 0.49424
0.852522 0.446586 0.446586
1 0.403967 0.403967
1 0.386374 0.386374
1 0.377325 0.37734
0 0.825925 0.419974
0 0.816571 0.41062
0 0.807248 0.401312
0.0331884 0.781674 0.375738
0.349401 0.755337 0.349401
0.713909 0.713909 0.307973
1 0.669169 0.263233
1 0.643992 0.238056
1 0.627024 0.221088
0 1 0.272541
0 1 0.272236
0 1 0.266499
0 1 0.236057
0.201251 1 0.201251
0.558083 0.959289 0.152132
0.909957 0.909957 0.102815
1 0.880858 0.0737011
1 0.859358 0.0522164
0 1 0.202426
0 1 0.193637
0 1 0.181521
0 1 0.147066
0.10811 1 0.10811
0.460044 1 0.0540932
0.805829 1 0
1 1 0
1 1 0
0 1 0.142519
0 1 0.129335
0 1 0.111971
0 1 0.0703288
0.0187991 1 0.0187991
0.356252 1 0
0.696452 1 0
0.955886 1 0
1 1 0
0 0 1
0 0 1
0.178393 0 1
0.469261 0 1
0.773358 0 1
1 0 1
1 0 1
1 0 1
1 0 1
0 0 1
0 0 1
0.130816 0 1
0.428107 0 1
0.738186 0 1
1 0 1
1 0 1
1 0 1
1 0 1
0 0.116121 1
0 0.109499 1
0.0994888 0.0994888 1
0.396262 0.0677958 1
0.70338 0.0323491 1
1 0 1
1 0 1
1 0 0.985107
1 0 0.967208
0 0.341146 1
0 0.331853 1
0 0.320165 1
0.287114 0.287114 1
0.593515 0.250965 0.999451
0.950057 0.201572 0.950072
1 0.153048 0.901534
1 0.126543 0.875044
1 0.110613 0.859098
0 0.56437 0.970306
0 0.554467 0.960403
0 0.542412 0.948348
0.166979 0.509544 0.91548
0.473976 0.473976 0.879911
0.832975 0.427039 0.832975
1 0.385992 0.791928
1 0.368887 0.774838
1 0.359319 0.765255
0 0.805295 0.80528
0 0.796613 0.796597
0 0.788907 0.788907
0.0159457 0.764431 0.764431
0.331914 0.73785 0.73785
0.695003 0.695003 0.695003
1 0.649302 0.649302
1 0.623697 0.623697
1 0.606348 0.606348
0 1 0.661082
0 1 0.660151
0 1 0.65301
0 1 0.622034
0.181018 0.988174 0.586969
0.537469 0.938674 0.537469
0.888884 0.888884 0.487678
1 0.859236 0.45803
1 0.837034 0.435828
0 1 0.588296
0 1 0.579202
0 1 0.566674
0 1 0.531731
0.0862898 1 0.492226
0.437522 1 0.437522
0.781872 1 0.380667
1 1 0.338506
1 1 0.302022
0 1 0.526696
0 1 0.512901
0 1 0.494697
0 1 0.450752
0 1 0.397925
0.331334 1 0.331334
0.671626 1 0.27042
0.931014 1 0.231052
1 1 0.200717
0 0 1
0 0 1
0.156207 0 1
0.449241 0 1
0.750301 0 1
1 0 1
1 0 1
1 0 1
1 0 1
0 0 1
0 0 1
0.110887 0 1
0.409201 0 1
0.718837 0 1
1 0 1
1 0 1
1 0 1
1 0 1
0 0.0973068 1
0 0.0902571 1
0.079881 0.0798962 1
0.376257 0.047776 1
0.683314 0.0122988 1
1 0 1
1 0 1
1 0 1
1 0 1
0 0.321187 1
0 0.31191 1
0 0.299886 1
0.266896 0.266896 1
0.573419 0.230884 1
0.929732 0.181231 1
1 0.132982 1
1 0.106645 1
1 0.0915847 1
0 0.543999 1
0 0.534295 1
0 0.522362 1
0.146838 0.489403 1
0.454215 0.454231 1
0.814954 0.409018 1
1 0.3691 1
1 0.351812 1
1 0.340856 1
0 0.785351 1
0 0.777523 1
0 0.771389 1
0 0.747417 1
0.31429 0.720241 1
0.675807 0.675807 1
1 0.629511 1
1 0.603708 1
1 0.586007 0.987228
0 1 1
0 1 1
0 1 1
0 1 1
0.161044 0.9682 0.9682
0.517082 0.918288 0.918288
0.868009 0.868009 0.868009
1 0.837812 0.837812
1 0.814939 0.814939
0 1 0.969436
0 1 0.959976
0 1 0.94699
0 1 0.911528
0.0643168 1 0.871473
0.414725 1 0.81593
0.756893 1 0.756893
1 1 0.713359
1 0.977111 0.678355
0 1 0.906645
0 1 0.892256
0 1 0.873091
0 1 0.82652
0 1 0.772396
0.30692 1 0.708125
0.647181 1 0.647166
0.906523 1 0.607767
1 1 0.577401
0 0 1
0 0 1
0.142718 0 1
0.437644 0 1
0.735698 0 1
1 0 1
1 0 1
1 0 1
1 0 1
0 0 1
0 0 1
0.0996872 0 1
0.398703 0 1
0.707912 0 1
1 0 1
1 0 1
1 0 1
1 0 1
0 0.0863813 1
0 0.0789502 1
0.0683146 0.0683146 1
0.364736 0.0362707 1
0.671565 0.000534066 1
1 0 1
1 0 1
1 0 1
1 0 1
0 0.309514 1
0 0.299977 1
0 0.288121 1
0.254841 0.254841 1
0.561364 0.21883 1
0.917967 0.169482 1
1 0.121294 1
1 0.0951705 1
1 0.0816205 1
0 0.532219 1
0 0.522545 1
0 0.510384 1
0.135088 0.477653 1
0.443442 0.443442 1
0.805859 0.399924 1
1 0.360479 1
1 0.342519 1
1 0.329976 1
0 0.773541 1
0 0.766751 1
0 0.76228 1
0 0.738918 1
0.304875 0.710811 1
0.665019 0.665019 1
1 0.618173 1
1 0.592065 1
1 0.573953 1
0 1 1
0 1 1
0 1 1
0 0.991821 1
0.148928 0.956085 1
0.504524 0.90573 1
0.854932 0.854932 1
1 0.82417 1
1 0.800595 1
0 1 1
0 1 1
0 1 1
0 1 1
0.050782 1 1
0.400244 1 1
0.739696 1 1
0.993667 0.993667 0.993667
1 0.960998 0.960998
0 1 1
0 1 1
0 1 1
0 1 1
0 1 1
0.290791 1 0.990753
0.631022 1 0.929763
0.890333 1 0.890333
1 1 0.859937
0 0 1
0 0 1
0.133349 0 1
0.426215 0 1
0.725582 0 1
1 0 1
1 0 1
1 0 1
1 0 1
0 0 1
0 0 1
0.0923171 0 1
0.391287 0 1
0.700114 0 1
1 0 1
1 0 1
1 0 1
1 0 1
0 0.0788281 1
0 0.0710613 1
0.0604257 0.060441 1
0.356435 0.0279698 1
0.663157 0 1
1 0 1
1 0 1
1 0 1
1 0 1
0 0.301152 1
0 0.291768 1
0 0.279606 1
0.246555 0.246571 1
0.553109 0.210559 1
0.909499 0.160998 1
1 0.112902 1
1 0.0878767 1
1 0.0760052 1
0 0.523674 1
0 0.514015 1
0 0.502159 1
0.126955 0.46952 1
0.436118 0.436118 1
0.800076 0.394141 1
1 0.355413 1
1 0.336645 1
1 0.322713 1
0 0.765942 1
0 0.760647 1
0 0.757259 1
0 0.733623 1
0.298024 0.70396 1
0.657145 0.657145 1
1 0.609918 1
1 0.583444 1
1 0.564904 1
0 1 1
0 1 1
0 1 1
0 0.98378 1
0.140505 0.947662 1
0.495628 0.896849 1
0.845502 0.845502 1
1 0.814145 1
1 0.789517 1
0 1 1
0 1 1
0 1 1
0 1 1
0.0404364 1 1
0.388418 1 1
0.725719 1 1
0.978744 0.978744 1
1 0.948379 1
0 1 1
0 1 1
0 1 1
0 1 1
0 1 1
0.278157 1 1
0.618341 1 1
0.877638 1 1
1 1 1
