All_In_One/Enrich_Colormaster/colormanagement/luts/film_response/Tcolor_lite.cube
TITLE "Generate by Resolve"
LUT_3D_SIZE 33
0.0207065 0.0317693 0.0111849
0.0479438 0.0285191 0.0059205
0.0761578 0.0255894 0
0.103883 0.0226749 0
0.133181 0.0192569 0
0.165942 0.0149844 0
0.202365 0.00939956 0
0.244434 0.00273136 0
0.296056 0 0
0.360372 0 0
0.434653 0 0
0.516869 0 0
0.607401 0 0
0.702296 0 0
0.793698 0 0
0.878553 0 0
0.970077 0 0
1 0 0
1 0 0
1 0 0
1 0 0
1 0 0
1 0 0
1 0 0
1 0 0
1 0 0
1 0 0
1 0 0
1 0 0
1 0 0
1 0 0
1 0 0
1 0 0
0.0139773 0.0494392 0.00613413
0.0301213 0.049897 0
0.0557412 0.0476539 0
0.082002 0.0452888 0
0.110994 0.0417639 0
0.143236 0.037232 0
0.180179 0.0315862 0
0.223224 0.0240482 0
0.27454 0.0146944 0
0.336049 0.00242618 0
0.412345 0 0
0.498726 0 0
0.590677 0 0
0.684764 0 0
0.776623 0 0
0.864622 0 0
0.953872 0 0
1 0 0
1 0 0
1 0 0
1 0 0
1 0 0
1 0 0
1 0 0
1 0 0
1 0 0
1 0 0
1 0 0
1 0 0
1 0 0
1 0 0
1 0 0
1 0 0
0.00975052 0.0653849 0.00303655
0.0220493 0.0661326 0
0.0424811 0.0654307 0
0.0699626 0.0627604 0
0.0952926 0.0608682 0
0.12488 0.0575113 0
0.159869 0.0522927 0
0.201984 0.0454261 0
0.252949 0.035996 0
0.315206 0.0238499 0
0.388739 0.00865187 0
0.477378 0 0
0.572915 0 0
0.668544 0 0
0.761624 0 0
0.850263 0 0
0.940352 0 0
1 0 0
1 0 0
1 0 0
1 0 0
1 0 0
1 0 0
1 0 0
1 0 0
1 0 0
1 0 0
1 0 0
1 0 0
1 0 0
1 0 0
1 0 0
1 0 0
0.00596628 0.0801709 0.000335698
0.0196689 0.0805219 0
0.0328832 0.0815442 0
0.0559243 0.0801099 0
0.0854353 0.0770428 0
0.113649 0.0743725 0
0.145663 0.0709544 0
0.185061 0.0650645 0
0.234455 0.056733 0
0.29482 0.0453346 0
0.367987 0.0308995 0
0.454627 0.0126955 0
0.552056 0 0
0.65153 0 0
0.746242 0 0
0.835935 0 0
0.926818 0 0
1 0 0
1 0 0
1 0 0
1 0 0
1 0 0
1 0 0
1 0 0
1 0 0
1 0 0
1 0 0
1 0 0
1 0 0
1 0 0
1 0 0
1 0 0
1 0 0
0.00242618 0.0948959 0
0.0171969 0.0947127 0
0.0291905 0.0959029 0
0.0453498 0.0965438 0
0.0704967 0.0946975 0
0.103044 0.0911574 0
0.13611 0.0876326 0
0.172885 0.0837568 0
0.219242 0.0768444 0
0.277516 0.0669413 0
0.348791 0.0534371 0
0.4336 0.0367285 0
0.528603 0.0170138 0
0.628916 0 0
0.728481 0 0
0.819928 0 0
0.911925 0 0
1 0 0
1 0 0
1 0 0
1 0 0
1 0 0
1 0 0
1 0 0
1 0 0
1 0 0
1 0 0
1 0 0
1 0 0
1 0 0
1 0 0
1 0 0
1 0 0
0 0.109865 0
0.0142672 0.109545 0
0.0267033 0.110475 0
0.0398566 0.111955 0
0.0589456 0.112322 0
0.0870985 0.110201 0
0.124056 0.10605 0
0.163714 0.101656 0
0.207477 0.0966659 0
0.262592 0.088777 0
0.331121 0.0769055 0
0.413947 0.0616617 0
0.506401 0.0437629 0
0.603876 0.024567 0
0.702235 0.0053254 0
0.799298 0 0
0.893278 0 0
0.985321 0 0
1 0 0
1 0 0
1 0 0
1 0 0
1 0 0
1 0 0
1 0 0
1 0 0
1 0 0
1 0 0
1 0 0
1 0 0
1 0 0
1 0 0
1 0 0
0 0.126101 0
0.0104219 0.12546 0
0.0243076 0.126467 0
0.0370336 0.128054 0
0.0522316 0.129595 0
0.074052 0.129641 0
0.106615 0.127413 0
0.149767 0.122454 0
0.197955 0.116976 0
0.250629 0.111208 0
0.315648 0.101915 0
0.395148 0.0886091 0
0.48539 0.072694 0
0.58053 0.0555123 0
0.675593 0.0385748 0
0.768429 0.0224765 0
0.865034 0.00560006 0
0.962234 0 0
1 0 0
1 0 0
1 0 0
1 0 0
1 0 0
1 0 0
1 0 0
1 0 0
1 0 0
1 0 0
1 0 0
1 0.0116274 0
1 0.026978 0
1 0.042359 0
1 0.057496 0
0 0.144045 0
0.00564584 0.143328 0
0.0207523 0.144091 0
0.0343175 0.145785 0
0.0486458 0.147982 0
0.0663462 0.149523 0
0.0920729 0.149905 0
0.13022 0.14725 0
0.182101 0.141421 0
0.240116 0.13492 0
0.302968 0.128435 0
0.378561 0.118441 0
0.465324 0.105211 0
0.557946 0.0904097 0
0.650935 0.075761 0
0.741512 0.0625315 0
0.834318 0.049134 0
0.927138 0.0360266 0
1 0.0238499 0
1 0.0140841 0
1 0.00704967 0
1 0.00440986 0
1 0.00495918 0
1 0.00831617 0
1 0.0139315 0
1 0.0223087 0
1 0.03299 0
1 0.0460365 0
1 0.0604715 0
1 0.074815 0
1 0.0895399 0
1 0.104204 0
1 0.118853 0
0 0.164904 0
0 0.163607 0
0.0158999 0.164416 0
0.0310216 0.166232 0
0.0461433 0.168811 0
0.0623636 0.171313 0
0.0835126 0.173342 0
0.113924 0.174105 0
0.160128 0.171466 0
0.222522 0.165118 0
0.29192 0.157916 0
0.365133 0.15108 0
0.447745 0.14197 0
0.537118 0.130892 0
0.627573 0.119463 0
0.716213 0.108888 0
0.807263 0.098497 0
0.898085 0.0888685 0
0.985397 0.0805524 0
1 0.0741894 0
1 0.0706188 0
1 0.0703746 0
1 0.0729381 0
1 0.0780804 0
1 0.0855573 0
1 0.0947433 0
1 0.105592 0
1 0.117311 0
1 0.1299 0
1 0.143359 0
1 0.156924 0
1 0.170962 0
1 0.184817 0
0 0.18819 0
0 0.187152 0
0.00976577 0.188113 0
0.0270237 0.190188 0
0.0437476 0.193057 0
0.0611887 0.196445 0
0.0809491 0.200046 0
0.106584 0.203052 0
0.143282 0.204471 0
0.198947 0.202182 0
0.273426 0.19585 0
0.354986 0.188769 0
0.435813 0.183337 0
0.520867 0.177127 0
0.607691 0.169726 0
0.693309 0.162799 0
0.78143 0.155459 0
0.869352 0.148272 0
0.95346 0.141817 0
1 0.137896 0
1 0.136828 0
1 0.138598 0
1 0.143053 0
1 0.149493 0
1 0.157961 0
1 0.168124 0
1 0.179248 0
1 0.191638 0
1 0.204379 0
1 0.217609 0
1 0.231373 0
1 0.244892 0
1 0.258412 0
0 0.214908 0
0 0.215686 0
0.00300603 0.216159 0
0.0230716 0.218692 0
0.0422522 0.22211 0
0.0619974 0.226398 0
0.0832532 0.231312 0
0.107439 0.236271 0
0.139025 0.240787 0
0.183627 0.243702 0
0.250065 0.242359 0
0.336568 0.236576 0
0.426673 0.230762 0
0.510491 0.227481 0
0.592309 0.224399 0
0.67303 0.221012 0
0.755993 0.216281 0
0.838956 0.211505 0
0.918715 0.207324 0
0.992248 0.20441 0
1 0.205234 0
1 0.208804 0
1 0.214313 0
1 0.222019 0
1 0.231098 0
1 0.241474 0
1 0.253086 0
1 0.265156 0
1 0.27779 0
1 0.290791 0
1 0.303685 0
1 0.316732 0
1 0.329305 0
0 0.246036 0
0 0.248188 0
0 0.249454 0
0.0213321 0.252964 0
0.0438087 0.257481 0
0.0664988 0.262791 0
0.0904402 0.268971 0
0.116579 0.275807 0
0.146441 0.282628 0
0.184466 0.288762 0
0.237308 0.292958 0
0.313481 0.292134 0
0.406027 0.286885 0
0.498497 0.282155 0
0.580194 0.279927 0
0.655985 0.2795 0
0.732113 0.278065 0
0.808789 0.27599 0
0.882353 0.273808 0
0.950347 0.272862 0
1 0.274083 0
1 0.278737 0
1 0.285451 0
1 0.293462 0
1 0.302815 0
1 0.313451 0
1 0.324529 0
1 0.336355 0
1 0.348196 0
1 0.360113 0
1 0.372198 0
1 0.38378 0
1 0.39556 0
0 0.282414 0
0 0.286046 0
0 0.288426 0
0.0255589 0.293141 0
0.0513008 0.298878 0
0.0772259 0.30547 0
0.103914 0.312657 0
0.132082 0.320348 0
0.162661 0.328222 0
0.198077 0.336431 0
0.242191 0.343435 0
0.30248 0.347707 0
0.383062 0.346593 0
0.475074 0.342367 0
0.56321 0.338476 0
0.640833 0.337377 0
0.712718 0.337438 0
0.782559 0.337774 0
0.848936 0.338216 0
0.910338 0.338918 0
0.964462 0.341039 0
1 0.345739 0
1 0.352834 0
1 0.361349 0
1 0.370611 0
1 0.380591 0
1 0.391257 0
1 0.401953 0
1 0.413016 0
1 0.424186 0
1 0.435523 0
1 0.44715 0
1 0.458518 0
0 0.323964 0
0 0.328786 0
0.00915541 0.332265 0
0.0383917 0.337957 0
0.066804 0.34493 0
0.0953078 0.352499 0.00440986
0.124071 0.360174 0.0116121
0.154177 0.368277 0.0162509
0.185763 0.376318 0.0153811
0.220386 0.384726 0.00633249
0.259648 0.392569 0
0.309346 0.399741 0
0.37348 0.40322 0
0.4533 0.402457 0
0.538231 0.399283 0
0.618372 0.396719 0
0.69369 0.395468 0
0.760693 0.395819 0
0.821698 0.397391 0
0.876997 0.400031 0
0.92517 0.403326 0
0.966064 0.407767 0
1 0.414527 0
1 0.422736 0
1 0.431815 0
1 0.441291 0
1 0.451469 0
1 0.462196 0
1 0.473106 0
1 0.484489 0
1 0.495705 0
1 0.506874 0
1 0.518196 0
0 0.369497 0
0 0.373159 0
0.030045 0.378698 0
0.0610208 0.385748 0.00726329
0.0906691 0.393088 0.0187381
0.120623 0.4009 0.0301366
0.150713 0.408545 0.0400854
0.181933 0.416495 0.0481117
0.214206 0.424262 0.0517128
0.248386 0.432197 0.0485847
0.285725 0.440253 0.0348058
0.328527 0.44773 0.00660716
0.38114 0.454139 0
0.445396 0.457084 0
0.519081 0.456596 0
0.594553 0.455024 0
0.669261 0.452827 0
0.738521 0.451698 0
0.799252 0.452522 0
0.850904 0.454978 0
0.895842 0.4589 0
0.933379 0.463737 0
0.965087 0.469886 0
0.992645 0.477821 0
1 0.48719 0
1 0.497353 0
1 0.507698 0
1 0.518395 0
1 0.529534 0
1 0.540551 0
1 0.551598 0
1 0.562722 0
1 0.573495 0
0 0.414984 0
0.0265354 0.419516 0.00918593
0.0597238 0.426001 0.0220188
0.0911727 0.433295 0.0357061
0.121599 0.440635 0.0492409
0.152178 0.448264 0.0626688
0.182925 0.45568 0.0749828
0.214328 0.462989 0.0854658
0.247044 0.470436 0.0928664
0.280735 0.477684 0.0944686
0.316304 0.485054 0.0873579
0.355566 0.492607 0.0679484
0.399908 0.499443 0.0348363
0.452308 0.504601 0
0.513115 0.507729 0
0.578607 0.507973 0
0.648051 0.506706 0
0.715511 0.505028 0
0.77702 0.504448 0
0.830518 0.506065 0
0.874739 0.509667 0
0.911452 0.515236 0
0.942321 0.521935 0
0.969055 0.529458 0
0.99324 0.539208 0
1 0.549447 0
1 0.560143 0
1 0.570916 0
1 0.58175 0
1 0.592828 0
1 0.603632 0
1 0.614282 0
1 0.624949 0
0.0247959 0.460182 0.0248722
0.0611276 0.466224 0.0391394
0.0940108 0.47274 0.0538643
0.125368 0.479637 0.0690776
0.156374 0.4869 0.0847334
0.186908 0.493904 0.0997177
0.217746 0.500801 0.113939
0.249241 0.507713 0.126787
0.281361 0.51426 0.136629
0.314382 0.520836 0.142046
0.348577 0.527565 0.140414
0.384512 0.534325 0.128191
0.42359 0.541238 0.104479
0.467002 0.547265 0.0701305
0.516228 0.551827 0.0300908
0.570871 0.555032 0
0.632212 0.555993 0
0.695689 0.555901 0
0.75613 0.555947 0
0.810636 0.557305 0
0.857374 0.560662 0
0.896025 0.565621 0
0.928176 0.572213 0
0.955459 0.579904 0
0.979721 0.588922 0
1 0.599329 0
1 0.609766 0
1 0.620279 0
1 0.631098 0
1 0.641657 0
1 0.652338 0
1 0.662638 0
1 0.672694 0
0.0651865 0.505119 0.0588998
0.100008 0.510857 0.0747082
0.132799 0.51725 0.0913558
0.164034 0.523766 0.108171
0.194461 0.530282 0.124865
0.224964 0.536904 0.141497
0.255146 0.543175 0.156909
0.285649 0.549249 0.170855
0.316945 0.555337 0.182544
0.348501 0.56112 0.190005
0.380774 0.567041 0.191546
0.414145 0.573251 0.184482
0.449165 0.579721 0.167681
0.487083 0.586557 0.142229
0.528679 0.59263 0.110765
0.574563 0.597894 0.077409
0.626703 0.601587 0.0405585
0.683894 0.6038 0.00280766
0.741787 0.60589 0
0.795392 0.607889 0
0.842924 0.611032 0
0.88365 0.615885 0
0.918029 0.621851 0
0.947448 0.628885 0
0.973709 0.637461 0
0.997375 0.647227 0
1 0.657252 0
1 0.667521 0
1 0.677623 0
1 0.687892 0
1 0.697795 0
1 0.707713 0
1 0.71722 0
0.10985 0.546853 0.0991836
0.143938 0.552468 0.11664
0.175738 0.558221 0.134234
0.206058 0.564141 0.151858
0.235798 0.570321 0.169467
0.26482 0.576196 0.186175
0.293736 0.582055 0.201938
0.322713 0.587671 0.216098
0.352102 0.593042 0.227878
0.382528 0.598779 0.236957
0.413504 0.604608 0.241032
0.445655 0.611078 0.238544
0.478447 0.617899 0.227619
0.512642 0.625101 0.20882
0.549126 0.632471 0.184451
0.588388 0.639078 0.156603
0.632929 0.644572 0.124132
0.682582 0.648951 0.0902266
0.734966 0.652079 0.057908
0.786236 0.655146 0.0293584
0.833371 0.659113 0.00686656
0.874723 0.663951 0
0.910872 0.670008 0
0.942092 0.676738 0
0.969741 0.68455 0
0.995224 0.693812 0
1 0.703014 0
1 0.712459 0
1 0.72166 0
1 0.731044 0
1 0.740078 0.00331121
1 0.749126 0.00779736
1 0.757885 0.011017
0.158953 0.584939 0.145434
0.191165 0.58996 0.16318
0.221286 0.595285 0.180896
0.250141 0.601007 0.19855
0.277714 0.606531 0.215381
0.305272 0.612345 0.231968
0.332723 0.618082 0.247578
0.360708 0.624018 0.262211
0.389349 0.629923 0.274983
0.41854 0.635874 0.284916
0.448615 0.642252 0.290959
0.479118 0.648844 0.290776
0.510002 0.65597 0.283467
0.541787 0.663798 0.269352
0.574411 0.671611 0.249332
0.609064 0.679255 0.225666
0.648081 0.686137 0.196735
0.691402 0.691814 0.164599
0.738125 0.696666 0.133043
0.785718 0.700603 0.10454
0.830793 0.704692 0.0810407
0.871504 0.709712 0.0636606
0.907378 0.715236 0.0514992
0.939284 0.721691 0.0435187
0.967834 0.729076 0.0396582
0.994141 0.737713 0.0397192
1 0.746212 0.041001
1 0.754971 0.0435645
1 0.763653 0.04654
1 0.771954 0.0493935
1 0.78027 0.0523537
1 0.788281 0.054612
1 0.795712 0.0558022
0.20943 0.618982 0.194522
0.239429 0.623972 0.211917
0.267643 0.629267 0.229206
0.294972 0.635203 0.246662
0.321492 0.641184 0.26363
0.347784 0.647364 0.280064
0.374319 0.653849 0.295918
0.400885 0.660212 0.310231
0.428077 0.666575 0.32282
0.456107 0.673198 0.333059
0.48455 0.679789 0.33933
0.513558 0.686702 0.340291
0.543008 0.694301 0.335149
0.572503 0.70219 0.323369
0.602792 0.710567 0.306493
0.633967 0.7187 0.28542
0.668757 0.726207 0.258747
0.707683 0.733013 0.22855
0.749554 0.738659 0.197223
0.793164 0.743725 0.168246
0.835721 0.748226 0.143587
0.875044 0.753292 0.124605
0.910185 0.758663 0.11014
0.94168 0.764736 0.100557
0.970306 0.77174 0.0944076
0.996506 0.779614 0.091722
1 0.787472 0.0908217
1 0.795041 0.090959
1 0.802731 0.0921645
1 0.810254 0.0936599
1 0.817563 0.0950027
1 0.824567 0.0956893
1 0.831296 0.0954604
0.260685 0.651011 0.245624
0.289021 0.656443 0.262867
0.316075 0.662623 0.280262
0.341726 0.668986 0.297139
0.366873 0.675715 0.313664
0.391714 0.682628 0.329519
0.416434 0.689525 0.344335
0.441566 0.69659 0.358038
0.467247 0.703532 0.369955
0.493538 0.710399 0.37937
0.520745 0.71754 0.385626
0.548318 0.724697 0.386831
0.576074 0.732235 0.382315
0.604166 0.740444 0.372152
0.632349 0.748714 0.356741
0.661433 0.757229 0.337667
0.693248 0.765057 0.312657
0.72871 0.77232 0.28365
0.766903 0.77847 0.252705
0.806973 0.784039 0.223102
0.846479 0.788891 0.196994
0.883909 0.793912 0.176379
0.917998 0.799176 0.160388
0.948363 0.804593 0.148394
0.976471 0.811322 0.141344
1 0.818219 0.137591
1 0.825071 0.135012
1 0.8318 0.133654
1 0.838575 0.133303
1 0.845182 0.133272
1 0.851575 0.133104
1 0.857694 0.132326
1 0.863508 0.130663
0.31284 0.683314 0.298604
0.339239 0.68954 0.31516
0.364157 0.696239 0.331426
0.388251 0.703487 0.347539
0.41149 0.71075 0.362844
0.434485 0.718135 0.377432
0.457755 0.72575 0.391333
0.481102 0.733135 0.403754
0.50515 0.740414 0.414542
0.53019 0.747799 0.423331
0.555825 0.754925 0.428763
0.582422 0.762356 0.43006
0.608988 0.769848 0.425864
0.635798 0.777951 0.416419
0.66247 0.786084 0.401923
0.689799 0.794476 0.38378
0.719249 0.802274 0.359701
0.751965 0.809583 0.331334
0.787152 0.815824 0.300435
0.824201 0.821439 0.27042
0.861067 0.82649 0.243717
0.89604 0.831266 0.221988
0.928222 0.835859 0.204852
0.957626 0.841062 0.192294
0.984543 0.847074 0.183963
1 0.853162 0.178302
1 0.859236 0.174456
1 0.865263 0.172244
1 0.871199 0.170565
1 0.876967 0.1691
1 0.882551 0.167529
1 0.887846 0.165362
1 0.892851 0.162356
0.362921 0.716335 0.350301
0.387198 0.723278 0.365667
0.410407 0.730831 0.380911
0.43241 0.738445 0.395483
0.453971 0.746288 0.409567
0.475456 0.754238 0.423011
0.496895 0.76202 0.435416
0.519005 0.769879 0.446921
0.541711 0.777325 0.456687
0.565515 0.784772 0.464622
0.589975 0.791852 0.469368
0.615335 0.799008 0.470069
0.64094 0.806409 0.465873
0.66656 0.814176 0.45655
0.691875 0.821958 0.442313
0.717678 0.829938 0.424491
0.745418 0.837568 0.401175
0.775586 0.844297 0.373083
0.808454 0.850401 0.342901
0.842863 0.855726 0.312947
0.877195 0.860502 0.285847
0.909926 0.865019 0.263371
0.940276 0.869291 0.245304
0.968399 0.874067 0.231876
0.993988 0.879286 0.222217
1 0.884596 0.215213
1 0.889921 0.210025
1 0.895262 0.206226
1 0.900557 0.203342
1 0.905577 0.200763
1 0.910384 0.198245
1 0.914946 0.194842
1 0.919203 0.190646
0.409812 0.750347 0.399268
0.432334 0.758053 0.413535
0.453452 0.765881 0.427192
0.473991 0.774075 0.44065
0.493919 0.782147 0.453391
0.513863 0.790204 0.465537
0.534157 0.798215 0.476997
0.554818 0.80592 0.487236
0.576455 0.813474 0.496162
0.599084 0.820737 0.50312
0.622415 0.827573 0.506966
0.646815 0.834485 0.507103
0.671183 0.841245 0.502297
0.695689 0.848432 0.492836
0.720043 0.855741 0.478996
0.744488 0.863035 0.461524
0.770382 0.86981 0.438422
0.798825 0.876234 0.411078
0.829541 0.88191 0.381186
0.861708 0.88687 0.351217
0.893919 0.891295 0.323751
0.924681 0.895445 0.300587
0.953399 0.899504 0.281773
0.98024 0.90396 0.267506
1 0.908461 0.256611
1 0.913024 0.248356
1 0.917693 0.242023
1 0.92253 0.237278
1 0.927169 0.233249
1 0.93164 0.229618
1 0.935927 0.225879
1 0.939605 0.221408
1 0.943404 0.21677
0.453269 0.78526 0.44509
0.473945 0.793164 0.457923
0.49366 0.801312 0.470512
0.512551 0.80943 0.482582
0.531334 0.8177 0.494392
0.550057 0.825772 0.505455
0.568994 0.83357 0.515679
0.588647 0.841199 0.524987
0.608865 0.848249 0.532525
0.63035 0.85507 0.53846
0.652888 0.861524 0.541741
0.676036 0.867521 0.541009
0.699687 0.873762 0.53611
0.723186 0.880186 0.526482
0.746441 0.886778 0.512688
0.769696 0.893385 0.495308
0.79443 0.899763 0.472724
0.82121 0.905638 0.445624
0.850111 0.910872 0.415869
0.880522 0.915511 0.385946
0.911009 0.919692 0.358297
0.940139 0.923552 0.334615
0.967559 0.927398 0.315251
0.99292 0.93135 0.299931
1 0.935302 0.287999
1 0.939452 0.278965
1 0.943572 0.271733
1 0.947555 0.265705
1 0.95108 0.260044
1 0.954955 0.255467
1 0.958663 0.250874
1 0.962142 0.245838
1 0.965393 0.240116
0.493217 0.820264 0.487572
0.512306 0.828107 0.499107
0.530709 0.836271 0.510613
0.548379 0.844327 0.521599
0.565759 0.852262 0.532067
0.583322 0.86009 0.542046
0.601007 0.867323 0.551034
0.619562 0.874357 0.55935
0.639017 0.880964 0.566247
0.659525 0.887083 0.571359
0.681056 0.892805 0.573846
0.703456 0.898253 0.572686
0.726055 0.903655 0.567193
0.748638 0.909361 0.557351
0.77113 0.915526 0.543664
0.793622 0.921782 0.526635
0.817411 0.927749 0.504387
0.842908 0.933257 0.477592
0.870405 0.93817 0.448066
0.899214 0.942443 0.418067
0.927901 0.945998 0.389792
0.955337 0.949264 0.365347
0.981292 0.952651 0.345205
1 0.956008 0.328847
1 0.95903 0.31545
1 0.962478 0.305318
1 0.965927 0.297093
1 0.96939 0.290272
1 0.972793 0.284398
1 0.976135 0.279042
1 0.979355 0.273747
1 0.982391 0.26807
1 0.985183 0.261723
0.52961 0.854597 0.526558
0.547539 0.862425 0.537148
0.564431 0.870008 0.547189
0.581033 0.877668 0.557214
0.597452 0.885115 0.566796
0.613901 0.892164 0.575738
0.630671 0.898802 0.583886
0.648249 0.90518 0.591302
0.666773 0.911131 0.597345
