All_In_One/Enrich_Colormaster/colormanagement/luts/film_response/Tcolor_lite.cube
TITLE "Generate by Resolve"
LUT_3D_SIZE 5
0.0207065 0.0317693 0.0111849
0.296056 0 0
0.970077 0 0
1 0 0
1 0 0
0 0.164904 0
0.160128 0.171466 0
0.807263 0.098497 0
1 0.0855573 0
1 0.184817 0
0.0247959 0.460182 0.0248722
0.281361 0.51426 0.136629
0.632212 0.555993 0
0.979721 0.588922 0
1 0.672694 0
0.409812 0.750347 0.399268
0.576455 0.813474 0.496162
0.770382 0.86981 0.438422
1 0.908461 0.256611
1 0.943404 0.21677
0.670985 1 0.680262
0.772244 1 0.715557
0.913283 1 0.633021
1 1 0.436027
1 1 0.36614
0.225452 0 0.344686
0.30071 0 0.186221
0.945968 0 0
1 0 0
1 0 0
0 0.203479 0.320256
0.140459 0.178851 0.116304
0.830091 0.0974899 0
1 0.100923 0
1 0.211307 0
0 0.507469 0.180911
0.313848 0.534936 0.296132
0.637476 0.574868 0.180758
0.97348 0.614725 0.0433051
1 0.693248 0.112444
0.414466 0.781247 0.503563
0.593927 0.837797 0.594858
0.790097 0.883787 0.574411
1 0.92079 0.40029
1 0.951141 0.355642
0.660334 1 0.756863
0.772854 1 0.791867
0.922438 1 0.742748
1 1 0.563043
1 1 0.494148
0.675074 0 1
0.757671 0 0.963989
0.93637 0 0.62948
1 0 0.474388
1 0 0.435737
0.279042 0 1
0.612726 0 1
0.822263 0.0734112 0.613901
1 0.103838 0.535195
1 0.217411 0.557153
0 0.634409 1
0 0.645823 0.87071
0.612757 0.584054 0.611139
0.966461 0.610636 0.553735
1 0.683268 0.607141
0.116869 0.872282 0.90248
0.403342 0.905074 0.866636
0.801968 0.887816 0.82182
0.981659 0.921706 0.728435
1 0.947601 0.681636
0.421378 1 1
0.611505 1 1
0.920394 1 0.955139
1 1 0.872419
1 1 0.806882
0.897597 0 1
1 0 1
1 0 1
1 0 0.996872
1 0 0.975387
0.643565 0 1
0.953918 0 1
1 0 1
1 0.102953 0.995483
1 0.231617 0.968704
0 0.622187 1
0 0.62417 1
0.809506 0.526299 1
0.974151 0.617517 0.907408
1 0.689509 0.964843
0 0.985122 1
0.0476081 1 1
0.524117 0.973404 1
0.946166 0.928618 1
1 0.942916 0.989166
0.0716411 1 1
0.268025 1 1
0.708171 1 1
1 1 1
1 1 1
0.903822 0 1
1 0 1
1 0 1
1 0 1
1 0 1
0.707439 0 1
1 0 1
1 0 1
1 0.127779 1
1 0.26096 1
0 0.590158 1
0.114 0.605509 1
0.893599 0.531411 1
1 0.630884 1
1 0.703334 1
0 1 1
0 1 1
0.486 0.992142 1
1 0.91548 1
1 0.946029 1
0 1 1
0.112123 1 1
0.536736 1 1
0.901854 1 1
1 1 1
