All_In_One/Enrich_Colormaster/colormanagement/luts/film_response/Tcolor_lite.cube
TITLE "Generate by Resolve"
LUT_3D_SIZE 9
0.0207065 0.0317693 0.0111849
0.133181 0.0192569 0
0.296056 0 0
0.607401 0 0
0.970077 0 0
1 0 0
1 0 0
1 0 0
1 0 0
0.00242618 0.0948959 0
0.0704967 0.0946975 0
0.219242 0.0768444 0
0.528603 0.0170138 0
0.911925 0 0
1 0 0
1 0 0
1 0 0
1 0 0
0 0.164904 0
0.0461433 0.168811 0
0.160128 0.171466 0
0.447745 0.14197 0
0.807263 0.098497 0
1 0.0706188 0
1 0.0855573 0
1 0.1299 0
1 0.184817 0
0 0.282414 0
0.0513008 0.298878 0
0.162661 0.328222 0
0.383062 0.346593 0
0.712718 0.337438 0
0.964462 0.341039 0
1 0.370611 0
1 0.413016 0
1 0.458518 0
0.0247959 0.460182 0.0248722
0.156374 0.4869 0.0847334
0.281361 0.51426 0.136629
0.42359 0.541238 0.104479
0.632212 0.555993 0
0.857374 0.560662 0
0.979721 0.588922 0
1 0.631098 0
1 0.672694 0
0.20943 0.618982 0.194522
0.321492 0.641184 0.26363
0.428077 0.666575 0.32282
0.543008 0.694301 0.335149
0.668757 0.726207 0.258747
0.835721 0.748226 0.143587
0.970306 0.77174 0.0944076
1 0.802731 0.0921645
1 0.831296 0.0954604
0.409812 0.750347 0.399268
0.493919 0.782147 0.453391
0.576455 0.813474 0.496162
0.671183 0.841245 0.502297
0.770382 0.86981 0.438422
0.893919 0.891295 0.323751
1 0.908461 0.256611
1 0.927169 0.233249
1 0.943404 0.21677
0.56257 0.887419 0.562112
0.626886 0.915831 0.599161
0.694301 0.940932 0.628153
0.774884 0.958785 0.624186
0.857908 0.976867 0.558587
0.956313 0.989761 0.441016
1 0.999832 0.362478
1 1 0.326528
1 1 0.300084
0.670985 1 0.680262
0.719768 1 0.701869
0.772244 1 0.715557
0.841169 1 0.701213
0.913283 1 0.633021
0.997955 1 0.517754
1 1 0.436027
1 1 0.39556
1 1 0.36614
0.101701 0.00262455 0.131731
0.135378 0.0153048 0.0779736
0.287526 0 0.0449683
0.60383 0 0
0.964935 0 0
1 0 0
1 0 0
1 0 0
1 0 0
0 0.113664 0.134813
0.0574044 0.0963149 0.0403601
0.22501 0.0688945 0
0.53817 0.00764477 0
0.91458 0 0
1 0 0
1 0 0
1 0 0
1 0 0
0 0.183825 0.0288396
0.049485 0.170428 0.0351873
0.156268 0.174899 0
0.450385 0.143999 0
0.820172 0.0997787 0
1 0.0761883 0
1 0.0955367 0
1 0.142672 0
1 0.199435 0
0 0.297642 0.0157931
0.0605631 0.310018 0.0487221
0.183261 0.336614 0.0738079
0.38996 0.35845 0
0.710231 0.352483 0
0.961639 0.35404 0
1 0.383215 0
1 0.425116 0
1 0.471107 0
0.0295567 0.476646 0.0925154
0.171511 0.499641 0.154971
0.302251 0.523857 0.212024
0.440375 0.548623 0.198199
0.636378 0.565881 0.0545205
0.858091 0.57409 0
0.979065 0.603433 0
1 0.644739 0
1 0.684764 0
0.221164 0.63064 0.255329
0.336843 0.652369 0.322271
0.445197 0.677485 0.380209
0.560647 0.704234 0.399878
0.679988 0.736767 0.332219
0.842329 0.759289 0.217655
0.976471 0.782406 0.167147
1 0.811887 0.162585
1 0.839017 0.163333
0.419348 0.764157 0.447074
0.504463 0.7953 0.499031
0.588144 0.825391 0.541146
0.684733 0.850904 0.553079
0.780667 0.877897 0.498009
0.898833 0.899107 0.386236
1 0.915297 0.318212
1 0.932952 0.29369
1 0.948043 0.275929
0.566888 0.90016 0.601358
0.633204 0.927291 0.638376
0.701396 0.94992 0.666773
0.783886 0.965042 0.667674
0.864164 0.980728 0.609583
0.958495 0.993896 0.496727
1 1 0.418311
1 1 0.381933
1 1 0.3552
0.671214 1 0.714137
0.721141 1 0.735088
0.775097 1 0.74905
0.846586 1 0.739651
0.917937 1 0.680049
0.998947 1 0.570031
1 1 0.489281
1 1 0.448951
1 1 0.419791
0.225452 0 0.344686
0.240146 0 0.230732
0.30071 0 0.186221
0.57879 0 0.102312
0.945968 0 0
1 0 0
1 0 0
1 0 0
1 0 0
0 0.0748455 0.366171
0.170031 0.0487984 0.255436
0.223301 0.0617075 0.148409
0.525093 0.00141909 0.0594492
0.907927 0 0
1 0 0
1 0 0
1 0 0
1 0 0
0 0.203479 0.320256
0 0.196643 0.250919
0.140459 0.178851 0.116304
0.463416 0.136309 0.0120241
0.830091 0.0974899 0
1 0.0793317 0
1 0.100923 0
1 0.152972 0
1 0.211307 0
0 0.337285 0.108141
0.00666819 0.339239 0.132158
0.195987 0.346944 0.174014
0.391501 0.367941 0.0874342
0.70425 0.364218 0
0.961044 0.36228 0
1 0.390967 0
1 0.433112 0
1 0.479133 0
0 0.507469 0.180911
0.161334 0.518257 0.236774
0.313848 0.534936 0.296132
0.457374 0.553964 0.308263
0.637476 0.574868 0.180758
0.852506 0.584588 0.0670939
0.97348 0.614725 0.0433051
1 0.654566 0.0764324
1 0.693248 0.112444
0.21149 0.647715 0.327153
0.338643 0.666804 0.389578
0.455451 0.689632 0.445701
0.57702 0.713161 0.475013
0.69012 0.745708 0.424079
0.845869 0.769055 0.311147
0.979126 0.791196 0.259358
1 0.819379 0.252796
1 0.845533 0.251698
0.414466 0.781247 0.503563
0.504906 0.810376 0.553063
0.593927 0.837797 0.594858
0.696406 0.85922 0.614282
0.790097 0.883787 0.574411
0.90071 0.905058 0.468559
1 0.92079 0.40029
1 0.936599 0.37377
1 0.951141 0.355642
0.559197 0.915251 0.649683
0.630762 0.940261 0.686488
0.703197 0.959335 0.714641
0.790997 0.970245 0.721538
0.870588 0.983215 0.677378
0.958556 0.996368 0.572427
1 1 0.494636
1 1 0.457938
1 1 0.431037
0.660334 1 0.756863
0.714244 1 0.777157
0.772854 1 0.791867
0.850217 1 0.788663
0.922438 1 0.742748
0.998398 1 0.641978
1 1 0.563043
1 1 0.523033
1 1 0.494148
0.437919 0 0.778775
0.474479 0 0.630426
0.485679 0 0.48658
0.597314 0 0.387839
0.897658 0 0.277928
1 0 0.146334
1 0 0.0603037
1 0 0.0170901
1 0 0
0.305135 0 0.848875
0.401801 0 0.690898
0.440574 0 0.483162
0.538659 0 0.364569
0.858717 0 0.266957
1 0 0.146715
1 0 0.0797436
1 0 0.0670329
1 0 0.076936
0 0.137896 0.808194
0.101396 0.108186 0.749187
0.348348 0.0902571 0.550011
0.461158 0.124056 0.342473
0.796918 0.0915999 0.257801
1 0.0727855 0.165118
1 0.0982986 0.133028
1 0.151247 0.151247
1 0.210575 0.191058
0 0.384222 0.654002
0 0.398611 0.616968
0 0.400259 0.535317
0.372778 0.372808 0.352331
0.70573 0.353399 0.253574
0.962493 0.351217 0.185519
1 0.382574 0.183505
1 0.426947 0.226886
1 0.47422 0.277989
0 0.575067 0.463035
0 0.587243 0.465721
0.209079 0.573419 0.444694
0.467842 0.557916 0.456092
0.627359 0.580056 0.383581
0.832517 0.592523 0.271656
0.96022 0.618509 0.261707
1 0.656153 0.295155
1 0.692882 0.328557
0.0753643 0.694301 0.482033
0.251194 0.702068 0.511879
0.412726 0.714061 0.546227
0.582742 0.722438 0.581125
0.699229 0.749081 0.575326
0.83946 0.774975 0.472374
0.971344 0.795575 0.419776
1 0.823041 0.411658
1 0.8486 0.408743
0.33431 0.815473 0.61117
0.445945 0.838865 0.646815
0.560693 0.858228 0.679789
0.696742 0.867399 0.706325
0.799634 0.884642 0.701915
0.895476 0.906737 0.617472
0.996765 0.922194 0.549264
1 0.936629 0.521813
1 0.950118 0.503044
0.491829 0.946517 0.744854
0.578332 0.964981 0.771496
0.671046 0.975875 0.793225
0.786755 0.975387 0.806241
0.87657 0.980774 0.792309
0.953536 0.993896 0.712291
1 1 0.637644
1 1 0.600763
1 1 0.573892
0.593957 1 0.840558
0.661997 1 0.854368
0.739284 1 0.865232
0.842664 1 0.868833
0.926421 1 0.850538
0.994537 1 0.775952
1 1 0.702876
1 1 0.663569
1 1 0.635065
0.675074 0 1
0.726436 0 1
0.757671 0 0.963989
0.777676 0 0.736767
0.93637 0 0.62948
1 0 0.533867
1 0 0.474388
1 0 0.448798
1 0 0.435737
0.569345 0 1
0.649943 0 1
0.715862 0 1
0.741619 0 0.727016
0.894316 0 0.623911
1 0 0.543252
1 0 0.502342
1 0 0.499168
1 0 0.50869
0.279042 0 1
0.448859 0 1
0.612726 0 1
0.681392 0.0439155 0.710399
0.822263 0.0734112 0.613901
1 0.0734722 0.559091
1 0.103838 0.535195
1 0.157733 0.541741
1 0.217411 0.557153
0 0.360861 1
0 0.360327 1
0.0621958 0.346944 1
0.577966 0.293172 0.80824
0.700572 0.345785 0.600626
0.920745 0.351293 0.550118
1 0.380011 0.535927
1 0.425437 0.555947
1 0.472831 0.585565
0 0.634409 1
0 0.649439 0.968963
0 0.645823 0.87071
0.246006 0.618982 0.730892
0.612757 0.584054 0.611139
0.830365 0.587411 0.558862
0.966461 0.610636 0.553735
1 0.647669 0.579767
1 0.683268 0.607141
0 0.75288 0.926299
0 0.766094 0.893599
0.209033 0.767559 0.834333
0.478706 0.759777 0.730098
0.707744 0.753262 0.71667
0.82829 0.779095 0.662821
0.954437 0.798932 0.610574
1 0.825879 0.602686
1 0.849073 0.605447
0.116869 0.872282 0.90248
0.254871 0.891432 0.891356
0.403342 0.905074 0.866636
0.622065 0.895628 0.817395
0.801968 0.887816 0.82182
0.891554 0.905058 0.79295
0.981659 0.921706 0.728435
1 0.934737 0.700465
1 0.947601 0.681636
0.307622 1 0.981506
0.411994 1 0.972
0.533806 1 0.948516
0.719768 0.997513 0.905241
0.873549 0.981231 0.902205
0.952209 0.988022 0.874083
1 1 0.811337
1 1 0.77438
1 1 0.74786
0.421378 1 1
0.505745 1 1
0.611505 1 1
0.780041 1 0.961883
0.920394 1 0.955139
0.994751 1 0.928191
1 1 0.872419
1 1 0.835096
1 1 0.806882
0.877791 0 1
0.936568 0 1
0.985855 0 1
1 0 1
1 0 0.942519
1 0 0.852857
1 0 0.804974
1 0 0.786862
1 0 0.779538
0.77702 0 1
0.856184 0 1
0.936309 0 1
0.982116 0 1
1 0 0.936339
1 0 0.859861
1 0 0.829862
1 0 0.82974
1 0 0.836469
0.54519 0 1
0.679622 0 1
0.829511 0 1
0.939422 0 1
0.973754 0.0226139 0.920562
1 0.0576333 0.856687
1 0.101366 0.83154
1 0.160647 0.826123
1 0.223178 0.825345
0 0.22385 1
0.0471962 0.240085 1
0.337621 0.243717 1
0.750805 0.230716 1
0.84007 0.30367 0.855589
0.93904 0.344594 0.791562
1 0.382681 0.778424
1 0.430823 0.790661
1 0.478965 0.812802
0 0.669245 1
0 0.667216 1
0 0.653834 1
0.272465 0.6 1
0.735393 0.541894 0.898512
0.831693 0.587213 0.783505
0.949416 0.613382 0.790051
1 0.649638 0.815549
1 0.683909 0.842069
0 0.825162 1
0 0.834669 1
0 0.841382 1
0.242496 0.829847 1
0.525658 0.810391 0.901625
0.813916 0.785077 0.840711
0.948165 0.797528 0.822293
1 0.819455 0.831022
1 0.839673 0.839673
0 0.930388 1
0.0451362 0.94696 1
0.193118 0.958297 1
0.424536 0.94609 1
0.689677 0.921492 0.972427
0.886168 0.908309 0.915908
0.9673 0.921157 0.894209
1 0.93402 0.867399
1 0.947051 0.850813
0.100984 1 1
0.206973 1 1
0.332265 1 1
0.539376 1 1
0.781476 1 1
0.952605 0.985809 0.990219
1 0.996063 0.971023
1 1 0.93608
1 1 0.909911
0.21619 1 1
0.303899 1 1
0.41532 1 1
0.611246 1 1
0.839475 1 1
0.99295 1 1
1 1 1
1 1 0.994812
1 1 0.967193
0.897597 0 1
1 0 1
1 0 1
1 0 1
1 0 1
1 0 1
1 0 0.996872
1 0 0.980621
1 0 0.975387
0.819944 0 1
0.941466 0 1
1 0 1
1 0 1
1 0 1
1 0 1
1 0 1
1 0 1
1 0 1
0.643565 0 1
0.795972 0 1
0.953918 0 1
1 0 1
1 0 1
1 0.0477913 1
1 0.102953 0.995483
1 0.167147 0.979583
1 0.231617 0.968704
0.0678721 0.165423 1
0.250797 0.172824 1
0.497673 0.198062 1
0.853758 0.205249 1
0.946059 0.278218 1
0.992004 0.338659 0.924956
1 0.386633 0.907759
1 0.437263 0.916121
1 0.486641 0.936217
0 0.622187 1
0 0.634684 1
0 0.62417 1
0.386999 0.569253 1
0.809506 0.526299 1
0.892164 0.579538 0.898619
0.974151 0.617517 0.907408
1 0.655299 0.936019
1 0.689509 0.964843
0 0.863096 1
0 0.869688 1
0 0.874601 1
0.188663 0.854688 1
0.516396 0.814969 1
0.877363 0.76907 0.999222
0.953628 0.799924 0.951431
1 0.822354 0.967971
1 0.841489 0.980484
0 0.985122 1
0 1 1
0.0476081 1 1
0.267857 1 1
0.524117 0.973404 1
0.763806 0.947601 1
0.946166 0.928618 1
1 0.933471 0.992798
1 0.942916 0.989166
0 1 1
0.057435 1 1
0.177844 1 1
0.382361 1 1
0.628611 1 1
0.864576 1 1
0.984787 1 1
1 1 1
1 1 1
0.0716411 1 1
0.157321 1 1
0.268025 1 1
0.466438 1 1
0.708171 1 1
0.933577 1 1
1 1 1
1 1 1
1 1 1
0.900801 0 1
1 0 1
1 0 1
1 0 1
1 0 1
1 0 1
1 0 1
1 0 1
1 0 1
0.831327 0 1
0.946044 0 1
1 0 1
1 0 1
1 0 1
1 0 1
1 0 1
1 0 1
1 0 1
0.680217 0 1
0.824933 0 1
1 0 1
1 0 1
1 0 1
1 0.0521248 1
1 0.113802 1
1 0.180682 1
1 0.245121 1
0.1785 0.151629 1
0.352178 0.164614 1
0.583093 0.187152 1
0.910613 0.204395 1
1 0.277073 1
1 0.343618 1
1 0.396155 0.979782
1 0.44799 0.987228
1 0.497429 1
0 0.601282 1
0 0.620005 1
0.0451362 0.612009 1
0.460868 0.55996 1
0.855238 0.52697 1
0.940948 0.578866 0.975143
1 0.623819 0.976822
1 0.662425 1
1 0.696574 1
0 0.870405 1
0 0.878569 1
0 0.882948 1
0.20885 0.858091 1
0.559426 0.809918 1
0.918318 0.766567 1
0.988403 0.800534 1
1 0.825956 1
1 0.845884 1
0 1 1
0 1 1
0 1 1
0.219471 1 1
0.485328 0.989166 1
0.758923 0.948272 1
0.981109 0.920653 1
1 0.93576 1
1 0.945068 1
0 1 1
0 1 1
0.0967269 1 1
0.296773 1 1
0.536736 1 1
0.762798 1 1
0.913008 1 1
1 1 1
1 1 1
0 1 1
0.0695201 1 1
0.177264 1 1
0.371328 1 1
0.607904 1 1
0.834272 1 1
0.980667 1 1
1 1 1
1 1 1
0.903822 0 1
0.999512 0 1
1 0 1
1 0 1
1 0 1
1 0 1
1 0 1
1 0 1
1 0 1
0.840864 0 1
0.950698 0 1
1 0 1
1 0 1
1 0 1
1 0 1
1 0 1
1 0 1
1 0 1
0.707439 0 1
0.846479 0 1
1 0 1
1 0 1
1 0 1
1 0.060853 1
1 0.127779 1
1 0.196338 1
1 0.26096 1
0.25655 0.149203 1
0.422477 0.167361 1
0.648508 0.186374 1
0.954498 0.210559 1
1 0.282063 1
1 0.351934 1
1 0.407248 1
1 0.460044 1
1 0.509346 1
0 0.590158 1
0 0.610788 1
0.114 0.605509 1
0.520775 0.557412 1
0.893599 0.531411 1
0.986496 0.583673 1
1 0.630884 1
1 0.669856 1
1 0.703334 1
0 0.873625 1
0 0.883299 1
0 0.887434 1
0.239017 0.859541 1
0.603021 0.806638 1
0.95404 0.767788 1
1 0.800305 1
1 0.82771 1
1 0.848478 1
0 1 1
0 1 1
0 1 1
0.204547 1 1
0.486 0.992142 1
0.789349 0.940658 1
1 0.91548 1
1 0.933059 1
1 0.946029 1
0 1 1
0 1 1
0.0487373 1 1
0.249989 1 1
0.495644 1 1
0.738506 1 1
0.921447 1 1
1 1 1
1 1 1
0 1 1
0.00608835 1 1
0.112123 1 1
0.303563 1 1
0.536736 1 1
0.757244 1 1
0.901854 1 1
0.993698 1 1
1 1 1
