All_In_One/Enrich_Colormaster/colormanagement/luts/film_response/Tetrachrome_400_FPE.cube
TITLE "ImpulZ LUT 32"
LUT_3D_SIZE 32
0.0314 0.0353 0.0353
0.0353 0.0392 0.0392
0.0394 0.0392 0.0392
0.0514 0.0396 0.0392
0.0598 0.0431 0.0353
0.0758 0.0431 0.0353
0.0878 0.0471 0.0353
0.1037 0.0471 0.0353
0.1157 0.0510 0.0353
0.1305 0.0510 0.0364
0.1437 0.0510 0.0392
0.1583 0.0549 0.0392
0.1716 0.0549 0.0392
0.1859 0.0549 0.0392
0.1996 0.0549 0.0392
0.2137 0.0549 0.0392
0.2295 0.0549 0.0392
0.2435 0.0528 0.0392
0.2572 0.0510 0.0392
0.2691 0.0510 0.0392
0.2835 0.0510 0.0392
0.2955 0.0510 0.0392
0.3114 0.0510 0.0392
0.3234 0.0510 0.0421
0.3394 0.0510 0.0431
0.3521 0.0510 0.0431
0.3673 0.0510 0.0431
0.3833 0.0544 0.0431
0.3953 0.0549 0.0431
0.4073 0.0549 0.0471
0.4232 0.0588 0.0471
0.4392 0.0627 0.0471
0.0314 0.0392 0.0392
0.0353 0.0393 0.0392
0.0394 0.0431 0.0392
0.0514 0.0431 0.0392
0.0603 0.0436 0.0354
0.0798 0.0511 0.0354
0.0957 0.0517 0.0354
0.1118 0.0551 0.0392
0.1276 0.0589 0.0392
0.1436 0.0589 0.0392
0.1557 0.0602 0.0392
0.1715 0.0628 0.0392
0.1875 0.0628 0.0392
0.2019 0.0628 0.0392
0.2156 0.0628 0.0392
0.2315 0.0628 0.0392
0.2474 0.0628 0.0392
0.2634 0.0628 0.0392
0.2754 0.0628 0.0392
0.2874 0.0628 0.0392
0.2994 0.0604 0.0392
0.3127 0.0589 0.0393
0.3274 0.0591 0.0420
0.3433 0.0591 0.0431
0.3554 0.0591 0.0431
0.3712 0.0621 0.0431
0.3866 0.0628 0.0431
0.3992 0.0628 0.0466
0.4117 0.0628 0.0471
0.4236 0.0630 0.0471
0.4430 0.0706 0.0471
0.4591 0.0748 0.0510
0.0314 0.0431 0.0431
0.0353 0.0432 0.0392
0.0397 0.0436 0.0392
0.0516 0.0473 0.0392
0.0603 0.0478 0.0392
0.0803 0.0519 0.0392
0.1003 0.0591 0.0392
0.1196 0.0630 0.0392
0.1395 0.0669 0.0392
0.1554 0.0672 0.0392
0.1706 0.0708 0.0392
0.1837 0.0708 0.0392
0.1999 0.0708 0.0392
0.2158 0.0711 0.0392
0.2318 0.0711 0.0392
0.2477 0.0727 0.0392
0.2673 0.0747 0.0392
0.2813 0.0747 0.0392
0.2932 0.0727 0.0392
0.3051 0.0711 0.0394
0.3193 0.0708 0.0417
0.3313 0.0708 0.0431
0.3436 0.0708 0.0431
0.3593 0.0708 0.0431
0.3752 0.0708 0.0431
0.3874 0.0708 0.0431
0.4031 0.0711 0.0464
0.4159 0.0711 0.0471
0.4311 0.0744 0.0471
0.4431 0.0750 0.0471
0.4591 0.0789 0.0509
0.4750 0.0868 0.0510
0.0314 0.0471 0.0431
0.0350 0.0475 0.0392
0.0361 0.0477 0.0392
0.0556 0.0556 0.0392
0.0681 0.0558 0.0392
0.0847 0.0598 0.0392
0.1078 0.0674 0.0392
0.1276 0.0718 0.0392
0.1481 0.0759 0.0392
0.1677 0.0791 0.0392
0.1846 0.0828 0.0392
0.2035 0.0831 0.0392
0.2195 0.0831 0.0392
0.2358 0.0831 0.0392
0.2531 0.0831 0.0392
0.2712 0.0847 0.0392
0.2872 0.0867 0.0392
0.2995 0.0867 0.0396
0.3151 0.0867 0.0415
0.3271 0.0831 0.0431
0.3370 0.0831 0.0431
0.3511 0.0828 0.0431
0.3632 0.0828 0.0431
0.3791 0.0828 0.0431
0.3915 0.0828 0.0431
0.4070 0.0828 0.0463
0.4230 0.0831 0.0471
0.4354 0.0831 0.0471
0.4478 0.0870 0.0471
0.4630 0.0870 0.0471
0.4754 0.0947 0.0510
0.4909 0.1027 0.0510
0.0309 0.0515 0.0431
0.0319 0.0515 0.0397
0.0358 0.0522 0.0392
0.0556 0.0597 0.0392
0.0726 0.0677 0.0392
0.0926 0.0717 0.0392
0.1126 0.0763 0.0392
0.1326 0.0803 0.0392
0.1559 0.0839 0.0392
0.1764 0.0884 0.0392
0.1996 0.0920 0.0392
0.2195 0.0951 0.0392
0.2393 0.0951 0.0392
0.2553 0.0951 0.0392
0.2730 0.0969 0.0392
0.2911 0.0990 0.0397
0.3070 0.0990 0.0431
0.3213 0.0990 0.0431
0.3332 0.0985 0.0431
0.3470 0.0966 0.0431
0.3590 0.0951 0.0431
0.3710 0.0951 0.0431
0.3830 0.0951 0.0431
0.3966 0.0927 0.0436
0.4110 0.0951 0.0462
0.4270 0.0951 0.0471
0.4394 0.0951 0.0471
0.4549 0.0985 0.0471
0.4673 0.0990 0.0471
0.4797 0.1027 0.0507
0.4949 0.1107 0.0510
0.5074 0.1152 0.0510
0.0275 0.0555 0.0431
0.0354 0.0628 0.0431
0.0397 0.0636 0.0431
0.0556 0.0716 0.0431
0.0760 0.0795 0.0398
0.1005 0.0843 0.0392
0.1211 0.0883 0.0392
0.1451 0.0962 0.0392
0.1651 0.0999 0.0392
0.1890 0.1032 0.0392
0.2090 0.1071 0.0392
0.2315 0.1078 0.0392
0.2529 0.1110 0.0392
0.2719 0.1117 0.0398
0.2917 0.1128 0.0431
0.3077 0.1150 0.0431
0.3275 0.1150 0.0431
0.3395 0.1156 0.0431
0.3532 0.1133 0.0431
0.3636 0.1110 0.0431
0.3770 0.1110 0.0431
0.3888 0.1117 0.0431
0.4035 0.1117 0.0437
0.4166 0.1117 0.0471
0.4315 0.1117 0.0471
0.4449 0.1117 0.0471
0.4594 0.1143 0.0471
0.4754 0.1156 0.0477
0.4874 0.1185 0.0506
0.4994 0.1195 0.0510
0.5147 0.1273 0.0510
0.5274 0.1352 0.0516
0.0275 0.0635 0.0431
0.0354 0.0682 0.0431
0.0402 0.0755 0.0431
0.0556 0.0835 0.0431
0.0763 0.0883 0.0431
0.1013 0.0962 0.0431
0.1324 0.1042 0.0392
0.1563 0.1122 0.0392
0.1810 0.1162 0.0392
0.2010 0.1199 0.0392
0.2249 0.1231 0.0392
0.2449 0.1239 0.0392
0.2673 0.1270 0.0407
0.2888 0.1286 0.0431
0.3088 0.1309 0.0431
0.3276 0.1317 0.0431
0.3475 0.1348 0.0431
0.3627 0.1348 0.0431
0.3747 0.1333 0.0431
0.3851 0.1309 0.0439
0.3970 0.1278 0.0439
0.4108 0.1309 0.0471
0.4246 0.1309 0.0471
0.4387 0.1309 0.0471
0.4524 0.1317 0.0471
0.4667 0.1317 0.0471
0.4826 0.1348 0.0479
0.4954 0.1356 0.0510
0.5078 0.1384 0.0510
0.5196 0.1395 0.0510
0.5346 0.1472 0.0510
0.5474 0.1584 0.0549
0.0275 0.0715 0.0440
0.0354 0.0794 0.0431
0.0434 0.0844 0.0431
0.0556 0.0954 0.0431
0.0726 0.1034 0.0431
0.1091 0.1119 0.0431
0.1404 0.1201 0.0431
0.1682 0.1272 0.0392
0.1930 0.1322 0.0392
0.2170 0.1391 0.0392
0.2408 0.1403 0.0392
0.2647 0.1438 0.0401
0.2847 0.1469 0.0431
0.3047 0.1478 0.0431
0.3269 0.1508 0.0431
0.3447 0.1508 0.0431
0.3666 0.1517 0.0431
0.3826 0.1517 0.0440
0.3954 0.1547 0.0471
0.4089 0.1517 0.0471
0.4195 0.1508 0.0471
0.4315 0.1508 0.0471
0.4446 0.1508 0.0471
0.4586 0.1508 0.0471
0.4724 0.1517 0.0471
0.4865 0.1517 0.0502
0.5025 0.1556 0.0510
0.5154 0.1556 0.0510
0.5278 0.1595 0.0510
0.5397 0.1623 0.0510
0.5515 0.1702 0.0548
0.5664 0.1783 0.0549
0.0275 0.0794 0.0471
0.0354 0.0874 0.0471
0.0436 0.0956 0.0439
0.0596 0.1044 0.0431
0.0741 0.1162 0.0431
0.1107 0.1253 0.0431
0.1491 0.1361 0.0431
0.1781 0.1441 0.0431
0.2061 0.1491 0.0402
0.2339 0.1559 0.0392
0.2578 0.1599 0.0402
0.2817 0.1638 0.0431
0.3046 0.1677 0.0431
0.3256 0.1677 0.0431
0.3478 0.1687 0.0431
0.3637 0.1716 0.0431
0.3836 0.1716 0.0441
0.4016 0.1726 0.0471
0.4171 0.1716 0.0471
0.4290 0.1745 0.0471
0.4419 0.1740 0.0471
0.4538 0.1716 0.0471
0.4674 0.1716 0.0481
0.4794 0.1716 0.0481
0.4924 0.1716 0.0510
0.5074 0.1748 0.0510
0.5223 0.1755 0.0510
0.5353 0.1795 0.0510
0.5478 0.1831 0.0520
0.5597 0.1834 0.0546
0.5715 0.1921 0.0549
0.5873 0.2001 0.0559
0.0275 0.0874 0.0471
0.0354 0.0993 0.0471
0.0436 0.1075 0.0471
0.0635 0.1195 0.0431
0.0782 0.1288 0.0431
0.1186 0.1447 0.0431
0.1582 0.1559 0.0431
0.1929 0.1639 0.0431
0.2220 0.1719 0.0431
0.2539 0.1770 0.0431
0.2806 0.1812 0.0431
0.3044 0.1877 0.0431
0.3280 0.1892 0.0431
0.3479 0.1916 0.0431
0.3684 0.1934 0.0431
0.3887 0.1967 0.0450
0.4074 0.1967 0.0471
0.4244 0.1977 0.0471
0.4393 0.1984 0.0471
0.4513 0.1956 0.0471
0.4662 0.1981 0.0482
0.4793 0.1980 0.0510
0.4914 0.1967 0.0510
0.5033 0.1967 0.0510
0.5154 0.1986 0.0510
0.5302 0.1995 0.0510
0.5433 0.1995 0.0521
0.5558 0.2029 0.0544
0.5677 0.2069 0.0549
0.5796 0.2073 0.0549
0.5953 0.2190 0.0560
0.6101 0.2269 0.0588
0.0287 0.0954 0.0510
0.0354 0.1073 0.0471
0.0441 0.1194 0.0471
0.0651 0.1327 0.0458
0.0862 0.1452 0.0431
0.1273 0.1619 0.0431
0.1718 0.1771 0.0431
0.2073 0.1863 0.0431
0.2431 0.1943 0.0431
0.2750 0.2010 0.0431
0.3030 0.2051 0.0431
0.3268 0.2091 0.0431
0.3495 0.2129 0.0431
0.3695 0.2156 0.0444
0.3916 0.2173 0.0449
0.4115 0.2201 0.0471
0.4313 0.2234 0.0471
0.4473 0.2234 0.0471
0.4632 0.2234 0.0484
0.4753 0.2223 0.0510
0.4887 0.2220 0.0510
0.5032 0.2234 0.0510
0.5152 0.2234 0.0510
0.5273 0.2234 0.0522
0.5402 0.2247 0.0540
0.5520 0.2247 0.0549
0.5672 0.2273 0.0549
0.5792 0.2273 0.0549
0.5912 0.2309 0.0562
0.6033 0.2349 0.0585
0.6192 0.2429 0.0588
0.6313 0.2509 0.0601
0.0314 0.1034 0.0510
0.0354 0.1153 0.0484
0.0441 0.1288 0.0471
0.0721 0.1486 0.0441
0.0946 0.1646 0.0431
0.1391 0.1812 0.0431
0.1838 0.1979 0.0425
0.2316 0.2138 0.0431
0.2670 0.2213 0.0431
0.3003 0.2288 0.0431
0.3309 0.2330 0.0431
0.3548 0.2370 0.0445
0.3772 0.2395 0.0446
0.3957 0.2395 0.0471
0.4155 0.2434 0.0471
0.4320 0.2434 0.0471
0.4539 0.2473 0.0485
0.4712 0.2473 0.0510
0.4871 0.2496 0.0510
0.5007 0.2512 0.0510
0.5126 0.2487 0.0524
0.5271 0.2499 0.0536
0.5391 0.2512 0.0549
0.5512 0.2512 0.0549
0.5641 0.2512 0.0549
0.5791 0.2526 0.0563
0.5911 0.2551 0.0588
0.6037 0.2566 0.0588
0.6156 0.2587 0.0588
0.6274 0.2627 0.0602
0.6431 0.2683 0.0627
0.6551 0.2787 0.0641
0.0314 0.1113 0.0525
0.0368 0.1273 0.0510
0.0441 0.1398 0.0471
0.0736 0.1622 0.0455
0.1055 0.1820 0.0431
0.1486 0.2019 0.0431
0.1990 0.2218 0.0399
0.2475 0.2362 0.0431
0.2915 0.2497 0.0441
0.3267 0.2567 0.0446
0.3573 0.2646 0.0471
0.3812 0.2649 0.0471
0.4052 0.2688 0.0471
0.4213 0.2688 0.0486
0.4410 0.2688 0.0486
0.4573 0.2707 0.0486
0.4753 0.2728 0.0510
0.4927 0.2734 0.0510
0.5071 0.2767 0.0525
0.5231 0.2775 0.0549
0.5390 0.2791 0.0549
0.5510 0.2791 0.0564
0.5657 0.2778 0.0564
0.5776 0.2767 0.0564
0.5895 0.2806 0.0588
0.6031 0.2806 0.0603
0.6190 0.2823 0.0603
0.6310 0.2845 0.0627
0.6430 0.2869 0.0642
0.6550 0.2906 0.0642
0.6670 0.2961 0.0666
0.6791 0.3041 0.0682
0.0314 0.1232 0.0549
0.0393 0.1368 0.0510
0.0458 0.1516 0.0471
0.0799 0.1793 0.0444
0.1111 0.2009 0.0431
0.1636 0.2225 0.0431
0.2117 0.2417 0.0431
0.2627 0.2577 0.0431
0.3074 0.2726 0.0441
0.3501 0.2845 0.0471
0.3825 0.2925 0.0484
0.4091 0.2965 0.0487
0.4330 0.2990 0.0510
0.4530 0.3007 0.0510
0.4689 0.3007 0.0526
0.4871 0.3026 0.0526
0.5031 0.3026 0.0530
0.5173 0.3012 0.0549
0.5327 0.3046 0.0549
0.5470 0.3046 0.0565
0.5629 0.3085 0.0574
0.5789 0.3085 0.0588
0.5909 0.3085 0.0604
0.6056 0.3085 0.0604
0.6175 0.3116 0.0627
0.6309 0.3125 0.0644
0.6445 0.3125 0.0644
0.6571 0.3142 0.0667
0.6689 0.3164 0.0683
0.6792 0.3184 0.0683
0.6927 0.3240 0.0706
0.7069 0.3304 0.0722
0.0314 0.1330 0.0549
0.0393 0.1489 0.0510
0.0481 0.1651 0.0507
0.0803 0.1929 0.0467
0.1172 0.2168 0.0431
0.1698 0.2407 0.0431
0.2249 0.2639 0.0431
0.2737 0.2798 0.0431
0.3215 0.2958 0.0441
0.3661 0.3078 0.0482
0.4047 0.3185 0.0510
0.4312 0.3229 0.0510
0.4569 0.3284 0.0528
0.4769 0.3287 0.0549
0.4951 0.3308 0.0549
0.5150 0.3326 0.0567
0.5310 0.3326 0.0567
0.5429 0.3308 0.0570
0.5566 0.3308 0.0588
0.5709 0.3326 0.0588
0.5868 0.3347 0.0606
0.6028 0.3374 0.0627
0.6159 0.3386 0.0645
0.6307 0.3386 0.0645
0.6436 0.3404 0.0667
0.6587 0.3426 0.0685
0.6707 0.3426 0.0685
0.6832 0.3443 0.0706
0.6948 0.3443 0.0724
0.7068 0.3465 0.0724
0.7188 0.3522 0.0745
0.7308 0.3582 0.0762
0.0314 0.1431 0.0588
0.0432 0.1631 0.0528
0.0520 0.1810 0.0507
0.0839 0.2053 0.0467
0.1172 0.2328 0.0431
0.1737 0.2567 0.0431
0.2288 0.2798 0.0431
0.2807 0.2966 0.0431
0.3295 0.3117 0.0471
0.3773 0.3277 0.0482
0.4167 0.3402 0.0510
0.4485 0.3483 0.0549
0.4765 0.3523 0.0549
0.5008 0.3563 0.0568
0.5208 0.3586 0.0588
0.5389 0.3586 0.0607
0.5548 0.3605 0.0607
0.5669 0.3586 0.0627
0.5788 0.3586 0.0627
0.5924 0.3586 0.0627
0.6068 0.3605 0.0646
0.6228 0.3626 0.0667
0.6387 0.3644 0.0686
0.6527 0.3664 0.0696
0.6666 0.3684 0.0725
0.6826 0.3696 0.0725
0.6965 0.3704 0.0745
0.7090 0.3723 0.0764
0.7190 0.3723 0.0764
0.7309 0.3743 0.0781
0.7427 0.3781 0.0803
0.7547 0.3821 0.0824
0.0314 0.1570 0.0588
0.0432 0.1768 0.0548
0.0539 0.1952 0.0507
0.0839 0.2209 0.0467
0.1167 0.2482 0.0431
0.1684 0.2712 0.0431
0.2268 0.2937 0.0431
0.2778 0.3117 0.0431
0.3295 0.3295 0.0471
0.3773 0.3455 0.0482
0.4239 0.3582 0.0522
0.4566 0.3662 0.0549
0.4939 0.3781 0.0588
0.5204 0.3842 0.0608
0.5448 0.3865 0.0627
0.5608 0.3885 0.0648
0.5806 0.3904 0.0648
0.5927 0.3904 0.0667
0.6047 0.3904 0.0687
0.6167 0.3885 0.0687
0.6307 0.3904 0.0692
0.6467 0.3904 0.0726
0.6626 0.3932 0.0726
0.6766 0.3943 0.0745
0.6945 0.3973 0.0765
0.7084 0.3982 0.0776
0.7224 0.4015 0.0805
0.7350 0.4021 0.0819
0.7469 0.4021 0.0844
0.7565 0.4021 0.0844
0.7667 0.4061 0.0862
0.7786 0.4100 0.0883
0.0314 0.1668 0.0609
0.0432 0.1868 0.0548
0.0520 0.2090 0.0507
0.0835 0.2329 0.0467
0.1151 0.2602 0.0431
0.1652 0.2807 0.0431
0.2220 0.3056 0.0431
0.2698 0.3216 0.0431
0.3215 0.3396 0.0471
0.3694 0.3545 0.0482
0.4159 0.3694 0.0522
0.4558 0.3821 0.0563
0.4939 0.3940 0.0603
0.5337 0.4060 0.0644
0.5604 0.4104 0.0667
0.5806 0.4143 0.0686
0.5987 0.4143 0.0688
0.6164 0.4143 0.0706
0.6283 0.4143 0.0727
0.6403 0.4143 0.0727
0.6546 0.4164 0.0745
0.6684 0.4169 0.0766
0.6826 0.4182 0.0773
0.6986 0.4182 0.0806
0.7145 0.4222 0.0815
0.7304 0.4253 0.0845
0.7463 0.4261 0.0857
0.7584 0.4261 0.0884
0.7668 0.4261 0.0884
0.7787 0.4261 0.0884
0.7867 0.4300 0.0923
0.7965 0.4318 0.0923
0.0353 0.1788 0.0627
0.0410 0.1986 0.0549
0.0512 0.2185 0.0510
0.0715 0.2403 0.0467
0.1038 0.2660 0.0431
0.1472 0.2882 0.0431
0.2009 0.3113 0.0431
0.2472 0.3272 0.0431
0.2940 0.3422 0.0458
0.3405 0.3569 0.0471
0.3912 0.3728 0.0510
0.4345 0.3871 0.0549
0.4784 0.4030 0.0588
0.5190 0.4151 0.0627
0.5612 0.4271 0.0685
0.5861 0.4320 0.0706
0.6123 0.4379 0.0729
0.6301 0.4382 0.0766
0.6483 0.4398 0.0768
0.6602 0.4382 0.0784
0.6723 0.4421 0.0807
0.6883 0.4421 0.0811
0.7037 0.4421 0.0847
0.7163 0.4421 0.0847
0.7322 0.4429 0.0886
0.7481 0.4469 0.0886
0.7640 0.4499 0.0925
0.7766 0.4499 0.0925
0.7881 0.4499 0.0937
0.7965 0.4499 0.0964
0.8044 0.4515 0.0964
0.8146 0.4539 0.0980
0.0353 0.1891 0.0627
0.0393 0.2090 0.0587
0.0476 0.2267 0.0510
0.0635 0.2467 0.0471
0.0855 0.2682 0.0431
0.1266 0.2906 0.0431
0.1730 0.3113 0.0431
0.2153 0.3272 0.0431
0.2582 0.3422 0.0431
0.2996 0.3541 0.0471
0.3473 0.3687 0.0484
0.4002 0.3871 0.0524
0.4465 0.4030 0.0564
0.4943 0.4173 0.0619
0.5389 0.4310 0.0661
0.5826 0.4469 0.0725
0.6139 0.4539 0.0765
0.6400 0.4579 0.0806
0.6579 0.4620 0.0808
0.6802 0.4621 0.0848
0.6922 0.4660 0.0849
0.7081 0.4660 0.0887
0.7202 0.4660 0.0887
0.7361 0.4660 0.0926
0.7506 0.4660 0.0926
0.7640 0.4668 0.0941
0.7800 0.4699 0.0965
0.7949 0.4710 0.0975
0.8044 0.4715 0.1005
0.8161 0.4715 0.1005
0.8243 0.4739 0.1019
0.8323 0.4739 0.1044
0.0353 0.1986 0.0627
0.0392 0.2122 0.0588
0.0448 0.2319 0.0546
0.0545 0.2478 0.0506
0.0705 0.2677 0.0457
0.0956 0.2857 0.0431
0.1355 0.3049 0.0431
0.1710 0.3208 0.0431
0.2109 0.3342 0.0431
0.2507 0.3476 0.0457
0.2970 0.3608 0.0471
0.3500 0.3806 0.0499
0.4077 0.3981 0.0539
0.4625 0.4151 0.0588
0.5121 0.4310 0.0645
0.5588 0.4469 0.0700
0.6085 0.4668 0.0765
0.6378 0.4717 0.0810
0.6654 0.4793 0.0847
0.6856 0.4820 0.0887
0.7056 0.4860 0.0927
0.7216 0.4860 0.0927
0.7373 0.4860 0.0966
0.7495 0.4860 0.0966
0.7655 0.4874 0.0971
0.7800 0.4874 0.1006
0.7934 0.4874 0.1014
0.8085 0.4899 0.1045
0.8178 0.4874 0.1045
0.8295 0.4913 0.1056
0.8377 0.4913 0.1059
0.8443 0.4913 0.1084
0.0353 0.2065 0.0667
0.0354 0.2186 0.0613
0.0407 0.2343 0.0549
0.0471 0.2478 0.0510
0.0567 0.2637 0.0492
0.0705 0.2797 0.0471
0.0956 0.2969 0.0471
0.1227 0.3089 0.0458
0.1590 0.3239 0.0431
0.1949 0.3381 0.0431
0.2412 0.3528 0.0471
0.2970 0.3701 0.0471
0.3543 0.3901 0.0510
0.4207 0.4101 0.0565
0.4763 0.4284 0.0618
0.5302 0.4469 0.0667
0.5846 0.4668 0.0739
0.6324 0.4827 0.0819
0.6614 0.4912 0.0863
0.6856 0.4955 0.0902
0.7095 0.4994 0.0941
0.7322 0.5060 0.1007
0.7455 0.5060 0.1007
0.7614 0.5060 0.1010
0.7800 0.5060 0.1046
0.7960 0.5073 0.1051
0.8080 0.5073 0.1085
0.8205 0.5073 0.1085
0.8294 0.5073 0.1085
0.8377 0.5073 0.1095
0.8483 0.5073 0.1098
0.8563 0.5073 0.1124
0.0353 0.2157 0.0667
0.0365 0.2265 0.0626
0.0392 0.2358 0.0588
0.0407 0.2478 0.0549
0.0487 0.2609 0.0510
0.0573 0.2758 0.0510
0.0725 0.2909 0.0471
0.0923 0.3009 0.0471
0.1184 0.3169 0.0471
0.1526 0.3289 0.0471
0.1937 0.3448 0.0471
0.2479 0.3622 0.0471
0.3122 0.3821 0.0486
0.3813 0.4061 0.0538
0.4461 0.4271 0.0588
0.5029 0.4469 0.0646
0.5659 0.4668 0.0726
0.6152 0.4855 0.0806
0.6568 0.5026 0.0886
0.6856 0.5075 0.0926
0.7132 0.5151 0.0969
0.7336 0.5193 0.1035
0.7535 0.5232 0.1059
0.7693 0.5232 0.1087
0.7825 0.5232 0.1089
0.8013 0.5232 0.1126
0.8144 0.5232 0.1126
0.8265 0.5232 0.1126
0.8377 0.5232 0.1133
0.8457 0.5204 0.1137
0.8546 0.5204 0.1137
0.8627 0.5232 0.1165
0.0353 0.2225 0.0667
0.0392 0.2305 0.0627
0.0392 0.2394 0.0588
0.0392 0.2504 0.0584
0.0436 0.2598 0.0549
0.0493 0.2718 0.0533
0.0606 0.2871 0.0510
0.0705 0.2960 0.0500
0.0904 0.3089 0.0490
0.1163 0.3237 0.0471
0.1538 0.3381 0.0471
0.2030 0.3567 0.0471
0.2644 0.3771 0.0486
0.3441 0.4020 0.0510
0.4103 0.4232 0.0567
0.4741 0.4449 0.0627
0.5388 0.4668 0.0697
0.5977 0.4867 0.0776
0.6409 0.5026 0.0857
0.6831 0.5185 0.0965
0.7095 0.5270 0.1006
0.7374 0.5350 0.1049
0.7575 0.5353 0.1088
0.7734 0.5353 0.1127
0.7864 0.5353 0.1137
0.8024 0.5355 0.1166
0.8183 0.5362 0.1166
0.8299 0.5362 0.1166
0.8417 0.5353 0.1176
0.8536 0.5353 0.1176
0.8616 0.5353 0.1176
0.8696 0.5353 0.1206
0.0392 0.2305 0.0667
0.0392 0.2383 0.0627
0.0392 0.2434 0.0624
0.0392 0.2514 0.0588
0.0397 0.2598 0.0574
0.0446 0.2718 0.0549
0.0526 0.2871 0.0533
0.0606 0.2950 0.0510
0.0745 0.3079 0.0510
0.0993 0.3230 0.0471
0.1309 0.3371 0.0471
0.1787 0.3557 0.0471
0.2374 0.3762 0.0486
0.3132 0.4010 0.0510
0.3902 0.4249 0.0567
0.4553 0.4460 0.0607
0.5239 0.4698 0.0687
0.5807 0.4897 0.0766
0.6319 0.5095 0.0847
0.6717 0.5255 0.0950
0.7115 0.5389 0.1045
0.7404 0.5469 0.1085
0.7615 0.5511 0.1128
0.7775 0.5511 0.1166
0.7904 0.5511 0.1176
0.8062 0.5511 0.1207
0.8183 0.5481 0.1207
0.8309 0.5481 0.1207
0.8423 0.5481 0.1216
0.8544 0.5481 0.1216
0.8626 0.5472 0.1216
0.8706 0.5472 0.1216
0.0392 0.2384 0.0667
0.0392 0.2425 0.0658
0.0392 0.2502 0.0627
0.0392 0.2553 0.0616
0.0397 0.2632 0.0588
0.0431 0.2744 0.0574
0.0486 0.2871 0.0549
0.0558 0.2950 0.0549
0.0665 0.3079 0.0510
0.0865 0.3239 0.0499
0.1169 0.3398 0.0471
0.1606 0.3557 0.0471
0.2174 0.3771 0.0486
0.2932 0.4010 0.0510
0.3672 0.4249 0.0567
0.4389 0.4488 0.0607
0.5118 0.4727 0.0687
0.5717 0.4937 0.0766
0.6223 0.5136 0.0847
0.6662 0.5295 0.0950
0.7050 0.5455 0.1045
0.7434 0.5614 0.1124
0.7624 0.5632 0.1165
0.7812 0.5639 0.1206
0.7943 0.5632 0.1216
0.8063 0.5632 0.1247
0.8222 0.5632 0.1247
0.8343 0.5600 0.1247
0.8427 0.5597 0.1247
0.8507 0.5593 0.1252
0.8626 0.5593 0.1255
0.8706 0.5561 0.1255
0.0392 0.2464 0.0667
0.0392 0.2504 0.0667
0.0392 0.2545 0.0627
0.0392 0.2621 0.0627
0.0392 0.2672 0.0616
0.0431 0.2758 0.0588
0.0479 0.2878 0.0549
0.0558 0.2983 0.0549
0.0657 0.3112 0.0533
0.0858 0.3271 0.0510
0.1167 0.3470 0.0471
0.1665 0.3662 0.0504
0.2202 0.3843 0.0504
0.2925 0.4098 0.0526
0.3664 0.4354 0.0567
0.4367 0.4560 0.0646
0.5103 0.4812 0.0720
0.5734 0.5038 0.0800
0.6225 0.5216 0.0879
0.6663 0.5399 0.0965
0.7036 0.5535 0.1045
0.7427 0.5693 0.1124
0.7691 0.5786 0.1204
0.7855 0.5791 0.1245
0.7985 0.5791 0.1249
0.8135 0.5791 0.1288
0.8222 0.5752 0.1288
0.8343 0.5719 0.1288
0.8427 0.5712 0.1288
0.8507 0.5712 0.1288
0.8587 0.5680 0.1293
0.8673 0.5680 0.1294
0.0392 0.2505 0.0667
0.0392 0.2545 0.0667
0.0392 0.2591 0.0667
0.0392 0.2666 0.0627
0.0392 0.2711 0.0627
0.0431 0.2825 0.0588
0.0439 0.2917 0.0580
0.0524 0.3037 0.0549
0.0657 0.3167 0.0539
0.0858 0.3351 0.0510
0.1187 0.3549 0.0484
0.1705 0.3748 0.0510
0.2288 0.3962 0.0510
0.3006 0.4201 0.0544
0.3705 0.4440 0.0567
0.4401 0.4679 0.0646
0.5142 0.4918 0.0726
0.5775 0.5118 0.0806
0.6266 0.5318 0.0886
0.6703 0.5494 0.0965
0.7081 0.5628 0.1079
0.7434 0.5773 0.1124
0.7691 0.5866 0.1204
0.7897 0.5946 0.1284
0.8055 0.5951 0.1324
0.8181 0.5917 0.1328
0.8264 0.5878 0.1328
0.8343 0.5838 0.1294
0.8427 0.5833 0.1328
0.8507 0.5799 0.1328
0.8587 0.5799 0.1328
0.8667 0.5799 0.1333
0.0392 0.2584 0.0706
0.0392 0.2623 0.0667
0.0392 0.2666 0.0667
0.0392 0.2710 0.0667
