All_In_One/Enrich_Colormaster/colormanagement/luts/film_response/Tetrachrome_400_FPE.cube
TITLE "ImpulZ LUT 32"
LUT_3D_SIZE 8
DOMAIN_MIN 0.000000 0.000000 0.000000
DOMAIN_MAX 0.903226 0.903226 0.903226
0.0314 0.0353 0.0353
0.0598 0.0431 0.0353
0.1157 0.0510 0.0353
0.1716 0.0549 0.0392
0.2295 0.0549 0.0392
0.2835 0.0510 0.0392
0.3394 0.0510 0.0431
0.3953 0.0549 0.0431
0.0309 0.0515 0.0431
0.0726 0.0677 0.0392
0.1559 0.0839 0.0392
0.2393 0.0951 0.0392
0.3070 0.0990 0.0431
0.3590 0.0951 0.0431
0.4110 0.0951 0.0462
0.4673 0.0990 0.0471
0.0275 0.0794 0.0471
0.0741 0.1162 0.0431
0.2061 0.1491 0.0402
0.3046 0.1677 0.0431
0.3836 0.1716 0.0441
0.4419 0.1740 0.0471
0.4924 0.1716 0.0510
0.5478 0.1831 0.0520
0.0314 0.1113 0.0525
0.1055 0.1820 0.0431
0.2915 0.2497 0.0441
0.4052 0.2688 0.0471
0.4753 0.2728 0.0510
0.5390 0.2791 0.0549
0.5895 0.2806 0.0588
0.6430 0.2869 0.0642
0.0314 0.1570 0.0588
0.1167 0.2482 0.0431
0.3295 0.3295 0.0471
0.4939 0.3781 0.0588
0.5806 0.3904 0.0648
0.6307 0.3904 0.0692
0.6945 0.3973 0.0765
0.7469 0.4021 0.0844
0.0353 0.1986 0.0627
0.0705 0.2677 0.0457
0.2109 0.3342 0.0431
0.4077 0.3981 0.0539
0.6085 0.4668 0.0765
0.7056 0.4860 0.0927
0.7655 0.4874 0.0971
0.8178 0.4874 0.1045
0.0392 0.2305 0.0667
0.0397 0.2598 0.0574
0.0745 0.3079 0.0510
0.2374 0.3762 0.0486
0.5239 0.4698 0.0687
0.7115 0.5389 0.1045
0.7904 0.5511 0.1176
0.8423 0.5481 0.1216
0.0392 0.2584 0.0706
0.0392 0.2785 0.0627
0.0733 0.3282 0.0539
0.2592 0.4116 0.0525
0.5381 0.5073 0.0786
0.7206 0.5743 0.1119
0.8105 0.6070 0.1369
0.8427 0.5918 0.1333
0.0275 0.0392 0.0632
0.0515 0.0431 0.0716
0.1113 0.0510 0.0677
0.1701 0.0549 0.0622
0.2315 0.0549 0.0554
0.2893 0.0510 0.0520
0.3477 0.0510 0.0520
0.4115 0.0510 0.0598
0.0275 0.0554 0.0711
0.0642 0.0755 0.0794
0.1638 0.0794 0.0588
0.2320 0.0755 0.0476
0.2874 0.0696 0.0436
0.3394 0.0593 0.0431
0.3953 0.0593 0.0471
0.4551 0.0712 0.0515
0.0280 0.0873 0.0755
0.0397 0.1118 0.0716
0.2576 0.1883 0.0642
0.3532 0.1765 0.0515
0.4139 0.1643 0.0481
0.4512 0.1447 0.0481
0.4973 0.1398 0.0510
0.5488 0.1566 0.0564
0.0314 0.1236 0.0912
0.0319 0.1486 0.0672
0.2900 0.2840 0.0525
0.4870 0.3316 0.0608
0.5435 0.3075 0.0603
0.5827 0.2835 0.0603
0.6209 0.2698 0.0612
0.6611 0.2807 0.0683
0.0314 0.1648 0.0990
0.0353 0.1947 0.0672
0.2155 0.3241 0.0471
0.5010 0.4187 0.0642
0.6635 0.4576 0.0888
0.7165 0.4395 0.0883
0.7586 0.4208 0.0883
0.7846 0.4164 0.0923
0.0353 0.2064 0.1030
0.0378 0.2305 0.0711
0.0720 0.2946 0.0544
0.2937 0.3884 0.0525
0.6296 0.5046 0.0883
0.7846 0.5467 0.1207
0.8335 0.5261 0.1142
0.8599 0.5140 0.1167
0.0392 0.2383 0.1030
0.0392 0.2554 0.0711
0.0486 0.2958 0.0593
0.2228 0.3944 0.0525
0.5684 0.5185 0.0840
0.7792 0.5982 0.1285
0.8432 0.5918 0.1378
0.8755 0.5766 0.1343
0.0392 0.2668 0.1113
0.0397 0.2943 0.1027
0.0719 0.3518 0.0930
0.3171 0.4627 0.0683
0.6433 0.5763 0.1100
0.8077 0.6379 0.1483
0.8668 0.6446 0.1614
0.8825 0.6276 0.1500
0.0314 0.0392 0.1030
0.0397 0.0392 0.1113
0.0912 0.0471 0.1226
0.1599 0.0510 0.1181
0.2325 0.0549 0.1079
0.3041 0.0510 0.1040
0.3678 0.0471 0.1050
0.4394 0.0545 0.1271
0.0314 0.0603 0.1152
0.0358 0.0627 0.1314
0.1413 0.0750 0.1628
0.2315 0.0716 0.1226
0.2952 0.0651 0.0951
0.3551 0.0568 0.0844
0.4179 0.0554 0.0879
0.4826 0.0712 0.1096
0.0314 0.0990 0.1363
0.0397 0.1319 0.1682
0.1893 0.1854 0.1893
0.3247 0.1736 0.1329
0.3865 0.1471 0.0912
0.4252 0.1260 0.0750
0.4708 0.1098 0.0687
0.5317 0.1317 0.0875
0.0314 0.1398 0.1525
0.0353 0.1687 0.1599
0.1138 0.2275 0.1432
0.4439 0.3409 0.1731
0.5380 0.3130 0.1094
0.5816 0.2835 0.0893
0.6175 0.2586 0.0819
0.6676 0.2774 0.1107
0.0353 0.1884 0.1776
0.0353 0.2148 0.1559
0.0588 0.2461 0.1000
0.4413 0.4139 0.1089
0.6522 0.4758 0.1630
0.7219 0.4536 0.1266
0.7689 0.4326 0.1099
0.7955 0.4319 0.1362
0.0353 0.2310 0.1834
0.0378 0.2477 0.1422
0.0402 0.2663 0.1050
0.2785 0.4001 0.0706
0.6415 0.5326 0.1305
0.8023 0.5723 0.1716
0.8560 0.5507 0.1418
0.8731 0.5415 0.1548
0.0392 0.2600 0.1726
0.0392 0.2790 0.1452
0.0431 0.3041 0.1307
0.1897 0.4135 0.0898
0.6095 0.5562 0.1121
0.8140 0.6340 0.1870
0.8845 0.6325 0.1805
0.9011 0.6159 0.1828
0.0392 0.2986 0.1958
0.0431 0.3272 0.1994
0.0526 0.3705 0.2064
0.2559 0.4823 0.1552
0.6353 0.6043 0.1553
0.8262 0.6727 0.2133
0.8932 0.6865 0.2348
0.9147 0.6787 0.2206
0.0314 0.0392 0.1348
0.0382 0.0392 0.1432
0.0804 0.0402 0.1584
0.1497 0.0471 0.1677
0.2414 0.0495 0.1677
0.3203 0.0471 0.1677
0.3855 0.0471 0.1755
0.4541 0.0545 0.2026
0.0329 0.0672 0.1549
0.0353 0.0544 0.1667
0.0839 0.0520 0.1907
0.2296 0.0627 0.2158
0.3159 0.0554 0.1889
0.3757 0.0510 0.1737
0.4423 0.0554 0.1841
0.5056 0.0751 0.2125
0.0353 0.1040 0.1829
0.0358 0.1128 0.2114
0.0809 0.1408 0.2315
0.3252 0.1849 0.2885
0.3904 0.1358 0.2178
0.4346 0.1113 0.1850
0.4915 0.1050 0.1865
0.5557 0.1371 0.2201
0.0353 0.1520 0.2124
0.0392 0.1957 0.2649
0.0809 0.2482 0.2840
0.3714 0.3581 0.3449
0.5145 0.3242 0.2688
0.5566 0.2722 0.2002
0.5832 0.2350 0.1738
0.6417 0.2569 0.2040
0.0353 0.2095 0.2482
0.0392 0.2605 0.2884
0.0491 0.2767 0.2547
0.2633 0.3718 0.2491
0.6145 0.4978 0.3365
0.7131 0.4787 0.2669
0.7572 0.4478 0.2347
0.7978 0.4614 0.2772
0.0392 0.2683 0.2855
0.0407 0.3076 0.2870
0.0446 0.3130 0.2473
0.1222 0.3605 0.2038
0.5861 0.5414 0.2562
0.7826 0.5909 0.3007
0.8439 0.5777 0.2704
0.8727 0.5832 0.3135
0.0392 0.3150 0.2963
0.0431 0.3448 0.2925
0.0471 0.3591 0.2724
0.0884 0.3910 0.2381
0.5172 0.5459 0.1813
0.7890 0.6502 0.2983
0.8815 0.6664 0.3038
0.9016 0.6585 0.3315
0.0431 0.3571 0.3194
0.0467 0.3796 0.3218
0.0555 0.4106 0.3254
0.1299 0.4661 0.3117
0.5305 0.5881 0.2237
0.7865 0.6870 0.3227
0.8854 0.7188 0.3687
0.9172 0.7227 0.3834
0.0314 0.0392 0.1745
0.0358 0.0392 0.1751
0.0765 0.0392 0.1952
0.1556 0.0431 0.2119
0.2591 0.0471 0.2276
0.3462 0.0471 0.2373
0.4021 0.0471 0.2463
0.4584 0.0525 0.2644
0.0353 0.0672 0.1947
0.0353 0.0510 0.2025
0.0652 0.0476 0.2172
0.1870 0.0476 0.2511
0.3478 0.0554 0.2791
0.4037 0.0510 0.2673
0.4536 0.0515 0.2683
0.5060 0.0712 0.2884
0.0353 0.1079 0.2266
0.0392 0.1079 0.2506
0.0481 0.1108 0.2472
0.1786 0.1191 0.2942
0.4149 0.1481 0.3384
0.4497 0.0981 0.2958
0.4983 0.0932 0.2904
0.5571 0.1327 0.3141
0.0373 0.1599 0.2624
0.0392 0.1850 0.3070
0.0481 0.2085 0.3149
0.1898 0.2786 0.3585
0.5106 0.3517 0.4301
0.5552 0.2743 0.3650
0.5895 0.2439 0.3419
0.6563 0.2819 0.3647
0.0392 0.2257 0.3119
0.0452 0.2949 0.3846
0.0608 0.3267 0.3904
0.2077 0.4028 0.4194
0.5453 0.5238 0.4905
0.6679 0.4920 0.4366
0.7267 0.4562 0.3934
0.7665 0.4545 0.3957
0.0431 0.3076 0.3694
0.0569 0.3964 0.4321
0.0757 0.4082 0.4175
0.1577 0.4430 0.4077
0.4454 0.5257 0.4292
0.7419 0.6253 0.4899
0.8257 0.6183 0.4645
0.8609 0.6170 0.4726
0.0530 0.3905 0.4149
0.0608 0.4463 0.4492
0.0697 0.4492 0.4306
0.1208 0.4679 0.4062
0.3308 0.5356 0.4013
0.7184 0.6689 0.4660
0.8609 0.6952 0.4729
0.8971 0.6979 0.4936
0.0569 0.4389 0.4389
0.0608 0.4555 0.4457
0.0743 0.4674 0.4296
0.1348 0.5043 0.4268
0.3249 0.5700 0.4133
0.6940 0.6896 0.4434
0.8589 0.7419 0.4936
0.9133 0.7506 0.5057
0.0353 0.0431 0.2064
0.0392 0.0431 0.2064
0.0804 0.0392 0.2271
0.1693 0.0417 0.2535
0.2767 0.0431 0.2731
0.3658 0.0471 0.2849
0.4173 0.0501 0.2927
0.4584 0.0510 0.3045
0.0353 0.0672 0.2266
0.0353 0.0476 0.2305
0.0569 0.0471 0.2407
0.1679 0.0436 0.2791
0.3223 0.0476 0.3109
0.4291 0.0554 0.3285
0.4618 0.0549 0.3207
0.4942 0.0628 0.3281
0.0392 0.1157 0.2663
0.0392 0.0956 0.2712
0.0402 0.0883 0.2647
0.1183 0.0834 0.2903
0.3312 0.1015 0.3478
0.4752 0.1113 0.3693
0.4981 0.0844 0.3486
0.5409 0.1121 0.3581
0.0392 0.1716 0.3075
0.0417 0.1805 0.3389
0.0441 0.1820 0.3389
0.0914 0.2158 0.3512
0.3651 0.2659 0.4316
0.5615 0.2869 0.4531
0.5723 0.2153 0.4071
0.6323 0.2550 0.4205
0.0431 0.2340 0.3556
0.0471 0.2831 0.4149
0.0530 0.3017 0.4183
0.1179 0.3508 0.4331
0.3881 0.4522 0.4983
0.6601 0.5130 0.5576
0.7085 0.4591 0.5100
0.7518 0.4634 0.5028
0.0471 0.3277 0.4193
0.0653 0.4224 0.4997
0.1022 0.4606 0.5121
0.2235 0.5072 0.5238
0.4631 0.5743 0.5586
0.6768 0.6415 0.6023
0.7772 0.6258 0.5748
0.8296 0.6205 0.5630
0.0627 0.4321 0.4787
0.0784 0.4937 0.5305
0.1113 0.5222 0.5340
0.2200 0.5640 0.5385
0.4210 0.6200 0.5620
0.6200 0.6655 0.5782
0.8222 0.7262 0.6193
0.8785 0.7262 0.6101
0.0731 0.4845 0.5045
0.0794 0.5050 0.5192
0.1150 0.5351 0.5227
0.2101 0.5852 0.5385
0.3760 0.6367 0.5543
0.5874 0.6896 0.5626
0.8065 0.7660 0.6179
0.8990 0.7821 0.6255
0.0353 0.0431 0.2305
0.0397 0.0431 0.2319
0.0814 0.0431 0.2550
0.1777 0.0431 0.2869
0.2894 0.0431 0.3070
0.3737 0.0471 0.3207
0.4305 0.0510 0.3315
0.4658 0.0549 0.3324
0.0383 0.0672 0.2506
0.0392 0.0471 0.2540
0.0530 0.0471 0.2629
0.1723 0.0471 0.3119
0.3237 0.0510 0.3423
0.4143 0.0515 0.3555
0.4736 0.0554 0.3613
0.4942 0.0628 0.3565
0.0392 0.1157 0.2913
0.0392 0.0878 0.2913
0.0392 0.0765 0.2844
0.0947 0.0726 0.3041
0.2974 0.0825 0.3639
0.4374 0.0893 0.3855
0.5040 0.0844 0.3883
0.5346 0.1007 0.3855
0.0431 0.1786 0.3433
0.0431 0.1742 0.3629
0.0431 0.1629 0.3566
0.0634 0.1801 0.3605
0.2682 0.2042 0.4184
0.4925 0.2311 0.4586
0.5747 0.2139 0.4516
0.6092 0.2236 0.4464
0.0431 0.2511 0.3972
0.0471 0.2796 0.4424
0.0491 0.2875 0.4483
0.0934 0.3294 0.4602
0.2888 0.4072 0.5131
0.5910 0.4674 0.5811
0.7002 0.4552 0.5767
0.7298 0.4346 0.5499
0.0510 0.3331 0.4551
0.0574 0.3938 0.5153
0.0752 0.4238 0.5276
0.1666 0.4720 0.5429
0.3874 0.5489 0.5886
0.5920 0.6018 0.6302
0.7615 0.6306 0.6591
0.8100 0.6140 0.6389
0.0627 0.4374 0.5158
0.0745 0.4868 0.5716
0.1167 0.5355 0.5914
0.2601 0.6013 0.6193
0.4779 0.6611 0.6542
0.6445 0.7027 0.6792
0.7855 0.7424 0.7111
0.8467 0.7306 0.6911
0.0745 0.4976 0.5477
0.0864 0.5222 0.5682
0.1436 0.5733 0.5914
0.2855 0.6410 0.6229
0.4778 0.7024 0.6551
0.6372 0.7424 0.6797
0.7576 0.7743 0.6954
0.8707 0.8065 0.7312
0.0392 0.0471 0.2545
0.0397 0.0471 0.2545
0.0879 0.0431 0.2830
0.2057 0.0486 0.3266
0.3174 0.0510 0.3447
0.3815 0.0510 0.3486
0.4339 0.0540 0.3569
0.4702 0.0549 0.3608
0.0392 0.0672 0.2750
0.0392 0.0554 0.2785
0.0555 0.0554 0.2869
0.1653 0.0569 0.3360
0.3316 0.0712 0.3786
0.4105 0.0668 0.3805
0.4584 0.0628 0.3805
0.4981 0.0628 0.3839
0.0392 0.1192 0.3192
0.0392 0.1007 0.3192
0.0431 0.0968 0.3189
0.0993 0.1033 0.3380
0.3010 0.1180 0.3997
0.4381 0.1209 0.4173
0.4959 0.1092 0.4173
0.5346 0.1013 0.4134
0.0431 0.1909 0.3776
0.0431 0.1846 0.3870
0.0481 0.1867 0.3930
0.0922 0.2233 0.4167
0.2887 0.2488 0.4663
0.4976 0.2625 0.4994
0.5769 0.2511 0.4955
0.6230 0.2429 0.4901
0.0471 0.2629 0.4330
0.0476 0.2807 0.4585
0.0589 0.3064 0.4763
0.1465 0.3777 0.5236
0.3235 0.4346 0.5678
0.5664 0.4639 0.6092
0.6803 0.4639 0.6131
0.7362 0.4542 0.6053
0.0510 0.3409 0.4874
0.0574 0.3767 0.5193
0.0836 0.4171 0.5414
0.2009 0.4951 0.5891
0.4132 0.5696 0.6450
0.5884 0.6019 0.6723
0.7262 0.6224 0.6949
0.8031 0.6229 0.6949
0.0588 0.4257 0.5360
0.0712 0.4580 0.5672
0.1200 0.5107 0.5933
0.2650 0.5847 0.6370
0.4625 0.6490 0.6827
0.6246 0.6906 0.7149
0.7416 0.7149 0.7390
0.8340 0.7346 0.7513
0.0706 0.4859 0.5721
0.0864 0.5182 0.6040
0.1480 0.5816 0.6320
0.3020 0.6548 0.6752
0.5051 0.7229 0.7229
0.6685 0.7668 0.7547
0.7777 0.7987 0.7796
0.8584 0.8188 0.7953
