All_In_One/Enrich_Colormaster/colormanagement/luts/film_response/Tetrachrome_400_FPE.cube
TITLE "ImpulZ LUT 32"
LUT_3D_SIZE 5
DOMAIN_MIN 0.000000 0.000000 0.000000
DOMAIN_MAX 0.903226 0.903226 0.903226
0.0314 0.0353 0.0353
0.1037 0.0471 0.0353
0.1996 0.0549 0.0392
0.2955 0.0510 0.0392
0.3953 0.0549 0.0431
0.0275 0.0715 0.0440
0.1682 0.1272 0.0392
0.3269 0.1508 0.0431
0.4315 0.1508 0.0471
0.5278 0.1595 0.0510
0.0314 0.1330 0.0549
0.2737 0.2798 0.0431
0.4951 0.3308 0.0549
0.6028 0.3374 0.0627
0.6948 0.3443 0.0724
0.0353 0.2065 0.0667
0.1227 0.3089 0.0458
0.4763 0.4284 0.0618
0.7322 0.5060 0.1007
0.8294 0.5073 0.1085
0.0392 0.2584 0.0706
0.0602 0.3142 0.0549
0.4008 0.4595 0.0606
0.7515 0.5893 0.1199
0.8427 0.5918 0.1333
0.0314 0.0392 0.0920
0.0793 0.0431 0.1107
0.1957 0.0549 0.0959
0.3160 0.0510 0.0880
0.4341 0.0545 0.1073
0.0314 0.0872 0.1194
0.1525 0.1517 0.1564
0.3317 0.1321 0.0833
0.4110 0.0998 0.0597
0.5108 0.1138 0.0750
0.0314 0.1595 0.1508
0.0588 0.2153 0.0950
0.5626 0.4071 0.1290
0.6673 0.3617 0.0880
0.7348 0.3553 0.1078
0.0353 0.2310 0.1568
0.0392 0.2623 0.0959
0.4453 0.4620 0.0723
0.8285 0.5866 0.1586
0.8837 0.5579 0.1487
0.0392 0.2907 0.1748
0.0471 0.3505 0.1785
0.4836 0.5427 0.1135
0.8559 0.6737 0.2006
0.9103 0.6668 0.1997
0.0314 0.0392 0.1547
0.0636 0.0392 0.1713
0.1992 0.0471 0.1957
0.3482 0.0471 0.2035
0.4580 0.0545 0.2345
0.0353 0.0950 0.1966
0.0480 0.0989 0.2214
0.3474 0.1312 0.2955
0.4385 0.0763 0.2328
0.5461 0.1186 0.2673
0.0353 0.1839 0.2602
0.0510 0.2650 0.3287
0.4676 0.4463 0.4189
0.6354 0.3687 0.2999
0.7083 0.3507 0.2958
0.0410 0.3069 0.3374
0.0528 0.3696 0.3500
0.2345 0.4441 0.3026
0.8037 0.6267 0.3836
0.8807 0.6251 0.4047
0.0489 0.3971 0.3853
0.0567 0.4276 0.3792
0.2073 0.5140 0.3536
0.7971 0.7069 0.4008
0.9172 0.7387 0.4473
0.0353 0.0431 0.2105
0.0676 0.0422 0.2284
0.2228 0.0431 0.2732
0.3857 0.0471 0.2994
0.4584 0.0510 0.3124
0.0392 0.1029 0.2623
0.0392 0.0715 0.2584
0.2158 0.0667 0.3160
0.4741 0.0854 0.3643
0.5256 0.0925 0.3561
0.0410 0.2035 0.3395
0.0431 0.2297 0.3845
0.1783 0.3108 0.4206
0.6267 0.3866 0.5099
0.6839 0.3437 0.4699
0.0510 0.3596 0.4498
0.0976 0.4795 0.5374
0.3471 0.5684 0.5666
0.7086 0.6694 0.6302
0.8372 0.6534 0.5985
0.0745 0.4886 0.5163
0.1090 0.5374 0.5386
0.3164 0.6329 0.5741
0.6421 0.7162 0.6011
0.8911 0.7874 0.6537
0.0392 0.0471 0.2545
0.0711 0.0431 0.2750
0.2655 0.0510 0.3404
0.3944 0.0510 0.3525
0.4702 0.0549 0.3608
0.0392 0.1037 0.3064
0.0401 0.0838 0.3064
0.2058 0.0921 0.3678
0.4481 0.0999 0.4062
0.5221 0.0864 0.4040
0.0431 0.2249 0.4031
0.0489 0.2399 0.4311
0.1783 0.3207 0.4879
0.5685 0.3585 0.5536
0.6787 0.3424 0.5436
0.0536 0.3648 0.5003
0.0789 0.4311 0.5504
0.3182 0.5598 0.6290
0.6312 0.6338 0.6899
0.8131 0.6564 0.7108
0.0706 0.4859 0.5721
0.1265 0.5653 0.6240
0.4013 0.6890 0.6990
0.7005 0.7748 0.7600
0.8584 0.8188 0.7953
