All_In_One/Enrich_Colormaster/colormanagement/luts/film_response/TheMatrices.cube
TITLE "Generate by Resolve"
LUT_3D_SIZE 33
0 0.0203403 0
0 0.0167697 0
0.00300603 0.0147555 0
0.0207065 0.0135958 0
0.0348821 0.0132906 0
0.0480659 0.0129854 0
0.0627451 0.0121004 0
0.0777752 0.011017 0
0.0919966 0.0102388 0
0.102419 0.0104677 0
0.108476 0.0117037 0
0.111589 0.0136873 0
0.112596 0.0163272 0
0.112505 0.0191196 0
0.112047 0.0220493 0
0.111971 0.0249332 0
0.112413 0.0276188 0
0.11371 0.0301823 0
0.115267 0.0325933 0
0.107225 0.0376593 0
0.0984512 0.043122 0
0.0901198 0.0484627 0
0.0842908 0.0532082 0
0.0817578 0.0571603 0
0.0794842 0.0610819 0
0.0774548 0.0651865 0
0.075639 0.0693675 0
0.0737316 0.0735027 0.00486763
0.0720378 0.0780957 0.0103609
0.0703136 0.0827344 0.0158389
0.0723278 0.0868391 0.0206149
0.0747692 0.0912184 0.0255894
0.0774701 0.0958724 0.0306706
0 0.0340276 0
0 0.0335241 0
0 0.0306401 0
0.018204 0.0280766 0
0.0338598 0.0266728 0
0.0476692 0.025742 0
0.0622721 0.0245365 0
0.0790723 0.0229038 0
0.0959335 0.0209659 0
0.10927 0.0199588 0
0.117754 0.0203098 0
0.122652 0.0217594 0
0.124849 0.0238499 0
0.12546 0.0265202 0
0.125216 0.0293278 0
0.12488 0.0321508 0
0.124987 0.0349126 0
0.12607 0.037644 0
0.127657 0.0400854 0
0.125597 0.0438544 0
0.117449 0.0492561 0
0.108812 0.0549477 0
0.101442 0.0605325 0
0.0957809 0.0658274 0
0.0927138 0.0705882 0
0.0906386 0.0753338 0.00181582
0.0890669 0.0802777 0.0078584
0.0874952 0.0854353 0.0138857
0.085832 0.090837 0.019852
0.0844434 0.0967117 0.025864
0.0842451 0.10309 0.0319219
0.0874342 0.10898 0.0373999
0.0907759 0.114961 0.0429694
0 0.0466316 0
0 0.0479286 0
0 0.0459754 0
0.0100404 0.0429541 0
0.0290837 0.0402838 0
0.0441901 0.0387884 0
0.058854 0.0373693 0
0.0757305 0.0352178 0
0.0943313 0.0326238 0
0.111437 0.0305486 0
0.123171 0.0299382 0
0.130663 0.0305028 0
0.134829 0.0321355 0
0.136767 0.0343481 0
0.137438 0.0370336 0
0.137758 0.0400092 0
0.138155 0.0429084 0
0.139071 0.0457923 0
0.141024 0.0487373 0
0.143664 0.0515602 0
0.13785 0.0568399 0
0.130373 0.0627604 0
0.123537 0.0688182 0
0.117632 0.0751049 0
0.112245 0.0811627 0.00317388
0.108019 0.087602 0.010605
0.106477 0.0935836 0.0171511
0.105333 0.100252 0.0240177
0.103838 0.107439 0.0307164
0.102312 0.115053 0.0373541
0.100801 0.123598 0.043946
0.102296 0.132021 0.0505379
0.106554 0.139925 0.057145
0 0.0579385 0
0 0.0601205 0
0 0.0597086 0
0.0015259 0.0573129 0
0.0217136 0.0545052 0
0.0390326 0.0523079 0
0.0538491 0.0506294 0
0.0698711 0.0486458 0
0.0887922 0.0458686 0
0.108995 0.0429084 0
0.125261 0.0411383 0
0.136431 0.0408179 0
0.143252 0.0417639 0
0.147112 0.0435035 0
0.149401 0.0460365 0
0.150576 0.0489509 0
0.151797 0.0521401 0
0.153033 0.0554208 0
0.155215 0.0586862 0
0.158251 0.062089 0
0.158755 0.0664988 0
0.152911 0.0729686 0
0.147814 0.0797742 0
0.143145 0.0869917 0.00288396
0.139178 0.0945449 0.0113069
0.135348 0.102358 0.0195163
0.131868 0.110765 0.0275425
0.129351 0.119951 0.0359045
0.127855 0.129473 0.0433967
0.126055 0.139361 0.0506752
0.125078 0.150317 0.0592203
0.124331 0.162173 0.068101
0.129412 0.17229 0.0759442
0 0.0681315 0
0 0.0711223 0
0 0.0721294 0
0 0.0711681 0
0.0130312 0.0687114 0
0.0320745 0.06598 0
0.0479896 0.0640726 0
0.0634623 0.0623331 0
0.0817273 0.059968 0
0.103151 0.0567941 0
0.1234 0.0539864 0
0.13875 0.0527047 0
0.14934 0.0529946 0
0.156313 0.0544137 0
0.160693 0.056733 0
0.163973 0.0598459 0
0.166537 0.0634012 0
0.169055 0.0672465 0
0.171878 0.0713359 0
0.175891 0.0756542 0
0.181064 0.0803082 0
0.178393 0.0874495 0
0.174884 0.0954147 0.00357061
0.171633 0.103731 0.0126192
0.168917 0.113024 0.0218204
0.166415 0.122652 0.0307927
0.164141 0.133532 0.0398566
0.162448 0.145159 0.0492866
0.160281 0.157214 0.0585336
0.158831 0.169528 0.068452
0.158389 0.18201 0.0781567
0.157656 0.194919 0.0876631
0.157794 0.208118 0.0969558
0 0.0776684 0
0 0.081529 0
0 0.0838941 0
0 0.0842756 0
0.00526436 0.0829633 0
0.0239719 0.080766 0
0.0415808 0.078645 0
0.0572518 0.0770733 0
0.0749065 0.0753033 0
0.0959793 0.0725872 0
0.11928 0.0692912 0
0.139391 0.067216 0
0.154025 0.0668345 0
0.164782 0.0679789 0
0.172427 0.0703899 0
0.178119 0.0737011 0
0.182925 0.0779278 0
0.187106 0.0827192 0
0.191501 0.0879225 0
0.196719 0.0937514 0
0.202914 0.100145 0
0.206455 0.107805 0.00614939
0.204562 0.11725 0.0160067
0.203067 0.127932 0.0261234
0.202121 0.139651 0.0363622
0.201663 0.15201 0.0467842
0.200992 0.164279 0.0568551
0.200443 0.176944 0.0670024
0.199359 0.189548 0.0772259
0.198001 0.202564 0.0878004
0.196231 0.21593 0.0981155
0.195773 0.229603 0.107927
0.194263 0.242771 0.117021
0 0.08748 0
0 0.0923476 0
0 0.0958114 0
0 0.0975967 0
0 0.0976425 0
0.0150912 0.0965286 0
0.033753 0.0948196 0
0.05066 0.0935378 0
0.067689 0.0922713 0
0.0883192 0.0903182 0
0.113161 0.08748 0
0.137865 0.0849775 0
0.158038 0.0844434 0
0.173754 0.0858473 0
0.185504 0.0886549 0
0.194308 0.0926223 0
0.201678 0.0978866 0
0.208209 0.104067 0
0.214298 0.110857 0
0.221134 0.118608 0.000961318
0.228031 0.12694 0.0113527
0.236027 0.136034 0.0216831
0.236408 0.147356 0.0323644
0.236637 0.159472 0.0431373
0.237324 0.172351 0.0542306
0.237613 0.184848 0.0646982
0.237919 0.197482 0.0751354
0.238163 0.210254 0.085832
0.237659 0.222934 0.096376
0.2374 0.236423 0.107088
0.236271 0.249836 0.117281
0.234134 0.263569 0.127214
0.233112 0.277043 0.136736
0 0.0979782 0
0 0.103746 0
0 0.108537 0
0 0.111864 0
0 0.113588 0
0.00766003 0.114214 0
0.0252842 0.113954 0
0.0425574 0.113527 0
0.0601053 0.113237 0
0.0802167 0.112551 0
0.105806 0.110628 0
0.135378 0.108476 0
0.161059 0.10779 0
0.181689 0.109529 0
0.198108 0.11313 0
0.210742 0.118166 0
0.221408 0.124971 0
0.230991 0.133333 0
0.239597 0.142245 0.00585946
0.247776 0.151598 0.0176699
0.25626 0.161349 0.0292363
0.265034 0.171176 0.0402228
0.269627 0.182467 0.0510872
0.271092 0.194965 0.0622873
0.272541 0.207416 0.0732128
0.273777 0.219913 0.0838788
0.274815 0.232532 0.0944228
0.275654 0.245212 0.105562
0.276249 0.258259 0.116106
0.276478 0.271427 0.126452
0.275898 0.284825 0.136461
0.274617 0.29839 0.146609
0.27274 0.312093 0.156649
0 0.109636 0
0 0.116213 0
0 0.122286 0
0 0.127275 0
0 0.131106 0
0.00389105 0.133639 0
0.0198367 0.135439 0
0.0368658 0.137011 0
0.0541238 0.138506 0
0.0739605 0.139971 0
0.0997635 0.14049 0
0.131533 0.13962 0
0.162875 0.139574 0
0.189563 0.142184 0
0.211322 0.146944 0
0.228946 0.153017 0
0.243565 0.16083 0
0.255238 0.169284 0.0109712
0.26537 0.178164 0.0235447
0.274891 0.187625 0.0357977
0.284398 0.197665 0.0478676
0.293446 0.207752 0.0591592
0.300923 0.218357 0.0700084
0.303471 0.230518 0.0811627
0.305684 0.242893 0.0920577
0.30808 0.255238 0.102846
0.30988 0.267781 0.11397
0.312016 0.280858 0.125246
0.312963 0.2934 0.135225
0.313893 0.306233 0.145312
0.314107 0.319448 0.155306
0.313451 0.332921 0.165637
0.3122 0.346838 0.176333
0 0.12343 0
0 0.131151 0
0 0.138811 0
0 0.146197 0
0 0.152071 0
0.00560006 0.157061 0
0.0199741 0.161273 0
0.036286 0.164981 0
0.0537118 0.168811 0
0.0737469 0.173068 0
0.0984207 0.176364 0
0.131319 0.177874 0
0.166766 0.178943 0
0.198184 0.181613 0
0.224857 0.186419 0
0.246326 0.191928 0.00247196
0.263935 0.199069 0.0161288
0.278614 0.207263 0.0294652
0.29102 0.216144 0.0424964
0.302068 0.225681 0.0551614
0.31252 0.235767 0.0675212
0.32221 0.24564 0.0789044
0.331075 0.255833 0.0895399
0.33492 0.267811 0.100679
0.338491 0.279881 0.111803
0.341604 0.292256 0.123033
0.344594 0.304814 0.134188
0.347189 0.317311 0.144732
0.349355 0.329931 0.154833
0.350774 0.342382 0.164599
0.351751 0.355261 0.174655
0.35198 0.368597 0.185183
0.351766 0.38201 0.195819
0.00650034 0.140063 0
0.00247196 0.149554 0
0.000427253 0.159045 0
0.00177005 0.168383 0
0.00636301 0.176822 0
0.0150912 0.184604 0
0.0287175 0.191928 0
0.0448157 0.199573 0
0.0621042 0.206302 0
0.0812238 0.212375 0
0.104112 0.217685 0
0.134051 0.220981 0
0.170657 0.222477 0
0.205798 0.225055 0
0.236149 0.228534 0.00796521
0.261173 0.233295 0.0215763
0.281926 0.239506 0.0351263
0.29958 0.247166 0.0486305
0.314473 0.255589 0.061799
0.327184 0.264698 0.0746166
0.338628 0.274037 0.0867628
0.349599 0.284398 0.098497
0.359106 0.294224 0.109041
0.364385 0.305791 0.120317
0.368963 0.317708 0.131502
0.373358 0.330053 0.143069
0.37702 0.342046 0.153674
0.380377 0.354223 0.163821
0.383383 0.366552 0.173724
0.385946 0.378927 0.183825
0.388022 0.391943 0.194202
0.388922 0.404623 0.204746
0.390234 0.417182 0.215106
0.0242924 0.161898 0
0.0209659 0.173251 0
0.0196536 0.184924 0
0.0214542 0.196857 0
0.0259861 0.207645 0
0.0342412 0.217762 0
0.0462959 0.227787 0
0.0601205 0.23682 0
0.0757305 0.245029 0
0.0933089 0.252354 0
0.113741 0.258793 0
0.13994 0.26363 0
0.174884 0.266423 0.000442512
0.210971 0.268421 0.0137484
0.243839 0.271366 0.0273594
0.271992 0.275502 0.0407874
0.296025 0.281056 0.0542611
0.316976 0.288243 0.0679789
0.334401 0.295857 0.0810559
0.349157 0.304326 0.0936599
0.362325 0.313436 0.105852
0.374258 0.322972 0.117525
0.384527 0.333028 0.128389
0.391043 0.34464 0.13994
0.396796 0.355917 0.151507
0.401541 0.367376 0.162036
0.406241 0.379049 0.172427
0.410697 0.390951 0.182498
0.414847 0.403143 0.192538
0.418418 0.415595 0.202869
0.421286 0.428016 0.213443
0.424414 0.439963 0.223392
0.426474 0.452064 0.233661
0.0483253 0.189349 0
0.0470283 0.202731 0
0.0466163 0.216266 0
0.0483253 0.229541 0
0.0521553 0.242267 0
0.0589151 0.25417 0
0.0681926 0.265095 0
0.0798505 0.275181 0
0.0934157 0.284428 0
0.109071 0.292699 0
0.127718 0.300481 0
0.150912 0.306554 0.0110933
0.182498 0.310109 0.0234073
0.217807 0.312612 0.0358434
0.251865 0.315373 0.0488289
0.282673 0.319036 0.0619211
0.309529 0.324376 0.075288
0.332723 0.330205 0.088304
0.352422 0.33727 0.101091
0.36939 0.345083 0.113512
0.38439 0.353521 0.125612
0.397543 0.362631 0.137102
0.408469 0.373007 0.14847
0.416022 0.383688 0.160357
0.422782 0.394644 0.171481
0.428824 0.405798 0.181888
0.434485 0.41706 0.191974
0.439643 0.428565 0.201907
0.444511 0.440375 0.2121
0.448936 0.451789 0.221744
0.453895 0.463523 0.231495
0.457984 0.475242 0.241825
0.460899 0.486778 0.252262
0.0766918 0.222644 0.0129549
0.076051 0.236713 0.0105287
0.0757 0.250462 0.00720226
0.0771038 0.264729 0.00440986
0.0796979 0.277577 0.00163272
0.084535 0.289845 0.000137331
0.0919203 0.301595 0.000610361
0.101747 0.312718 0.00358587
0.113466 0.32256 0.00877394
0.127825 0.332174 0.0166934
0.144289 0.340352 0.0261692
0.164797 0.347387 0.0369421
0.193149 0.352026 0.0480659
0.226932 0.355123 0.0594034
0.260838 0.358144 0.071397
0.293111 0.362325 0.0842603
0.321691 0.366751 0.0966812
0.346868 0.372259 0.109285
0.368917 0.378729 0.121889
0.388052 0.386007 0.133898
0.40502 0.394324 0.146059
0.419425 0.402884 0.157229
0.430335 0.412467 0.16907
0.439094 0.42269 0.180682
0.44683 0.433234 0.191379
0.453773 0.443946 0.201526
0.460533 0.455146 0.211673
0.466728 0.465904 0.221027
0.473045 0.4766 0.230106
0.478676 0.487358 0.239292
0.484138 0.498634 0.249226
0.488655 0.509651 0.259297
0.49247 0.521004 0.270558
0.105943 0.256718 0.0462196
0.105531 0.270954 0.0446784
0.105669 0.285679 0.0426337
0.106325 0.299794 0.0399329
0.108248 0.313161 0.0373846
0.112139 0.326253 0.0359655
0.118196 0.338628 0.0360571
0.126467 0.350454 0.0381476
0.13698 0.361364 0.042359
0.149493 0.371267 0.0484169
0.164889 0.38024 0.0565194
0.183383 0.387732 0.0654917
0.208469 0.393469 0.0750896
0.240314 0.397513 0.0852216
0.272938 0.401114 0.0962234
0.304875 0.404654 0.107607
0.334066 0.408896 0.119219
0.360418 0.41387 0.131029
0.383948 0.419654 0.14287
0.40499 0.426596 0.154894
0.423713 0.43447 0.166659
0.439429 0.442863 0.178454
0.450843 0.452064 0.19028
0.460655 0.461677 0.201266
0.469337 0.471641 0.211566
0.478019 0.482124 0.221118
0.486 0.492134 0.229938
0.493019 0.502251 0.238621
0.499733 0.512322 0.247608
0.506172 0.522927 0.257115
0.511925 0.53341 0.266865
0.517113 0.543893 0.27747
0.520974 0.55404 0.288243
0.137072 0.291997 0.0801404
0.136919 0.306676 0.0797742
0.136553 0.321157 0.0781262
0.13698 0.33547 0.0760967
0.13843 0.349279 0.0740215
0.141299 0.362478 0.0724041
0.146319 0.375463 0.0722667
0.153445 0.387869 0.0737163
0.16257 0.399084 0.0767071
0.173877 0.409384 0.0814527
0.187732 0.41883 0.0878614
0.205219 0.4271 0.095552
0.228534 0.433814 0.103899
0.257664 0.438605 0.112718
0.288045 0.442573 0.122179
0.318441 0.446281 0.132235
0.347707 0.450248 0.142779
0.374792 0.455222 0.153948
0.399558 0.460838 0.16524
0.421363 0.466865 0.176242
0.44065 0.473548 0.187381
0.457298 0.481926 0.199939
0.469841 0.490684 0.211139
0.481147 0.499947 0.220874
0.491585 0.509224 0.229908
0.500679 0.518791 0.238697
0.509239 0.528191 0.247257
0.516732 0.537758 0.255955
0.52372 0.54725 0.264668
0.531014 0.557534 0.274571
0.537179 0.56733 0.284367
0.542351 0.576867 0.294652
0.547036 0.586297 0.306081
0.168353 0.327245 0.112505
0.168872 0.341253 0.113024
0.168811 0.35555 0.112581
0.168734 0.370031 0.111269
0.169726 0.384192 0.109834
0.172335 0.398291 0.108904
0.176135 0.411353 0.108248
0.181933 0.423423 0.108766
0.189975 0.434958 0.110842
0.200565 0.446174 0.114809
0.213916 0.456077 0.120012
0.23061 0.464988 0.12636
0.251652 0.472145 0.133181
0.277592 0.477607 0.140566
0.305806 0.482261 0.148623
0.33463 0.486534 0.157244
0.363455 0.490867 0.166842
0.390341 0.495628 0.177356
0.415137 0.500664 0.187869
0.437385 0.506279 0.198566
0.457298 0.512383 0.209674
0.474189 0.519646 0.220356
0.489036 0.528313 0.229786
0.501274 0.536751 0.238621
0.511803 0.545327 0.247211
0.521431 0.554177 0.255741
0.530205 0.56318 0.264347
0.538628 0.572259 0.27303
0.546746 0.582101 0.282567
0.553613 0.591028 0.291783
0.559762 0.599893 0.301625
0.565484 0.608835 0.312215
0.570581 0.617929 0.324071
0.203296 0.362387 0.14432
0.202976 0.376425 0.145647
0.202686 0.390707 0.146059
0.202899 0.404883 0.146044
0.204135 0.419379 0.145785
0.205585 0.43328 0.144289
0.208621 0.446525 0.143679
0.213779 0.458991 0.144045
0.220874 0.47071 0.145373
0.230457 0.481682 0.148104
0.243229 0.491859 0.152163
0.258595 0.500648 0.156985
0.277409 0.508736 0.16231
0.300298 0.515267 0.1682
0.32607 0.520516 0.174853
0.353246 0.525292 0.182513
0.380789 0.529793 0.191196
0.40676 0.534142 0.200687
0.431067 0.538811 0.211215
0.453513 0.543999 0.221134
0.474144 0.550011 0.229999
0.4925 0.557427 0.239277
0.50724 0.564538 0.247669
0.5196 0.572213 0.256123
0.530526 0.580301 0.264393
0.540658 0.588769 0.273075
0.549981 0.597177 0.281727
0.559182 0.606363 0.290883
0.566537 0.614786 0.299504
0.573709 0.623102 0.309148
0.580346 0.63154 0.31928
0.586694 0.64036 0.330877
0.592371 0.64921 0.343709
0.242542 0.396201 0.173663
0.241779 0.410574 0.17557
0.240803 0.424949 0.176761
0.240452 0.439628 0.177569
0.240223 0.453483 0.1776
0.241382 0.46714 0.177661
0.243793 0.480369 0.177646
0.248341 0.492897 0.177981
0.255207 0.505104 0.179248
0.263752 0.516045 0.180682
0.274632 0.526131 0.183032
0.288151 0.535271 0.186343
0.304784 0.54374 0.190646
0.325185 0.550896 0.195727
0.348898 0.55671 0.201617
0.373526 0.561578 0.208377
0.399176 0.566171 0.216266
0.424308 0.570642 0.224781
0.447807 0.575174 0.23357
0.469932 0.580316 0.240818
0.491279 0.58674 0.249226
0.5093 0.59266 0.257359
0.524102 0.599329 0.265446
0.536843 0.606424 0.273426
0.548394 0.61413 0.282017
0.559472 0.62266 0.291005
0.568582 0.630686 0.299626
0.577142 0.638437 0.308248
0.584833 0.646189 0.317449
0.592142 0.654337 0.327306
0.599542 0.662837 0.338613
0.605783 0.670726 0.350652
0.611124 0.678355 0.363821
0.285313 0.428046 0.201022
0.282902 0.442924 0.204303
0.280827 0.457603 0.206577
0.280339 0.47245 0.207614
0.279789 0.486534 0.207874
0.280079 0.500221 0.208072
0.281575 0.51339 0.208133
0.285512 0.526268 0.208911
0.290883 0.538079 0.209812
0.298131 0.549065 0.211292
0.307469 0.559197 0.213306
0.319036 0.568429 0.216037
0.333928 0.577539 0.219837
0.351965 0.58497 0.224155
0.373007 0.590723 0.228687
0.395361 0.59585 0.23415
0.419181 0.60061 0.240604
0.442741 0.605158 0.247379
0.465629 0.610224 0.25362
0.487984 0.615763 0.260807
0.507866 0.620768 0.267872
0.525353 0.626352 0.275425
0.540352 0.632624 0.283268
0.553811 0.639704 0.291783
0.566155 0.647456 0.300496
0.57615 0.654536 0.308965
0.585214 0.661784 0.317464
0.593957 0.669429 0.326955
0.602747 0.677333 0.337118
0.609705 0.684596 0.347311
0.616175 0.691752 0.358465
0.622522 0.69897 0.371237
0.628565 0.706416 0.38497
0.331106 0.459953 0.232273
0.32752 0.474693 0.234897
0.32372 0.489281 0.236622
0.32079 0.503685 0.237949
0.319509 0.51841 0.238956
0.319173 0.532021 0.238499
0.320592 0.545296 0.238483
0.322988 0.557733 0.238499
0.327123 0.569436 0.238926
0.332891 0.580468 0.239933
0.340764 0.590646 0.241505
0.351278 0.600366 0.243992
0.364157 0.609415 0.247105
0.379843 0.616587 0.25037
0.398489 0.62269 0.254124
0.418967 0.628016 0.258671
0.440558 0.633265 0.263416
0.463172 0.638392 0.268452
0.484749 0.643656 0.274052
0.505348 0.64831 0.28014
0.524651 0.653117 0.286824
0.54197 0.658488 0.294209
0.557626 0.665156 0.302586
0.570657 0.671641 0.310811
0.581994 0.678096 0.319112
0.592081 0.684779 0.327871
0.601984 0.69221 0.337453
0.609934 0.698756 0.346685
0.617578 0.705348 0.356756
0.625986 0.712932 0.368826
0.63183 0.719005 0.380209
0.637171 0.72459 0.391577
0.642863 0.730983 0.404303
0.376989 0.489708 0.268223
0.372015 0.504479 0.269902
0.367254 0.519112 0.27068
0.363287 0.533822 0.27097
0.360479 0.548562 0.271
0.35845 0.562219 0.270573
0.357961 0.575174 0.269917
0.359655 0.587503 0.26891
0.362829 0.599283 0.268589
0.367575 0.610117 0.268727
0.375204 0.621149 0.270222
0.384039 0.630655 0.271809
0.394797 0.639063 0.273747
0.408423 0.646403 0.276005
0.425193 0.652827 0.278813
0.444266 0.658976 0.281804
0.464683 0.664897 0.28574
0.484886 0.669581 0.289845
0.504891 0.674083 0.294606
0.524483 0.678782 0.300435
0.543755 0.684306 0.307454
0.56025 0.689265 0.314549
0.574624 0.694896 0.322499
0.586938 0.70042 0.330434
0.59852 0.707256 0.339635
0.608286 0.713146 0.348608
0.616907 0.719051 0.357977
0.625574 0.725841 0.368643
0.632212 0.730953 0.378561
0.638636 0.736339 0.389151
0.644877 0.741939 0.40032
0.649973 0.747189 0.411307
0.655283 0.752407 0.422827
0.42266 0.517845 0.312413
0.416327 0.532555 0.312993
0.410559 0.547585 0.312581
0.405829 0.562615 0.311574
0.401266 0.576837 0.309224
0.397833 0.590387 0.306294
0.39617 0.603265 0.303517
0.396277 0.615869 0.301778
0.398184 0.62742 0.300191
0.40267 0.639078 0.299977
0.408392 0.649302 0.299733
0.415763 0.658564 0.299718
0.425422 0.667002 0.300221
0.43801 0.674647 0.301427
0.453956 0.682185 0.303365
0.471015 0.687968 0.30544
0.489113 0.69308 0.308217
0.507942 0.697795 0.311742
0.527581 0.703273 0.316945
0.545693 0.707561 0.322362
0.562997 0.712032 0.328603
0.578866 0.716808 0.335912
0.592844 0.722423 0.344244
0.604273 0.727291 0.352285
0.614176 0.732357 0.361074
0.623316 0.737667 0.370077
0.63093 0.742519 0.37966
0.63888 0.748119 0.390463
0.644892 0.75256 0.400076
0.651423 0.757702 0.410819
0.656397 0.761639 0.420035
0.661768 0.76669 0.430503
0.666087 0.770718 0.440909
0.467735 0.544305 0.358541
0.460304 0.55906 0.358495
0.453681 0.574304 0.357748
0.447166 0.588952 0.355444
0.441108 0.603067 0.351827
0.436316 0.616678 0.347799
0.433402 0.629725 0.343465
0.432746 0.642267 0.33959
0.434379 0.654734 0.336782
0.437034 0.665537 0.333471
0.441535 0.675547 0.330831
0.44799 0.684703 0.329458
0.456916 0.693782 0.328908
0.468711 0.701869 0.328847
0.48275 0.70837 0.329229
0.497963 0.714015 0.33022
0.515251 0.719814 0.332753
0.532601 0.724346 0.335744
0.549676 0.728573 0.339666
0.567193 0.73341 0.345434
0.582879 0.737636 0.3514
0.59675 0.741054 0.35787
0.609476 0.745708 0.366094
0.619577 0.749599 0.374014
0.628733 0.753887 0.383154
0.637186 0.758724 0.392966
0.644343 0.762951 0.402304
0.650828 0.767025 0.411673
0.656825 0.771328 0.421073
0.662257 0.775357 0.430396
0.667872 0.779828 0.44033
0.672129 0.783215 0.449073
0.676738 0.787488 0.458885
0.512001 0.569757 0.404593
0.504356 0.58497 0.404791
0.495583 0.599512 0.402441
0.487541 0.613764 0.399145
0.48043 0.62771 0.394781
0.474708 0.641566 0.390448
0.471824 0.655253 0.386175
0.469642 0.667628 0.381476
0.469352 0.678996 0.376608
0.470909 0.689677 0.372015
0.475425 0.700603 0.369024
0.481025 0.709865 0.365591
0.48867 0.71841 0.362737
0.498451 0.725582 0.359747
0.511589 0.732723 0.358541
0.525444 0.738399 0.358221
0.540291 0.743084 0.358862
0.556832 0.748104 0.361715
0.571588 0.751537 0.36434
0.58616 0.754788 0.368307
0.600595 0.758709 0.374105
0.613199 0.761807 0.380804
0.624475 0.765698 0.388937
0.633524 0.768902 0.396979
0.642359 0.772992 0.406027
0.649287 0.77644 0.414649
0.656153 0.78056 0.423728
0.661799 0.783993 0.432166
0.667582 0.78761 0.44097
0.672816 0.791485 0.449836
0.677485 0.794888 0.458396
0.682185 0.798733 0.467521
0.685878 0.801801 0.476005
0.556176 0.593912 0.451575
0.546395 0.608362 0.45005
0.536797 0.622782 0.44712
0.527855 0.637079 0.443336
0.520195 0.651667 0.438895
0.513817 0.665583 0.434058
0.508583 0.67834 0.428138
0.505455 0.690364 0.422583
0.504875 0.70222 0.417655
0.505745 0.713008 0.412573
0.50808 0.722652 0.407507
0.512596 0.731838 0.403235
0.519371 0.740856 0.399496
0.527718 0.747677 0.394965
0.538018 0.753414 0.390753
0.55053 0.758923 0.38851
0.563226 0.763027 0.387091
0.577844 0.767666 0.388235
0.590982 0.770642 0.389853
0.60444 0.774289 0.393637
0.616556 0.776486 0.397986
0.628428 0.779919 0.404776
0.638132 0.782528 0.411841
0.64715 0.786282 0.419989
0.653941 0.788891 0.427253
0.661067 0.792554 0.435721
0.666911 0.79556 0.443687
0.672694 0.798993 0.451865
0.678294 0.802838 0.46067
0.682673 0.805661 0.468284
0.687099 0.808865 0.476463
0.691524 0.812085 0.484688
0.694743 0.815045 0.492805
0.599115 0.61593 0.497749
0.588281 0.630243 0.495583
0.577935 0.644831 0.492287
0.568582 0.659648 0.488396
0.559335 0.673777 0.483253
0.5514 0.6869 0.476783
0.545693 0.69987 0.470497
0.541726 0.711955 0.464073
0.538994 0.722957 0.457374
0.538781 0.733547 0.451408
0.540352 0.74342 0.445701
0.542458 0.751415 0.438819
0.547326 0.759518 0.433158
0.55375 0.765805 0.426886
0.56257 0.771374 0.421637
0.573373 0.776593 0.41828
0.584482 0.780346 0.415351
0.59675 0.783886 0.414466
0.608499 0.786816 0.415122
0.620264 0.789929 0.417807
0.631724 0.792584 0.421912
0.641764 0.795087 0.427146
0.65127 0.798138 0.434089
0.658717 0.800748 0.440772
0.665721 0.803784 0.448249
0.672053 0.806775 0.455848
0.67744 0.8094 0.46305
0.682902 0.812818 0.471077
0.687373 0.815473 0.478309
0.691875 0.818463 0.485985
0.696437 0.821698 0.49395
0.699855 0.824201 0.501228
0.703456 0.827222 0.509209
0.641978 0.637201 0.544259
0.63061 0.651728 0.541894
0.619196 0.66598 0.537896
0.607691 0.679683 0.53225
0.597498 0.693828 0.526146
0.588724 0.707103 0.519203
0.580926 0.719173 0.51136
0.576074 0.731197 0.504005
0.571542 0.741482 0.495567
