All_In_One/Enrich_Colormaster/colormanagement/luts/film_response/TheMatrices.cube
TITLE "Generate by Resolve"
LUT_3D_SIZE 5
0 0.0203403 0
0.0919966 0.0102388 0
0.112413 0.0276188 0
0.0794842 0.0610819 0
0.0774701 0.0958724 0.0306706
0 0.109636 0
0.0541238 0.138506 0
0.243565 0.16083 0
0.305684 0.242893 0.0920577
0.3122 0.346838 0.176333
0.168353 0.327245 0.112505
0.189975 0.434958 0.110842
0.363455 0.490867 0.166842
0.511803 0.545327 0.247211
0.570581 0.617929 0.324071
0.512001 0.569757 0.404593
0.469352 0.678996 0.376608
0.540291 0.743084 0.358862
0.642359 0.772992 0.406027
0.685878 0.801801 0.476005
0.819669 0.711574 0.737377
0.697612 0.800229 0.642222
0.683711 0.848936 0.553475
0.724788 0.868925 0.555779
0.752575 0.888685 0.604089
0 0.0185855 0
0.0154726 0.0271763 0.0507515
0.0693675 0.0383307 0.0436408
0.078706 0.0638437 0.0586252
0.0658122 0.10898 0.0937819
0.0609293 0.08542 0.0420081
0.070161 0.136034 0.0755169
0.332692 0.153597 0.103334
0.335866 0.258 0.181537
0.362142 0.354574 0.285435
0.316609 0.306416 0.190768
0.213916 0.451698 0.190509
0.384268 0.512886 0.188571
0.575723 0.551736 0.277089
0.62565 0.622858 0.380468
0.655528 0.543725 0.514855
0.555093 0.666224 0.512078
0.525292 0.76257 0.399252
0.650645 0.781155 0.423911
0.705837 0.803616 0.492897
0.943206 0.680034 0.797986
0.782071 0.773251 0.757595
0.680613 0.850599 0.616114
0.721386 0.873472 0.581155
0.758862 0.891478 0.622354
0 0.0265507 0
0 0.0510567 0.00877394
0.0178531 0.0596933 0.065095
0.041886 0.08336 0.0874189
0.0357061 0.136553 0.101915
0.100175 0.0852827 0.0518044
0.087541 0.153445 0.100908
0.197101 0.211749 0.295872
0.288563 0.29221 0.361715
0.325963 0.388815 0.428382
0.434089 0.299702 0.249821
0.37557 0.421424 0.367941
0.389532 0.518791 0.468711
0.680735 0.530831 0.492363
0.708751 0.608194 0.575067
0.778286 0.53344 0.528756
0.7149 0.633906 0.611139
0.516838 0.769329 0.547051
0.650736 0.790036 0.443061
0.744884 0.798566 0.51017
1 0.663706 0.746487
0.930541 0.733532 0.801999
0.697826 0.843397 0.716609
0.69015 0.889357 0.567559
0.758007 0.900374 0.592096
0 0.0357977 0
0 0.0611124 0
0 0.0810712 0.0252842
0 0.116274 0.0404822
0 0.180743 0.0475166
0.118944 0.0990616 0.0255436
0.105608 0.183841 0.0465705
0.134112 0.278553 0.143236
0.196506 0.362524 0.279789
0.253422 0.452873 0.363394
0.518746 0.313512 0.216587
0.485237 0.430762 0.296681
0.436332 0.541451 0.45507
0.574472 0.582757 0.646586
0.661189 0.641962 0.699458
0.884794 0.536355 0.470939
0.817121 0.634195 0.55964
0.650278 0.741085 0.654963
0.639765 0.787274 0.707652
0.801358 0.778103 0.711986
1 0.658717 0.636469
1 0.729213 0.708797
0.814878 0.814832 0.771023
0.67834 0.889967 0.734707
0.752209 0.905074 0.68632
0 0.0439765 0
0 0.0732738 0
0 0.101946 0
0 0.145251 0
0 0.219196 0.0234226
0.163027 0.110384 0
0.127657 0.213428 0.0396124
0.138918 0.31664 0.117128
0.186725 0.408865 0.21886
0.238209 0.498451 0.309606
0.589532 0.332189 0.195239
0.533562 0.456016 0.25417
0.47454 0.571618 0.360021
0.516014 0.639261 0.554467
0.583352 0.696925 0.641413
0.959381 0.547463 0.425116
0.861738 0.648829 0.509316
0.721141 0.742962 0.588556
0.661524 0.796109 0.70605
0.743557 0.802563 0.793118
1 0.659876 0.570306
1 0.73724 0.644434
0.88246 0.811872 0.705928
0.753429 0.877317 0.767422
0.75407 0.908949 0.803052
