All_In_One/Enrich_Colormaster/colormanagement/luts/film_response/TheMatrices.cube
TITLE "Generate by Resolve"
LUT_3D_SIZE 9
0 0.0203403 0
0.0348821 0.0132906 0
0.0919966 0.0102388 0
0.112596 0.0163272 0
0.112413 0.0276188 0
0.0984512 0.043122 0
0.0794842 0.0610819 0
0.0720378 0.0780957 0.0103609
0.0774701 0.0958724 0.0306706
0 0.0681315 0
0.0130312 0.0687114 0
0.0817273 0.059968 0
0.14934 0.0529946 0
0.166537 0.0634012 0
0.181064 0.0803082 0
0.168917 0.113024 0.0218204
0.160281 0.157214 0.0585336
0.157794 0.208118 0.0969558
0 0.109636 0
0 0.131106 0
0.0541238 0.138506 0
0.162875 0.139574 0
0.243565 0.16083 0
0.284398 0.197665 0.0478676
0.305684 0.242893 0.0920577
0.312963 0.2934 0.135225
0.3122 0.346838 0.176333
0.0483253 0.189349 0
0.0521553 0.242267 0
0.0934157 0.284428 0
0.182498 0.310109 0.0234073
0.309529 0.324376 0.075288
0.38439 0.353521 0.125612
0.422782 0.394644 0.171481
0.444511 0.440375 0.2121
0.460899 0.486778 0.252262
0.168353 0.327245 0.112505
0.169726 0.384192 0.109834
0.189975 0.434958 0.110842
0.251652 0.472145 0.133181
0.363455 0.490867 0.166842
0.457298 0.512383 0.209674
0.511803 0.545327 0.247211
0.546746 0.582101 0.282567
0.570581 0.617929 0.324071
0.331106 0.459953 0.232273
0.319509 0.51841 0.238956
0.327123 0.569436 0.238926
0.364157 0.609415 0.247105
0.440558 0.633265 0.263416
0.524651 0.653117 0.286824
0.581994 0.678096 0.319112
0.617578 0.705348 0.356756
0.642863 0.730983 0.404303
0.512001 0.569757 0.404593
0.48043 0.62771 0.394781
0.469352 0.678996 0.376608
0.48867 0.71841 0.362737
0.540291 0.743084 0.358862
0.600595 0.758709 0.374105
0.642359 0.772992 0.406027
0.667582 0.78761 0.44097
0.685878 0.801801 0.476005
0.683314 0.65626 0.58938
0.633143 0.711284 0.566491
0.600763 0.756863 0.529717
0.595911 0.788998 0.49276
0.621363 0.808103 0.465766
0.658595 0.81912 0.465278
0.68658 0.828367 0.486259
0.705455 0.838941 0.512886
0.719966 0.849149 0.541009
0.819669 0.711574 0.737377
0.749157 0.759793 0.695399
0.697612 0.800229 0.642222
0.675883 0.829969 0.591745
0.683711 0.848936 0.553475
0.705486 0.859754 0.541955
0.724788 0.868925 0.555779
0.740093 0.878401 0.578317
0.752575 0.888685 0.604089
0 0.0172427 0
0 0.0183871 0.00578317
0.0683909 0.012604 0
0.100343 0.0173342 0
0.0995804 0.0303502 0
0.105364 0.0413672 0.002533
0.0840314 0.0607614 0.0228885
0.0733196 0.0800183 0.0440375
0.0717021 0.101976 0.0632029
0 0.0540932 0
0.0101625 0.0620584 0
0.100511 0.0504616 0
0.178119 0.0437934 0
0.181445 0.0604868 0.000915541
0.181033 0.0842451 0.0284428
0.198535 0.112139 0.0580301
0.204105 0.155856 0.0925154
0.194202 0.209369 0.128893
0.0237888 0.0959029 0
0.00222782 0.126436 0
0.0608988 0.14052 0
0.212879 0.133333 0
0.289998 0.15787 0.0367285
0.309483 0.202213 0.0846265
0.328984 0.249012 0.126741
0.354467 0.294774 0.162661
0.372534 0.342428 0.201877
0.086656 0.185977 0.0423743
0.0705425 0.245823 0.0269932
0.0909133 0.297185 0.0104524
0.193683 0.320623 0.0439765
0.349737 0.326223 0.0944991
0.419272 0.35758 0.148669
0.452842 0.399924 0.192844
0.481697 0.44332 0.230564
0.508415 0.485939 0.272145
0.232609 0.320027 0.155367
0.199313 0.387182 0.154559
0.19266 0.447669 0.137102
0.244251 0.489204 0.144015
0.374456 0.502251 0.174258
0.483009 0.518868 0.219837
0.53875 0.550271 0.2598
0.575418 0.585489 0.296986
0.604868 0.619379 0.341192
0.397848 0.449683 0.296208
0.37789 0.511101 0.296208
0.349798 0.574609 0.270161
0.365209 0.621653 0.262455
0.438605 0.646281 0.272847
0.5337 0.661707 0.299275
0.596414 0.683833 0.335088
0.635004 0.709697 0.376562
0.661875 0.73167 0.421805
0.577554 0.557778 0.47068
0.533532 0.618418 0.471153
0.503243 0.675471 0.442252
0.498619 0.722454 0.406577
0.539956 0.751003 0.389807
0.601572 0.763668 0.400397
0.64683 0.775586 0.430274
0.67512 0.788998 0.464591
0.695232 0.801068 0.50454
0.746303 0.643381 0.644022
0.680934 0.700664 0.631113
0.631189 0.750011 0.594583
0.607111 0.787976 0.543984
0.620188 0.810391 0.504387
0.656733 0.821393 0.495888
0.687831 0.82916 0.515358
0.709133 0.83859 0.541665
0.725917 0.848508 0.567834
0.875288 0.696681 0.777035
0.793194 0.746746 0.747814
0.721462 0.792233 0.698894
0.685054 0.826795 0.643427
0.681758 0.848875 0.594125
0.702632 0.860655 0.57641
0.724819 0.869444 0.585443
0.742046 0.878737 0.605432
0.756481 0.888334 0.629084
0 0.0185855 0
0 0.0287022 0.0277867
0.0154726 0.0271763 0.0507515
0.0557107 0.0288243 0.046891
0.0693675 0.0383307 0.0436408
0.0788281 0.049012 0.0470588
0.078706 0.0638437 0.0586252
0.0729686 0.0832837 0.0750439
0.0658122 0.10898 0.0937819
0.012314 0.0485389 0.0238651
0.0110018 0.0603037 0.0490578
0.0528878 0.0599527 0.0809644
0.14464 0.0510719 0.0644846
0.165789 0.0655833 0.0645457
0.165408 0.092546 0.0820783
0.179004 0.125566 0.109102
0.203449 0.166598 0.145357
0.219699 0.212436 0.190555
0.0609293 0.08542 0.0420081
0.052491 0.110201 0.0595102
0.070161 0.136034 0.0755169
0.256855 0.125353 0.0796979
0.332692 0.153597 0.103334
0.333806 0.205539 0.139712
0.335866 0.258 0.181537
0.347753 0.306645 0.231434
0.362142 0.354574 0.285435
0.144793 0.17734 0.0912947
0.120424 0.238346 0.105623
0.107057 0.299168 0.0946212
0.202976 0.327947 0.0953384
0.406271 0.321279 0.135714
0.470298 0.355138 0.18468
0.487434 0.401816 0.23006
0.501518 0.447578 0.281392
0.513787 0.493278 0.340948
0.316609 0.306416 0.190768
0.270161 0.376501 0.206607
0.213916 0.451698 0.190509
0.231861 0.504692 0.171725
0.384268 0.512886 0.188571
0.520455 0.520928 0.233539
0.575723 0.551736 0.277089
0.605554 0.587121 0.32253
0.62565 0.622858 0.380468
0.487037 0.433112 0.347768
0.456916 0.495537 0.368185
0.387533 0.571405 0.336736
0.358923 0.634134 0.285481
0.424552 0.663478 0.279026
0.541711 0.671534 0.300954
0.61529 0.68925 0.338872
0.654429 0.712642 0.384466
0.679759 0.733593 0.432746
0.655528 0.543725 0.514855
0.621622 0.598947 0.536751
0.555093 0.666224 0.512078
0.50573 0.727474 0.4486
0.525292 0.76257 0.399252
0.596185 0.773297 0.394583
0.650645 0.781155 0.423911
0.682872 0.792065 0.45832
0.705837 0.803616 0.492897
0.820798 0.62887 0.67715
0.758389 0.680598 0.684764
0.688838 0.733333 0.657252
0.621698 0.784894 0.585351
0.610712 0.817182 0.51783
0.648341 0.828168 0.490822
0.685786 0.83444 0.50428
0.711269 0.842527 0.528649
0.730541 0.850645 0.554971
0.943206 0.680034 0.797986
0.855192 0.728862 0.787427
0.782071 0.773251 0.757595
0.709712 0.818463 0.688167
0.680613 0.850599 0.616114
0.696788 0.865217 0.577798
0.721386 0.873472 0.581155
0.741268 0.8822 0.59942
0.758862 0.891478 0.622354
0 0.0225528 0
0 0.0356298 0.00485237
0 0.0421759 0.0388342
0.0162356 0.0428168 0.0615854
0.0423896 0.0478828 0.0694438
0.0587778 0.0568093 0.0762646
0.0641794 0.071046 0.0868086
0.0631113 0.0908064 0.101472
0.0585184 0.118074 0.118166
0.0236667 0.0492561 0.0188602
0.0158083 0.0633097 0.0436866
0.0227054 0.0736248 0.0784314
0.0677195 0.0735485 0.134142
0.108248 0.0836042 0.1449
0.131029 0.107301 0.155993
0.152468 0.14168 0.185534
0.17734 0.183185 0.223636
0.205371 0.226795 0.264729
0.0859846 0.0821393 0.0632029
0.0779431 0.107668 0.0939498
0.0779126 0.138582 0.151827
0.167666 0.151873 0.256199
0.303731 0.16553 0.257267
0.326436 0.213703 0.266636
0.329198 0.26656 0.30103
0.339406 0.316747 0.344045
0.350179 0.366445 0.387884
0.21294 0.168719 0.121386
0.187167 0.227955 0.165774
0.166415 0.286213 0.220798
0.208209 0.327291 0.262852
0.457282 0.311315 0.252415
0.516442 0.348089 0.292134
0.519997 0.398322 0.345495
0.523659 0.44686 0.397925
0.526284 0.495628 0.450813
0.387976 0.298344 0.223407
0.357763 0.360754 0.264927
0.290944 0.435584 0.287709
0.24715 0.506859 0.254627
0.392111 0.521111 0.232853
0.571618 0.516518 0.27126
0.627314 0.545403 0.329534
0.649622 0.581338 0.389578
0.660258 0.618982 0.45008
0.556283 0.425422 0.372564
0.545678 0.479164 0.41207
0.465812 0.55407 0.423407
0.379965 0.633158 0.372274
0.402838 0.679774 0.305379
0.548287 0.681285 0.312261
0.64239 0.691249 0.351049
0.684886 0.710414 0.400092
0.709667 0.730282 0.452125
0.723598 0.535241 0.529656
0.710063 0.582147 0.569558
0.636439 0.6477 0.579477
0.535668 0.722789 0.526192
0.505348 0.773251 0.435752
0.579828 0.784298 0.393439
0.65214 0.78648 0.413962
0.693675 0.794385 0.4486
0.721645 0.803067 0.486168
0.882475 0.61973 0.677821
0.841962 0.662089 0.706569
0.769116 0.711772 0.709255
0.656138 0.774701 0.648417
0.596521 0.822461 0.548699
0.628672 0.838178 0.484932
0.678035 0.841917 0.486748
0.711391 0.846647 0.508843
0.737453 0.853025 0.538247
1 0.668635 0.785321
0.926268 0.71133 0.798367
0.860731 0.749294 0.800137
0.750301 0.805234 0.743053
0.676417 0.852171 0.64622
0.67953 0.873625 0.572992
0.710491 0.881392 0.562387
0.736858 0.88838 0.577676
0.759457 0.895552 0.601343
0 0.0265507 0
0 0.0405432 0
0 0.0510567 0.00877394
0 0.0556802 0.0424811
0.0178531 0.0596933 0.065095
0.0400854 0.066743 0.0814984
0.041886 0.08336 0.0874189
0.0410468 0.104997 0.0947127
0.0357061 0.136553 0.101915
0.0296483 0.0528115 0.000671397
0.0215457 0.0681621 0.0136873
0.0173037 0.08336 0.0388647
0.0373083 0.0935225 0.0794842
0.0681163 0.10573 0.12813
0.0950637 0.128969 0.167071
0.12108 0.165164 0.202914
0.148608 0.207446 0.241306
0.178347 0.251179 0.281209
0.100175 0.0852827 0.0518044
0.0930953 0.114412 0.0715801
0.087541 0.153445 0.100908
0.116579 0.189166 0.193561
0.197101 0.211749 0.295872
0.26157 0.245594 0.333333
0.288563 0.29221 0.361715
0.308476 0.339879 0.39408
0.325963 0.388815 0.428382
0.258701 0.170748 0.130556
0.250202 0.225574 0.176028
0.222309 0.285252 0.251377
0.227222 0.333303 0.344015
0.368414 0.339254 0.462013
0.490166 0.357794 0.479393
0.517433 0.404654 0.495918
0.52874 0.452659 0.524025
0.533745 0.501503 0.554955
0.434089 0.299702 0.249821
0.428565 0.354314 0.303181
0.37557 0.421424 0.367941
0.330449 0.484749 0.43125
0.389532 0.518791 0.468711
0.619944 0.50222 0.459617
0.680735 0.530831 0.492363
0.701976 0.568505 0.532845
0.708751 0.608194 0.575067
0.599893 0.427756 0.389487
0.610147 0.474525 0.436011
0.548333 0.539559 0.479301
0.457069 0.613581 0.499397
0.407553 0.679026 0.451865
0.550164 0.686748 0.381262
0.676265 0.685985 0.422812
0.727626 0.701686 0.47155
0.754559 0.719478 0.519631
0.778286 0.53344 0.528756
0.768856 0.57847 0.574884
0.7149 0.633906 0.611139
0.606897 0.703975 0.61384
0.516838 0.769329 0.547051
0.556359 0.793637 0.446097
0.650736 0.790036 0.443061
0.707683 0.793347 0.473411
0.744884 0.798566 0.51017
0.933928 0.616053 0.654322
0.894545 0.656016 0.692836
0.841077 0.695842 0.72076
0.72369 0.754726 0.71136
0.611917 0.815244 0.636042
0.60322 0.846311 0.526467
0.66215 0.848356 0.499306
0.709377 0.850294 0.514199
0.746365 0.853391 0.541421
1 0.663706 0.746487
0.978256 0.703609 0.775158
0.930541 0.733532 0.801999
0.817075 0.78529 0.789639
0.697826 0.843397 0.716609
0.658473 0.880186 0.607965
0.69015 0.889357 0.567559
0.72546 0.894865 0.572106
0.758007 0.900374 0.592096
0 0.0307469 0
0 0.043595 0
0 0.0559854 0
0 0.0635538 0.0230106
0.00337224 0.069688 0.0509346
0.0110781 0.0822614 0.0598459
0.0113527 0.100542 0.0633555
0.0101167 0.125414 0.0663767
0.00875868 0.159258 0.0713664
0.0319066 0.0566415 0
0.0266423 0.0727398 0
0.019028 0.0910048 0.00643931
0.0227054 0.107851 0.040589
0.0428016 0.126711 0.0791791
0.0704967 0.152621 0.124208
0.100267 0.19057 0.173846
0.129 0.233051 0.217502
0.153903 0.279103 0.255238
0.105714 0.0926833 0.0394903
0.103166 0.124605 0.0468757
0.0962387 0.169268 0.0655375
0.109224 0.21442 0.110338
0.14342 0.252613 0.199008
0.187884 0.289448 0.281117
0.225422 0.330755 0.327947
0.255833 0.376501 0.365759
0.28217 0.422599 0.401526
0.277287 0.183459 0.123766
0.286336 0.235355 0.147265
0.264759 0.2963 0.184131
0.253346 0.351415 0.254841
0.301534 0.384604 0.377951
0.386175 0.408072 0.47538
0.440223 0.444389 0.516152
0.470024 0.486686 0.543893
0.489387 0.530968 0.569482
0.463325 0.308888 0.242954
0.479057 0.359396 0.282551
0.445151 0.420981 0.340276
0.399252 0.48365 0.415915
0.412528 0.526146 0.512947
0.543389 0.529061 0.624369
0.648646 0.543832 0.651835
0.691096 0.576883 0.667018
0.710658 0.61413 0.682338
0.660578 0.428061 0.375051
0.654704 0.478737 0.422766
0.617731 0.535576 0.474357
0.539986 0.601968 0.535943
0.489265 0.658793 0.59202
0.542794 0.683345 0.621714
0.711055 0.671931 0.619989
0.772061 0.685664 0.638117
0.80235 0.702953 0.659312
0.835676 0.533532 0.500984
0.806088 0.583764 0.549401
0.777066 0.630228 0.593454
0.684291 0.690303 0.637018
0.588403 0.747982 0.661433
0.551659 0.789166 0.615213
0.644999 0.790311 0.558328
0.727459 0.785138 0.572641
0.780758 0.786603 0.60061
0.98996 0.614572 0.607889
0.926116 0.659785 0.649546
0.895186 0.691264 0.685573
0.795178 0.740444 0.716976
0.677272 0.795758 0.723918
0.603174 0.840803 0.657389
0.640024 0.853223 0.584436
0.704311 0.851225 0.578042
0.760128 0.849393 0.596521
1 0.66067 0.685893
1 0.701793 0.721599
0.981765 0.727794 0.757412
0.884215 0.771634 0.785473
0.758511 0.824887 0.781872
0.66453 0.874022 0.71043
0.667994 0.895048 0.636439
0.708186 0.901152 0.617655
0.75465 0.903395 0.624887
0 0.0357977 0
0 0.0493019 0
0 0.0611124 0
0 0.0707561 0.00277714
0 0.0810712 0.0252842
0 0.0960403 0.0361181
0 0.116274 0.0404822
0 0.143908 0.0421302
0 0.180743 0.0475166
0.0401312 0.0608835 0
0.0310979 0.0768292 0
0.0229191 0.0969711 0
0.0203555 0.11809 0.0184939
0.033341 0.142031 0.0582437
0.0622721 0.172671 0.100984
0.0941787 0.212055 0.149752
0.118685 0.257145 0.187472
0.134234 0.307134 0.211063
0.118944 0.0990616 0.0255436
0.110231 0.135409 0.0361791
0.105608 0.183841 0.0465705
0.112505 0.233433 0.0853895
0.134112 0.278553 0.143236
0.165118 0.31986 0.22031
0.196506 0.362524 0.279789
0.225193 0.407309 0.322713
0.253422 0.452873 0.363394
0.304921 0.194125 0.114107
0.304845 0.249165 0.136446
0.290013 0.3093 0.158328
0.27454 0.368765 0.196017
0.291493 0.41352 0.29276
0.335119 0.447822 0.400961
0.380987 0.484382 0.463966
0.414862 0.524361 0.503227
0.441062 0.565179 0.536263
0.518746 0.313512 0.216587
0.504219 0.371267 0.257908
0.485237 0.430762 0.296681
0.44303 0.493568 0.357366
0.436332 0.541451 0.45507
0.493874 0.564294 0.57612
0.574472 0.582757 0.646586
0.627512 0.610483 0.679026
0.661189 0.641962 0.699458
0.711086 0.432547 0.35111
0.67982 0.489082 0.402991
0.662409 0.54081 0.443046
0.597391 0.603616 0.502632
0.543236 0.659846 0.57348
0.56109 0.689784 0.652125
0.66041 0.691096 0.726696
0.74345 0.695552 0.748257
0.790799 0.708217 0.75314
0.884794 0.536355 0.470939
0.8271 0.593561 0.52491
0.817121 0.634195 0.55964
0.740169 0.688518 0.606668
0.650278 0.741085 0.654963
0.609888 0.775341 0.69073
0.639765 0.787274 0.707652
0.740749 0.778622 0.705318
0.801358 0.778103 0.711986
1 0.614603 0.566339
0.953124 0.663081 0.612558
0.927626 0.692546 0.641871
0.844236 0.737011 0.679088
0.735912 0.785321 0.713802
0.658961 0.82533 0.728969
0.64445 0.84863 0.706828
0.70074 0.851041 0.674357
0.773877 0.843961 0.681163
1 0.658717 0.636469
1 0.700175 0.67686
1 0.729213 0.708797
0.928008 0.767529 0.743069
0.814878 0.814832 0.771023
0.715267 0.860014 0.771862
0.67834 0.889967 0.734707
0.697108 0.903929 0.696986
0.752209 0.905074 0.68632
0 0.040177 0
0 0.0545052 0
0 0.0671244 0
0 0.0782025 0
0 0.0909895 0.00344854
0 0.107851 0.0158083
0 0.130297 0.0208133
0 0.160525 0.0238651
0 0.200626 0.0327459
0.0470588 0.0653544 0
0.0358129 0.0818647 0
0.0272679 0.102541 0
0.0229496 0.127443 0.00994888
0.0340887 0.155459 0.0502632
0.0630503 0.18996 0.0941482
0.0906233 0.23183 0.132601
0.108888 0.280369 0.15668
0.124056 0.331273 0.178485
0.140078 0.104036 0.00688182
0.118303 0.147051 0.0349126
0.116289 0.198672 0.0412757
0.120287 0.250645 0.0738689
0.135195 0.298436 0.127565
0.161105 0.342916 0.187549
0.189212 0.386297 0.24741
0.216464 0.431556 0.29337
0.243305 0.476402 0.336385
0.340078 0.202289 0.1028
0.31841 0.263523 0.134493
0.308431 0.322652 0.149096
0.291371 0.383658 0.178805
0.295598 0.43505 0.244831
0.318807 0.475257 0.348821
0.354376 0.513436 0.417502
0.386542 0.553368 0.462882
0.413809 0.592889 0.50164
0.554589 0.322652 0.204959
0.52134 0.385718 0.247837
0.51191 0.443565 0.271183
0.473121 0.505959 0.317327
0.456031 0.556756 0.407767
0.483467 0.587655 0.526497
0.538949 0.61265 0.606165
0.585489 0.64065 0.650141
0.620432 0.669276 0.680003
0.748913 0.440253 0.33283
0.695598 0.501656 0.391775
0.690745 0.550317 0.420279
0.634546 0.610681 0.470665
0.578531 0.666804 0.54049
0.578058 0.699977 0.632059
0.632303 0.71281 0.709392
0.697063 0.719631 0.754513
0.751598 0.726955 0.775448
0.92221 0.542 0.449378
0.851545 0.601267 0.506767
0.84152 0.640848 0.534783
0.774716 0.691096 0.575769
0.687724 0.741009 0.626459
0.638697 0.775586 0.680018
0.650187 0.791562 0.721004
0.708141 0.789761 0.76556
0.785718 0.784039 0.781277
1 0.616403 0.537499
0.988724 0.662837 0.584176
0.947768 0.697398 0.612711
0.873899 0.737301 0.645487
0.773693 0.783566 0.685573
0.696895 0.821637 0.722713
0.682551 0.840406 0.744228
0.699184 0.850263 0.757488
0.780102 0.842344 0.755734
1 0.659724 0.604212
1 0.700435 0.645579
1 0.732403 0.675837
0.955901 0.767895 0.70811
0.851301 0.812451 0.742779
0.757015 0.854444 0.768505
0.718502 0.881437 0.775891
0.709056 0.900877 0.76437
0.752926 0.9075 0.738903
0 0.0439765 0
0 0.0595865 0
0 0.0732738 0
0 0.0865187 0
0 0.101946 0
0 0.120073 0
0 0.145251 0
0 0.178866 0.00320439
0 0.219196 0.0234226
0.0533913 0.0699016 0
0.0407721 0.0881056 0
0.0310369 0.109453 0
0.027512 0.136522 0.00541695
0.037644 0.167819 0.044892
0.0628519 0.207782 0.086244
0.0817426 0.254963 0.111955
0.0992294 0.304524 0.133471
0.113375 0.355657 0.152453
0.163027 0.110384 0
0.129854 0.160113 0.0316472
0.127657 0.213428 0.0396124
0.129305 0.266972 0.066743
0.138918 0.31664 0.117128
0.159976 0.363226 0.168261
0.186725 0.408865 0.21886
0.212558 0.454047 0.26508
0.238209 0.498451 0.309606
0.374945 0.212024 0.0888075
0.329641 0.278874 0.134951
0.325902 0.337407 0.142672
0.308049 0.398672 0.166918
0.301549 0.453727 0.217502
0.31075 0.500313 0.300984
0.337179 0.540459 0.370626
0.365728 0.580423 0.418677
0.391577 0.618982 0.461051
0.589532 0.332189 0.195239
0.534371 0.4009 0.242481
0.533562 0.456016 0.25417
0.49958 0.518441 0.282765
0.47454 0.571618 0.360021
0.480781 0.609094 0.47335
0.516014 0.639261 0.554467
0.552331 0.669017 0.603784
0.583352 0.696925 0.641413
0.785687 0.448249 0.311742
0.717464 0.513069 0.377188
0.714778 0.561135 0.397009
0.667491 0.619089 0.435172
0.610681 0.674327 0.499214
0.594308 0.710491 0.594705
0.622126 0.729412 0.672648
0.662364 0.741436 0.721996
0.706584 0.749554 0.757488
0.959381 0.547463 0.425116
0.891966 0.604944 0.481346
0.861738 0.648829 0.509316
0.80444 0.69453 0.540719
0.721141 0.742962 0.588556
0.664881 0.778927 0.653147
0.661524 0.796109 0.70605
0.688701 0.804044 0.750027
0.743557 0.802563 0.793118
1 0.619074 0.507881
1 0.664179 0.554253
0.962615 0.702007 0.582162
0.899809 0.740017 0.609415
0.805722 0.783459 0.64828
0.726345 0.820539 0.695125
0.702937 0.841474 0.731136
0.707729 0.85417 0.756802
0.750698 0.854185 0.799649
1 0.659876 0.570306
1 0.701198 0.613184
1 0.73724 0.644434
0.979858 0.769848 0.670787
0.88246 0.811872 0.705928
0.791226 0.851987 0.742138
0.753429 0.877317 0.767422
0.746517 0.894804 0.786206
0.75407 0.908949 0.803052
