All_In_One/Enrich_Colormaster/colormanagement/luts/film_response/VintageKodachrome.cube
TITLE "Generate by Resolve"
LUT_3D_SIZE 9
0.00943008 0.0102541 0.0081178
0.0483558 0.0208133 0.0111543
0.150362 0.0247654 0
0.398642 0.0116426 0
0.67422 0.014023 0
0.828382 0.0356146 0
0.880064 0.0546883 0
0.902327 0.0610208 0
0.906645 0.0605478 0
0.00624094 0.0422065 0.0306859
0.0411536 0.0444343 0.0261997
0.131853 0.054902 0.00250248
0.418723 0.0424048 0
0.698985 0.0581979 0
0.855909 0.0831311 0
0.91606 0.0827802 0
0.950042 0.0902876 0
0.962203 0.0920424 0
0.00747692 0.0907759 0.0467994
0.00836194 0.0957351 0.0455177
0.110216 0.109117 0.00894179
0.367346 0.141039 0
0.711543 0.155978 0
0.89688 0.15787 0
0.958328 0.161059 0
0.978973 0.177172 0
0.94757 0.200687 0
0.00776684 0.20499 0.0991684
0.00770581 0.213825 0.0977188
0.0178836 0.220523 0.026627
0.328969 0.268482 0
0.63653 0.325277 0
0.761883 0.333471 0
0.797375 0.339483 0.0137789
0.818006 0.353262 0.00875868
0.84036 0.380835 0
0.00184634 0.362921 0.18912
0.00109865 0.376547 0.190234
0.0059968 0.393225 0.115358
0.283574 0.443549 0
0.653254 0.528344 0
0.82002 0.537087 0
0.872526 0.527321 0
0.893095 0.540536 0.000564584
0.915373 0.56965 0.00650034
0.0344701 0.460853 0.241764
0.012253 0.486213 0.234333
0.00753796 0.511666 0.114687
0.30985 0.581689 0
0.663478 0.677592 0
0.857328 0.708476 0
0.924544 0.704494 0
0.950576 0.715129 0.00547799
0.96669 0.727352 0.00895705
0.0112154 0.51696 0.258915
0.0255894 0.548302 0.231189
0.0336309 0.582925 0.0458228
0.425803 0.670405 0
0.718791 0.757748 0
0.881346 0.787655 0.0229953
0.952392 0.794308 0.0421454
0.98323 0.800565 0.0350805
1 0.814832 0
0.0250248 0.585031 0.278843
0 0.613108 0.18529
0.197482 0.662486 0
0.566506 0.744152 0
0.796826 0.804944 0
0.932082 0.832685 0
1 0.851041 0.0439612
1 0.864775 0.198581
1 0.88072 0.36408
0.0223392 0.675837 0.361318
0.139757 0.714549 0.279042
0.494011 0.779156 0.283299
0.724254 0.832151 0.325246
0.876967 0.869963 0.385397
0.960433 0.895445 0.463172
0.995972 0.913146 0.552209
0.999466 0.928115 0.638148
0.996811 0.943069 0.723568
0.00712596 0.0221408 0.0454414
0.0556649 0.0251164 0.0459449
0.187198 0.0199435 0
0.429755 0 0
0.698878 0 0
0.849378 0 0
0.900435 0.0213626 0
0.923506 0.0312047 0
0.921004 0.0336767 0
0.00505074 0.0429999 0.0457008
0.0383764 0.0458534 0.0423896
0.11693 0.0511482 0.0232548
0.377905 0.032105 0
0.687282 0.0294194 0
0.867933 0.0498054 0
0.936049 0.0590372 0
0.971099 0.0617075 0
0.984802 0.0684825 0
0.00724804 0.0907454 0.059205
0.0114748 0.0942245 0.0510414
0.106416 0.107881 0.0189059
0.335515 0.133379 0
0.69546 0.136294 0
0.905943 0.140505 0
0.985336 0.146075 0
1 0.153368 0
1 0.177279 0
0.00772107 0.197452 0.104723
0.00773632 0.208347 0.0987411
0.0151064 0.215335 0.0222019
0.326314 0.266636 0
0.630533 0.321721 0
0.757244 0.335973 0
0.804868 0.340948 0
0.831662 0.35169 0
0.857237 0.374365 0
0.00956741 0.360189 0.200412
0.0107729 0.379385 0.192218
0.0052491 0.392004 0.099794
0.287434 0.443412 0
0.649363 0.526192 0
0.821759 0.541054 0
0.881971 0.538415 0
0.907713 0.552117 0
0.931472 0.576837 0
0.0260624 0.473213 0.259007
0.0030518 0.500557 0.24593
0 0.526162 0.146365
0.30605 0.587366 0
0.672236 0.685237 0
0.862684 0.714839 0.000610361
0.933974 0.714946 0
0.963119 0.723568 0.00715648
0.991028 0.740597 0
0 0.544839 0.298741
0 0.579126 0.273335
0.0164645 0.606668 0.105226
0.404837 0.678508 0
0.722362 0.762692 0
0.889403 0.796246 0
0.970474 0.807416 0
1 0.820523 0
1 0.837491 0.120836
0.00883497 0.622675 0.366293
0.0208286 0.656184 0.317433
0.189014 0.694667 0.161379
0.54931 0.763653 0.0820325
0.791531 0.818982 0.134432
0.934218 0.85275 0.200168
0.997528 0.873655 0.294316
1 0.890288 0.413153
1 0.903532 0.525673
0 0.723598 0.497337
0.082536 0.761883 0.459312
0.513558 0.815579 0.479179
0.732998 0.861677 0.508507
0.875242 0.893477 0.552117
0.952422 0.91603 0.608133
0.987991 0.931548 0.674418
0.996094 0.94435 0.73994
0.994369 0.955581 0.805417
0.00399786 0.0492409 0.145525
0.0298161 0.026688 0.148013
0.16437 0.00946059 0.146899
0.403876 0 0.117464
0.658335 0 0.0737011
0.820859 0 0.0320287
0.888182 0 0.0167849
0.922637 0 0.00610361
0.933577 0 0
0.00469978 0.0574502 0.111589
0.0103761 0.0541695 0.113298
0.125948 0.0498817 0.111681
0.348455 0.0104677 0.0671397
0.679866 0 0.0016022
0.876616 0 0
0.961852 0 0
0.995529 0 0
1 0 0
0.00643931 0.101457 0.115587
0.00788891 0.104417 0.114382
0.0928969 0.111498 0.0997787
0.340429 0.111025 0.0224765
0.686336 0.0771191 0
0.944488 0.0138247 0
1 0.00224308 0
1 0 0
1 0.0200198 0
0.0061799 0.21593 0.170031
0.00616464 0.224811 0.166049
0.0231479 0.224796 0.110948
0.310567 0.264912 0.0361639
0.609323 0.295796 0
0.752224 0.299855 0.00077821
0.887831 0.281071 0
0.963928 0.280781 0
1 0.306035 0
0.00297551 0.389242 0.27306
0.0059205 0.408225 0.26157
0.00143435 0.415457 0.18204
0.240177 0.441535 0
0.637644 0.517479 0
0.834974 0.53756 0
0.908782 0.536309 0.00242618
0.947494 0.550179 0.0432441
0.976837 0.580133 0.102846
0.022034 0.502785 0.331945
0.000869764 0.537881 0.326604
0 0.564584 0.254444
0.243244 0.595987 0.0172732
0.653758 0.685344 0
0.869169 0.718135 0
0.961288 0.729442 0
1 0.738262 0
1 0.765621 0.146517
0.000640879 0.588678 0.402502
0.00672923 0.624109 0.391928
0.0171817 0.652338 0.285374
0.360021 0.701518 0.129961
0.696498 0.77116 0.0909895
0.895384 0.810758 0.0659648
0.994217 0.831632 0.0702068
1 0.847669 0.248127
1 0.867353 0.417166
0 0.676219 0.51136
0 0.712322 0.490913
0.108324 0.748806 0.417197
0.553689 0.804456 0.415122
0.783978 0.850202 0.425071
0.91931 0.880919 0.460212
0.983459 0.899214 0.517876
1 0.913649 0.589593
0.999191 0.928054 0.669169
0 0.770794 0.633738
0.160647 0.803388 0.613443
0.54786 0.852598 0.636271
0.748318 0.891447 0.663706
0.874205 0.918303 0.695476
0.946578 0.935134 0.731838
0.981353 0.948196 0.779706
0.992706 0.957931 0.826062
0.992233 0.967193 0.871412
0.00300603 0.166125 0.346075
0.00329595 0.130678 0.349493
0.163546 0 0.346563
0.432273 0 0.362692
0.632868 0 0.352728
0.700664 0 0.329015
0.7252 0 0.303441
0.73402 0 0.27924
0.732555 0 0.257954
0.00392157 0.144823 0.294133
0.00495918 0.13489 0.304387
0.106035 0.0213931 0.296468
0.359686 0.00181582 0.308202
0.59794 0 0.290837
0.703349 0 0.26743
0.745541 0 0.25034
0.76936 0 0.249409
0.783001 0 0.247379
0.00404364 0.173037 0.278767
0.00393683 0.171038 0.28513
0.0280461 0.132784 0.276905
0.310002 0.130129 0.282078
0.557046 0.113237 0.258106
0.726879 0.0654765 0.240742
0.806638 0.0230869 0.240482
0.842542 0.0137331 0.245899
0.894759 0.0655375 0.24773
0.00637827 0.283665 0.333776
0.0019379 0.284718 0.33257
0.0219425 0.265217 0.303273
0.279835 0.279438 0.271519
0.637613 0.247532 0.181186
0.88835 0.227893 0.15993
1 0.212909 0.150637
1 0.220539 0.166888
1 0.254749 0.188388
0 0.441352 0.416434
0 0.464363 0.423346
0 0.468452 0.385519
0.207919 0.473213 0.284504
0.606958 0.518242 0.198062
0.828168 0.538064 0.232654
0.896223 0.539452 0.284886
0.926497 0.55378 0.332387
0.946899 0.587121 0.377874
0 0.55967 0.481834
0.00390631 0.593194 0.487282
0.000259403 0.618616 0.447028
0.21004 0.640314 0.332525
0.61677 0.69897 0.254032
0.861082 0.732509 0.207553
0.966827 0.752071 0.265019
0.994659 0.772091 0.404273
1 0.803296 0.500374
0 0.648325 0.556832
0 0.686595 0.562387
0 0.716899 0.512047
0.348348 0.753475 0.449241
0.680552 0.805463 0.423529
0.879881 0.842741 0.421256
0.971191 0.861112 0.459449
1 0.878553 0.530785
1 0.898283 0.624109
0 0.729976 0.649683
0 0.765652 0.644388
0.22884 0.797818 0.612711
0.581811 0.846677 0.61825
0.784619 0.884565 0.630137
0.907485 0.908156 0.647761
0.970871 0.922667 0.680278
0.994171 0.935439 0.731731
0.995651 0.946548 0.785504
0 0.808347 0.740429
0.299535 0.842847 0.742077
0.595071 0.884978 0.763973
0.767971 0.915892 0.786801
0.877684 0.937667 0.80824
0.943572 0.951232 0.831922
0.976333 0.960998 0.861433
0.989395 0.968277 0.890578
0.990814 0.974395 0.919387
0 0.234485 0.476127
0.0116732 0.229648 0.490776
0.167742 0 0.498634
0.431983 0 0.541421
0.652949 0 0.554376
0.72987 0 0.548196
0.753719 0 0.53669
0.753628 0 0.511925
0.750561 0 0.479408
0 0.251209 0.482033
0 0.25124 0.494072
0.0936599 0.0606851 0.486778
0.358038 0 0.519875
0.617548 0 0.528679
0.731395 0 0.512566
0.764538 0 0.495995
0.783337 0 0.480919
0.789609 0 0.46569
0 0.284749 0.479728
0 0.286625 0.495781
0.0127871 0.234455 0.50074
0.296742 0.123201 0.512688
0.593912 0.0848249 0.521569
0.755261 0.032639 0.507729
0.816068 0 0.485878
0.838682 0.0450752 0.475517
0.853361 0.104082 0.476249
0.00747692 0.365667 0.510109
0.00984207 0.37052 0.520943
0.00294499 0.346151 0.515953
0.233738 0.301656 0.504067
0.563363 0.30724 0.512016
0.749004 0.301793 0.491386
0.837644 0.3075 0.482734
0.878477 0.322164 0.487953
0.906432 0.348608 0.497246
0 0.491936 0.568246
0 0.515923 0.585687
0 0.524239 0.577905
0.21326 0.510231 0.536339
0.57322 0.545281 0.521141
0.827115 0.50219 0.436362
0.958206 0.504509 0.433463
1 0.510903 0.444709
1 0.545815 0.46511
0 0.610086 0.627512
0 0.648768 0.647044
0 0.673045 0.634256
0.237522 0.691234 0.586328
0.607569 0.740917 0.571939
0.835492 0.771313 0.54667
0.9402 0.789563 0.590158
0.969345 0.807187 0.641291
0.98146 0.829297 0.684428
0 0.698833 0.687312
0 0.736706 0.701457
0 0.7635 0.674754
0.424674 0.802396 0.66244
0.68925 0.846448 0.659083
0.862806 0.874556 0.649393
0.95433 0.890211 0.665064
0.989654 0.905455 0.710719
0.997284 0.921767 0.773312
0 0.770535 0.757748
0 0.803723 0.758755
0.340032 0.839933 0.752697
0.629862 0.882475 0.769162
0.796368 0.912474 0.780087
0.901061 0.929793 0.788205
0.961532 0.941466 0.804822
0.98706 0.951705 0.836851
0.992813 0.960739 0.871321
0.0126802 0.835203 0.82388
0.387961 0.872358 0.836439
0.654063 0.909865 0.855619
0.800717 0.935409 0.872816
0.889952 0.95198 0.887587
0.944305 0.963043 0.901366
0.972854 0.969726 0.915602
0.985733 0.975341 0.931868
0.989899 0.979309 0.947646
0 0.26247 0.532158
0 0.260456 0.551919
0.133974 0.0749371 0.577966
0.425467 0 0.625956
0.66096 0 0.655222
0.745373 0 0.656245
0.771893 0 0.661372
0.77113 0 0.649531
0.769558 0 0.632349
0 0.29749 0.571969
0 0.296651 0.581262
0.0662852 0.13698 0.595621
0.349233 0 0.641184
0.617319 0 0.665049
0.746197 0 0.660914
0.782025 0 0.657588
0.795468 0 0.651179
0.797208 0 0.638422
0 0.343359 0.59852
0 0.344213 0.6112
0.00965896 0.285359 0.633204
0.273457 0.116014 0.667002
0.587686 0.0700236 0.700298
0.764813 0 0.700099
0.826566 0 0.687724
0.850019 0.0152438 0.679774
0.859419 0.0901808 0.66865
0 0.41619 0.630869
0 0.419532 0.644007
0 0.407782 0.660929
0.184405 0.323217 0.683116
0.550637 0.323507 0.704799
0.765026 0.305379 0.702419
0.850462 0.3028 0.688807
0.882353 0.329366 0.678569
0.899855 0.371023 0.676768
0.00648508 0.524727 0.674601
0 0.546944 0.693004
0 0.562249 0.709972
0.126802 0.540261 0.702144
0.550362 0.569512 0.712169
0.764675 0.565026 0.704845
0.866285 0.576089 0.693278
0.907271 0.595239 0.692302
0.927687 0.607858 0.686992
0.00909438 0.636835 0.724971
0 0.674662 0.747402
0 0.702907 0.754498
0.291356 0.719036 0.736858
0.628733 0.764385 0.746212
0.821637 0.802823 0.755154
0.873701 0.773663 0.725292
0.950698 0.774731 0.699672
0.971618 0.793729 0.717037
0 0.725292 0.775753
0 0.764446 0.795056
0.0617838 0.794736 0.791516
0.477363 0.835035 0.791745
0.723461 0.873472 0.805661
0.855192 0.898924 0.811399
0.942229 0.913542 0.811246
0.977035 0.925658 0.840742
0.986694 0.936889 0.872129
0 0.79292 0.829129
0.00999466 0.82858 0.839261
0.402045 0.865873 0.843595
0.681895 0.905699 0.860731
0.825147 0.930831 0.875669
0.906188 0.945861 0.883391
0.956054 0.95584 0.891554
0.981414 0.962829 0.905837
0.989837 0.969406 0.92694
0.0980545 0.855055 0.881621
0.463767 0.893187 0.894514
0.702068 0.926162 0.908309
0.830045 0.947219 0.920806
0.9037 0.960571 0.932937
0.946654 0.970382 0.942916
0.971878 0.975799 0.949248
0.985351 0.979477 0.957351
0.989349 0.982116 0.966461
0 0.300481 0.588205
0 0.293492 0.59678
0.122576 0.090074 0.629404
0.427543 0 0.685908
0.675074 0 0.716915
0.768841 0 0.722072
0.796124 0 0.732311
0.795361 0 0.724468
0.788083 0 0.709438
0 0.330144 0.615106
0 0.327428 0.627649
0.0520027 0.217197 0.647135
0.342916 0 0.701381
0.619577 0 0.732723
0.757824 0 0.735744
0.79736 0 0.734844
0.810636 0 0.738369
0.81004 0 0.73077
0 0.372198 0.648127
0 0.369055 0.661402
0 0.31194 0.686976
0.257176 0.115236 0.742473
0.571466 0.0775311 0.780453
0.767056 0 0.795224
0.833844 0 0.792905
0.859739 0 0.797406
0.864424 0.0693523 0.791852
0 0.436744 0.684672
0 0.444846 0.704295
0 0.438651 0.730632
0.141207 0.350332 0.782147
0.531563 0.331426 0.810147
0.757153 0.316518 0.821973
0.852308 0.304906 0.816266
0.88542 0.323964 0.813092
0.900938 0.373404 0.811154
0 0.547402 0.741238
0.00552377 0.564401 0.758083
0 0.582116 0.788327
0.0878614 0.56286 0.818479
0.530587 0.581811 0.835431
0.758801 0.58854 0.835767
0.872084 0.585565 0.831342
0.912352 0.601236 0.824414
0.927352 0.63769 0.819318
0 0.652659 0.78648
0 0.687922 0.811688
0 0.718547 0.833127
0.257816 0.738308 0.839857
0.61323 0.780423 0.846082
0.796216 0.801266 0.851591
0.872053 0.783749 0.829267
0.898329 0.772045 0.802365
0.896544 0.742962 0.76109
0 0.734752 0.826764
0.00244144 0.774792 0.84892
0.0863661 0.813428 0.866835
0.496666 0.851896 0.870588
0.739773 0.886275 0.879774
0.865461 0.909987 0.891798
0.935347 0.926848 0.902708
0.946868 0.917174 0.893965
0.942458 0.907897 0.887343
0 0.802518 0.871153
0.0540475 0.844236 0.89247
0.451621 0.88217 0.899168
0.712245 0.917098 0.911284
0.842527 0.938994 0.921599
0.91632 0.954192 0.932723
0.954467 0.963882 0.940002
0.977981 0.969467 0.945571
0.983932 0.969909 0.954406
0.152224 0.869856 0.918807
0.524819 0.906554 0.926986
0.73463 0.934768 0.936965
0.850584 0.95407 0.946181
0.915297 0.96463 0.95433
0.951598 0.973007 0.961898
0.97174 0.978988 0.967803
0.983383 0.981781 0.972137
0.988708 0.984344 0.976883
0 0.302556 0.59028
0 0.296101 0.597589
0.118196 0.0768292 0.630961
0.408743 0 0.687785
0.663828 0 0.72137
0.771725 0 0.734157
0.805875 0 0.750515
0.810666 0 0.75787
0.810666 0 0.75787
0 0.34786 0.634867
0 0.347082 0.648768
0.038941 0.238499 0.671077
0.33698 0 0.737026
0.61886 0 0.770077
0.772107 0 0.780789
0.818921 0 0.787366
0.836484 0 0.797208
0.835309 0 0.794232
0 0.389273 0.672953
0 0.394614 0.687633
0 0.362539 0.715206
0.238819 0.182666 0.779324
0.560479 0.132876 0.815839
0.763531 0.0785687 0.833402
0.841367 0.0328069 0.838773
0.863447 0.0502785 0.842023
0.871092 0.0843977 0.84445
0 0.448844 0.711772
0 0.457725 0.729259
0 0.453712 0.759396
0.137469 0.365774 0.820615
0.523949 0.343847 0.857664
0.746029 0.332189 0.867872
0.848646 0.316747 0.870405
0.886412 0.332219 0.872557
0.901793 0.375509 0.87509
0 0.558297 0.772854
0 0.575723 0.794873
0 0.592401 0.824323
0.0661936 0.573922 0.874968
0.518456 0.588846 0.894682
0.750118 0.599817 0.897673
0.866117 0.599451 0.897322
0.910811 0.60943 0.894026
0.929274 0.642023 0.89482
0 0.656825 0.813794
0 0.691432 0.842603
0.00491341 0.727825 0.874525
0.230915 0.751781 0.901335
0.598291 0.792248 0.911635
0.790326 0.810513 0.912978
0.878721 0.808667 0.902525
0.91928 0.813993 0.895613
0.933577 0.827634 0.892348
0 0.741939 0.857694
0 0.782437 0.883864
0.0904555 0.822171 0.909682
0.502327 0.861234 0.917205
0.738781 0.893446 0.924285
0.858793 0.91342 0.929259
0.915526 0.917525 0.926955
0.913024 0.888014 0.896071
0.871336 0.829068 0.829709
0 0.813001 0.898283
0.0556649 0.855497 0.926741
0.489372 0.892363 0.932677
0.725612 0.92285 0.940337
0.850263 0.943175 0.946899
0.918791 0.954879 0.953445
0.955947 0.966171 0.961059
0.975692 0.972946 0.967391
0.95346 0.945647 0.940383
0.193835 0.881163 0.941787
0.573632 0.916243 0.948455
0.758892 0.941634 0.955535
0.86511 0.957214 0.960708
0.923796 0.9673 0.965331
0.956405 0.973678 0.969604
0.973571 0.978607 0.976379
0.983429 0.9832 0.98085
0.930785 0.926848 0.925063
0 0.301991 0.589349
0 0.297749 0.596368
0.104005 0.0832532 0.629145
0.392615 0 0.684459
0.650004 0 0.720394
0.767208 0 0.732265
0.804715 0 0.748928
0.810666 0 0.75787
0.810666 0 0.75787
0 0.348226 0.632868
0 0.344945 0.646708
0.0402075 0.232486 0.670771
0.325414 0 0.73492
0.602289 0 0.769467
0.765881 0 0.781231
0.818586 0 0.789029
0.838972 0 0.802563
0.841917 0 0.807202
0 0.390692 0.676066
0 0.39649 0.690425
0 0.377203 0.718303
0.223529 0.20264 0.781415
0.550195 0.162066 0.823728
0.75964 0.104173 0.843885
0.842298 0.0916762 0.851209
0.869413 0.107088 0.859617
0.878996 0.15761 0.866087
0 0.463951 0.723445
0 0.467735 0.739086
0 0.464836 0.772198
0.120272 0.384833 0.8392
0.515679 0.371954 0.877028
0.739361 0.366003 0.889235
0.85037 0.357412 0.895857
0.888655 0.361242 0.896178
0.905089 0.394476 0.900465
0 0.567193 0.787213
0 0.58378 0.807996
0 0.597971 0.838544
0.0511635 0.582132 0.894835
0.51252 0.599649 0.920058
0.746563 0.610834 0.924453
0.861311 0.611154 0.923445
0.909819 0.62533 0.924041
0.929534 0.653239 0.924453
0 0.663447 0.830991
0 0.694072 0.856397
0 0.727291 0.890822
0.198428 0.758175 0.930755
0.590417 0.795392 0.942916
0.786252 0.815137 0.943404
0.878599 0.82118 0.935454
0.919738 0.825559 0.928695
0.936538 0.838605 0.925734
0 0.748165 0.876509
0.0145571 0.786755 0.901152
0.0479438 0.830594 0.939773
0.51017 0.86804 0.945754
0.734081 0.897871 0.950057
0.854322 0.91664 0.953124
0.914656 0.921416 0.949676
0.928817 0.910872 0.932403
0.932937 0.906416 0.922255
0 0.818051 0.914305
0.0209049 0.865156 0.950134
0.523354 0.898039 0.952255
0.736873 0.928313 0.957458
0.855573 0.946624 0.961044
0.919142 0.957153 0.964248
0.950317 0.961654 0.966278
0.952453 0.952255 0.953506
0.859449 0.85388 0.854719
0.228992 0.88986 0.957656
0.608835 0.922515 0.9608
0.777539 0.945495 0.965118
0.875929 0.960525 0.968338
0.928847 0.968261 0.971466
0.957748 0.972213 0.973571
0.968704 0.971939 0.973709
0.955352 0.954971 0.955825
0.936385 0.932311 0.934432
