All_In_One/Enrich_Colormaster/colormanagement/luts/film_response/VintageKodachrome.cube
TITLE "Generate by Resolve"
LUT_3D_SIZE 33
0.00943008 0.0102541 0.0081178
0.017731 0.0128481 0.0113527
0.0264134 0.0150149 0.0129854
0.0365606 0.0178683 0.0126955
0.0483558 0.0208133 0.0111543
0.0618143 0.0242161 0.00680552
0.0776837 0.0264439 0.00300603
0.100191 0.0268254 0
0.150362 0.0247654 0
0.192187 0.0248112 0
0.256428 0.0211032 0
0.324849 0.0167239 0
0.398642 0.0116426 0
0.474998 0.0087129 0
0.548898 0.00691234 0
0.614115 0.00907912 0
0.67422 0.014023 0
0.72665 0.0257725 0
0.76788 0.0272679 0
0.805524 0.024506 0
0.828382 0.0356146 0
0.847364 0.0422217 0
0.859815 0.0470588 0
0.870542 0.0511177 0
0.880064 0.0546883 0
0.887922 0.0577554 0
0.894667 0.0598306 0
0.899199 0.0610208 0
0.902327 0.0610208 0
0.905608 0.0607156 0
0.906538 0.0607156 0
0.907057 0.0606394 0
0.906645 0.0605478 0
0.0107118 0.0189517 0.0166781
0.0180362 0.0190433 0.0159609
0.0259556 0.0198062 0.0155032
0.0343328 0.0203708 0.0151217
0.0471962 0.0229191 0.0112001
0.0602884 0.0251469 0.00782788
0.075288 0.027985 0.00430304
0.0949874 0.0316167 0.00163272
0.127764 0.0329442 0
0.197803 0.0266728 0
0.246525 0.0247654 0
0.313954 0.0192264 0
0.386114 0.0148318 0
0.462303 0.0119631 0
0.535256 0.0121157 0
0.607599 0.0140078 0
0.667552 0.0215457 0
0.721706 0.0258335 0
0.764691 0.031693 0
0.79823 0.0336614 0
0.828 0.0314794 0
0.843061 0.0403449 0
0.858289 0.0469978 0
0.870619 0.0509194 0
0.882429 0.0546578 0
0.893095 0.0582132 0
0.89865 0.0603647 0
0.903914 0.0619211 0
0.908766 0.0625315 0
0.910399 0.0622873 0
0.910796 0.0616922 0
0.909728 0.061677 0
0.910277 0.0619211 0
0.00794995 0.0256046 0.0211337
0.0132448 0.0258793 0.020676
0.0251316 0.0256809 0.0196841
0.0369879 0.025803 0.0178073
0.0479286 0.0269474 0.0169833
0.0626383 0.0306554 0.0128786
0.078706 0.0341497 0.00799573
0.0982528 0.036759 0.0040589
0.124224 0.0390021 0
0.185626 0.0351568 0
0.252903 0.029221 0
0.311589 0.0249638 0
0.385382 0.0218814 0
0.462165 0.0200961 0
0.540093 0.0221256 0
0.610498 0.0247044 0
0.67718 0.0290532 0
0.727138 0.0355993 0
0.771817 0.0408484 0
0.805097 0.0464179 0
0.831891 0.0489662 0
0.855695 0.0466011 0
0.870161 0.0493324 0
0.883925 0.0534981 0
0.894514 0.0579232 0
0.90251 0.0612345 0
0.91017 0.0639353 0
0.915785 0.064744 0
0.920653 0.0653697 0
0.925093 0.0662547 0
0.926863 0.0666056 0
0.927916 0.0666056 0
0.928847 0.0667124 0
0.00517281 0.0338903 0.0260319
0.0119936 0.0339971 0.0262608
0.0186007 0.0341955 0.0263218
0.0329442 0.0343175 0.0254215
0.0487678 0.0351415 0.0217746
0.0654002 0.0372168 0.0157015
0.0827497 0.0399786 0.0102083
0.10132 0.0431373 0.00283818
0.126009 0.0460365 0.00129702
0.164172 0.0471351 0
0.260426 0.036286 0
0.328237 0.032639 0
0.399268 0.029572 0
0.475608 0.0299535 0
0.550149 0.0316777 0
0.623743 0.0382544 0
0.686351 0.0433967 0
0.740276 0.0488594 0
0.77966 0.0564889 0
0.816953 0.061265 0
0.842878 0.0631266 0
0.864713 0.0643778 0
0.884062 0.0611887 0
0.895659 0.0633097 0
0.906325 0.065919 0
0.916304 0.0684825 0
0.923751 0.070634 0
0.930114 0.0724498 0
0.935225 0.0749676 0
0.939727 0.0766155 0
0.942779 0.0771344 0
0.944152 0.0775464 0
0.944213 0.0775006 0
0.00624094 0.0422065 0.0306859
0.00726329 0.0422827 0.0305638
0.0151675 0.0426032 0.0294499
0.0217288 0.0437171 0.028397
0.0411536 0.0444343 0.0261997
0.0615854 0.0455024 0.0221408
0.0847028 0.0476081 0.0117037
0.107485 0.0508888 0.00706493
0.131853 0.054902 0.00250248
0.169741 0.0558785 0
0.260853 0.0477607 0
0.345739 0.0428321 0
0.418723 0.0424048 0
0.493919 0.0428473 0
0.567361 0.0463417 0
0.638712 0.05037 0
0.698985 0.0581979 0
0.753491 0.0642252 0
0.798932 0.0694285 0
0.829618 0.076524 0
0.855909 0.0831311 0
0.876509 0.0796368 0
0.892851 0.0797742 0
0.905272 0.0812543 0
0.91606 0.0827802 0
0.926726 0.0843519 0
0.936522 0.0860304 0
0.943786 0.0883497 0
0.950042 0.0902876 0
0.955001 0.0914168 0
0.958938 0.0922255 0
0.960967 0.0922103 0
0.962203 0.0920424 0
0.00560006 0.0501106 0.0332036
0.0065919 0.0512093 0.0328527
0.00796521 0.0523842 0.0325475
0.0184787 0.0527352 0.0321813
0.0281529 0.0533913 0.0319982
0.0524758 0.0544594 0.0273442
0.0785229 0.0560464 0.0224002
0.109117 0.0602884 0.0106813
0.142473 0.0635386 0.00294499
0.176364 0.0659648 0.000549325
0.238239 0.0665599 0
0.350561 0.0574502 0
0.439445 0.0564279 0
0.518059 0.0582132 0
0.594049 0.0610361 0
0.66096 0.065568 0
0.724895 0.0698711 0
0.771572 0.0768292 0
0.812406 0.0847791 0
0.844038 0.0940108 0
0.869001 0.0964523 0
0.89073 0.0986038 0
0.907027 0.0970321 0
0.920745 0.0966506 0
0.930983 0.0979629 0
0.939452 0.101472 0
0.947219 0.105409 0
0.956436 0.106874 0
0.963989 0.108614 0
0.970016 0.110765 0
0.974594 0.111757 0
0.978821 0.112886 0
0.980163 0.113802 0
0.00622568 0.0605325 0.035874
0.00627146 0.0614786 0.0366064
0.00762951 0.0624399 0.0369573
0.010605 0.0636301 0.0371405
0.0226291 0.0643473 0.0352636
0.0364996 0.0654612 0.032517
0.0663462 0.0686656 0.0239719
0.100755 0.0719921 0.0154116
0.136278 0.0759289 0.00900282
0.178973 0.0791638 0.002121
0.230411 0.0829938 0
0.315175 0.0844892 0
0.441718 0.0779583 0
0.536263 0.0784772 0
0.616754 0.0809033 0
0.686152 0.082948 0
0.74255 0.0870527 0
0.792569 0.0918288 0
0.831434 0.0989548 0
0.865904 0.105806 0
0.888609 0.113954 0
0.907668 0.11516 0
0.924956 0.11368 0
0.935241 0.114153 0
0.944778 0.11545 0
0.952651 0.118837 0
0.961059 0.122545 0
0.969619 0.127733 0
0.977874 0.130159 0
0.984878 0.132601 0
0.990784 0.134981 0
0.993622 0.136995 0
0.995911 0.139376 0
0.00689708 0.074876 0.0414282
0.0069276 0.0753643 0.0414588
0.00694286 0.0757458 0.0413519
0.00788891 0.076585 0.0410468
0.0114137 0.0787823 0.0396582
0.0268101 0.0806134 0.0352331
0.0511482 0.0825818 0.0276646
0.0846265 0.0858625 0.0178378
0.124163 0.0897688 0.00514229
0.178271 0.0973373 0.00421149
0.233845 0.103868 0.00140383
0.298344 0.109865 0
0.381308 0.11429 0
0.508888 0.110964 0
0.614008 0.107836 0
0.697841 0.109163 0
0.758053 0.112703 0
0.807874 0.116945 0
0.849271 0.122103 0
0.876493 0.128328 0
0.9019 0.132158 0
0.920699 0.133928 0
0.9364 0.133928 0
0.9505 0.132921 0
0.959976 0.134478 0
0.969436 0.136797 0
0.977707 0.140764 0
0.98352 0.145205 0
0.987884 0.150088 0
0.994766 0.153475 0
0.998352 0.158099 0
0.991379 0.165454 0
0.986114 0.168948 0
0.00747692 0.0907759 0.0467994
0.00749218 0.091249 0.047013
0.00749218 0.0914778 0.0472114
0.00756847 0.0932021 0.0464332
0.00836194 0.0957351 0.0455177
0.0179599 0.0971847 0.0394141
0.0347601 0.0990005 0.0310826
0.0660258 0.102678 0.0165103
0.110216 0.109117 0.00894179
0.165331 0.117342 0.00526436
0.228901 0.125124 0.0037232
0.292638 0.131426 0.000396735
0.367346 0.141039 0
0.438468 0.150591 0
0.534691 0.155856 0
0.62501 0.15613 0
0.711543 0.155978 0
0.76585 0.158785 0
0.818204 0.15967 0
0.865461 0.158907 0
0.89688 0.15787 0
0.926513 0.155306 0
0.937972 0.157107 0
0.947707 0.159075 0
0.958328 0.161059 0
0.964324 0.164584 0
0.970581 0.168032 0
0.977157 0.172457 0
0.978973 0.177172 0
0.976776 0.182956 0
0.966064 0.190402 0
0.961471 0.194949 0
0.94757 0.200687 0
0.00799573 0.112535 0.0548562
0.00802625 0.113649 0.0551156
0.0080415 0.114351 0.0548562
0.00805676 0.114992 0.05449
0.00840772 0.114916 0.0509957
0.00820935 0.115908 0.0469215
0.0226749 0.119905 0.0330968
0.0436255 0.124605 0.0201267
0.0936446 0.130816 0.0112764
0.148226 0.137346 0.00529488
0.212085 0.145327 0.00428779
0.28719 0.157122 0.00273136
0.362509 0.168063 0
0.438392 0.179492 0
0.504585 0.191196 0
0.564187 0.201785 0
0.616083 0.20766 0
0.673304 0.210971 0
0.725765 0.21001 0
0.7841 0.206165 0
0.84535 0.19884 0
0.866499 0.198291 0
0.881376 0.199542 0
0.906386 0.19852 0
0.918868 0.199893 0
0.928084 0.20235 0
0.92929 0.206714 0
0.924743 0.212146 0
0.907057 0.221469 0
0.895262 0.229099 0
0.8878 0.23566 0
0.87744 0.242985 0
0.866911 0.249744 0
0.00828565 0.137835 0.0655222
0.00828565 0.139178 0.066392
0.00830091 0.139925 0.0667582
0.00831617 0.140719 0.06598
0.0083772 0.142672 0.0634928
0.00953689 0.144701 0.0542763
0.0087892 0.147051 0.0403906
0.0365911 0.14963 0.0255741
0.0650797 0.153201 0.00880446
0.129152 0.161059 0.00646983
0.197162 0.171344 0.00427253
0.275044 0.185885 0.00285344
0.357107 0.200916 0.00112917
0.438376 0.214511 0
0.507713 0.224628 0
0.569833 0.233661 0
0.618311 0.243076 0
0.653025 0.249104 0
0.685344 0.253315 0
0.714061 0.253452 0
0.743252 0.252949 0
0.766781 0.252491 0
0.7888 0.251148 0
0.810834 0.248905 0
0.846616 0.246235 0
0.85948 0.248798 0
0.852872 0.255039 0
0.835676 0.263355 0
0.823987 0.270588 0
0.811505 0.279286 0
0.804364 0.286656 0
0.800717 0.293004 0
0.802502 0.297993 0
0.00825513 0.167193 0.080354
0.00822461 0.170047 0.0817121
0.00820935 0.172396 0.0826581
0.00822461 0.175113 0.0818189
0.00827039 0.177554 0.0796063
0.00840772 0.178393 0.0710765
0.0111849 0.179065 0.0551919
0.0102388 0.17879 0.0251164
0.0543374 0.183154 0.0149996
0.0995499 0.18967 0.00703441
0.178637 0.203128 0.00460822
0.25861 0.217227 0.00236515
0.344137 0.232807 0.000610361
0.427878 0.248157 0
0.511269 0.263462 0
0.57406 0.273625 0
0.631128 0.281392 0
0.669657 0.287312 0
0.699107 0.290028 0
0.724102 0.29102 0
0.739528 0.292012 0
0.75378 0.293111 0
0.764141 0.293843 0
0.773602 0.295735 0
0.782177 0.297444 4.57771e-05
0.790402 0.300465 0.00357061
0.796704 0.303838 0.00703441
0.798016 0.308064 0.00801099
0.798245 0.314076 0.00485237
0.802869 0.320165 0
0.808392 0.325383 0
0.81326 0.330892 0
0.81799 0.33727 0
0.00776684 0.20499 0.0991684
0.00772107 0.207523 0.100694
0.00767529 0.209903 0.101457
0.00764477 0.211994 0.10164
0.00770581 0.213825 0.0977188
0.00776684 0.216312 0.0925612
0.00802625 0.21828 0.0766918
0.0133516 0.219944 0.0587472
0.0178836 0.220523 0.026627
0.0743114 0.226154 0.0106508
0.148043 0.235615 0.00445563
0.236789 0.251514 0.00173953
0.328969 0.268482 0
0.420127 0.288289 0
0.503273 0.304799 0
0.582315 0.318685 0
0.63653 0.325277 0
0.685771 0.328939 0
0.716854 0.329992 0
0.740856 0.332113 0
0.761883 0.333471 0
0.773556 0.335195 0
0.784253 0.336553 0
0.791394 0.337697 0.00621042
0.797375 0.339483 0.0137789
0.801923 0.340749 0.0205234
0.807843 0.34406 0.0169985
0.813611 0.348302 0.0123293
0.818006 0.353262 0.00875868
0.823514 0.359518 0
0.829435 0.366155 0
0.835096 0.373556 0
0.84036 0.380835 0
0.00677501 0.244404 0.121752
0.00671397 0.246357 0.122805
0.00666819 0.24799 0.123323
0.00663767 0.250385 0.122377
0.00660716 0.254459 0.119997
0.00666819 0.257725 0.113008
0.00672923 0.261555 0.104845
0.00773632 0.262272 0.0810559
0.0180056 0.262837 0.0569772
0.0408637 0.265797 0.0248569
0.108705 0.274693 0.00401312
0.218738 0.291585 0.00103761
0.316457 0.311467 0
0.410773 0.33135 0
0.49865 0.348943 0
0.576226 0.36286 0
0.644251 0.37351 0
0.689204 0.378531 0
0.728756 0.381247 0.00329595
0.756436 0.38085 0
0.778439 0.38056 0
0.795377 0.380331 0
0.805508 0.381949 0
0.814404 0.38323 0.00308232
0.820157 0.384329 0.00817884
0.825711 0.386633 0.00968948
0.831128 0.390341 0.0101015
0.835584 0.395361 0.00674449
0.839902 0.399786 0.00317388
0.844587 0.405005 0.00329595
0.849821 0.411307 0
0.855146 0.418341 0
0.859678 0.426902 0
0.00537118 0.285451 0.143816
0.00527962 0.287633 0.145052
0.00518807 0.289967 0.146242
0.00512703 0.293034 0.145098
0.00508125 0.295949 0.142351
0.005066 0.30016 0.136599
0.00518807 0.303441 0.124559
0.00543221 0.305806 0.107729
0.0115969 0.307591 0.0716869
0.0291752 0.310307 0.0340124
0.109834 0.319356 0.0142214
0.19527 0.333745 0
0.300938 0.354803 0
0.400061 0.375357 0
0.495979 0.396033 0
0.573999 0.411582 0
0.642695 0.42359 0
0.698421 0.431601 0
0.738445 0.433677 0.000167849
0.772854 0.433219 0.00529488
0.794919 0.430076 0
0.812787 0.428443 0
0.825452 0.429694 0
0.833738 0.43125 0
0.840772 0.432593 0
0.845899 0.434592 0.00714122
0.850523 0.437446 0.00813306
0.854856 0.441886 0.00114443
0.859342 0.44654 0
0.864256 0.451606 0
0.869551 0.458015 0
0.874235 0.465431 0
0.878721 0.472877 0
0.00363165 0.325002 0.166812
0.00350958 0.327596 0.168215
0.00343328 0.329763 0.168353
0.00335698 0.331914 0.168429
0.00323491 0.336782 0.165179
0.00314336 0.341802 0.160388
0.00320439 0.346365 0.147951
0.00349432 0.349615 0.126024
0.0039826 0.351461 0.0945754
0.0376745 0.354696 0.0538796
0.0716259 0.359014 0.00311284
0.183108 0.377249 0
0.290074 0.397848 0
0.396521 0.423301 0
0.489387 0.444022 0
0.577523 0.463462 0
0.644678 0.474922 0
0.704204 0.48368 0
0.748974 0.486549 0
0.782025 0.486702 0
0.810101 0.485084 0
0.827787 0.482597 0
0.842481 0.480598 0
0.851102 0.480415 0
0.857588 0.480461 0
0.863233 0.481117 0.00523384
0.867353 0.484474 0.00593576
0.871885 0.488548 0.00500496
0.876677 0.492622 0
0.882139 0.499168 0
0.888075 0.507271 0.000839246
0.893477 0.514748 0.00450141
0.89839 0.522622 0.00480659
0.00184634 0.362921 0.18912
0.00158694 0.365179 0.190372
0.00144961 0.367712 0.191684
0.00129702 0.371405 0.19144
0.00109865 0.376547 0.190234
0.000976577 0.382361 0.18352
0.00177005 0.387732 0.174212
0.00180056 0.390417 0.151476
0.0059968 0.393225 0.115358
0.0145571 0.395087 0.0519417
0.0850996 0.404807 0.0186923
0.172137 0.418112 0
0.283574 0.443549 0
0.390112 0.468666 0
0.488685 0.491905 0
0.573877 0.510811 0
0.653254 0.528344 0
0.707698 0.53431 0
0.756863 0.538735 0
0.792706 0.538445 0
0.82002 0.537087 0
0.842969 0.535485 0
0.855192 0.532464 0
0.866072 0.529305 0
0.872526 0.527321 0
0.878126 0.530098 4.57771e-05
0.88304 0.532616 0.00755322
0.888045 0.536248 0.00190738
0.893095 0.540536 0.000564584
0.898497 0.546456 0
0.904067 0.553903 0.00242618
0.909606 0.561364 0.00775158
0.915373 0.56965 0.00650034
0.00643931 0.396384 0.209186
0.00807202 0.39736 0.209796
0.00836194 0.399115 0.209903
0.00328069 0.403769 0.209125
0.000381476 0.410498 0.207019
0.00344854 0.419654 0.202731
0.00202945 0.42591 0.19057
0.000457771 0.429908 0.175097
0.00163272 0.431739 0.117403
0.022034 0.434958 0.0659648
0.0823377 0.442969 0.0203861
0.170535 0.460243 0
0.280385 0.484413 0
0.385229 0.510353 0
0.48661 0.536355 0
0.574624 0.55845 0
0.650126 0.573327 0
0.715389 0.583917 0
0.761593 0.586954 0
0.803052 0.588739 0
0.831312 0.588296 0
0.853208 0.586389 0
0.870726 0.582879 0
0.880217 0.581704 0
0.888487 0.580514 0
0.894179 0.58056 0
0.899001 0.58088 0
0.904067 0.583429 0
0.90956 0.588342 0
0.915053 0.593622 0
0.920531 0.600046 0
0.925948 0.607919 0.000381476
0.930846 0.615396 0.00588998
0.0200198 0.422263 0.223697
0.0220645 0.423484 0.224277
0.0168307 0.426902 0.223835
0.00920119 0.43122 0.223087
0.00944533 0.439826 0.219852
0.0103304 0.4477 0.214496
0.0130312 0.454109 0.204166
0.00910964 0.459556 0.176455
0 0.464347 0.139803
0.0261845 0.468376 0.0701305
0.0665446 0.4757 0.00297551
0.174395 0.495735 0
0.281102 0.519509 0
0.390845 0.546853 0
0.488319 0.571786 0
0.578653 0.596231 0
0.654108 0.615259 0
0.71902 0.628763 0
0.771588 0.633753 0
0.809308 0.634165 0
0.842161 0.63389 0
0.862882 0.631205 0
0.879713 0.62948 0
0.893156 0.627878 0
0.90219 0.62771 0
0.911238 0.62858 0
0.918273 0.631006 0
0.923232 0.633494 0
0.926848 0.635737 0
0.931258 0.639689 0
0.935699 0.644495 0
0.939574 0.650446 0
0.943725 0.656687 0
0.0422827 0.443961 0.235233
0.0355993 0.445701 0.234653
0.0231022 0.448402 0.233204
0.0158694 0.455665 0.231769
0.00816358 0.464591 0.229786
0.0196994 0.472908 0.222736
0.0295109 0.481285 0.212894
0.0110323 0.487449 0.19379
0.000976577 0.492515 0.140963
0 0.495186 0.0430304
0.0841382 0.506737 0.00901808
0.17908 0.523461 0
0.293553 0.551431 0
0.397818 0.579217 0
0.495552 0.607233 0
0.580224 0.630289 0
0.660075 0.651423 0
0.720623 0.662547 0
0.773602 0.670359 0
0.816236 0.67129 0
0.84622 0.671351 0
0.872267 0.671473 0
0.88986 0.670695 0
0.904387 0.670054 0
0.915755 0.669581 0
0.923369 0.670207 0
0.93022 0.671351 0
0.934936 0.673671 0
0.93962 0.67689 0
0.94406 0.680415 0
0.947707 0.684749 0
0.951766 0.689174 0
0.955901 0.694301 0
0.0344701 0.460853 0.241764
0.0317235 0.464561 0.242084
0.0263371 0.469352 0.241245
0.00854505 0.477577 0.238437
0.012253 0.486213 0.234333
0.028687 0.494911 0.228977
0.0238651 0.500938 0.217365
0.0209659 0.506615 0.19733
0.00753796 0.511666 0.114687
0.0307622 0.520119 0.051957
0.100816 0.532662 0.00587472
0.200336 0.555444 0
0.30985 0.581689 0
0.410056 0.6094 0
0.505241 0.635828 0
0.590143 0.659251 0
0.663478 0.677592 0
0.732494 0.694484 0
0.781933 0.70132 0
0.824979 0.707546 0
0.857328 0.708476 0
0.880049 0.706691 0
0.899565 0.705165 0
0.912734 0.704601 0
0.924544 0.704494 0
0.93402 0.705058 0
0.940475 0.707347 0.000961318
0.946319 0.711147 0.0071107
0.950576 0.715129 0.00547799
0.954986 0.718395 0.00402838
0.959411 0.720134 0.00267033
0.963073 0.723568 0.0055848
0.96669 0.727352 0.00895705
0.0177005 0.475807 0.24712
0.0195621 0.478264 0.246693
0.00740063 0.486656 0.244678
0 0.495537 0.242191
0.00537118 0.502419 0.236286
0.0152438 0.509544 0.228428
0.0256809 0.516899 0.21767
0.0176394 0.524086 0.167941
0.0105135 0.531518 0.1075
0.055848 0.541741 0.0429999
0.11667 0.556008 0
0.223865 0.578286 0
0.328481 0.604822 0
0.431907 0.633585 0
0.520348 0.659648 0
0.602625 0.684199 0
0.675334 0.703639 0
0.735622 0.717464 0
0.790829 0.728557 0
0.826993 0.730297 0
0.859678 0.732097 0
0.884337 0.733196 0
0.904082 0.733791 0
0.92166 0.733593 0.00805676
0.932509 0.733959 0.00779736
0.942046 0.735241 0.0105135
0.949157 0.737041 0.0142214
0.954742 0.739269 0.0160372
0.959915 0.741741 0.0180362
0.964019 0.743877 0.0187381
0.967773 0.746807 0.0196536
0.971695 0.750774 0.0206607
0.975937 0.753658 0.0215763
0.00828565 0.487648 0.250584
0.00535592 0.49366 0.249363
0.00221256 0.502556 0.248447
0.00630198 0.511269 0.244327
0.00842298 0.520058 0.238544
0.0147402 0.526741 0.227375
0.014786 0.533547 0.203326
0.0175021 0.540902 0.156008
0.0328985 0.549386 0.0899825
0.0514992 0.558511 0.00683604
0.151476 0.576867 0
0.252506 0.598779 0
0.358175 0.627955 0
0.453834 0.656794 0
0.542092 0.684901 0
0.61651 0.704982 0
0.686015 0.723522 0
0.744854 0.737346 0
0.793912 0.746654 0
0.836378 0.753277 0.00125124
0.865476 0.755108 0.00819409
0.891783 0.756725 0.0164034
0.911696 0.758038 0.021912
0.92694 0.758419 0.024445
0.939651 0.758099 0.0253452
0.948501 0.758999 0.024918
0.956603 0.760372 0.0256962
0.962509 0.762371 0.0271916
0.967575 0.764904 0.0292363
0.972427 0.767742 0.0322576
0.976806 0.771115 0.0353857
0.980926 0.774472 0.0340124
0.984588 0.777523 0.0263523
0.00329595 0.501595 0.25481
0.014435 0.509651 0.253788
0.0212253 0.51809 0.250309
0.0179751 0.527459 0.244694
0.0144656 0.53463 0.235248
0.0143587 0.540352 0.224369
0.0210269 0.547921 0.186175
0.023682 0.555718 0.135225
0.0291905 0.565316 0.0571145
0.0883497 0.579187 0.0142519
0.184924 0.596704 0
0.289677 0.622736 0
0.392294 0.650019 0
0.480552 0.676219 0
0.561486 0.700313 0
0.635691 0.723293 0
0.699306 0.740688 0
0.758618 0.756222 0
0.804959 0.765286 0
0.843656 0.770779 0.00877394
0.874571 0.772808 0.0186618
0.897032 0.774197 0.0250858
0.91725 0.775601 0.0309453
0.932967 0.777173 0.0343786
0.946029 0.778729 0.0366369
0.95639 0.779522 0.0368811
0.963439 0.780606 0.0369573
0.970138 0.78233 0.0377813
0.975402 0.784482 0.0389563
0.980041 0.786877 0.0377203
0.984695 0.7897 0.0334173
0.989822 0.792813 0.0250858
0.995315 0.796139 0.0139315
0.0112154 0.51696 0.258915
0.0193179 0.524636 0.255406
0.014023 0.534142 0.249668
0.0130312 0.542336 0.242054
0.0255894 0.548302 0.231189
0.0247349 0.555734 0.205646
0.0120699 0.56347 0.168978
0.0137484 0.572641 0.106935
0.0336309 0.582925 0.0458228
0.129091 0.598733 0.00985733
0.225742 0.619364 0
0.332128 0.645106 0
0.425803 0.670405 0
0.513512 0.695354 0
0.587869 0.71812 0
0.65713 0.739162 0
0.718791 0.757748 0
0.771542 0.76997 0
0.819471 0.779828 0.00241093
0.852277 0.784131 0.0133974
0.881346 0.787655 0.0229953
0.905669 0.789609 0.0302281
0.924788 0.791409 0.0360571
0.941833 0.793484 0.041474
0.952392 0.794308 0.0421454
0.96199 0.795514 0.0429541
0.970886 0.796963 0.0433967
0.977005 0.798566 0.0402991
0.98323 0.800565 0.0350805
0.989349 0.803326 0.0262303
0.995895 0.806729 0.0144961
1 0.810758 0
1 0.814832 0
0 0.53341 0.260517
0 0.541924 0.25536
0 0.551125 0.251041
0.0117189 0.557656 0.240818
0.0163577 0.563989 0.224521
0.010193 0.570962 0.18967
0.0112764 0.579065 0.141054
0.0124208 0.588785 0.074342
0.0805371 0.601877 0.0277104
0.163439 0.617319 0
0.273228 0.64126 0
0.372015 0.665431 0
0.46183 0.689616 0
0.542229 0.71281 0
0.617197 0.735637 0
0.680201 0.754726 0
0.738277 0.771038 0
0.787457 0.782895 0
0.827695 0.791318 0.00514229
0.863996 0.798062 0.0185397
0.890883 0.80029 0.0254368
0.914595 0.802594 0.033753
0.933089 0.804044 0.0399481
0.947005 0.805707 0.0418097
0.95996 0.807889 0.0420386
0.970123 0.810147 0.0392157
0.979492 0.812421 0.0338445
0.988235 0.814588 0.0258183
0.99585 0.816693 0.0126802
1 0.819684 0
1 0.824277 0
1 0.828244 0
1 0.831937 0.00843824
0 0.550256 0.266026
0 0.559762 0.261585
0.000869764 0.56701 0.252247
0.00259403 0.572412 0.239445
0.00581369 0.578637 0.209232
0.0123751 0.585107 0.172503
0.0142519 0.594598 0.107713
0.0457771 0.605081 0.0523384
0.113298 0.618753 0.0068513
0.20502 0.6383 0
0.31458 0.660746 0
0.409628 0.68455 0
0.499031 0.707851 0
0.574563 0.730373 0
0.642649 0.750546 0
0.705531 0.769055 0
0.756588 0.78204 0
0.803845 0.79353 0
0.8421 0.801419 0
0.874388 0.807019 0.01178
0.903639 0.811078 0.0287785
0.922988 0.812848 0.031632
0.941497 0.815335 0.0318761
0.957687 0.817975 0.0287633
0.971176 0.820981 0.0214084
0.98352 0.824414 0.0112154
0.993744 0.826841 0.000503548
1 0.829541 0
1 0.832731 0
1 0.836301 0.00915541
1 0.839826 0.0341192
1 0.84361 0.0702678
1 0.847745 0.119142
0.00608835 0.568093 0.272267
0.00706493 0.575921 0.265354
1.5259e-05 0.580865 0.252186
0 0.586496 0.229633
0.00115969 0.5935 0.196139
0.00633249 0.602625 0.145998
0.0133822 0.6121 0.0874189
0.0708476 0.624903 0.032929
0.139147 0.640009 0
