All_In_One/Enrich_Colormaster/colormanagement/luts/film_response/VintageKodachrome.cube
TITLE "Generate by Resolve"
LUT_3D_SIZE 5
0.00943008 0.0102541 0.0081178
0.150362 0.0247654 0
0.67422 0.014023 0
0.880064 0.0546883 0
0.906645 0.0605478 0
0.00747692 0.0907759 0.0467994
0.110216 0.109117 0.00894179
0.711543 0.155978 0
0.958328 0.161059 0
0.94757 0.200687 0
0.00184634 0.362921 0.18912
0.0059968 0.393225 0.115358
0.653254 0.528344 0
0.872526 0.527321 0
0.915373 0.56965 0.00650034
0.0112154 0.51696 0.258915
0.0336309 0.582925 0.0458228
0.718791 0.757748 0
0.952392 0.794308 0.0421454
1 0.814832 0
0.0223392 0.675837 0.361318
0.494011 0.779156 0.283299
0.876967 0.869963 0.385397
0.995972 0.913146 0.552209
0.996811 0.943069 0.723568
0.00399786 0.0492409 0.145525
0.16437 0.00946059 0.146899
0.658335 0 0.0737011
0.888182 0 0.0167849
0.933577 0 0
0.00643931 0.101457 0.115587
0.0928969 0.111498 0.0997787
0.686336 0.0771191 0
1 0.00224308 0
1 0.0200198 0
0.00297551 0.389242 0.27306
0.00143435 0.415457 0.18204
0.637644 0.517479 0
0.908782 0.536309 0.00242618
0.976837 0.580133 0.102846
0.000640879 0.588678 0.402502
0.0171817 0.652338 0.285374
0.696498 0.77116 0.0909895
0.994217 0.831632 0.0702068
1 0.867353 0.417166
0 0.770794 0.633738
0.54786 0.852598 0.636271
0.874205 0.918303 0.695476
0.981353 0.948196 0.779706
0.992233 0.967193 0.871412
0 0.234485 0.476127
0.167742 0 0.498634
0.652949 0 0.554376
0.753719 0 0.53669
0.750561 0 0.479408
0 0.284749 0.479728
0.0127871 0.234455 0.50074
0.593912 0.0848249 0.521569
0.816068 0 0.485878
0.853361 0.104082 0.476249
0 0.491936 0.568246
0 0.524239 0.577905
0.57322 0.545281 0.521141
0.958206 0.504509 0.433463
1 0.545815 0.46511
0 0.698833 0.687312
0 0.7635 0.674754
0.68925 0.846448 0.659083
0.95433 0.890211 0.665064
0.997284 0.921767 0.773312
0.0126802 0.835203 0.82388
0.654063 0.909865 0.855619
0.889952 0.95198 0.887587
0.972854 0.969726 0.915602
0.989899 0.979309 0.947646
0 0.300481 0.588205
0.122576 0.090074 0.629404
0.675074 0 0.716915
0.796124 0 0.732311
0.788083 0 0.709438
0 0.372198 0.648127
0 0.31194 0.686976
0.571466 0.0775311 0.780453
0.833844 0 0.792905
0.864424 0.0693523 0.791852
0 0.547402 0.741238
0 0.582116 0.788327
0.530587 0.581811 0.835431
0.872084 0.585565 0.831342
0.927352 0.63769 0.819318
0 0.734752 0.826764
0.0863661 0.813428 0.866835
0.739773 0.886275 0.879774
0.935347 0.926848 0.902708
0.942458 0.907897 0.887343
0.152224 0.869856 0.918807
0.73463 0.934768 0.936965
0.915297 0.96463 0.95433
0.97174 0.978988 0.967803
0.988708 0.984344 0.976883
0 0.301991 0.589349
0.104005 0.0832532 0.629145
0.650004 0 0.720394
0.804715 0 0.748928
0.810666 0 0.75787
0 0.390692 0.676066
0 0.377203 0.718303
0.550195 0.162066 0.823728
0.842298 0.0916762 0.851209
0.878996 0.15761 0.866087
0 0.567193 0.787213
0 0.597971 0.838544
0.51252 0.599649 0.920058
0.861311 0.611154 0.923445
0.929534 0.653239 0.924453
0 0.748165 0.876509
0.0479438 0.830594 0.939773
0.734081 0.897871 0.950057
0.914656 0.921416 0.949676
0.932937 0.906416 0.922255
0.228992 0.88986 0.957656
0.777539 0.945495 0.965118
0.928847 0.968261 0.971466
0.968704 0.971939 0.973709
0.936385 0.932311 0.934432
