All_In_One/addons/Enrich_Colormaster/colormanagement/luts/film_response/BetterSepia.3DL
#Created by: Adobe Photoshop Export Color Lookup Plugin
#Description: Better Sepia
0 33 66 99 132 165 198 231 264 297 330 363 396 429 462 495 528 561 594 627 660 693 726 759 792 825 858 891 924 957 990 1023
0 0 0
0 0 0
0 0 0
88 0 0
211 0 0
334 12 0
458 71 0
581 133 11
706 196 55
830 263 101
954 331 149
1076 400 200
1196 474 252
1312 549 306
1424 628 363
1532 711 423
1637 796 486
1737 885 551
1835 976 620
1930 1070 691
2021 1167 767
2109 1267 846
2194 1367 928
2274 1470 1014
2350 1575 1102
2422 1682 1193
2490 1789 1285
2557 1897 1377
2620 2005 1471
2684 2113 1565
2747 2219 1658
2812 2322 1753
0 0 0
0 0 0
0 0 0
88 0 0
211 0 0
334 12 0
458 71 0
581 133 11
706 196 55
830 263 101
954 331 149
1076 400 200
1196 474 252
1312 549 306
1424 628 363
1532 711 423
1637 796 486
1737 885 551
1835 976 620
1930 1070 691
2021 1167 767
2109 1267 846
2194 1367 928
2274 1470 1014
2350 1575 1102
2422 1682 1193
2490 1789 1285
2557 1897 1377
2620 2005 1471
2684 2113 1565
2747 2219 1658
2812 2322 1753
0 0 0
0 0 0
0 0 0
88 0 0
211 0 0
334 12 0
458 71 0
581 133 11
706 196 55
830 263 101
954 331 149
1076 400 200
1196 474 252
1312 549 306
1424 628 363
1532 711 423
1637 796 486
1737 885 551
1835 976 620
1930 1070 691
2021 1167 767
2109 1267 846
2194 1367 928
2274 1470 1014
2350 1575 1102
2422 1682 1193
2490 1789 1285
2557 1897 1377
2620 2005 1471
2684 2113 1565
2747 2219 1658
2812 2322 1753
88 0 0
88 0 0
88 0 0
88 0 0
211 0 0
334 12 0
458 71 0
581 133 11
706 196 55
830 263 101
954 331 149
1076 400 200
1196 474 252
1312 549 306
1424 628 363
1532 711 423
1637 796 486
1737 885 551
1835 976 620
1930 1070 691
2021 1167 767
2109 1267 846
2194 1367 928
2274 1470 1014
2350 1575 1102
2422 1682 1193
2490 1789 1285
2557 1897 1377
2620 2005 1471
2684 2113 1565
2747 2219 1658
2812 2322 1753
211 0 0
211 0 0
211 0 0
211 0 0
211 0 0
334 12 0
458 71 0
581 133 11
706 196 55
830 263 101
954 331 149
1076 400 200
1196 474 252
1312 549 306
1424 628 363
1532 711 423
1637 796 486
1737 885 551
1835 976 620
1930 1070 691
2021 1167 767
2109 1267 846
2194 1367 928
2274 1470 1014
2350 1575 1102
2422 1682 1193
2490 1789 1285
2557 1897 1377
2620 2005 1471
2684 2113 1565
2747 2219 1658
2812 2322 1753
334 12 0
334 12 0
334 12 0
334 12 0
334 12 0
334 12 0
458 71 0
581 133 11
706 196 55
830 263 101
954 331 149
1076 400 200
1196 474 252
1312 549 306
1424 628 363
1532 711 423
1637 796 486
1737 885 551
1835 976 620
1930 1070 691
2021 1167 767
2109 1267 846
2194 1367 928
2274 1470 1014
2350 1575 1102
2422 1682 1193
2490 1789 1285
2557 1897 1377
2620 2005 1471
2684 2113 1565
2747 2219 1658
2812 2322 1753
458 71 0
458 71 0
458 71 0
458 71 0
458 71 0
458 71 0
458 71 0
581 133 11
706 196 55
830 263 101
954 331 149
1076 400 200
1196 474 252
1312 549 306
1424 628 363
1532 711 423
1637 796 486
1737 885 551
1835 976 620
1930 1070 691
2021 1167 767
2109 1267 846
2194 1367 928
2274 1470 1014
2350 1575 1102
2422 1682 1193
2490 1789 1285
2557 1897 1377
2620 2005 1471
2684 2113 1565
2747 2219 1658
2812 2322 1753
581 133 11
581 133 11
581 133 11
581 133 11
581 133 11
581 133 11
581 133 11
581 133 11
706 196 55
830 263 101
954 331 149
1076 400 200
1196 474 252
1312 549 306
1424 628 363
1532 711 423
1637 796 486
1737 885 551
1835 976 620
1930 1070 691
2021 1167 767
2109 1267 846
2194 1367 928
2274 1470 1014
2350 1575 1102
2422 1682 1193
2490 1789 1285
2557 1897 1377
2620 2005 1471
2684 2113 1565
2747 2219 1658
2812 2322 1753
706 196 55
706 196 55
706 196 55
706 196 55
706 196 55
706 196 55
706 196 55
706 196 55
706 196 55
830 263 101
954 331 149
1076 400 200
1196 474 252
1312 549 306
1424 628 363
1532 711 423
1637 796 486
1737 885 551
1835 976 620
1930 1070 691
2021 1167 767
2109 1267 846
2194 1367 928
2274 1470 1014
2350 1575 1102
2422 1682 1193
2490 1789 1285
2557 1897 1377
2620 2005 1471
2684 2113 1565
2747 2219 1658
2812 2322 1753
830 263 101
830 263 101
830 263 101
830 263 101
830 263 101
830 263 101
830 263 101
830 263 101
830 263 101
830 263 101
954 331 149
1076 400 200
1196 474 252
1312 549 306
1424 628 363
1532 711 423
1637 796 486
1737 885 551
1835 976 620
1930 1070 691
2021 1167 767
2109 1267 846
2194 1367 928
2274 1470 1014
2350 1575 1102
2422 1682 1193
2490 1789 1285
2557 1897 1377
2620 2005 1471
2684 2113 1565
2747 2219 1658
2812 2322 1753
954 331 149
954 331 149
954 331 149
954 331 149
954 331 149
954 331 149
954 331 149
954 331 149
954 331 149
954 331 149
954 331 149
1076 400 200
1196 474 252
1312 549 306
1424 628 363
1532 711 423
1637 796 486
1737 885 551
1835 976 620
1930 1070 691
2021 1167 767
2109 1267 846
2194 1367 928
2274 1470 1014
2350 1575 1102
2422 1682 1193
2490 1789 1285
2557 1897 1377
2620 2005 1471
2684 2113 1565
2747 2219 1658
2812 2322 1753
1076 400 200
1076 400 200
1076 400 200
1076 400 200
1076 400 200
1076 400 200
1076 400 200
1076 400 200
1076 400 200
1076 400 200
1076 400 200
1076 400 200
1196 474 252
1312 549 306
1424 628 363
1532 711 423
1637 796 486
1737 885 551
1835 976 620
1930 1070 691
2021 1167 767
2109 1267 846
2194 1367 928
2274 1470 1014
2350 1575 1102
2422 1682 1193
2490 1789 1285
2557 1897 1377
2620 2005 1471
2684 2113 1565
2747 2219 1658
2812 2322 1753
1196 474 252
1196 474 252
1196 474 252
1196 474 252
1196 474 252
1196 474 252
1196 474 252
1196 474 252
1196 474 252
1196 474 252
1196 474 252
1196 474 252
1196 474 252
1312 549 306
1424 628 363
1532 711 423
1637 796 486
1737 885 551
1835 976 620
1930 1070 691
2021 1167 767
2109 1267 846
2194 1367 928
2274 1470 1014
2350 1575 1102
2422 1682 1193
2490 1789 1285
2557 1897 1377
2620 2005 1471
2684 2113 1565
2747 2219 1658
2812 2322 1753
1312 549 306
1312 549 306
1312 549 306
1312 549 306
1312 549 306
1312 549 306
1312 549 306
1312 549 306
1312 549 306
1312 549 306
1312 549 306
1312 549 306
1312 549 306
1312 549 306
1424 628 363
1532 711 423
1637 796 486
1737 885 551
1835 976 620
1930 1070 691
2021 1167 767
2109 1267 846
2194 1367 928
2274 1470 1014
2350 1575 1102
2422 1682 1193
2490 1789 1285
2557 1897 1377
2620 2005 1471
2684 2113 1565
2747 2219 1658
2812 2322 1753
1424 628 363
1424 628 363
1424 628 363
1424 628 363
1424 628 363
1424 628 363
1424 628 363
1424 628 363
1424 628 363
1424 628 363
1424 628 363
1424 628 363
1424 628 363
1424 628 363
1424 628 363
1532 711 423
1637 796 486
1737 885 551
1835 976 620
1930 1070 691
2021 1167 767
2109 1267 846
2194 1367 928
2274 1470 1014
2350 1575 1102
2422 1682 1193
2490 1789 1285
2557 1897 1377
2620 2005 1471
2684 2113 1565
2747 2219 1658
2812 2322 1753
1532 711 423
1532 711 423
1532 711 423
1532 711 423
1532 711 423
1532 711 423
1532 711 423
1532 711 423
1532 711 423
1532 711 423
1532 711 423
1532 711 423
1532 711 423
1532 711 423
1532 711 423
1532 711 423
1637 796 486
1737 885 551
1835 976 620
1930 1070 691
2021 1167 767
2109 1267 846
2194 1367 928
2274 1470 1014
2350 1575 1102
2422 1682 1193
2490 1789 1285
2557 1897 1377
2620 2005 1471
2684 2113 1565
2747 2219 1658
2812 2322 1753
1637 796 486
1637 796 486
1637 796 486
1637 796 486
1637 796 486
1637 796 486
1637 796 486
1637 796 486
1637 796 486
1637 796 486
1637 796 486
1637 796 486
1637 796 486
1637 796 486
1637 796 486
1637 796 486
1637 796 486
1737 885 551
1835 976 620
1930 1070 691
2021 1167 767
2109 1267 846
2194 1367 928
2274 1470 1014
2350 1575 1102
2422 1682 1193
2490 1789 1285
2557 1897 1377
2620 2005 1471
2684 2113 1565
2747 2219 1658
2812 2322 1753
1737 885 551
1737 885 551
1737 885 551
1737 885 551
1737 885 551
1737 885 551
1737 885 551
1737 885 551
1737 885 551
1737 885 551
1737 885 551
1737 885 551
1737 885 551
1737 885 551
1737 885 551
1737 885 551
1737 885 551
1737 885 551
1835 976 620
1930 1070 691
2021 1167 767
2109 1267 846
2194 1367 928
2274 1470 1014
2350 1575 1102
2422 1682 1193
2490 1789 1285
2557 1897 1377
2620 2005 1471
2684 2113 1565
2747 2219 1658
2812 2322 1753
1835 976 620
1835 976 620
1835 976 620
1835 976 620
1835 976 620
1835 976 620
1835 976 620
1835 976 620
1835 976 620
1835 976 620
1835 976 620
1835 976 620
1835 976 620
1835 976 620
1835 976 620
1835 976 620
1835 976 620
1835 976 620
1835 976 620
1930 1070 691
2021 1167 767
2109 1267 846
2194 1367 928
2274 1470 1014
2350 1575 1102
2422 1682 1193
2490 1789 1285
2557 1897 1377
2620 2005 1471
2684 2113 1565
2747 2219 1658
2812 2322 1753
1930 1070 691
1930 1070 691
1930 1070 691
1930 1070 691
1930 1070 691
1930 1070 691
1930 1070 691
1930 1070 691
1930 1070 691
1930 1070 691
1930 1070 691
1930 1070 691
1930 1070 691
1930 1070 691
1930 1070 691
1930 1070 691
1930 1070 691
1930 1070 691
1930 1070 691
1930 1070 691
2021 1167 767
2109 1267 846
2194 1367 928
2274 1470 1014
2350 1575 1102
2422 1682 1193
2490 1789 1285
2557 1897 1377
2620 2005 1471
2684 2113 1565
2747 2219 1658
2812 2322 1753
2021 1167 767
2021 1167 767
2021 1167 767
2021 1167 767
2021 1167 767
2021 1167 767
2021 1167 767
2021 1167 767
2021 1167 767
2021 1167 767
2021 1167 767
2021 1167 767
2021 1167 767
2021 1167 767
2021 1167 767
2021 1167 767
2021 1167 767
2021 1167 767
2021 1167 767
2021 1167 767
2021 1167 767
2109 1267 846
2194 1367 928
2274 1470 1014
2350 1575 1102
2422 1682 1193
2490 1789 1285
2557 1897 1377
2620 2005 1471
2684 2113 1565
2747 2219 1658
2812 2322 1753
2109 1267 846
2109 1267 846
2109 1267 846
2109 1267 846
2109 1267 846
2109 1267 846
2109 1267 846
2109 1267 846
2109 1267 846
2109 1267 846
2109 1267 846
2109 1267 846
2109 1267 846
2109 1267 846
2109 1267 846
2109 1267 846
2109 1267 846
2109 1267 846
2109 1267 846
2109 1267 846
2109 1267 846
2109 1267 846
2194 1367 928
2274 1470 1014
2350 1575 1102
2422 1682 1193
2490 1789 1285
2557 1897 1377
2620 2005 1471
2684 2113 1565
2747 2219 1658
2812 2322 1753
2194 1367 928
2194 1367 928
2194 1367 928
2194 1367 928
2194 1367 928
2194 1367 928
2194 1367 928
2194 1367 928
2194 1367 928
2194 1367 928
2194 1367 928
2194 1367 928
2194 1367 928
2194 1367 928
2194 1367 928
2194 1367 928
2194 1367 928
2194 1367 928
2194 1367 928
2194 1367 928
2194 1367 928
2194 1367 928
2194 1367 928
2274 1470 1014
2350 1575 1102
2422 1682 1193
2490 1789 1285
2557 1897 1377
2620 2005 1471
2684 2113 1565
2747 2219 1658
2812 2322 1753
2274 1470 1014
2274 1470 1014
2274 1470 1014
2274 1470 1014
2274 1470 1014
2274 1470 1014
2274 1470 1014
2274 1470 1014
2274 1470 1014
2274 1470 1014
2274 1470 1014
2274 1470 1014
2274 1470 1014
2274 1470 1014
2274 1470 1014
2274 1470 1014
2274 1470 1014
2274 1470 1014
2274 1470 1014
2274 1470 1014
2274 1470 1014
2274 1470 1014
2274 1470 1014
2274 1470 1014
2350 1575 1102
2422 1682 1193
2490 1789 1285
2557 1897 1377
2620 2005 1471
2684 2113 1565
2747 2219 1658
2812 2322 1753
2350 1575 1102
2350 1575 1102
2350 1575 1102
2350 1575 1102
2350 1575 1102
2350 1575 1102
2350 1575 1102
2350 1575 1102
2350 1575 1102
2350 1575 1102
2350 1575 1102
2350 1575 1102
2350 1575 1102
2350 1575 1102
2350 1575 1102
2350 1575 1102
2350 1575 1102
2350 1575 1102
2350 1575 1102
2350 1575 1102
2350 1575 1102
2350 1575 1102
2350 1575 1102
2350 1575 1102
2350 1575 1102
2422 1682 1193
2490 1789 1285
2557 1897 1377
2620 2005 1471
2684 2113 1565
2747 2219 1658
2812 2322 1753
2422 1682 1193
2422 1682 1193
2422 1682 1193
2422 1682 1193
2422 1682 1193
2422 1682 1193
2422 1682 1193
2422 1682 1193
2422 1682 1193
2422 1682 1193
2422 1682 1193
2422 1682 1193
2422 1682 1193
2422 1682 1193
2422 1682 1193
2422 1682 1193
2422 1682 1193
2422 1682 1193
2422 1682 1193
2422 1682 1193
2422 1682 1193
2422 1682 1193
2422 1682 1193
2422 1682 1193
2422 1682 1193
2422 1682 1193
2490 1789 1285
2557 1897 1377
2620 2005 1471
2684 2113 1565
2747 2219 1658
2812 2322 1753
2490 1789 1285
2490 1789 1285
2490 1789 1285
2490 1789 1285
2490 1789 1285
2490 1789 1285
2490 1789 1285
2490 1789 1285
2490 1789 1285
2490 1789 1285
2490 1789 1285
2490 1789 1285
2490 1789 1285
2490 1789 1285
2490 1789 1285
2490 1789 1285
2490 1789 1285
2490 1789 1285
2490 1789 1285
2490 1789 1285
2490 1789 1285
2490 1789 1285
2490 1789 1285
2490 1789 1285
2490 1789 1285
2490 1789 1285
2490 1789 1285
2557 1897 1377
2620 2005 1471
2684 2113 1565
2747 2219 1658
2812 2322 1753
2557 1897 1377
2557 1897 1377
2557 1897 1377
2557 1897 1377
2557 1897 1377
2557 1897 1377
2557 1897 1377
2557 1897 1377
2557 1897 1377
2557 1897 1377
2557 1897 1377
2557 1897 1377
2557 1897 1377
2557 1897 1377
2557 1897 1377
2557 1897 1377
2557 1897 1377
2557 1897 1377
2557 1897 1377
2557 1897 1377
2557 1897 1377
2557 1897 1377
2557 1897 1377
2557 1897 1377
2557 1897 1377
2557 1897 1377
2557 1897 1377
2557 1897 1377
2620 2005 1471
2684 2113 1565
2747 2219 1658
2812 2322 1753
2620 2005 1471
2620 2005 1471
2620 2005 1471
2620 2005 1471
