All_In_One/addons/Enrich_Colormaster/colormanagement/luts/film_response/Bleach_Bypass_Hot.cube
#Generated by Picture Instruments - Unlimited Filters
TITLE "Bleach Bypass Hot"
LUT_3D_SIZE 17
0 0 0
0.00392157 0 0
0.027451 0.00392157 0.00392157
0.0431373 0.00784314 0.0117647
0.0941176 0.0156863 0.0196078
0.137255 0.027451 0.0235294
0.207843 0.0352941 0.0313725
0.278431 0.0509804 0.0470588
0.34902 0.0705882 0.054902
0.439216 0.0862745 0.0823529
0.533333 0.105882 0.0941176
0.615686 0.133333 0.113725
0.694118 0.156863 0.133333
0.752941 0.176471 0.14902
0.784314 0.192157 0.164706
0.815686 0.2 0.172549
0.843137 0.207843 0.188235
0.00392157 0.00392157 0.00392157
0.00392157 0.00392157 0.00392157
0.027451 0.00392157 0.00392157
0.054902 0.0156863 0.0117647
0.0980392 0.0196078 0.0235294
0.141176 0.0313725 0.027451
0.192157 0.0352941 0.027451
0.27451 0.054902 0.0509804
0.352941 0.0745098 0.0588235
0.439216 0.0862745 0.0823529
0.533333 0.113725 0.0901961
0.615686 0.133333 0.113725
0.694118 0.156863 0.133333
0.74902 0.184314 0.152941
0.784314 0.192157 0.164706
0.811765 0.207843 0.168627
0.843137 0.211765 0.180392
0 0.0196078 0.00392157
0 0.0196078 0.00392157
0.0235294 0.0196078 0.00392157
0.0470588 0.027451 0.0117647
0.0941176 0.0352941 0.0235294
0.145098 0.0470588 0.027451
0.207843 0.054902 0.0352941
0.278431 0.0705882 0.0470588
0.360784 0.0901961 0.0627451
0.447059 0.105882 0.0784314
0.545098 0.12549 0.0941176
0.615686 0.14902 0.117647
0.694118 0.172549 0.137255
0.752941 0.196078 0.156863
0.788235 0.207843 0.168627
0.819608 0.223529 0.180392
0.843137 0.231373 0.184314
0.0117647 0.0392157 0.0117647
0.0196078 0.0470588 0.0156863
0.0352941 0.0470588 0.0117647
0.0588235 0.0470588 0.0196078
0.0941176 0.054902 0.0196078
0.141176 0.0705882 0.0235294
0.207843 0.0823529 0.0392157
0.278431 0.0901961 0.0509804
0.360784 0.109804 0.0627451
0.439216 0.12549 0.0823529
0.541176 0.14902 0.0901961
0.623529 0.164706 0.12549
0.698039 0.2 0.141176
0.752941 0.215686 0.152941
0.788235 0.227451 0.164706
0.819608 0.243137 0.180392
0.843137 0.247059 0.192157
0.0196078 0.0862745 0.0156863
0.0196078 0.0862745 0.0156863
0.0392157 0.0901961 0.0235294
0.0627451 0.0901961 0.0196078
0.105882 0.0941176 0.0196078
0.152941 0.101961 0.0352941
0.211765 0.109804 0.0431373
0.278431 0.129412 0.054902
0.364706 0.141176 0.0745098
0.454902 0.160784 0.0862745
0.533333 0.188235 0.101961
0.619608 0.207843 0.121569
0.698039 0.231373 0.137255
0.756863 0.247059 0.160784
0.792157 0.262745 0.176471
0.819608 0.27451 0.184314
0.85098 0.286275 0.184314
0.0313725 0.12549 0.0235294
0.0352941 0.12549 0.0235294
0.054902 0.133333 0.027451
0.0745098 0.129412 0.027451
0.109804 0.133333 0.0313725
0.160784 0.137255 0.0352941
0.215686 0.152941 0.0509804
0.290196 0.168627 0.0588235
0.364706 0.180392 0.0784314
0.458824 0.203922 0.0941176
0.552941 0.219608 0.105882
0.635294 0.247059 0.133333
0.701961 0.266667 0.14902
0.756863 0.290196 0.164706
0.792157 0.305882 0.172549
0.827451 0.317647 0.192157
0.85098 0.321569 0.196078
0.0392157 0.188235 0.027451
0.0470588 0.188235 0.0392157
0.0627451 0.188235 0.0352941
0.0941176 0.192157 0.0352941
0.133333 0.196078 0.0431373
0.172549 0.196078 0.0470588
0.223529 0.211765 0.0509804
0.290196 0.215686 0.0588235
0.380392 0.231373 0.0784314
0.462745 0.247059 0.0941176
0.552941 0.27451 0.109804
0.627451 0.294118 0.133333
0.705882 0.317647 0.156863
0.760784 0.333333 0.164706
0.792157 0.34902 0.184314
0.827451 0.360784 0.192157
0.85098 0.368627 0.196078
0.0588235 0.247059 0.0431373
0.0627451 0.25098 0.0470588
0.0784314 0.25098 0.0509804
0.0980392 0.254902 0.0509804
0.137255 0.254902 0.0588235
0.188235 0.266667 0.0588235
0.239216 0.27451 0.0666667
0.298039 0.27451 0.0705882
0.376471 0.294118 0.0862745
0.466667 0.309804 0.105882
0.552941 0.329412 0.121569
0.627451 0.34902 0.137255
0.705882 0.372549 0.156863
0.760784 0.396078 0.172549
0.796078 0.407843 0.184314
0.835294 0.423529 0.2
0.862745 0.427451 0.211765
0.0784314 0.321569 0.0588235
0.0784314 0.321569 0.0588235
0.0980392 0.329412 0.0627451
0.117647 0.333333 0.0666667
0.156863 0.333333 0.0705882
0.192157 0.337255 0.0745098
0.25098 0.34902 0.0823529
0.317647 0.352941 0.0901961
0.384314 0.356863 0.0901961
0.466667 0.368627 0.105882
0.564706 0.396078 0.12549
0.643137 0.411765 0.145098
0.709804 0.443137 0.164706
0.764706 0.454902 0.184314
0.796078 0.466667 0.192157
0.835294 0.478431 0.203922
0.862745 0.482353 0.211765
0.0980392 0.411765 0.0784314
0.0980392 0.403922 0.0745098
0.117647 0.411765 0.0784314
0.145098 0.411765 0.0862745
0.176471 0.419608 0.0862745
0.219608 0.423529 0.0901961
0.278431 0.427451 0.0941176
0.333333 0.431373 0.101961
0.407843 0.439216 0.105882
0.482353 0.45098 0.117647
0.572549 0.462745 0.133333
0.647059 0.490196 0.156863
0.717647 0.501961 0.176471
0.776471 0.521569 0.192157
0.807843 0.533333 0.2
0.839216 0.537255 0.215686
0.866667 0.552941 0.219608
0.113725 0.494118 0.0901961
0.117647 0.490196 0.0901961
0.137255 0.494118 0.0901961
0.160784 0.494118 0.0901961
0.203922 0.498039 0.101961
0.243137 0.501961 0.109804
0.294118 0.509804 0.109804
0.356863 0.513725 0.12549
0.423529 0.521569 0.121569
0.501961 0.52549 0.133333
0.584314 0.537255 0.145098
0.65098 0.560784 0.160784
0.72549 0.568627 0.184314
0.776471 0.588235 0.196078
0.811765 0.6 0.207843
0.843137 0.607843 0.223529
0.870588 0.611765 0.231373
0.145098 0.580392 0.117647
0.145098 0.580392 0.117647
0.160784 0.584314 0.117647
0.188235 0.584314 0.121569
0.223529 0.592157 0.121569
0.262745 0.588235 0.12549
0.321569 0.592157 0.133333
0.384314 0.6 0.133333
0.458824 0.611765 0.152941
0.521569 0.611765 0.156863
0.588235 0.615686 0.160784
0.662745 0.627451 0.168627
0.729412 0.647059 0.196078
0.788235 0.666667 0.211765
0.811765 0.666667 0.219608
0.843137 0.67451 0.231373
0.87451 0.678431 0.235294
0.168627 0.662745 0.133333
0.168627 0.662745 0.133333
0.188235 0.658824 0.137255
0.211765 0.666667 0.137255
0.25098 0.666667 0.141176
0.294118 0.670588 0.14902
0.337255 0.67451 0.152941
0.4 0.67451 0.156863
0.47451 0.682353 0.164706
0.552941 0.694118 0.176471
0.615686 0.698039 0.184314
0.67451 0.701961 0.192157
0.737255 0.709804 0.2
0.792157 0.721569 0.219608
0.827451 0.737255 0.235294
0.854902 0.741176 0.239216
0.882353 0.745098 0.25098
0.184314 0.72549 0.14902
0.192157 0.72549 0.152941
0.207843 0.72549 0.156863
0.235294 0.729412 0.156863
0.266667 0.737255 0.160784
0.313725 0.737255 0.168627
0.364706 0.737255 0.172549
0.431373 0.737255 0.168627
0.494118 0.741176 0.188235
0.564706 0.74902 0.192157
0.623529 0.752941 0.2
0.690196 0.764706 0.211765
0.760784 0.772549 0.219608
0.8 0.776471 0.235294
0.831373 0.788235 0.235294
0.862745 0.792157 0.25098
0.886275 0.796078 0.254902
0.211765 0.760784 0.168627
0.211765 0.760784 0.168627
0.223529 0.760784 0.164706
0.243137 0.764706 0.164706
0.290196 0.772549 0.172549
0.321569 0.772549 0.172549
0.380392 0.772549 0.184314
0.439216 0.776471 0.192157
0.509804 0.784314 0.196078
0.576471 0.788235 0.2
0.635294 0.792157 0.211765
0.701961 0.803922 0.219608
0.756863 0.803922 0.231373
0.803922 0.811765 0.239216
0.827451 0.819608 0.25098
0.866667 0.823529 0.258824
0.894118 0.831373 0.262745
0.215686 0.796078 0.172549
0.227451 0.8 0.176471
0.239216 0.803922 0.184314
0.262745 0.803922 0.184314
0.294118 0.803922 0.184314
0.337255 0.807843 0.184314
0.392157 0.811765 0.192157
0.458824 0.815686 0.2
0.521569 0.815686 0.207843
0.588235 0.827451 0.215686
0.647059 0.831373 0.219608
0.705882 0.839216 0.227451
0.764706 0.839216 0.243137
0.811765 0.847059 0.247059
0.839216 0.85098 0.25098
0.870588 0.854902 0.262745
0.898039 0.858824 0.270588
0.223529 0.831373 0.188235
0.227451 0.831373 0.188235
0.247059 0.831373 0.188235
0.266667 0.835294 0.188235
0.305882 0.835294 0.188235
0.345098 0.835294 0.192157
0.396078 0.835294 0.192157
0.458824 0.843137 0.211765
0.52549 0.847059 0.211765
0.592157 0.85098 0.223529
0.647059 0.858824 0.231373
0.705882 0.862745 0.239216
0.768627 0.870588 0.247059
0.811765 0.878431 0.258824
0.839216 0.886275 0.266667
0.870588 0.882353 0.266667
0.898039 0.882353 0.270588
0 0 0.00784314
0 0 0
0.027451 0.00392157 0.00392157
0.0509804 0.0117647 0.0156863
0.0980392 0.0196078 0.0235294
0.14902 0.0313725 0.0313725
0.211765 0.0392157 0.0352941
0.278431 0.0509804 0.0470588
0.34902 0.0705882 0.0627451
0.443137 0.0941176 0.0784314
0.537255 0.109804 0.0980392
0.619608 0.133333 0.12549
0.694118 0.156863 0.133333
0.74902 0.180392 0.160784
0.792157 0.192157 0.168627
0.823529 0.207843 0.180392
0.843137 0.211765 0.180392
0.00392157 0.00392157 0.00392157
0.00392157 0.00392157 0.00392157
0.027451 0.0117647 0.0156863
0.054902 0.0156863 0.0196078
0.0980392 0.0196078 0.0235294
0.141176 0.0313725 0.027451
0.203922 0.0431373 0.0352941
0.27451 0.054902 0.0509804
0.352941 0.0745098 0.0588235
0.439216 0.0862745 0.0823529
0.537255 0.109804 0.0980392
0.615686 0.137255 0.117647
0.694118 0.156863 0.133333
0.74902 0.180392 0.160784
0.788235 0.196078 0.168627
0.823529 0.207843 0.180392
0.847059 0.211765 0.192157
0 0.0196078 0.00392157
0.0117647 0.0196078 0.00784314
0.0235294 0.0196078 0.0117647
0.0509804 0.0313725 0.0196078
0.0980392 0.0392157 0.027451
0.145098 0.0470588 0.027451
0.203922 0.0588235 0.0352941
0.270588 0.0705882 0.054902
0.360784 0.0901961 0.0627451
0.439216 0.105882 0.0862745
0.537255 0.12549 0.101961
0.615686 0.14902 0.117647
0.698039 0.176471 0.141176
0.752941 0.192157 0.160784
0.788235 0.207843 0.168627
0.815686 0.219608 0.176471
0.843137 0.227451 0.192157
0.00784314 0.0470588 0.0156863
0.0196078 0.0470588 0.0156863
0.0352941 0.0470588 0.0196078
0.0470588 0.0470588 0.0156863
0.0941176 0.054902 0.0196078
0.14902 0.0705882 0.0352941
0.211765 0.0862745 0.0431373
0.286275 0.0980392 0.0509804
0.356863 0.113725 0.0705882
0.454902 0.133333 0.0901961
0.545098 0.14902 0.101961
0.623529 0.180392 0.12549
0.698039 0.2 0.141176
0.752941 0.211765 0.160784
0.788235 0.231373 0.176471
0.819608 0.239216 0.184314
0.847059 0.25098 0.196078
0.0156863 0.0823529 0.0196078
0.0196078 0.0862745 0.0156863
0.0392157 0.0901961 0.0235294
0.0627451 0.0901961 0.027451
0.109804 0.0980392 0.0313725
0.152941 0.101961 0.0352941
0.215686 0.113725 0.0470588
0.286275 0.137255 0.0627451
0.364706 0.141176 0.0745098
0.462745 0.160784 0.0901961
0.545098 0.188235 0.105882
0.623529 0.207843 0.121569
0.698039 0.231373 0.145098
0.756863 0.25098 0.164706
0.792157 0.262745 0.176471
0.819608 0.27451 0.192157
0.85098 0.286275 0.192157
0.0313725 0.12549 0.0313725
0.0392157 0.133333 0.0313725
0.054902 0.133333 0.027451
0.0784314 0.133333 0.0352941
0.113725 0.137255 0.0352941
0.156863 0.141176 0.0431373
0.215686 0.152941 0.0509804
0.286275 0.168627 0.0588235
0.364706 0.188235 0.0745098
0.458824 0.203922 0.0941176
0.54902 0.219608 0.109804
0.615686 0.243137 0.12549
0.698039 0.270588 0.156863
0.756863 0.290196 0.164706
0.792157 0.301961 0.176471
0.823529 0.317647 0.192157
0.85098 0.321569 0.196078
0.0470588 0.188235 0.0392157
0.0470588 0.188235 0.0392157
0.0666667 0.192157 0.0470588
0.0941176 0.192157 0.0392157
0.129412 0.192157 0.0470588
0.172549 0.196078 0.054902
0.223529 0.207843 0.0588235
0.294118 0.215686 0.0705882
0.372549 0.235294 0.0862745
0.462745 0.247059 0.0941176
0.556863 0.266667 0.113725
0.635294 0.290196 0.133333
0.705882 0.317647 0.156863
0.760784 0.333333 0.172549
0.796078 0.352941 0.188235
0.827451 0.360784 0.196078
0.858824 0.364706 0.203922
0.0627451 0.25098 0.054902
0.0627451 0.25098 0.054902
0.0823529 0.254902 0.054902
0.105882 0.254902 0.054902
0.145098 0.262745 0.0588235
0.192157 0.270588 0.0627451
0.231373 0.262745 0.0627451
0.298039 0.27451 0.0784314
0.384314 0.294118 0.0901961
0.470588 0.313725 0.109804
0.552941 0.329412 0.121569
0.631373 0.352941 0.141176
0.709804 0.376471 0.160784
0.764706 0.4 0.176471
0.803922 0.407843 0.196078
0.831373 0.419608 0.196078
0.862745 0.427451 0.211765
0.0784314 0.321569 0.0588235
0.0823529 0.32549 0.0627451
0.0980392 0.329412 0.0705882
0.113725 0.329412 0.0666667
0.156863 0.333333 0.0705882
0.2 0.337255 0.0784314
0.258824 0.345098 0.0901961
0.317647 0.352941 0.0901961
0.392157 0.356863 0.0941176
0.478431 0.372549 0.109804
0.564706 0.396078 0.129412
0.643137 0.419608 0.14902
0.709804 0.435294 0.164706
0.768627 0.45098 0.192157
0.807843 0.466667 0.196078
0.839216 0.478431 0.215686
0.862745 0.482353 0.215686
0.0980392 0.411765 0.0784314
0.0980392 0.411765 0.0784314
0.117647 0.411765 0.0862745
0.14902 0.419608 0.0941176
0.176471 0.427451 0.0901961
0.215686 0.427451 0.0980392
0.262745 0.427451 0.0901961
0.337255 0.435294 0.105882
0.407843 0.447059 0.109804
0.47451 0.45098 0.121569
0.568627 0.466667 0.137255
0.643137 0.486275 0.152941
0.717647 0.501961 0.180392
0.780392 0.52549 0.196078
0.807843 0.529412 0.207843
0.839216 0.537255 0.215686
0.870588 0.552941 0.231373
0.113725 0.490196 0.0980392
0.117647 0.498039 0.0941176
0.137255 0.490196 0.0980392
0.160784 0.494118 0.0980392
0.203922 0.494118 0.105882
0.247059 0.501961 0.109804
0.298039 0.513725 0.117647
0.356863 0.513725 0.12549
0.423529 0.521569 0.12549
0.505882 0.529412 0.137255
0.584314 0.537255 0.152941
0.65098 0.556863 0.164706
0.72549 0.576471 0.188235
0.776471 0.588235 0.196078
0.815686 0.596078 0.215686
0.843137 0.607843 0.223529
0.870588 0.611765 0.231373
0.145098 0.580392 0.117647
0.152941 0.580392 0.121569
0.160784 0.580392 0.12549
0.188235 0.584314 0.121569
0.223529 0.592157 0.121569
0.266667 0.592157 0.129412
0.317647 0.596078 0.133333
0.384314 0.6 0.141176
0.454902 0.607843 0.14902
0.533333 0.611765 0.160784
0.592157 0.619608 0.164706
0.654902 0.627451 0.172549
0.729412 0.647059 0.196078
0.788235 0.658824 0.215686
0.823529 0.666667 0.223529
0.854902 0.67451 0.235294
0.878431 0.67451 0.243137
0.172549 0.666667 0.137255
0.168627 0.662745 0.133333
0.188235 0.666667 0.141176
0.211765 0.666667 0.145098
0.25098 0.666667 0.14902
0.294118 0.67451 0.152941
0.337255 0.670588 0.160784
0.403922 0.678431 0.160784
0.47451 0.682353 0.172549
0.552941 0.698039 0.180392
0.615686 0.698039 0.184314
0.678431 0.705882 0.196078
0.741176 0.713725 0.203922
0.792157 0.733333 0.227451
0.827451 0.737255 0.235294
0.854902 0.741176 0.247059
0.882353 0.745098 0.25098
0.188235 0.729412 0.160784
0.192157 0.72549 0.160784
0.211765 0.729412 0.160784
0.231373 0.72549 0.160784
0.27451 0.737255 0.164706
0.321569 0.733333 0.168627
0.364706 0.737255 0.172549
0.427451 0.737255 0.176471
0.494118 0.741176 0.188235
0.568627 0.752941 0.196078
0.627451 0.74902 0.2
0.694118 0.768627 0.215686
0.752941 0.768627 0.223529
0.8 0.776471 0.235294
0.831373 0.788235 0.235294
0.866667 0.792157 0.25098
0.890196 0.796078 0.262745
0.211765 0.760784 0.168627
0.211765 0.760784 0.168627
0.219608 0.764706 0.164706
0.243137 0.764706 0.164706
0.286275 0.768627 0.176471
0.329412 0.772549 0.184314
0.380392 0.772549 0.184314
0.443137 0.780392 0.196078
0.513725 0.780392 0.196078
0.576471 0.788235 0.207843
0.639216 0.796078 0.215686
0.701961 0.8 0.227451
0.756863 0.803922 0.231373
0.807843 0.815686 0.243137
0.835294 0.815686 0.25098
0.870588 0.827451 0.262745
0.894118 0.831373 0.262745
0.215686 0.803922 0.180392
0.223529 0.803922 0.184314
0.239216 0.803922 0.184314
0.262745 0.803922 0.184314
0.298039 0.807843 0.188235
0.337255 0.815686 0.188235
0.392157 0.811765 0.2
0.458824 0.815686 0.2
0.517647 0.819608 0.215686
0.588235 0.827451 0.219608
0.647059 0.831373 0.219608
0.701961 0.839216 0.227451
0.764706 0.839216 0.247059
0.811765 0.847059 0.254902
0.839216 0.85098 0.258824
0.87451 0.858824 0.266667
0.898039 0.858824 0.27451
0.223529 0.831373 0.188235
0.235294 0.831373 0.192157
0.247059 0.831373 0.188235
0.278431 0.835294 0.192157
0.305882 0.835294 0.192157
0.356863 0.835294 0.196078
0.4 0.839216 0.2
0.466667 0.843137 0.215686
0.529412 0.843137 0.215686
0.592157 0.85098 0.231373
0.647059 0.858824 0.231373
0.705882 0.862745 0.243137
0.768627 0.870588 0.247059
0.811765 0.878431 0.258824
0.843137 0.882353 0.266667
0.870588 0.882353 0.27451
0.898039 0.882353 0.27451
0.00392157 0 0.0196078
0.00784314 0.00392157 0.0235294
0.0313725 0.0117647 0.027451
0.0509804 0.00784314 0.0235294
0.0980392 0.0196078 0.027451
0.145098 0.0313725 0.0470588
0.203922 0.0392157 0.0470588
0.27451 0.054902 0.0666667
0.356863 0.0745098 0.0784314
0.443137 0.0980392 0.0941176
0.541176 0.109804 0.113725
0.619608 0.133333 0.133333
0.698039 0.156863 0.14902
0.74902 0.180392 0.168627
0.792157 0.196078 0.184314
0.815686 0.207843 0.192157
0.85098 0.215686 0.203922
0 0.00392157 0.0196078
0.00784314 0.00392157 0.0235294
0.0313725 0.0117647 0.027451
0.0509804 0.0156863 0.027451
0.101961 0.027451 0.0352941
0.14902 0.0352941 0.0431373
0.211765 0.0470588 0.0509804
0.286275 0.0666667 0.0627451
0.356863 0.0823529 0.0823529
0.443137 0.0980392 0.0941176
0.541176 0.117647 0.117647
0.627451 0.141176 0.133333
0.701961 0.160784 0.152941
0.752941 0.192157 0.168627
0.792157 0.196078 0.184314
0.819608 0.211765 0.196078
0.839216 0.215686 0.2
0.00392157 0.0196078 0.0235294
0.0117647 0.0196078 0.0156863
0.0313725 0.027451 0.0196078
0.0509804 0.027451 0.027451
0.0980392 0.0352941 0.0352941
0.14902 0.0470588 0.0431373
0.211765 0.054902 0.054902
0.27451 0.0745098 0.0627451
0.360784 0.0862745 0.0784314
0.454902 0.109804 0.0941176
0.537255 0.129412 0.117647
0.619608 0.152941 0.129412
0.701961 0.180392 0.160784
0.756863 0.196078 0.172549
0.788235 0.211765 0.184314
0.819608 0.227451 0.2
0.847059 0.231373 0.203922
0.0117647 0.0470588 0.027451
0.0156863 0.054902 0.0235294
0.0392157 0.0470588 0.027451
0.054902 0.0509804 0.0313725
0.105882 0.0666667 0.0313725
0.14902 0.0666667 0.0470588
0.215686 0.0862745 0.0588235
0.282353 0.0980392 0.0745098
0.356863 0.109804 0.0823529
0.454902 0.133333 0.0901961
0.541176 0.156863 0.121569
0.619608 0.180392 0.133333
0.698039 0.196078 0.152941
0.756863 0.215686 0.172549
0.792157 0.235294 0.188235
0.819608 0.247059 0.196078
0.847059 0.25098 0.2
0.0235294 0.0862745 0.0352941
0.0352941 0.0901961 0.0313725
0.0392157 0.0862745 0.0313725
0.0705882 0.0980392 0.0352941
0.105882 0.0980392 0.0470588
0.152941 0.105882 0.0509804
0.211765 0.121569 0.0588235
0.286275 0.133333 0.0745098
0.368627 0.14902 0.0901961
0.458824 0.160784 0.105882
0.556863 0.192157 0.12549
0.631373 0.211765 0.141176
0.701961 0.235294 0.156863
0.760784 0.254902 0.180392
0.796078 0.266667 0.188235
0.831373 0.286275 0.203922
0.847059 0.290196 0.203922
0.0352941 0.133333 0.0470588
0.0352941 0.129412 0.0431373
0.0509804 0.137255 0.0470588
0.0784314 0.137255 0.0470588
0.109804 0.141176 0.0509804
0.172549 0.14902 0.054902
0.219608 0.156863 0.0666667
0.294118 0.176471 0.0823529
0.372549 0.192157 0.0901961
0.458824 0.207843 0.101961
0.556863 0.227451 0.12549
0.631373 0.247059 0.141176
0.701961 0.270588 0.164706
0.760784 0.290196 0.184314
0.792157 0.305882 0.196078
0.827451 0.321569 0.207843
0.85098 0.32549 0.211765
0.0431373 0.188235 0.054902
0.0509804 0.192157 0.0509804
0.0705882 0.196078 0.0509804
0.0941176 0.196078 0.0509804
0.133333 0.2 0.0588235
0.172549 0.2 0.0666667
0.227451 0.211765 0.0666667
0.298039 0.227451 0.0862745
0.368627 0.235294 0.0901961
0.466667 0.254902 0.105882
0.556863 0.270588 0.133333
0.631373 0.298039 0.152941
0.701961 0.317647 0.172549
0.760784 0.337255 0.188235
0.796078 0.352941 0.196078
0.831373 0.360784 0.215686
0.854902 0.372549 0.215686
0.0627451 0.25098 0.0627451
0.0666667 0.254902 0.0666667
0.0823529 0.254902 0.0627451
0.113725 0.262745 0.0705882
0.14902 0.262745 0.0745098
0.188235 0.266667 0.0745098
0.247059 0.270588 0.0823529
0.309804 0.286275 0.0901961
0.388235 0.298039 0.101961
0.47451 0.317647 0.117647
0.560784 0.333333 0.137255
0.643137 0.356863 0.156863
0.713725 0.376471 0.184314
0.768627 0.4 0.196078
0.8 0.407843 0.203922
0.835294 0.419608 0.215686
0.862745 0.431373 0.231373
0.0784314 0.333333 0.0823529
0.0784314 0.333333 0.0823529
0.0980392 0.333333 0.0823529
0.117647 0.329412 0.0862745
0.160784 0.333333 0.0862745
0.207843 0.345098 0.0862745
0.266667 0.352941 0.0980392
0.32549 0.34902 0.105882
0.392157 0.360784 0.105882
0.47451 0.376471 0.117647
0.568627 0.396078 0.141176
0.647059 0.423529 0.160784
0.713725 0.443137 0.188235
0.768627 0.458824 0.2
0.811765 0.466667 0.215686
0.843137 0.482353 0.227451
0.858824 0.486275 0.227451
0.101961 0.411765 0.0941176
0.105882 0.407843 0.0862745
0.117647 0.411765 0.0901961
0.14902 0.419608 0.0941176
0.180392 0.423529 0.0980392
0.223529 0.427451 0.105882
0.278431 0.431373 0.113725
0.341176 0.439216 0.121569
0.411765 0.447059 0.121569
0.486275 0.454902 0.137255
0.572549 0.466667 0.156863
0.647059 0.486275 0.172549
0.72549 0.509804 0.188235
0.780392 0.52549 0.203922
0.811765 0.533333 0.219608
0.847059 0.545098 0.231373
0.866667 0.54902 0.239216
0.121569 0.498039 0.113725
0.133333 0.490196 0.113725
0.145098 0.498039 0.121569
0.168627 0.498039 0.121569
0.211765 0.509804 0.12549
0.25098 0.509804 0.12549
0.294118 0.513725 0.133333
0.360784 0.517647 0.137255
0.431373 0.52549 0.141176
0.505882 0.533333 0.156863
0.576471 0.537255 0.156863
0.647059 0.556863 0.180392
0.72549 0.576471 0.196078
0.780392 0.588235 0.215686
0.815686 0.603922 0.227451
0.843137 0.615686 0.235294
0.870588 0.615686 0.247059
0.14902 0.580392 0.129412
0.14902 0.580392 0.129412
0.164706 0.584314 0.129412
0.188235 0.580392 0.133333
0.223529 0.588235 0.137255
0.278431 0.592157 0.141176
0.321569 0.596078 0.14902
0.392157 0.603922 0.156863
0.454902 0.603922 0.160784
0.52549 0.615686 0.168627
0.596078 0.623529 0.184314
0.670588 0.631373 0.188235
0.733333 0.647059 0.211765
0.788235 0.654902 0.223529
0.823529 0.666667 0.231373
0.85098 0.678431 0.25098
0.882353 0.682353 0.254902
0.172549 0.662745 0.152941
0.176471 0.662745 0.152941
0.192157 0.666667 0.152941
0.215686 0.666667 0.152941
0.254902 0.666667 0.160784
0.298039 0.670588 0.168627
0.356863 0.67451 0.168627
0.407843 0.678431 0.172549
0.470588 0.686275 0.184314
0.556863 0.694118 0.192157
0.619608 0.701961 0.196078
0.682353 0.705882 0.211765
0.733333 0.713725 0.219608
0.792157 0.733333 0.235294
0.831373 0.737255 0.25098
0.858824 0.741176 0.254902
0.882353 0.74902 0.262745
0.192157 0.729412 0.172549
0.207843 0.729412 0.168627
0.211765 0.72549 0.168627
0.231373 0.729412 0.168627
0.27451 0.733333 0.180392
0.317647 0.737255 0.188235
0.372549 0.737255 0.188235
0.423529 0.741176 0.196078
0.498039 0.74902 0.2
0.568627 0.752941 0.203922
0.627451 0.760784 0.215686
0.682353 0.764706 0.219608
0.756863 0.772549 0.235294
0.803922 0.780392 0.247059
0.835294 0.788235 0.254902
0.866667 0.796078 0.270588
0.894118 0.8 0.27451
0.207843 0.764706 0.184314
0.215686 0.764706 0.180392
0.227451 0.768627 0.188235
0.258824 0.768627 0.188235
0.290196 0.768627 0.192157
0.329412 0.768627 0.192157
0.392157 0.776471 0.2
0.447059 0.780392 0.203922
0.501961 0.784314 0.211765
0.576471 0.784314 0.219608
0.643137 0.796078 0.235294
0.705882 0.803922 0.239216
0.760784 0.811765 0.254902
0.807843 0.815686 0.254902
0.839216 0.819608 0.258824
0.87451 0.831373 0.27451
0.898039 0.831373 0.282353
0.223529 0.803922 0.192157
0.223529 0.803922 0.192157
0.25098 0.803922 0.2
0.262745 0.803922 0.196078
0.301961 0.807843 0.2
0.352941 0.811765 0.2
0.396078 0.815686 0.207843
0.458824 0.815686 0.215686
0.52549 0.823529 0.227451
0.592157 0.831373 0.231373
0.65098 0.831373 0.239216
0.705882 0.839216 0.254902
0.764706 0.843137 0.258824
0.815686 0.847059 0.266667
0.843137 0.854902 0.270588
0.870588 0.854902 0.270588
0.898039 0.858824 0.282353
0.227451 0.835294 0.2
0.235294 0.831373 0.2
0.25098 0.835294 0.2
0.282353 0.831373 0.2
0.317647 0.831373 0.211765
0.352941 0.835294 0.207843
0.403922 0.843137 0.215686
0.466667 0.847059 0.223529
0.533333 0.847059 0.231373
0.592157 0.847059 0.235294
0.65098 0.858824 0.247059
0.713725 0.866667 0.258824
0.772549 0.870588 0.266667
0.819608 0.878431 0.270588
0.847059 0.882353 0.282353
0.870588 0.882353 0.282353
0.898039 0.886275 0.286275
0.00392157 0.00392157 0.0352941
0.0117647 0.00784314 0.0392157
0.0313725 0.0117647 0.0392157
0.0588235 0.0196078 0.0509804
0.105882 0.0313725 0.054902
0.14902 0.0352941 0.054902
0.207843 0.0470588 0.0705882
0.286275 0.0627451 0.0901961
0.360784 0.0823529 0.0980392
0.454902 0.0980392 0.12549
0.545098 0.117647 0.137255
0.619608 0.137255 0.14902
0.694118 0.160784 0.168627
0.756863 0.192157 0.192157
0.788235 0.2 0.203922
0.819608 0.215686 0.223529
