All_In_One/addons/Enrich_Colormaster/colormanagement/luts/film_response/Bleach_Bypass_Hot.cube
#Generated by Picture Instruments - Unlimited Filters
TITLE "Bleach Bypass Hot"
LUT_3D_SIZE 5
0 0 0
0.0941176 0.0156863 0.0196078
0.34902 0.0705882 0.054902
0.694118 0.156863 0.133333
0.843137 0.207843 0.188235
0.0196078 0.0862745 0.0156863
0.105882 0.0941176 0.0196078
0.364706 0.141176 0.0745098
0.698039 0.231373 0.137255
0.85098 0.286275 0.184314
0.0784314 0.321569 0.0588235
0.156863 0.333333 0.0705882
0.384314 0.356863 0.0901961
0.709804 0.443137 0.164706
0.862745 0.482353 0.211765
0.168627 0.662745 0.133333
0.25098 0.666667 0.141176
0.47451 0.682353 0.164706
0.737255 0.709804 0.2
0.882353 0.745098 0.25098
0.223529 0.831373 0.188235
0.305882 0.835294 0.188235
0.52549 0.847059 0.211765
0.768627 0.870588 0.247059
0.898039 0.882353 0.270588
0.0156863 0.0117647 0.0666667
0.113725 0.0313725 0.0901961
0.376471 0.0901961 0.133333
0.705882 0.172549 0.211765
0.85098 0.223529 0.254902
0.0352941 0.0980392 0.0862745
0.113725 0.109804 0.0941176
0.376471 0.160784 0.141176
0.705882 0.247059 0.211765
0.858824 0.301961 0.262745
0.0862745 0.333333 0.12549
0.176471 0.34902 0.141176
0.4 0.372549 0.160784
0.729412 0.45098 0.239216
0.870588 0.498039 0.286275
0.176471 0.666667 0.196078
0.266667 0.678431 0.215686
0.486275 0.694118 0.231373
0.745098 0.72549 0.266667
0.894118 0.752941 0.313725
0.235294 0.835294 0.247059
0.333333 0.843137 0.262745
0.545098 0.858824 0.282353
0.780392 0.882353 0.321569
0.901961 0.890196 0.337255
0.0352941 0.0313725 0.254902
0.137255 0.0627451 0.278431
0.427451 0.137255 0.337255
0.737255 0.227451 0.415686
0.878431 0.282353 0.447059
0.0588235 0.121569 0.262745
0.152941 0.137255 0.282353
0.431373 0.215686 0.341176
0.741176 0.298039 0.415686
0.886275 0.34902 0.458824
0.113725 0.356863 0.313725
0.207843 0.372549 0.32549
0.458824 0.419608 0.372549
0.756863 0.494118 0.431373
0.901961 0.541176 0.482353
0.207843 0.682353 0.372549
0.290196 0.698039 0.396078
0.545098 0.733333 0.435294
0.780392 0.752941 0.470588
0.917647 0.784314 0.513725
0.258824 0.847059 0.423529
0.356863 0.854902 0.435294
0.584314 0.886275 0.486275
0.807843 0.909804 0.517647
0.921569 0.921569 0.541176
0.0862745 0.0823529 0.552941
0.184314 0.109804 0.572549
0.466667 0.180392 0.631373
0.780392 0.309804 0.72549
0.92549 0.356863 0.768627
0.109804 0.160784 0.572549
0.192157 0.180392 0.584314
0.47451 0.254902 0.643137
0.788235 0.376471 0.737255
0.929412 0.431373 0.772549
0.160784 0.4 0.615686
0.25098 0.411765 0.615686
0.498039 0.458824 0.662745
0.796078 0.564706 0.745098
0.933333 0.607843 0.788235
0.254902 0.717647 0.670588
0.333333 0.72549 0.686275
0.572549 0.74902 0.721569
0.819608 0.8 0.776471
0.952941 0.831373 0.811765
0.313725 0.870588 0.721569
0.403922 0.882353 0.729412
0.615686 0.909804 0.756863
0.85098 0.952941 0.815686
0.964706 0.960784 0.831373
0.113725 0.101961 0.741176
0.211765 0.129412 0.752941
0.494118 0.207843 0.803922
0.796078 0.333333 0.878431
0.945098 0.411765 0.929412
0.133333 0.188235 0.74902
0.223529 0.207843 0.760784
0.505882 0.286275 0.815686
0.803922 0.403922 0.894118
0.952941 0.478431 0.933333
0.192157 0.423529 0.784314
0.27451 0.435294 0.788235
0.533333 0.482353 0.827451
0.815686 0.592157 0.909804
0.956863 0.647059 0.945098
0.282353 0.733333 0.835294
0.368627 0.737255 0.839216
0.592157 0.772549 0.87451
0.835294 0.823529 0.92549
0.976471 0.858824 0.976471
0.333333 0.882353 0.870588
0.423529 0.890196 0.87451
0.635294 0.917647 0.905882
0.862745 0.960784 0.956863
0.988235 0.988235 0.988235
