All_In_One/addons/Enrich_Colormaster/colormanagement/luts/film_response/Bleach_Bypass_Hot.cube
#Generated by Picture Instruments - Unlimited Filters
TITLE "Bleach Bypass Hot"
LUT_3D_SIZE 9
0 0 0
0.027451 0.00392157 0.00392157
0.0941176 0.0156863 0.0196078
0.207843 0.0352941 0.0313725
0.34902 0.0705882 0.054902
0.533333 0.105882 0.0941176
0.694118 0.156863 0.133333
0.784314 0.192157 0.164706
0.843137 0.207843 0.188235
0 0.0196078 0.00392157
0.0235294 0.0196078 0.00392157
0.0941176 0.0352941 0.0235294
0.207843 0.054902 0.0352941
0.360784 0.0901961 0.0627451
0.545098 0.12549 0.0941176
0.694118 0.172549 0.137255
0.788235 0.207843 0.168627
0.843137 0.231373 0.184314
0.0196078 0.0862745 0.0156863
0.0392157 0.0901961 0.0235294
0.105882 0.0941176 0.0196078
0.211765 0.109804 0.0431373
0.364706 0.141176 0.0745098
0.533333 0.188235 0.101961
0.698039 0.231373 0.137255
0.792157 0.262745 0.176471
0.85098 0.286275 0.184314
0.0392157 0.188235 0.027451
0.0627451 0.188235 0.0352941
0.133333 0.196078 0.0431373
0.223529 0.211765 0.0509804
0.380392 0.231373 0.0784314
0.552941 0.27451 0.109804
0.705882 0.317647 0.156863
0.792157 0.34902 0.184314
0.85098 0.368627 0.196078
0.0784314 0.321569 0.0588235
0.0980392 0.329412 0.0627451
0.156863 0.333333 0.0705882
0.25098 0.34902 0.0823529
0.384314 0.356863 0.0901961
0.564706 0.396078 0.12549
0.709804 0.443137 0.164706
0.796078 0.466667 0.192157
0.862745 0.482353 0.211765
0.113725 0.494118 0.0901961
0.137255 0.494118 0.0901961
0.203922 0.498039 0.101961
0.294118 0.509804 0.109804
0.423529 0.521569 0.121569
0.584314 0.537255 0.145098
0.72549 0.568627 0.184314
0.811765 0.6 0.207843
0.870588 0.611765 0.231373
0.168627 0.662745 0.133333
0.188235 0.658824 0.137255
0.25098 0.666667 0.141176
0.337255 0.67451 0.152941
0.47451 0.682353 0.164706
0.615686 0.698039 0.184314
0.737255 0.709804 0.2
0.827451 0.737255 0.235294
0.882353 0.745098 0.25098
0.211765 0.760784 0.168627
0.223529 0.760784 0.164706
0.290196 0.772549 0.172549
0.380392 0.772549 0.184314
0.509804 0.784314 0.196078
0.635294 0.792157 0.211765
0.756863 0.803922 0.231373
0.827451 0.819608 0.25098
0.894118 0.831373 0.262745
0.223529 0.831373 0.188235
0.247059 0.831373 0.188235
0.305882 0.835294 0.188235
0.396078 0.835294 0.192157
0.52549 0.847059 0.211765
0.647059 0.858824 0.231373
0.768627 0.870588 0.247059
0.839216 0.886275 0.266667
0.898039 0.882353 0.270588
0.00392157 0 0.0196078
0.0313725 0.0117647 0.027451
0.0980392 0.0196078 0.027451
0.203922 0.0392157 0.0470588
0.356863 0.0745098 0.0784314
0.541176 0.109804 0.113725
0.698039 0.156863 0.14902
0.792157 0.196078 0.184314
0.85098 0.215686 0.203922
0.00392157 0.0196078 0.0235294
0.0313725 0.027451 0.0196078
0.0980392 0.0352941 0.0352941
0.211765 0.054902 0.054902
0.360784 0.0862745 0.0784314
0.537255 0.129412 0.117647
0.701961 0.180392 0.160784
0.788235 0.211765 0.184314
0.847059 0.231373 0.203922
0.0235294 0.0862745 0.0352941
0.0392157 0.0862745 0.0313725
0.105882 0.0980392 0.0470588
0.211765 0.121569 0.0588235
0.368627 0.14902 0.0901961
0.556863 0.192157 0.12549
0.701961 0.235294 0.156863
0.796078 0.266667 0.188235
0.847059 0.290196 0.203922
0.0431373 0.188235 0.054902
0.0705882 0.196078 0.0509804
0.133333 0.2 0.0588235
0.227451 0.211765 0.0666667
0.368627 0.235294 0.0901961
0.556863 0.270588 0.133333
0.701961 0.317647 0.172549
0.796078 0.352941 0.196078
0.854902 0.372549 0.215686
0.0784314 0.333333 0.0823529
0.0980392 0.333333 0.0823529
0.160784 0.333333 0.0862745
0.266667 0.352941 0.0980392
0.392157 0.360784 0.105882
0.568627 0.396078 0.141176
0.713725 0.443137 0.188235
0.811765 0.466667 0.215686
0.858824 0.486275 0.227451
0.121569 0.498039 0.113725
0.145098 0.498039 0.121569
0.211765 0.509804 0.12549
0.294118 0.513725 0.133333
0.431373 0.52549 0.141176
0.576471 0.537255 0.156863
0.72549 0.576471 0.196078
0.815686 0.603922 0.227451
0.870588 0.615686 0.247059
0.172549 0.662745 0.152941
0.192157 0.666667 0.152941
0.254902 0.666667 0.160784
0.356863 0.67451 0.168627
0.470588 0.686275 0.184314
0.619608 0.701961 0.196078
0.733333 0.713725 0.219608
0.831373 0.737255 0.25098
0.882353 0.74902 0.262745
0.207843 0.764706 0.184314
0.227451 0.768627 0.188235
0.290196 0.768627 0.192157
0.392157 0.776471 0.2
0.501961 0.784314 0.211765
0.643137 0.796078 0.235294
0.760784 0.811765 0.254902
0.839216 0.819608 0.258824
0.898039 0.831373 0.282353
0.227451 0.835294 0.2
0.25098 0.835294 0.2
0.317647 0.831373 0.211765
0.403922 0.843137 0.215686
0.533333 0.847059 0.231373
0.65098 0.858824 0.247059
0.772549 0.870588 0.266667
0.847059 0.882353 0.282353
0.898039 0.886275 0.286275
0.0156863 0.0117647 0.0666667
0.0313725 0.0156863 0.0705882
0.113725 0.0313725 0.0901961
0.219608 0.054902 0.109804
0.376471 0.0901961 0.133333
0.556863 0.12549 0.168627
0.705882 0.172549 0.211765
0.792157 0.207843 0.231373
0.85098 0.223529 0.254902
0.0117647 0.027451 0.0627451
0.0392157 0.0313725 0.0745098
0.113725 0.0509804 0.0941176
0.219608 0.0745098 0.105882
0.364706 0.109804 0.133333
0.552941 0.141176 0.160784
0.701961 0.188235 0.211765
0.792157 0.223529 0.235294
0.85098 0.247059 0.254902
0.0352941 0.0980392 0.0862745
0.0509804 0.0980392 0.0901961
0.113725 0.109804 0.0941176
0.227451 0.133333 0.117647
0.376471 0.160784 0.141176
0.552941 0.2 0.168627
0.705882 0.247059 0.211765
0.796078 0.27451 0.239216
0.858824 0.301961 0.262745
0.054902 0.192157 0.0980392
0.0784314 0.196078 0.101961
0.14902 0.207843 0.117647
0.239216 0.215686 0.121569
0.392157 0.25098 0.14902
0.568627 0.286275 0.188235
0.717647 0.333333 0.227451
0.803922 0.368627 0.258824
0.862745 0.388235 0.270588
0.0862745 0.333333 0.12549
0.109804 0.341176 0.129412
0.176471 0.34902 0.141176
0.278431 0.356863 0.14902
0.4 0.372549 0.160784
0.576471 0.407843 0.192157
0.729412 0.45098 0.239216
0.807843 0.482353 0.270588
0.870588 0.498039 0.286275
0.129412 0.498039 0.160784
0.14902 0.501961 0.160784
0.215686 0.513725 0.168627
0.313725 0.517647 0.184314
0.458824 0.537255 0.196078
0.588235 0.54902 0.215686
0.737255 0.588235 0.254902
0.823529 0.611765 0.27451
0.87451 0.631373 0.298039
0.176471 0.666667 0.196078
0.207843 0.67451 0.203922
0.266667 0.678431 0.215686
0.360784 0.686275 0.223529
0.486275 0.694118 0.231373
0.623529 0.713725 0.254902
0.745098 0.72549 0.266667
0.831373 0.741176 0.301961
0.894118 0.752941 0.313725
0.215686 0.768627 0.227451
0.231373 0.772549 0.227451
0.298039 0.776471 0.239216
0.392157 0.784314 0.254902
0.517647 0.792157 0.270588
0.647059 0.803922 0.282353
0.764706 0.815686 0.298039
0.843137 0.831373 0.317647
0.894118 0.839216 0.329412
0.235294 0.835294 0.247059
0.258824 0.835294 0.247059
0.333333 0.843137 0.262745
0.423529 0.847059 0.27451
0.545098 0.858824 0.282353
0.658824 0.866667 0.301961
0.780392 0.882353 0.321569
0.854902 0.890196 0.337255
0.901961 0.890196 0.337255
0.0235294 0.0196078 0.141176
0.0431373 0.0313725 0.152941
0.121569 0.0470588 0.164706
0.239216 0.0784314 0.196078
0.392157 0.105882 0.219608
0.568627 0.14902 0.258824
0.713725 0.196078 0.290196
0.807843 0.227451 0.321569
0.866667 0.247059 0.337255
0.0196078 0.0352941 0.14902
0.0431373 0.0431373 0.152941
0.129412 0.0666667 0.168627
0.239216 0.101961 0.196078
0.392157 0.12549 0.223529
0.576471 0.160784 0.25098
0.717647 0.211765 0.298039
0.807843 0.247059 0.32549
0.862745 0.262745 0.333333
0.0392157 0.109804 0.164706
0.0588235 0.105882 0.160784
0.133333 0.117647 0.172549
0.247059 0.152941 0.203922
0.396078 0.188235 0.227451
0.572549 0.219608 0.258824
0.721569 0.270588 0.298039
0.811765 0.305882 0.32549
0.870588 0.32549 0.345098
0.0627451 0.2 0.172549
0.0901961 0.211765 0.188235
0.152941 0.219608 0.188235
0.262745 0.247059 0.211765
0.415686 0.270588 0.239216
0.576471 0.309804 0.266667
0.733333 0.356863 0.309804
0.819608 0.380392 0.333333
0.870588 0.407843 0.352941
0.0980392 0.337255 0.203922
0.121569 0.345098 0.207843
0.184314 0.356863 0.219608
0.301961 0.380392 0.235294
0.423529 0.384314 0.247059
0.596078 0.431373 0.282353
0.741176 0.47451 0.321569
0.827451 0.498039 0.352941
0.882353 0.513725 0.364706
0.137255 0.513725 0.235294
0.160784 0.513725 0.239216
0.227451 0.521569 0.25098
0.333333 0.541176 0.27451
0.466667 0.54902 0.278431
0.607843 0.568627 0.298039
0.74902 0.603922 0.329412
0.835294 0.627451 0.368627
0.894118 0.639216 0.380392
0.184314 0.67451 0.27451
0.207843 0.67451 0.282353
0.278431 0.686275 0.298039
0.384314 0.701961 0.301961
0.505882 0.709804 0.317647
0.643137 0.729412 0.337255
0.760784 0.737255 0.352941
0.847059 0.756863 0.388235
0.898039 0.768627 0.396078
0.227451 0.772549 0.305882
0.247059 0.776471 0.301961
0.321569 0.788235 0.32549
0.411765 0.792157 0.337255
0.541176 0.803922 0.34902
0.658824 0.815686 0.364706
0.776471 0.835294 0.376471
0.85098 0.839216 0.396078
0.909804 0.847059 0.411765
0.247059 0.831373 0.321569
0.270588 0.839216 0.32549
0.337255 0.843137 0.337255
0.439216 0.858824 0.34902
0.560784 0.866667 0.364706
0.67451 0.878431 0.384314
0.788235 0.890196 0.392157
0.862745 0.901961 0.419608
0.917647 0.905882 0.423529
0.0352941 0.0313725 0.254902
0.0588235 0.0392157 0.266667
0.137255 0.0627451 0.278431
0.254902 0.0980392 0.301961
0.427451 0.137255 0.337255
0.588235 0.180392 0.372549
0.737255 0.227451 0.415686
0.815686 0.254902 0.427451
0.878431 0.282353 0.447059
0.0392157 0.0509804 0.258824
0.0666667 0.054902 0.262745
0.14902 0.0823529 0.286275
0.262745 0.105882 0.301961
0.427451 0.156863 0.341176
0.584314 0.196078 0.376471
0.733333 0.243137 0.407843
0.823529 0.270588 0.435294
0.878431 0.294118 0.45098
0.0588235 0.121569 0.262745
0.0745098 0.121569 0.270588
0.152941 0.137255 0.282353
0.270588 0.168627 0.313725
0.431373 0.215686 0.341176
0.6 0.25098 0.376471
0.741176 0.298039 0.415686
0.827451 0.329412 0.443137
0.886275 0.34902 0.458824
0.0784314 0.215686 0.290196
0.105882 0.227451 0.298039
0.168627 0.235294 0.298039
0.278431 0.262745 0.321569
0.431373 0.298039 0.352941
0.603922 0.337255 0.380392
0.741176 0.380392 0.423529
0.831373 0.419608 0.439216
0.890196 0.431373 0.466667
0.113725 0.356863 0.313725
0.133333 0.360784 0.305882
0.207843 0.372549 0.32549
0.309804 0.4 0.337255
0.458824 0.419608 0.372549
0.611765 0.458824 0.4
0.756863 0.494118 0.431373
0.835294 0.52549 0.466667
0.901961 0.541176 0.482353
0.156863 0.521569 0.345098
0.180392 0.521569 0.345098
0.247059 0.533333 0.356863
0.356863 0.54902 0.372549
0.501961 0.576471 0.4
0.623529 0.592157 0.411765
0.772549 0.627451 0.45098
0.847059 0.647059 0.470588
0.901961 0.662745 0.494118
0.207843 0.682353 0.372549
0.227451 0.686275 0.380392
0.290196 0.698039 0.396078
0.403922 0.709804 0.411765
0.545098 0.733333 0.435294
0.658824 0.741176 0.447059
0.780392 0.752941 0.470588
0.85098 0.772549 0.501961
0.917647 0.784314 0.513725
0.239216 0.788235 0.411765
0.262745 0.788235 0.407843
0.329412 0.792157 0.415686
0.435294 0.803922 0.435294
0.568627 0.823529 0.454902
0.682353 0.835294 0.478431
0.796078 0.847059 0.501961
0.866667 0.85098 0.509804
0.921569 0.862745 0.529412
0.258824 0.847059 0.423529
0.286275 0.847059 0.423529
0.356863 0.854902 0.435294
0.454902 0.870588 0.447059
0.584314 0.886275 0.486275
0.694118 0.890196 0.501961
0.807843 0.909804 0.517647
0.87451 0.913725 0.52549
0.921569 0.921569 0.541176
0.0588235 0.0470588 0.388235
0.0862745 0.0666667 0.396078
0.156863 0.0823529 0.403922
0.278431 0.109804 0.431373
0.443137 0.156863 0.47451
0.615686 0.211765 0.521569
0.756863 0.258824 0.560784
0.843137 0.294118 0.580392
0.898039 0.317647 0.607843
0.0627451 0.0745098 0.392157
0.0862745 0.0823529 0.396078
0.160784 0.105882 0.415686
0.282353 0.133333 0.435294
0.443137 0.176471 0.470588
0.623529 0.231373 0.517647
0.760784 0.27451 0.560784
0.847059 0.313725 0.596078
0.898039 0.333333 0.603922
0.0784314 0.137255 0.407843
0.0980392 0.141176 0.4
0.172549 0.152941 0.415686
0.290196 0.192157 0.447059
0.458824 0.231373 0.470588
0.623529 0.286275 0.52549
0.760784 0.333333 0.560784
0.847059 0.368627 0.6
0.898039 0.380392 0.607843
0.105882 0.231373 0.415686
0.117647 0.247059 0.423529
0.188235 0.254902 0.435294
0.294118 0.270588 0.45098
0.462745 0.317647 0.486275
0.631373 0.368627 0.537255
0.764706 0.419608 0.576471
0.85098 0.45098 0.603922
0.901961 0.462745 0.615686
0.133333 0.372549 0.443137
0.152941 0.376471 0.443137
0.219608 0.4 0.458824
0.321569 0.411765 0.466667
0.47451 0.45098 0.505882
0.635294 0.482353 0.552941
0.772549 0.529412 0.580392
0.858824 0.556863 0.619608
0.913725 0.576471 0.627451
0.176471 0.537255 0.478431
0.207843 0.537255 0.478431
0.266667 0.552941 0.486275
0.368627 0.568627 0.509804
0.517647 0.588235 0.533333
0.65098 0.619608 0.568627
0.784314 0.65098 0.611765
0.866667 0.670588 0.627451
0.921569 0.686275 0.643137
0.227451 0.698039 0.517647
0.247059 0.701961 0.517647
0.317647 0.705882 0.52549
0.423529 0.72549 0.552941
0.556863 0.741176 0.576471
0.682353 0.764706 0.603922
0.792157 0.772549 0.623529
0.878431 0.8 0.654902
0.933333 0.807843 0.658824
0.262745 0.788235 0.541176
0.286275 0.8 0.541176
0.352941 0.8 0.556863
0.447059 0.815686 0.572549
0.580392 0.839216 0.6
0.701961 0.854902 0.631373
0.819608 0.862745 0.643137
0.886275 0.87451 0.658824
0.937255 0.886275 0.678431
0.286275 0.858824 0.564706
0.309804 0.862745 0.564706
0.372549 0.866667 0.576471
0.47451 0.878431 0.592157
0.596078 0.894118 0.611765
0.717647 0.917647 0.647059
0.823529 0.929412 0.658824
0.901961 0.941176 0.682353
0.94902 0.937255 0.686275
0.0862745 0.0823529 0.552941
0.109804 0.0862745 0.564706
0.184314 0.109804 0.572549
0.309804 0.137255 0.611765
0.466667 0.180392 0.631373
0.631373 0.239216 0.678431
0.780392 0.309804 0.72549
0.866667 0.337255 0.74902
0.92549 0.356863 0.768627
0.0980392 0.101961 0.556863
0.113725 0.101961 0.560784
0.188235 0.117647 0.580392
0.309804 0.152941 0.6
0.466667 0.2 0.635294
0.635294 0.25098 0.678431
0.784314 0.32549 0.733333
0.870588 0.356863 0.756863
0.921569 0.372549 0.760784
0.109804 0.160784 0.572549
0.133333 0.160784 0.568627
0.192157 0.180392 0.584314
0.313725 0.207843 0.611765
0.47451 0.254902 0.643137
0.639216 0.309804 0.686275
0.788235 0.376471 0.737255
0.866667 0.407843 0.752941
0.929412 0.431373 0.772549
0.12549 0.262745 0.580392
0.14902 0.270588 0.596078
0.211765 0.278431 0.6
0.317647 0.298039 0.619608
0.490196 0.345098 0.65098
0.643137 0.4 0.694118
0.796078 0.458824 0.745098
0.866667 0.486275 0.756863
0.92549 0.505882 0.776471
0.160784 0.4 0.615686
0.184314 0.4 0.611765
0.25098 0.411765 0.615686
0.352941 0.431373 0.639216
0.498039 0.458824 0.662745
0.654902 0.509804 0.709804
0.796078 0.564706 0.745098
0.878431 0.592157 0.772549
0.933333 0.607843 0.788235
0.203922 0.560784 0.643137
0.223529 0.564706 0.643137
0.286275 0.568627 0.654902
0.388235 0.588235 0.662745
0.537255 0.607843 0.686275
0.670588 0.635294 0.717647
0.811765 0.682353 0.756863
0.890196 0.705882 0.784314
0.945098 0.721569 0.796078
0.254902 0.717647 0.670588
0.27451 0.713725 0.666667
0.333333 0.72549 0.686275
0.439216 0.737255 0.690196
0.572549 0.74902 0.721569
0.698039 0.776471 0.741176
0.819608 0.8 0.776471
0.901961 0.827451 0.803922
0.952941 0.831373 0.811765
0.282353 0.803922 0.690196
0.305882 0.811765 0.694118
0.372549 0.815686 0.705882
0.478431 0.831373 0.729412
0.607843 0.843137 0.741176
0.721569 0.858824 0.764706
0.843137 0.890196 0.796078
0.905882 0.898039 0.815686
0.960784 0.913725 0.827451
0.313725 0.870588 0.721569
0.32549 0.870588 0.717647
0.403922 0.882353 0.729412
0.494118 0.886275 0.737255
0.615686 0.909804 0.756863
0.729412 0.92549 0.780392
0.85098 0.952941 0.815686
0.921569 0.960784 0.827451
0.964706 0.960784 0.831373
0.105882 0.0980392 0.666667
0.133333 0.101961 0.670588
0.207843 0.121569 0.682353
0.321569 0.152941 0.705882
0.482353 0.2 0.733333
0.647059 0.254902 0.780392
0.792157 0.32549 0.819608
0.882353 0.372549 0.85098
0.937255 0.396078 0.862745
0.109804 0.113725 0.662745
0.133333 0.121569 0.666667
0.207843 0.141176 0.690196
0.317647 0.168627 0.705882
0.482353 0.215686 0.745098
0.643137 0.270588 0.780392
0.792157 0.337255 0.819608
0.87451 0.384314 0.847059
0.933333 0.403922 0.866667
0.121569 0.180392 0.678431
0.145098 0.188235 0.67451
0.215686 0.196078 0.690196
0.329412 0.227451 0.717647
0.486275 0.270588 0.741176
0.643137 0.329412 0.780392
0.8 0.4 0.827451
0.882353 0.439216 0.854902
0.937255 0.454902 0.870588
0.145098 0.27451 0.694118
0.172549 0.286275 0.694118
0.235294 0.294118 0.698039
0.341176 0.313725 0.721569
0.498039 0.356863 0.74902
0.662745 0.411765 0.788235
0.8 0.47451 0.835294
0.886275 0.517647 0.862745
0.941176 0.533333 0.87451
0.180392 0.411765 0.717647
0.207843 0.419608 0.709804
0.266667 0.431373 0.729412
0.368627 0.443137 0.741176
0.513725 0.47451 0.752941
0.666667 0.521569 0.796078
0.811765 0.580392 0.839216
0.898039 0.623529 0.870588
0.952941 0.631373 0.882353
0.211765 0.568627 0.741176
0.243137 0.572549 0.745098
0.309804 0.580392 0.745098
0.411765 0.596078 0.768627
0.552941 0.619608 0.788235
0.678431 0.647059 0.807843
0.819608 0.694118 0.854902
0.901961 0.72549 0.878431
0.960784 0.741176 0.894118
0.266667 0.72549 0.764706
0.290196 0.721569 0.772549
0.352941 0.729412 0.776471
0.454902 0.745098 0.796078
0.588235 0.768627 0.819608
0.701961 0.788235 0.831373
0.831373 0.815686 0.870588
0.909804 0.839216 0.894118
0.976471 0.854902 0.913725
0.309804 0.819608 0.788235
0.329412 0.819608 0.788235
0.396078 0.831373 0.807843
0.490196 0.839216 0.815686
0.611765 0.85098 0.831373
0.733333 0.87451 0.858824
0.843137 0.901961 0.882353
0.921569 0.917647 0.901961
0.980392 0.92549 0.921569
0.329412 0.882353 0.807843
0.352941 0.886275 0.811765
0.415686 0.890196 0.819608
0.513725 0.901961 0.823529
0.627451 0.917647 0.85098
0.737255 0.937255 0.870588
0.854902 0.960784 0.901961
0.929412 0.972549 0.917647
0.980392 0.980392 0.92549
0.113725 0.101961 0.741176
0.141176 0.109804 0.741176
0.211765 0.129412 0.752941
0.329412 0.164706 0.776471
0.494118 0.207843 0.803922
0.647059 0.262745 0.839216
0.796078 0.333333 0.878431
0.886275 0.376471 0.909804
0.945098 0.411765 0.929412
0.113725 0.121569 0.737255
0.145098 0.129412 0.745098
0.223529 0.14902 0.752941
0.337255 0.184314 0.776471
0.498039 0.223529 0.803922
0.65098 0.286275 0.839216
0.792157 0.34902 0.882353
0.886275 0.4 0.913725
0.945098 0.427451 0.929412
0.133333 0.188235 0.74902
0.14902 0.192157 0.745098
0.223529 0.207843 0.760784
0.341176 0.235294 0.776471
0.505882 0.286275 0.815686
0.658824 0.341176 0.843137
0.803922 0.403922 0.894118
0.890196 0.45098 0.921569
0.952941 0.478431 0.933333
0.160784 0.290196 0.768627
0.172549 0.290196 0.768627
0.25098 0.305882 0.772549
0.352941 0.32549 0.780392
0.509804 0.364706 0.811765
0.662745 0.423529 0.854902
0.807843 0.482353 0.898039
0.898039 0.52549 0.92549
0.952941 0.552941 0.945098
0.192157 0.423529 0.784314
0.211765 0.427451 0.784314
0.27451 0.435294 0.788235
0.388235 0.454902 0.807843
0.533333 0.482353 0.827451
0.670588 0.533333 0.862745
0.815686 0.592157 0.909804
0.905882 0.623529 0.937255
0.956863 0.647059 0.945098
0.231373 0.576471 0.811765
0.25098 0.580392 0.815686
0.313725 0.588235 0.819608
0.423529 0.607843 0.827451
0.556863 0.627451 0.854902
0.686275 0.65098 0.87451
0.819608 0.701961 0.909804
0.913725 0.729412 0.941176
0.972549 0.745098 0.960784
0.282353 0.733333 0.835294
0.298039 0.733333 0.835294
0.368627 0.737255 0.839216
0.470588 0.74902 0.858824
0.592157 0.772549 0.87451
0.713725 0.792157 0.898039
0.835294 0.823529 0.92549
0.921569 0.847059 0.952941
0.976471 0.858824 0.976471
0.313725 0.823529 0.854902
0.337255 0.823529 0.862745
0.4 0.831373 0.866667
0.501961 0.839216 0.878431
0.615686 0.858824 0.901961
0.729412 0.878431 0.917647
0.854902 0.905882 0.94902
0.929412 0.92549 0.964706
0.988235 0.937255 0.992157
0.333333 0.882353 0.870588
0.356863 0.886275 0.870588
0.423529 0.890196 0.87451
0.529412 0.905882 0.898039
0.635294 0.917647 0.905882
0.745098 0.937255 0.933333
0.862745 0.960784 0.956863
0.941176 0.980392 0.984314
0.988235 0.988235 0.988235
