All_In_One/addons/Enrich_Colormaster/colormanagement/luts/film_response/Burn.cube
TITLE "Burn"
LUT_3D_SIZE 8
DOMAIN_MIN 0.000000 0.000000 0.000000
DOMAIN_MAX 0.903226 0.903226 0.903226
0.1255 0.0000 0.0118
0.1961 0.0000 0.0118
0.2824 0.0000 0.0118
0.3843 0.0000 0.0118
0.5059 0.0000 0.0118
0.6627 0.0000 0.0118
0.8039 0.0000 0.0118
0.9216 0.0000 0.0118
0.1137 0.0745 0.0118
0.1961 0.0745 0.0118
0.2824 0.0902 0.0118
0.3843 0.1020 0.0118
0.5059 0.1098 0.0118
0.6627 0.1098 0.0118
0.8039 0.1098 0.0118
0.9216 0.1098 0.0118
0.1020 0.2157 0.0118
0.1843 0.2157 0.0118
0.2824 0.2157 0.0118
0.3843 0.2235 0.0118
0.5059 0.2353 0.0118
0.6627 0.2353 0.0118
0.8039 0.2353 0.0118
0.9216 0.2353 0.0118
0.0941 0.3686 0.0118
0.1725 0.3686 0.0118
0.2706 0.3686 0.0118
0.3765 0.3686 0.0118
0.5059 0.3765 0.0118
0.6627 0.3765 0.0118
0.8039 0.3765 0.0118
0.9216 0.3765 0.0118
0.0863 0.5216 0.0118
0.1608 0.5216 0.0118
0.2627 0.5216 0.0118
0.3686 0.5216 0.0118
0.5059 0.5216 0.0118
0.6627 0.5216 0.0118
0.8039 0.5216 0.0118
0.9216 0.5216 0.0118
0.0863 0.6588 0.0118
0.1647 0.6588 0.0118
0.2627 0.6588 0.0118
0.3725 0.6588 0.0118
0.5059 0.6588 0.0118
0.6627 0.6588 0.0118
0.8039 0.6588 0.0118
0.9216 0.6588 0.0118
0.0863 0.7843 0.0118
0.1686 0.7843 0.0118
0.2667 0.7843 0.0118
0.3725 0.7843 0.0118
0.5059 0.7843 0.0118
0.6667 0.7843 0.0118
0.8039 0.7843 0.0118
0.9216 0.7843 0.0118
0.0863 0.9059 0.0118
0.1686 0.9059 0.0118
0.2706 0.9059 0.0118
0.3765 0.9059 0.0118
0.5098 0.9059 0.0118
0.6667 0.9059 0.0118
0.8039 0.9059 0.0118
0.9216 0.9059 0.0118
0.1137 0.0000 0.1176
0.1961 0.0000 0.1216
0.2824 0.0000 0.1255
0.3843 0.0000 0.1333
0.5059 0.0000 0.1412
0.6627 0.0000 0.1412
0.8039 0.0000 0.1412
0.9216 0.0000 0.1412
0.1137 0.0745 0.1216
0.1922 0.0745 0.1216
0.2784 0.0902 0.1255
0.3765 0.1020 0.1333
0.5020 0.1098 0.1412
0.6627 0.1098 0.1412
0.8039 0.1098 0.1412
0.9216 0.1098 0.1412
0.1020 0.2157 0.1255
0.1804 0.2157 0.1255
0.2784 0.2157 0.1255
0.3765 0.2235 0.1333
0.5020 0.2353 0.1412
0.6627 0.2353 0.1412
0.8039 0.2353 0.1412
0.9216 0.2353 0.1412
0.0941 0.3686 0.1333
0.1686 0.3686 0.1333
0.2706 0.3686 0.1333
0.3765 0.3686 0.1333
0.5020 0.3765 0.1412
0.6627 0.3765 0.1412
0.8039 0.3765 0.1412
0.9216 0.3765 0.1412
0.0863 0.5216 0.1412
0.1569 0.5216 0.1412
0.2588 0.5216 0.1412
0.3686 0.5216 0.1412
0.5020 0.5216 0.1412
0.6627 0.5216 0.1412
0.8039 0.5216 0.1412
0.9216 0.5216 0.1412
0.0863 0.6588 0.1412
0.1608 0.6588 0.1412
0.2627 0.6588 0.1412
0.3686 0.6588 0.1412
0.5059 0.6588 0.1412
0.6627 0.6588 0.1412
0.8039 0.6588 0.1412
0.9216 0.6588 0.1412
0.0863 0.7843 0.1412
0.1647 0.7843 0.1412
0.2627 0.7843 0.1412
0.3725 0.7843 0.1412
0.5059 0.7843 0.1412
0.6627 0.7843 0.1412
0.8039 0.7843 0.1412
0.9216 0.7843 0.1412
0.0863 0.9059 0.1412
0.1686 0.9059 0.1412
0.2667 0.9059 0.1412
0.3725 0.9059 0.1412
0.5059 0.9059 0.1412
0.6667 0.9059 0.1412
0.8039 0.9059 0.1412
0.9216 0.9059 0.1412
0.1059 0.0000 0.2471
0.1843 0.0000 0.2471
0.2824 0.0000 0.2510
0.3843 0.0000 0.2588
0.5059 0.0000 0.2627
0.6627 0.0000 0.2627
0.8039 0.0000 0.2627
0.9216 0.0000 0.2627
0.1059 0.0863 0.2471
0.1843 0.0863 0.2471
0.2784 0.0902 0.2510
0.3765 0.1020 0.2588
0.5020 0.1098 0.2627
0.6627 0.1098 0.2627
0.8039 0.1098 0.2627
0.9216 0.1098 0.2627
0.1020 0.2157 0.2510
0.1804 0.2157 0.2510
0.2784 0.2157 0.2510
0.3765 0.2235 0.2588
0.5020 0.2353 0.2627
0.6627 0.2353 0.2627
0.8039 0.2353 0.2627
0.9216 0.2353 0.2627
0.0941 0.3686 0.2588
0.1686 0.3686 0.2588
0.2667 0.3686 0.2588
0.3765 0.3686 0.2588
0.5020 0.3765 0.2627
0.6627 0.3765 0.2627
0.8039 0.3765 0.2627
0.9216 0.3765 0.2627
0.0863 0.5216 0.2627
0.1569 0.5216 0.2627
0.2588 0.5216 0.2627
0.3686 0.5216 0.2627
0.5020 0.5216 0.2627
0.6627 0.5216 0.2627
0.8039 0.5216 0.2627
0.9216 0.5216 0.2627
0.0863 0.6588 0.2627
0.1608 0.6588 0.2627
0.2588 0.6588 0.2627
0.3686 0.6588 0.2627
0.5020 0.6588 0.2627
0.6627 0.6588 0.2627
0.8039 0.6588 0.2627
0.9216 0.6588 0.2627
0.0863 0.7843 0.2627
0.1647 0.7843 0.2627
0.2627 0.7843 0.2627
0.3686 0.7843 0.2627
0.5059 0.7843 0.2627
0.6627 0.7843 0.2627
0.8039 0.7843 0.2627
0.9216 0.7843 0.2627
0.0863 0.9059 0.2627
0.1686 0.9059 0.2627
0.2627 0.9059 0.2627
0.3725 0.9059 0.2627
0.5059 0.9059 0.2627
0.6627 0.9059 0.2627
0.8039 0.9059 0.2627
0.9216 0.9059 0.2627
0.0980 0.0000 0.3686
0.1765 0.0000 0.3686
0.2706 0.0000 0.3686
0.3843 0.0000 0.3686
0.5059 0.0000 0.3686
0.6627 0.0000 0.3686
0.8039 0.0000 0.3686
0.9216 0.0000 0.3686
0.0980 0.0980 0.3686
0.1725 0.0980 0.3686
0.2706 0.0980 0.3686
0.3765 0.1020 0.3686
0.5020 0.1098 0.3686
0.6627 0.1098 0.3686
0.8039 0.1098 0.3686
0.9216 0.1098 0.3686
0.0980 0.2235 0.3686
0.1725 0.2235 0.3686
0.2706 0.2235 0.3686
0.3765 0.2235 0.3686
0.5020 0.2353 0.3686
0.6627 0.2353 0.3686
0.8039 0.2353 0.3686
0.9216 0.2353 0.3686
0.0941 0.3686 0.3686
0.1686 0.3686 0.3686
0.2667 0.3686 0.3686
0.3725 0.3686 0.3686
0.5020 0.3765 0.3686
0.6627 0.3765 0.3686
0.8000 0.3765 0.3686
0.9216 0.3765 0.3686
0.0863 0.5216 0.3686
0.1569 0.5216 0.3686
0.2588 0.5216 0.3686
0.3686 0.5216 0.3686
0.5020 0.5216 0.3686
0.6627 0.5216 0.3686
0.8000 0.5216 0.3686
0.9216 0.5216 0.3686
0.0863 0.6588 0.3686
0.1608 0.6588 0.3686
0.2588 0.6588 0.3686
0.3686 0.6588 0.3686
0.5020 0.6588 0.3686
0.6627 0.6588 0.3686
0.8000 0.6588 0.3686
0.9216 0.6588 0.3686
0.0863 0.7843 0.3686
0.1647 0.7843 0.3686
0.2627 0.7843 0.3686
0.3686 0.7843 0.3686
0.5020 0.7843 0.3686
0.6627 0.7843 0.3686
0.8000 0.7843 0.3686
0.9216 0.7843 0.3686
0.0863 0.9059 0.3686
0.1686 0.9059 0.3686
0.2627 0.9059 0.3686
0.3686 0.9059 0.3686
0.5059 0.9059 0.3686
0.6627 0.9059 0.3686
0.8039 0.9059 0.3686
0.9216 0.9059 0.3686
0.0902 0.0000 0.4745
0.1647 0.0000 0.4745
0.2627 0.0000 0.4745
0.3725 0.0000 0.4745
0.5059 0.0000 0.4745
0.6627 0.0000 0.4745
0.8039 0.0000 0.4745
0.9216 0.0000 0.4745
0.0902 0.1059 0.4745
0.1608 0.1059 0.4745
0.2627 0.1059 0.4745
0.3686 0.1059 0.4745
0.5020 0.1098 0.4745
0.6627 0.1098 0.4745
0.8039 0.1098 0.4745
0.9216 0.1098 0.4745
0.0902 0.2314 0.4745
0.1608 0.2314 0.4745
0.2588 0.2314 0.4745
0.3686 0.2314 0.4745
0.5020 0.2353 0.4745
0.6627 0.2353 0.4745
0.8039 0.2353 0.4745
0.9216 0.2353 0.4745
0.0902 0.3725 0.4745
0.1608 0.3725 0.4745
0.2588 0.3725 0.4745
0.3686 0.3725 0.4745
0.5020 0.3765 0.4745
0.6627 0.3765 0.4745
0.8000 0.3765 0.4745
0.9216 0.3765 0.4745
0.0863 0.5216 0.4745
0.1569 0.5216 0.4745
0.2588 0.5216 0.4745
0.3686 0.5216 0.4745
0.5020 0.5216 0.4745
0.6588 0.5216 0.4745
0.8000 0.5216 0.4745
0.9176 0.5216 0.4745
0.0863 0.6588 0.4745
0.1608 0.6588 0.4745
0.2588 0.6588 0.4745
0.3686 0.6588 0.4745
0.5020 0.6588 0.4745
0.6588 0.6588 0.4745
0.8000 0.6588 0.4745
0.9176 0.6588 0.4745
0.0863 0.7843 0.4745
0.1647 0.7843 0.4745
0.2627 0.7843 0.4745
0.3686 0.7843 0.4745
0.5020 0.7843 0.4745
0.6627 0.7843 0.4745
0.8000 0.7843 0.4745
0.9176 0.7843 0.4745
0.0863 0.9059 0.4745
0.1686 0.9059 0.4745
0.2627 0.9059 0.4745
0.3686 0.9059 0.4745
0.5020 0.9059 0.4745
0.6627 0.9059 0.4745
0.8000 0.9059 0.4745
0.9176 0.9059 0.4745
0.0863 0.0000 0.5647
0.1608 0.0000 0.5647
0.2627 0.0000 0.5647
0.3686 0.0000 0.5647
0.5059 0.0000 0.5647
0.6627 0.0000 0.5647
0.8039 0.0000 0.5647
0.9216 0.0000 0.5647
0.0863 0.1098 0.5647
0.1608 0.1098 0.5647
0.2588 0.1098 0.5647
0.3686 0.1098 0.5647
0.5020 0.1098 0.5647
0.6627 0.1098 0.5647
0.8039 0.1098 0.5647
0.9216 0.1098 0.5647
0.0863 0.2353 0.5647
0.1608 0.2353 0.5647
0.2588 0.2353 0.5647
0.3686 0.2353 0.5647
0.5020 0.2353 0.5647
0.6627 0.2353 0.5647
0.8039 0.2353 0.5647
0.9216 0.2353 0.5647
0.0863 0.3765 0.5647
0.1608 0.3765 0.5647
0.2588 0.3765 0.5647
0.3686 0.3765 0.5647
0.5020 0.3765 0.5647
0.6627 0.3765 0.5647
0.8000 0.3765 0.5647
0.9216 0.3765 0.5647
0.0863 0.5216 0.5647
0.1608 0.5216 0.5647
0.2588 0.5216 0.5647
0.3686 0.5216 0.5647
0.5020 0.5216 0.5608
0.6588 0.5216 0.5608
0.8000 0.5216 0.5608
0.9176 0.5216 0.5608
0.0863 0.6588 0.5647
0.1608 0.6588 0.5647
0.2588 0.6588 0.5647
0.3686 0.6588 0.5647
0.5020 0.6588 0.5608
0.6627 0.6627 0.5490
0.8039 0.6627 0.5490
0.9216 0.6627 0.5490
0.0863 0.7843 0.5647
0.1647 0.7843 0.5647
0.2627 0.7843 0.5647
0.3686 0.7843 0.5647
0.5020 0.7843 0.5608
0.6627 0.7882 0.5490
0.8039 0.7882 0.5490
0.9216 0.7882 0.5490
0.0863 0.9059 0.5647
0.1686 0.9059 0.5647
0.2627 0.9059 0.5647
0.3686 0.9059 0.5647
0.5020 0.9059 0.5608
0.6627 0.9059 0.5490
0.8039 0.9059 0.5490
0.9216 0.9059 0.5490
0.0863 0.0000 0.6471
0.1647 0.0000 0.6471
0.2627 0.0000 0.6471
0.3725 0.0000 0.6471
0.5059 0.0000 0.6471
0.6627 0.0000 0.6471
0.8039 0.0000 0.6471
0.9216 0.0000 0.6471
0.0863 0.1098 0.6471
0.1608 0.1098 0.6471
0.2627 0.1098 0.6471
0.3686 0.1098 0.6471
0.5059 0.1098 0.6471
0.6627 0.1098 0.6471
0.8039 0.1098 0.6471
0.9216 0.1098 0.6471
0.0863 0.2353 0.6471
0.1608 0.2353 0.6471
0.2588 0.2353 0.6471
0.3686 0.2353 0.6471
0.5020 0.2353 0.6471
0.6627 0.2353 0.6471
0.8039 0.2353 0.6471
0.9216 0.2353 0.6471
0.0863 0.3765 0.6471
0.1608 0.3765 0.6471
0.2588 0.3765 0.6471
0.3686 0.3765 0.6471
0.5020 0.3765 0.6471
0.6627 0.3765 0.6471
0.8000 0.3765 0.6471
0.9216 0.3765 0.6471
0.0863 0.5216 0.6471
0.1608 0.5216 0.6471
0.2588 0.5216 0.6471
0.3686 0.5216 0.6471
0.5020 0.5216 0.6431
0.6588 0.5216 0.6431
0.8000 0.5216 0.6431
0.9176 0.5216 0.6431
0.0863 0.6588 0.6471
0.1608 0.6588 0.6471
0.2588 0.6588 0.6471
0.3686 0.6588 0.6471
0.5020 0.6588 0.6431
0.6667 0.6667 0.6235
0.8039 0.6667 0.6235
0.9216 0.6667 0.6235
0.0863 0.7843 0.6471
0.1647 0.7843 0.6471
0.2627 0.7843 0.6471
0.3686 0.7843 0.6471
0.5020 0.7843 0.6431
0.6667 0.7922 0.6196
0.8039 0.7922 0.6196
0.9216 0.7922 0.6196
0.0863 0.9059 0.6471
0.1686 0.9059 0.6471
0.2627 0.9059 0.6471
0.3686 0.9059 0.6471
0.5020 0.9059 0.6431
0.6667 0.9098 0.6196
0.8039 0.9098 0.6196
0.9216 0.9098 0.6196
0.0863 0.0000 0.7216
0.1686 0.0000 0.7216
0.2667 0.0000 0.7216
0.3725 0.0000 0.7216
0.5059 0.0000 0.7216
0.6667 0.0000 0.7216
0.8039 0.0000 0.7216
0.9216 0.0000 0.7216
0.0863 0.1098 0.7216
0.1647 0.1098 0.7216
0.2627 0.1098 0.7216
0.3725 0.1098 0.7216
0.5059 0.1098 0.7216
0.6627 0.1098 0.7216
0.8039 0.1098 0.7216
0.9216 0.1098 0.7216
0.0863 0.2353 0.7216
0.1647 0.2353 0.7216
0.2627 0.2353 0.7216
0.3686 0.2353 0.7216
0.5059 0.2353 0.7216
0.6627 0.2353 0.7216
0.8039 0.2353 0.7216
0.9216 0.2353 0.7216
0.0863 0.3765 0.7216
0.1647 0.3765 0.7216
0.2627 0.3765 0.7216
0.3686 0.3765 0.7216
0.5020 0.3765 0.7216
0.6627 0.3765 0.7216
0.8000 0.3765 0.7216
0.9216 0.3765 0.7216
0.0863 0.5216 0.7216
0.1647 0.5216 0.7216
0.2627 0.5216 0.7216
0.3686 0.5216 0.7216
0.5020 0.5216 0.7216
0.6627 0.5216 0.7216
0.8000 0.5216 0.7216
0.9176 0.5216 0.7216
0.0863 0.6588 0.7216
0.1647 0.6588 0.7216
0.2627 0.6588 0.7216
0.3686 0.6588 0.7216
0.5020 0.6588 0.7216
0.6667 0.6667 0.7098
0.8039 0.6667 0.7098
0.9216 0.6667 0.7098
0.0863 0.7843 0.7216
0.1647 0.7843 0.7216
0.2627 0.7843 0.7216
0.3686 0.7843 0.7216
0.5020 0.7843 0.7216
0.6667 0.7922 0.7059
0.8078 0.7961 0.6980
0.9216 0.7961 0.6980
0.0863 0.9059 0.7216
0.1686 0.9059 0.7216
0.2627 0.9059 0.7216
0.3686 0.9059 0.7216
0.5020 0.9059 0.7216
0.6667 0.9098 0.7059
0.8078 0.9098 0.6941
0.9216 0.9098 0.6941
