All_In_One/addons/Enrich_Colormaster/colormanagement/luts/film_response/Burn.cube
TITLE "Burn"
LUT_3D_SIZE 5
DOMAIN_MIN 0.000000 0.000000 0.000000
DOMAIN_MAX 0.903226 0.903226 0.903226
0.1255 0.0000 0.0118
0.2588 0.0000 0.0118
0.4353 0.0000 0.0118
0.6980 0.0000 0.0118
0.9216 0.0000 0.0118
0.1059 0.1804 0.0118
0.2588 0.1804 0.0118
0.4353 0.2000 0.0118
0.6980 0.2039 0.0118
0.9216 0.2039 0.0118
0.0902 0.4431 0.0118
0.2353 0.4431 0.0118
0.4353 0.4431 0.0118
0.6980 0.4510 0.0118
0.9216 0.4510 0.0118
0.0863 0.6902 0.0118
0.2353 0.6902 0.0118
0.4353 0.6902 0.0118
0.6980 0.6902 0.0118
0.9216 0.6902 0.0118
0.0863 0.9059 0.0118
0.2392 0.9059 0.0118
0.4392 0.9059 0.0118
0.7020 0.9059 0.0118
0.9216 0.9059 0.0118
0.1059 0.0000 0.2196
0.2588 0.0000 0.2196
0.4353 0.0000 0.2275
0.6980 0.0000 0.2314
0.9216 0.0000 0.2314
0.1059 0.1804 0.2196
0.2588 0.1804 0.2196
0.4314 0.2000 0.2275
0.6980 0.2039 0.2314
0.9216 0.2039 0.2314
0.0902 0.4431 0.2275
0.2314 0.4431 0.2275
0.4314 0.4431 0.2275
0.6980 0.4510 0.2314
0.9216 0.4510 0.2314
0.0863 0.6902 0.2314
0.2314 0.6902 0.2314
0.4314 0.6902 0.2314
0.6980 0.6902 0.2314
0.9216 0.6902 0.2314
0.0863 0.9059 0.2314
0.2353 0.9059 0.2314
0.4353 0.9059 0.2314
0.6980 0.9059 0.2314
0.9216 0.9059 0.2314
0.0941 0.0000 0.4196
0.2431 0.0000 0.4196
0.4353 0.0000 0.4235
0.6980 0.0000 0.4235
0.9216 0.0000 0.4235
0.0941 0.1961 0.4196
0.2353 0.1961 0.4196
0.4314 0.2000 0.4235
0.6980 0.2039 0.4235
0.9216 0.2039 0.4235
0.0902 0.4431 0.4235
0.2314 0.4431 0.4235
0.4275 0.4431 0.4235
0.6980 0.4510 0.4235
0.9216 0.4510 0.4235
0.0863 0.6902 0.4235
0.2314 0.6902 0.4235
0.4275 0.6902 0.4235
0.6980 0.6902 0.4235
0.9216 0.6902 0.4235
0.0863 0.9059 0.4235
0.2353 0.9059 0.4235
0.4314 0.9059 0.4235
0.6980 0.9059 0.4235
0.9216 0.9059 0.4235
0.0863 0.0000 0.5843
0.2353 0.0000 0.5843
0.4314 0.0000 0.5843
0.6980 0.0000 0.5843
0.9216 0.0000 0.5843
0.0863 0.2039 0.5843
0.2314 0.2039 0.5843
0.4275 0.2039 0.5843
0.6980 0.2039 0.5843
0.9216 0.2039 0.5843
0.0863 0.4510 0.5843
0.2314 0.4510 0.5843
0.4275 0.4510 0.5843
0.6980 0.4510 0.5843
0.9176 0.4510 0.5843
0.0863 0.6902 0.5843
0.2314 0.6902 0.5843
0.4275 0.6902 0.5843
0.6980 0.6941 0.5686
0.9216 0.6941 0.5686
0.0863 0.9059 0.5843
0.2353 0.9059 0.5843
0.4314 0.9059 0.5843
0.7020 0.9059 0.5686
0.9216 0.9059 0.5686
0.0863 0.0000 0.7216
0.2392 0.0000 0.7216
0.4353 0.0000 0.7216
0.7020 0.0000 0.7216
0.9216 0.0000 0.7216
0.0863 0.2039 0.7216
0.2314 0.2039 0.7216
0.4314 0.2039 0.7216
0.6980 0.2039 0.7216
0.9216 0.2039 0.7216
0.0863 0.4510 0.7216
0.2314 0.4510 0.7216
0.4275 0.4510 0.7216
0.6980 0.4510 0.7216
0.9176 0.4510 0.7216
0.0863 0.6902 0.7216
0.2314 0.6902 0.7216
0.4275 0.6902 0.7216
0.7020 0.6980 0.7059
0.9216 0.6980 0.7059
0.0863 0.9059 0.7216
0.2353 0.9059 0.7216
0.4314 0.9059 0.7216
0.7020 0.9098 0.7020
0.9216 0.9098 0.6941
