All_In_One/addons/Enrich_Colormaster/colormanagement/luts/film_response/carbon_saber_709.cube
TITLE "Generate by Resolve"
LUT_3D_SIZE 5
0 0 0
0.0592813 0.0191043 0.0191043
0.160388 0.0165713 0.0165713
0.350973 0.000869764 0.000869764
0.665812 0 0
0 0.131792 0
0.142763 0.142763 0
0.376272 0.142214 0
0.633936 0.135515 0
0.879377 0.130877 0
0 0.383169 0
0.129244 0.378836 0
0.375845 0.375845 0
0.625315 0.375204 0
0.879133 0.378424 0
0 0.626001 0
0.130663 0.631556 0
0.394064 0.644724 0
0.671641 0.671641 0
0.959625 0.70869 0
0 0.934829 0
0.224826 0.973144 0
0.622614 0.948638 0.296605
0.895659 0.925933 0.804807
0.966522 0.966522 0.963821
0.00859083 0.00859083 0.0208286
0.07364 0.0205081 0.07364
0.175006 0.0124971 0.0937514
0.409644 0 0.130861
0.710353 0 0.142702
0 0.140566 0.140566
0.143572 0.143572 0.143572
0.383566 0.139574 0.139574
0.632547 0.133928 0.133928
0.878096 0.129305 0.129305
0 0.381491 0.132082
0.127993 0.377691 0.127993
0.375189 0.375189 0.125231
0.626108 0.375906 0.125689
0.881727 0.38085 0.130419
0 0.627207 0.126635
0.133867 0.634913 0.133867
0.401755 0.652476 0.151019
0.683177 0.683177 0.181399
0.972473 0.722622 0.222904
0 0.947951 0.195178
0.265415 0.975433 0.265415
0.715953 0.929534 0.609155
0.923827 0.937133 0.8972
0.98175 0.98175 0.98175
0.0152438 0.0152438 0.0684062
0.0823835 0.0192416 0.145541
0.202548 0.00749218 0.202548
0.460716 0 0.30045
0.759365 0 0.348806
0 0.142123 0.318288
0.143328 0.143328 0.36492
0.386114 0.136995 0.386114
0.631205 0.132387 0.381796
0.877104 0.128038 0.377722
0 0.380102 0.380102
0.126879 0.376669 0.376669
0.375082 0.375082 0.375082
0.62707 0.376791 0.376791
0.8851 0.384085 0.384085
0 0.629114 0.378744
0.13814 0.639323 0.388724
0.410651 0.661448 0.410651
0.69601 0.69601 0.44509
0.975769 0.737819 0.499886
0 0.961501 0.459632
0.344976 0.966155 0.552026
0.802304 0.92166 0.802304
0.947585 0.951873 0.943297
0.995575 0.995575 0.995575
0.0192721 0.0192721 0.142245
0.0887922 0.0163882 0.233616
0.236255 0.000411994 0.354177
0.49279 0 0.49279
0.804913 0 0.584375
0 0.142855 0.525383
0.142031 0.142031 0.611337
0.384665 0.135439 0.633875
0.629664 0.130648 0.629664
0.87628 0.12694 0.626505
0 0.37879 0.628397
0.125841 0.375723 0.625605
0.37525 0.37525 0.625376
0.628916 0.378561 0.628931
0.889799 0.388632 0.639216
0 0.631754 0.631754
0.143816 0.645136 0.645136
0.421424 0.672267 0.672267
0.709499 0.709499 0.709499
0.967208 0.757305 0.757305
0 0.97351 0.724407
0.467735 0.947448 0.787549
0.867765 0.926314 0.897032
0.966857 0.967422 0.966857
1 1 1
0.0204929 0.0204929 0.235462
0.0940261 0.0122225 0.339406
0.272282 0 0.553674
0.522866 0 0.712932
0.843839 0 0.843839
0 0.143587 0.765484
0.139422 0.139422 0.87277
0.383185 0.133867 0.881819
0.628458 0.129259 0.878065
0.875654 0.126055 0.875654
0 0.377661 0.877058
0.125246 0.375204 0.875135
0.37586 0.37586 0.87628
0.631495 0.381048 0.881941
0.895262 0.393942 0.895262
0 0.634943 0.885466
0.151522 0.652979 0.903716
0.432837 0.683726 0.934615
0.723461 0.723461 0.972992
0.949004 0.785061 0.949004
0.033051 0.975204 0.975204
0.617548 0.928725 0.928725
0.912734 0.937926 0.937926
0.982559 0.982559 0.982559
1 1 1
