All_In_One/addons/Enrich_Colormaster/colormanagement/luts/film_response/carbon_saber_709.cube
TITLE "Generate by Resolve"
LUT_3D_SIZE 33
0 0 0
0.00363165 0.00318914 0.00318914
0.00849927 0.00637827 0.00637827
0.0145418 0.00943008 0.00943008
0.0214847 0.0120546 0.0120546
0.0294347 0.014313 0.014313
0.0383612 0.0162356 0.0162356
0.0482948 0.0178225 0.0178225
0.0592813 0.0191043 0.0191043
0.0712902 0.0200656 0.0200656
0.083238 0.0204929 0.0204929
0.0950942 0.0204776 0.0204776
0.107057 0.0201114 0.0201114
0.119554 0.0195315 0.0195315
0.132723 0.0187533 0.0187533
0.146471 0.0177768 0.0177768
0.160388 0.0165713 0.0165713
0.174792 0.0151827 0.0151827
0.190036 0.0136416 0.0136416
0.207691 0.0120089 0.0120089
0.230152 0.0102998 0.0102998
0.256672 0.00840772 0.00840772
0.286229 0.00622568 0.00622568
0.317464 0.00370794 0.00370794
0.350973 0.000869764 0.000869764
0.387854 0 0
0.427817 0 0
0.469123 0 0
0.511055 0 0
0.552056 0 0
0.590967 0 0
0.628626 0 0
0.665812 0 0
0.0103456 0.0122683 0.0103456
0.0154269 0.0154269 0.0128481
0.0216373 0.0183719 0.0150912
0.0287022 0.0208133 0.0168917
0.0367742 0.0229496 0.0183566
0.0458381 0.0247654 0.019501
0.0556191 0.0261387 0.0202335
0.0658732 0.0270237 0.0205539
0.0760815 0.0273442 0.0203861
0.0866712 0.0273594 0.0199435
0.0979019 0.0271458 0.0192874
0.109697 0.0267185 0.0184176
0.121981 0.0260624 0.0173495
0.13492 0.0252384 0.0160983
0.148196 0.0241855 0.0146487
0.162646 0.0230259 0.0130617
0.179843 0.0219272 0.0113985
0.201007 0.0208896 0.00962844
0.225986 0.0197757 0.00764477
0.253697 0.0184176 0.00535592
0.282551 0.0166934 0.00271611
0.313878 0.0147097 0
0.348043 0.0124361 0
0.384665 0.00987259 0
0.423178 0.00698863 0
0.462242 0.00376898 0
0.49958 0.000198367 0
0.535195 0 0
0.569833 0 0
0.604822 0 0
0.641642 0 0
0.680949 0 0
0.722423 0 0
0.0174716 0.0258335 0.0174716
0.0236973 0.0285496 0.0188449
0.030869 0.030869 0.019852
0.0387579 0.032639 0.0204166
0.0470893 0.0337987 0.0205081
0.0558175 0.0344549 0.0202335
0.0652323 0.0348974 0.0197452
0.0752117 0.0350652 0.0190127
0.0857404 0.0349889 0.0180667
0.0967727 0.0346532 0.0169223
0.108339 0.0341192 0.0155795
0.120531 0.0334173 0.0140688
0.134417 0.0327916 0.0124666
0.150973 0.0323491 0.0107881
0.170977 0.0320897 0.00894179
0.193881 0.0317845 0.0068513
0.218524 0.0311742 0.00442512
0.24506 0.0303044 0.00167849
0.274693 0.0292668 0
0.306371 0.027924 0
0.340124 0.0263066 0
0.375128 0.0243076 0
0.410193 0.021912 0
0.4448 0.0191043 0
0.477516 0.0158541 0
0.509926 0.0122988 0
0.543175 0.00856031 0
0.578195 0.00469978 0
0.615854 0.000747692 0
0.656168 0 0
0.697108 0 0
0.738689 0 0
0.781476 0 0
0.0205234 0.0394903 0.0205234
0.0272831 0.04094 0.0204623
0.0346532 0.0419318 0.0200809
0.0426795 0.0426795 0.0194705
0.0513771 0.0431983 0.018677
0.0607767 0.043534 0.0176852
0.0706188 0.043534 0.0164645
0.0810407 0.0433356 0.0150454
0.0922255 0.0430152 0.0135042
0.105043 0.0429084 0.0118563
0.120729 0.0433204 0.0101472
0.139178 0.0439307 0.00822461
0.159762 0.0444495 0.00601205
0.181933 0.0446479 0.0034638
0.206104 0.0446174 0.000595102
0.2327 0.0444495 0
0.262303 0.0441749 0
0.29308 0.043473 0
0.32488 0.0423438 0
0.356558 0.0406806 0
0.387366 0.0384527 0
0.417548 0.0357671 0
0.448524 0.0328527 0
0.48014 0.0297093 0
0.513756 0.0264744 0
0.549676 0.0232242 0
0.587457 0.0198825 0
0.626291 0.016434 0
0.666468 0.0129091 0
0.707225 0.00927749 0
0.748867 0.00570687 0
0.791104 0.00216678 0
0.833371 0 0
0.0192264 0.0508278 0.0192264
0.0266728 0.0516976 0.0183413
0.0347601 0.0522774 0.0172427
0.043473 0.0526436 0.0159609
0.0528115 0.0528115 0.0145113
0.0630045 0.0529793 0.0129091
0.0747845 0.0536049 0.0112459
0.0888075 0.0548104 0.00946059
0.105135 0.0562905 0.0074464
0.123461 0.0577096 0.00512703
0.143282 0.0587778 0.0024567
0.165042 0.059678 0
0.18912 0.0604562 0
0.215259 0.0610361 0
0.243015 0.0612345 0
0.272099 0.0610208 0
0.300633 0.0600137 0
0.328634 0.0583352 0
0.356558 0.0561837 0
0.385183 0.0537728 0
0.415213 0.0512398 0
0.447837 0.0487984 0
0.482078 0.0462501 0
0.517784 0.0436255 0
0.554345 0.0408331 0
0.592035 0.0379034 0
0.631373 0.035111 0
0.671046 0.0322271 0
0.711208 0.0293431 0
0.7514 0.0264439 0
0.791394 0.0235599 0
0.831006 0.020737 0
0.870573 0.018143 0
0.0154421 0.0620127 0.0154421
0.0236362 0.0625162 0.0139315
0.0327153 0.0633249 0.012314
0.043183 0.0648814 0.0106203
0.0553902 0.0670481 0.00877394
0.0694133 0.0694133 0.00663767
0.0849928 0.071519 0.00418097
0.102235 0.0734264 0.00140383
0.121782 0.0754711 0
0.14316 0.0772412 0
0.16643 0.0787518 0
0.19115 0.0797894 0
0.216648 0.0801709 0
0.242481 0.0798047 0
0.268116 0.0786755 0
0.294026 0.0770581 0
0.320943 0.075227 0
0.349432 0.0733501 0
0.379919 0.0715343 0
0.41268 0.0698253 0
0.446357 0.0678874 0
0.480842 0.0657664 0
0.516579 0.0635233 0
0.553338 0.061326 0
0.591028 0.0590982 0
0.629755 0.0569619 0
0.667979 0.0546426 0
0.706096 0.0522774 0
0.743954 0.0499428 0
0.781399 0.0476692 0
0.81828 0.0455177 0
0.853605 0.0440223 0
0.88423 0.0433814 0
0.00996414 0.0766461 0.00996414
0.0200198 0.0799725 0.0080415
0.0315862 0.0831922 0.00579843
0.0446632 0.0861067 0.00320439
0.0594034 0.0889448 0.00030518
0.0760052 0.0917983 0
0.0946212 0.0946212 0
0.115114 0.0971847 0
0.136858 0.0990158 0
0.159442 0.0999771 0
0.182391 0.100008 0
0.205692 0.0993362 0
0.229892 0.0983291 0
0.255268 0.0971695 0
0.28217 0.0959945 0
0.310933 0.0949264 0
0.341299 0.0938277 0
0.372747 0.0925307 0
0.405661 0.0911574 0
0.439506 0.0896925 0
0.474388 0.0881514 0
0.510109 0.0865644 0
0.546288 0.0848707 0
0.58265 0.0830701 0
0.619547 0.0813764 0
0.655787 0.0794995 0
0.691783 0.0776379 0
0.727337 0.0758526 0
0.759854 0.0747845 0
0.790661 0.0743572 0
0.821286 0.0737469 0
0.851896 0.0730907 0
0.882521 0.0724346 0
0.0021973 0.101396 0.0021973
0.014313 0.105211 0
0.0281682 0.109087 0
0.0438392 0.112795 0
0.0612345 0.116075 0
0.0801556 0.118654 0
0.100145 0.120272 0
0.120745 0.120745 0
0.142046 0.120531 0
0.164324 0.120012 0
0.1879 0.119463 0
0.213367 0.119203 0
0.240299 0.118883 0
0.26862 0.118471 0
0.298009 0.117815 0
0.328634 0.117006 0
0.360647 0.116258 0
0.393866 0.11548 0
0.427665 0.114488 0
0.461967 0.113344 0
0.49659 0.112047 0
0.531365 0.110643 0
0.566415 0.109285 0
0.601205 0.107881 0
0.635523 0.106447 0
0.666316 0.105776 0
0.69691 0.10515 0
0.727504 0.104509 0
0.758282 0.104051 0
0.788937 0.103441 0
0.819562 0.1028 0
0.850202 0.102159 0
0.880842 0.101534 0
0 0.131792 0
0.00526436 0.135836 0
0.0214237 0.138918 0
0.03888 0.140826 0
0.0574502 0.141894 0
0.0769055 0.142184 0
0.0974594 0.14226 0
0.119341 0.142412 0
0.142763 0.142763 0
0.167758 0.143206 0
0.194217 0.143618 0
0.221637 0.143603 0
0.25034 0.143481 0
0.280324 0.143328 0
0.311421 0.143069 0
0.343496 0.142718 0
0.376272 0.142214 0
0.409262 0.141375 0
0.442542 0.140398 0
0.47599 0.1393 0
0.509438 0.138155 0
0.542092 0.137301 0
0.572778 0.136782 0
0.603342 0.136141 0
0.633936 0.135515 0
0.664515 0.134859 0
0.695109 0.134234 0
0.725963 0.133822 0
0.756588 0.133181 0
0.787213 0.132555 0
0.817868 0.13193 0
0.848524 0.131304 0
0.879377 0.130877 0
0 0.161975 0
0 0.163256 0
0.0102541 0.16408 0
0.0291295 0.165011 0
0.0492256 0.165927 0
0.0707713 0.167071 0
0.0937362 0.168185 0
0.117952 0.169039 0
0.143465 0.169726 0
0.170489 0.170489 0
0.198627 0.170977 0
0.227909 0.171313 0
0.258076 0.171405 0
0.288975 0.171237 0
0.32076 0.171054 0
0.352667 0.170443 0
0.384894 0.169711 0
0.417258 0.168872 0
0.448417 0.16817 0
0.479042 0.167605 0
0.509773 0.167147 0
0.540352 0.166506 0
0.570932 0.165881 0
0.601511 0.16524 0
0.632105 0.164614 0
0.662837 0.16408 0
0.693584 0.163592 0
0.724208 0.162966 0
0.754864 0.162356 0
0.78555 0.161761 0
0.816266 0.161196 0
0.84712 0.160769 0
0.877943 0.160296 0
0 0.188052 0
0 0.189975 0
0 0.191928 0
0.0180514 0.193713 0
0.0403296 0.195193 0
0.0639048 0.196506 0
0.0888991 0.197726 0
0.115419 0.199115 0
0.142947 0.2 0
0.17145 0.200549 0
0.200824 0.200824 0
0.2309 0.200809 0
0.26157 0.200565 0
0.292943 0.200351 0
0.324331 0.199771 0
0.354879 0.199161 0
0.385428 0.19855 0
0.415961 0.197925 0
0.446571 0.19733 0
0.477317 0.196887 0
0.507897 0.196262 0
0.538491 0.195636 0
0.569085 0.19501 0
0.599695 0.194385 0
0.630411 0.193866 0
0.661204 0.193408 0
0.69189 0.192828 0
0.722591 0.192264 0
0.753292 0.191699 0
0.784024 0.19115 0
0.81503 0.190875 0
0.845853 0.190387 0
0.876692 0.189929 0
0 0.219669 0
0 0.221851 0
0 0.223835 0
0.00601205 0.225711 0
0.0305943 0.22742 0
0.0564279 0.228809 0
0.0835279 0.230076 0
0.111498 0.230747 0
0.140322 0.231083 0
0.169863 0.231144 0
0.200015 0.230976 0
0.230549 0.230549 0
0.261311 0.230167 0
0.291844 0.229557 0
0.322377 0.228916 0
0.352926 0.22829 0
0.383474 0.22768 0
0.414267 0.227283 0
0.444846 0.226658 0
0.475441 0.226047 0
0.506035 0.225422 0
0.53666 0.224826 0
0.56733 0.224262 0
0.598215 0.223896 0
0.628901 0.223331 0
0.659602 0.222782 0
0.690333 0.222248 0
0.721111 0.221759 0
0.75198 0.221347 0
0.782986 0.221057 0
0.81384 0.220615 0
0.844739 0.220203 0
0.8757 0.219852 0
0 0.254185 0
0 0.256428 0
0 0.258259 0
0 0.259678 0
0.0210422 0.260884 0
0.0487678 0.261631 0
0.0773327 0.261967 0
0.106661 0.262028 0
0.136995 0.261555 0
0.167514 0.260945 0
0.198215 0.260517 0
0.228779 0.259937 0
0.259312 0.259312 0
0.28986 0.258686 0
0.320409 0.258076 0
0.350973 0.257465 0
0.381781 0.257084 0
0.412375 0.256474 0
0.442985 0.255879 0
0.473625 0.255299 0
0.504295 0.254734 0
0.534966 0.254185 0
0.565896 0.25388 0
0.596628 0.253361 0
0.62742 0.252872 0
0.658228 0.252415 0
0.689036 0.251957 0
0.719936 0.251575 0
0.751034 0.251392 0
0.78201 0.251057 0
0.813016 0.250767 0
0.844022 0.250462 0
0.87509 0.250217 0
0 0.289876 0
0 0.291218 0
0 0.292165 0
0 0.292897 0
0.0129091 0.293156 0
0.0434272 0.292561 0
0.07393 0.291951 0
0.104433 0.291341 0
0.134936 0.290715 0
0.165637 0.290272 0
0.196216 0.289708 0
0.226764 0.289097 0
0.257328 0.288502 0
0.287892 0.287892 0
0.318471 0.287282 0
0.34931 0.286931 0
0.37995 0.286381 0
0.410605 0.285817 0
0.441276 0.285267 0
0.471962 0.284733 0
0.502907 0.284459 0
0.533715 0.284001 0
0.564508 0.283558 0
0.595331 0.283116 0
0.626184 0.282704 0
0.657099 0.282338 0
0.688304 0.282277 0
0.71931 0.281987 0
0.750317 0.281697 0
0.781399 0.281468 0
0.812558 0.281315 0
0.843809 0.281239 0
0.875288 0.281392 0
0 0.323964 0
0 0.323934 0
0 0.323568 0
0 0.322957 0
0.0108186 0.322347 0
0.0413214 0.321736 0
0.0718242 0.321111 0
0.102464 0.320623 0
0.13312 0.320134 0
0.163653 0.319539 0
0.194217 0.318929 0
0.224796 0.318349 0
0.25539 0.317769 0
0.286183 0.317372 0
0.316899 0.316899 0
0.347555 0.31635 0
0.378256 0.315847 0
0.408988 0.315358 0
0.439765 0.3149 0
0.470756 0.314656 0
0.50161 0.31426 0
0.532464 0.313878 0
0.563394 0.313542 0
0.594354 0.313237 0
0.625345 0.312963 0
0.656611 0.312947 0
0.687709 0.312749 0
0.718883 0.312627 0
0.750103 0.312535 0
0.781353 0.312474 0
0.81265 0.312444 0
0.844297 0.312764 0
0.875792 0.312932 0
0 0.35378 0
0 0.353353 0
0 0.352758 0
0 0.352148 0
0.00869764 0.351537 0
0.0392157 0.350942 0
0.0698405 0.350439 0
0.100526 0.349981 0
0.131106 0.349401 0
0.1617 0.348837 0
0.192325 0.348302 0
0.222965 0.347753 0
0.253742 0.347356 0
0.284535 0.34696 0
0.315282 0.346487 0
0.346044 0.346044 0
0.376822 0.345602 0
0.407645 0.34519 0
0.438758 0.345068 0
0.469688 0.344747 0
0.500648 0.344457 0
0.531624 0.344182 0
0.562661 0.343954 0
0.593957 0.343969 0
0.625208 0.343923 0
0.656428 0.343862 0
0.687663 0.343801 0
0.718975 0.343816 0
0.750393 0.343923 0
0.782147 0.34435 0
0.813718 0.344579 0
0.845304 0.344839 0
0.876982 0.345174 0
0 0.383169 0
0 0.382574 0
0 0.381979 0
0 0.381384 0
0.00660716 0.380804 0
0.0373999 0.380468 0
0.0679942 0.379919 0
0.0986191 0.379385 0
0.129244 0.378836 0
0.159884 0.378317 0
0.190661 0.377905 0
0.221561 0.37763 0
0.252323 0.377188 0
0.283101 0.376761 0
0.313909 0.376364 0
0.344793 0.376028 0
0.375845 0.375845 0
0.406928 0.375692 0
0.437903 0.375418 0
0.468956 0.375219 0
0.500084 0.375082 0
0.531273 0.37499 0
0.562646 0.375097 0
0.593988 0.375158 0
0.625315 0.375204 0
0.656764 0.375341 0
0.688273 0.375555 0
0.719829 0.375784 0
0.751644 0.376272 0
0.783398 0.376715 0
0.815244 0.377218 0
0.847181 0.377813 0
0.879133 0.378424 0
0 0.412436 0
0 0.411856 0
0 0.411307 0
0 0.410773 0
0.00489815 0.410468 0
0.0355077 0.409934 0
0.0661631 0.40943 0
0.0968643 0.408972 0
0.127596 0.40853 0
0.158389 0.408148 0
0.189364 0.407919 0
0.220188 0.407553 0
0.251072 0.407233 0
0.282002 0.406943 0
0.312947 0.406668 0
0.34403 0.406516 0
0.37525 0.4065 0
0.406378 0.406378 0
0.437583 0.406317 0
0.468788 0.406271 0
0.500053 0.406256 0
0.53167 0.406607 0
0.563134 0.406775 0
0.594644 0.407004 0
0.626184 0.407248 0
0.657816 0.407553 0
0.689708 0.408148 0
0.721706 0.40882 0
0.753643 0.40943 0
0.785611 0.410056 0
0.8177 0.410788 0
0.849943 0.411688 0
0.882551 0.412955 0
0 0.441855 0
0 0.441321 0
0 0.440803 0
0 0.440558 0
0.0031281 0.440101 0
0.0338598 0.439673 0
0.0646067 0.439246 0
0.0953841 0.438849 0
0.126452 0.438743 0
0.157351 0.438453 0
0.188281 0.438178 0
0.219226 0.437903 0
0.250217 0.43769 0
0.281315 0.437568 0
0.312688 0.437705 0
0.343877 0.437644 0
0.375082 0.437613 0
0.406363 0.437629 0
0.437766 0.437766 0
0.469306 0.438041 0
0.501015 0.438453 0
0.532555 0.438727 0
0.564218 0.439078 0
0.596002 0.439567 0
0.627894 0.440146 0
0.659953 0.440894 0
0.692088 0.441703 0
0.724224 0.442512 0
0.756527 0.443473 0
0.788937 0.444556 0
0.821393 0.445655 0
0.85417 0.447074 0
0.887098 0.448631 0
0 0.471443 0
0 0.471214 0
0 0.470817 0
0 0.470405 0
0.00163272 0.470039 0
0.0324865 0.469703 0
0.063386 0.469429 0
0.0945449 0.469398 0
0.12549 0.469154 0
0.156497 0.468956 0
0.187594 0.468849 0
0.218738 0.468772 0
0.249928 0.468727 0
0.281392 0.468956 0
0.312703 0.469032 0
0.344106 0.469184 0
0.375601 0.469413 0
0.407095 0.469657 0
0.438727 0.470008 0
0.470634 0.470634 0
0.502449 0.471168 0
0.534356 0.471763 0
0.566278 0.472389 0
0.598291 0.473091 0
0.630762 0.47425 0
0.663111 0.475273 0
0.695537 0.476371 0
0.728008 0.477501 0
0.760647 0.478798 0
0.793667 0.480461 0
0.827024 0.482475 0
0.860288 0.484367 0
0.893614 0.486336 0
0 0.501518 0
0 0.501228 0
0 0.500923 0
0 0.500648 0
0.000549325 0.500389 0
0.0315099 0.50016 0
0.0627756 0.500252 0
0.0938888 0.50016 0
0.125032 0.500099 0
0.156207 0.500069 0
0.187442 0.500084 0
0.219028 0.50042 0
0.250462 0.500633 0
0.281956 0.500877 0
0.313466 0.501137 0
0.345052 0.501457 0
0.376776 0.50193 0
0.408896 0.50277 0
0.440803 0.50338 0
0.47274 0.504036 0
0.504799 0.504799 0
0.537026 0.50573 0
0.569436 0.506813 0
0.602121 0.508186 0
0.634623 0.509377 0
0.667353 0.510765 0
0.700343 0.512413 0
0.733547 0.514275 0
0.766903 0.516289 0
0.800534 0.518563 0
0.834241 0.520897 0
0.868299 0.523598 0
0.902617 0.526528 0
0 0.531884 0
0 0.531624 0
0 0.531426 0
0 0.531304 0
9.15541e-05 0.531395 0
0.0313268 0.531441 0
0.062501 0.531411 0
0.0937514 0.531456 0
0.125124 0.531609 0
0.156558 0.531823 0
0.188266 0.532296 0
0.219821 0.532616 0
0.251453 0.532998 0
0.283207 0.533501 0
0.315068 0.534112 0
0.34696 0.534722 0
0.379202 0.535698 0
0.411322 0.536522 0
0.443595 0.537514 0
0.47599 0.538613 0
0.508415 0.539727 0
0.540978 0.540978 0
0.57409 0.542763 0
0.607156 0.544518 0
0.640391 0.54641 0
0.673671 0.548348 0
0.707134 0.550484 0
0.741314 0.553307 0
0.775494 0.55613 0
0.809827 0.559091 0
0.844236 0.562127 0
0.878828 0.565362 0
0.913848 0.568994 0
0 0.562615 0
0 0.562554 0
0 0.562524 0
0 0.562676 0
7.62951e-05 0.56286 0
0.0314641 0.563043 0
0.0628977 0.563287 0
0.094377 0.563531 0
0.125917 0.563851 0
0.157855 0.564553 0
0.189639 0.565103 0
0.221515 0.565728 0
0.253407 0.566369 0
0.285405 0.567102 0
0.317784 0.5682 0
0.350179 0.569314 0
0.382574 0.570428 0
0.415015 0.571572 0
0.447639 0.5729 0
0.480537 0.574502 0
0.51397 0.576623 0
0.547234 0.578561 0
0.580545 0.580545 0
0.61413 0.582803 0
0.648081 0.585412 0
0.682322 0.588296 0
0.717037 0.591669 0
0.751492 0.594766 0
0.786206 0.598108 0
0.821256 0.601801 0
0.85655 0.605722 0
0.891951 0.609751 0
0.927794 0.614206 0
0 0.593896 0
0 0.59411 0
0 0.594491 0
0 0.594736 0
0.000717174 0.59501 0
0.0322881 0.595376 0
0.0639963 0.59585 0
0.0959487 0.596582 0
0.127947 0.597345 0
0.159854 0.598016 0
0.191897 0.59881 0
0.224109 0.599756 0
0.256458 0.600839 0
0.289052 0.602167 0
0.32163 0.603464 0
0.354345 0.604883 0
0.387335 0.606577 0
0.420493 0.608454 0
0.453742 0.610376 0
0.487404 0.612741 0
0.521157 0.615167 0
0.55523 0.617914 0
0.589517 0.620859 0
0.62388 0.62388 0
0.658396 0.627039 0
0.693614 0.630915 0
0.728756 0.634699 0
0.764096 0.638682 0
0.799481 0.642695 0
0.834989 0.64683 0
0.871168 0.651637 0
0.907134 0.656245 0
0.943236 0.66096 0
0 0.626001 0
0 0.626505 0
0 0.626917 0
0 0.627451 0
0.00224308 0.628061 0
0.0341039 0.628702 0
0.0661479 0.629511 0
0.0984054 0.630533 0
0.130663 0.631556 0
0.163027 0.632654 0
0.195438 0.633799 0
0.22797 0.635065 0
0.261082 0.636912 0
0.294133 0.638682 0
0.327337 0.640589 0
0.360601 0.642557 0
0.394064 0.644724 0
0.428092 0.64744 0
0.462409 0.650446 0
0.496727 0.653437 0
0.531106 0.656489 0
0.565713 0.659754 0
0.600656 0.663355 0
0.636179 0.667536 0
0.671641 0.671641 0
0.707042 0.675685 0
0.742626 0.679911 0
0.77847 0.684382 0
0.814496 0.689052 0
0.850996 0.694163 0
0.887144 0.698955 0
0.923339 0.703777 0
0.959625 0.70869 0
0 0.659052 0
0 0.659678 0
0 0.660334 0
0 0.661097 0
0.00468452 0.662043 0
0.037232 0.663371 0
0.0695964 0.664485 0
0.102022 0.66566 0
0.13463 0.667018 0
0.167529 0.66865 0
0.200732 0.670588 0
0.234165 0.67274 0
0.267475 0.674769 0
0.30106 0.677058 0
0.335012 0.679713 0
0.369238 0.682628 0
0.403738 0.685817 0
0.438361 0.689128 0
0.473075 0.692515 0
0.508141 0.696239 0
0.54342 0.700175 0
0.578775 0.704189 0
0.614496 0.708568 0
0.650309 0.713024 0
0.686229 0.717586 0
0.722286 0.722286 0
0.758373 0.727016 0
0.794522 0.731792 0
0.831189 0.737087 0
0.867491 0.742016 0
0.903853 0.747021 0
0.939788 0.751965 0
0.974136 0.756832 0
0 0.692821 0
0 0.693797 0
0 0.694896 0
0 0.69604 0
0.00863661 0.697551 0
0.0413367 0.699016 0
0.0743114 0.70074 0
0.107454 0.702632 0
0.140673 0.704585 0
0.174121 0.706752 0
0.208087 0.709438 0
0.242161 0.71223 0
0.276417 0.71519 0
0.310765 0.718227 0
0.345266 0.721431 0
0.380484 0.725322 0
0.415641 0.729168 0
0.45095 0.733135 0
0.48632 0.737179 0
0.521828 0.741344 0
0.557748 0.745922 0
0.593988 0.750805 0
0.630076 0.75552 0
0.666163 0.760266 0
0.702327 0.765072 0
0.738598 0.769955 0
0.775174 0.775174 0
0.811719 0.780362 0
0.847593 0.785138 0
0.882322 0.789654 0
0.915267 0.793988 0.00570687
0.945769 0.798306 0.0314641
0.973144 0.803067 0.0660868
0 0.727871 0
0 0.729168 0
0 0.731044 0
0 0.73286 0
0.0142824 0.734783 0
0.0475166 0.736767 0
0.0809796 0.738964 0
0.114809 0.741527 0
0.149325 0.744762 0
