All_In_One/addons/Enrich_Colormaster/colormanagement/luts/film_response/carbon_saber_709.cube
TITLE "Generate by Resolve"
LUT_3D_SIZE 9
0 0 0
0.0214847 0.0120546 0.0120546
0.0592813 0.0191043 0.0191043
0.107057 0.0201114 0.0201114
0.160388 0.0165713 0.0165713
0.230152 0.0102998 0.0102998
0.350973 0.000869764 0.000869764
0.511055 0 0
0.665812 0 0
0.0192264 0.0508278 0.0192264
0.0528115 0.0528115 0.0145113
0.105135 0.0562905 0.0074464
0.18912 0.0604562 0
0.300633 0.0600137 0
0.415213 0.0512398 0
0.554345 0.0408331 0
0.711208 0.0293431 0
0.870573 0.018143 0
0 0.131792 0
0.0574502 0.141894 0
0.142763 0.142763 0
0.25034 0.143481 0
0.376272 0.142214 0
0.509438 0.138155 0
0.633936 0.135515 0
0.756588 0.133181 0
0.879377 0.130877 0
0 0.254185 0
0.0210422 0.260884 0
0.136995 0.261555 0
0.259312 0.259312 0
0.381781 0.257084 0
0.504295 0.254734 0
0.62742 0.252872 0
0.751034 0.251392 0
0.87509 0.250217 0
0 0.383169 0
0.00660716 0.380804 0
0.129244 0.378836 0
0.252323 0.377188 0
0.375845 0.375845 0
0.500084 0.375082 0
0.625315 0.375204 0
0.751644 0.376272 0
0.879133 0.378424 0
0 0.501518 0
0.000549325 0.500389 0
0.125032 0.500099 0
0.250462 0.500633 0
0.376776 0.50193 0
0.504799 0.504799 0
0.634623 0.509377 0
0.766903 0.516289 0
0.902617 0.526528 0
0 0.626001 0
0.00224308 0.628061 0
0.130663 0.631556 0
0.261082 0.636912 0
0.394064 0.644724 0
0.531106 0.656489 0
0.671641 0.671641 0
0.814496 0.689052 0
0.959625 0.70869 0
0 0.76466 0
0.0219272 0.774014 0
0.15996 0.786938 0
0.301076 0.802808 0
0.445212 0.821591 0
0.590677 0.841611 0
0.737972 0.856855 0.0246891
0.864393 0.864393 0.200092
0.93051 0.875334 0.489128
0 0.934829 0
0.0759747 0.954238 0
0.224826 0.973144 0
0.409812 0.972488 0.0722057
0.622614 0.948638 0.296605
0.799924 0.92401 0.593118
0.895659 0.925933 0.804807
0.939879 0.943969 0.911315
0.966522 0.966522 0.963821
0.00440986 0.00440986 0.00708019
0.0281682 0.0150912 0.0281682
0.0673838 0.0202335 0.0438087
0.113603 0.0192874 0.050721
0.167254 0.0146487 0.0527962
0.250202 0.00766003 0.0561532
0.379904 0 0.0603799
0.539437 0 0.0601358
0.686976 0 0.0515297
0.0179751 0.0519722 0.0519722
0.0531319 0.0531319 0.0531319
0.111894 0.0580453 0.0580453
0.201434 0.0612039 0.0612039
0.31017 0.0576486 0.0576486
0.427298 0.0478218 0.0478218
0.569802 0.0368963 0.0368963
0.726329 0.025452 0.025452
0.880079 0.0146181 0.0146181
0 0.137179 0.0611276
0.0542153 0.142107 0.0542153
0.143359 0.143359 0.0441138
0.253925 0.143328 0.0327306
0.380621 0.141115 0.0213626
0.510704 0.137026 0.0124666
0.633234 0.134722 0.0100862
0.755932 0.132418 0.00770581
0.878645 0.130007 0.00521859
0 0.257237 0.0285801
0.0173342 0.261616 0.0173342
0.136217 0.260807 0.0116426
0.258549 0.258549 0.00923171
0.380835 0.256107 0.00665293
0.50367 0.254063 0.00447089
0.626947 0.252338 0.00259403
0.750774 0.251041 0.00117494
0.875059 0.250065 7.62951e-05
0 0.382452 0.00839246
0.00585946 0.380118 0.00585946
0.128573 0.378225 0.00375372
0.251804 0.376699 0.00201419
0.375433 0.375433 0.000564584
0.500084 0.375067 0
0.625666 0.375509 0.000259403
0.752285 0.376867 0.00143435
0.880293 0.379492 0.00389105
0 0.501091 0.00141909
0.000259403 0.500191 0.000259403
0.125017 0.500145 0
0.250813 0.50103 0.000610361
0.377646 0.5028 0.00215152
0.506203 0.506203 0.0053254
0.636713 0.511437 0.0103456
0.769787 0.519127 0.0178225
0.906905 0.53077 0.0292668
0 0.626474 0.000839246
0.0031281 0.629038 0.0031281
0.132204 0.633173 0.00697337
0.263386 0.639261 0.0128023
0.397665 0.648356 0.021622
0.53576 0.661143 0.0341802
0.677211 0.677211 0.0500496
0.821073 0.695613 0.0683146
0.966552 0.715618 0.0882734
0 0.767437 0.0155642
0.0259861 0.778164 0.0259861
0.165194 0.792233 0.0397803
0.307134 0.808896 0.0562448
0.45185 0.82826 0.0754559
0.598321 0.84799 0.0990158
0.746746 0.859785 0.181567
0.866896 0.866896 0.371862
0.924331 0.882078 0.62858
0 0.941344 0.0631723
0.0828107 0.961089 0.0828107
0.241489 0.97583 0.119097
0.446159 0.966567 0.237995
0.668528 0.938277 0.466224
0.830457 0.921675 0.708827
0.910063 0.930785 0.858259
0.949218 0.951446 0.935851
0.974334 0.974334 0.974136
0.00859083 0.00859083 0.0208286
0.034165 0.0174563 0.0508736
0.07364 0.0205081 0.07364
0.119539 0.0180819 0.0857252
0.175006 0.0124971 0.0937514
0.27187 0.00445563 0.111421
0.409644 0 0.130861
0.561303 0 0.141741
0.710353 0 0.142702
0.0163577 0.0525978 0.088838
0.0544137 0.0544137 0.0988479
0.118441 0.0593881 0.118441
0.212482 0.0611582 0.136828
0.317571 0.0545052 0.142199
0.440192 0.044358 0.143313
0.584604 0.0330053 0.143328
0.73904 0.021622 0.141192
0.884413 0.0125124 0.137072
0 0.140566 0.140566
0.0508125 0.14229 0.14229
0.143572 0.143572 0.143572
0.257023 0.142947 0.142947
0.383566 0.139574 0.139574
0.510002 0.136263 0.136263
0.632547 0.133928 0.133928
0.755154 0.131518 0.131518
0.878096 0.129305 0.129305
0 0.259358 0.141985
0.014023 0.261967 0.138003
0.135439 0.260044 0.135439
0.257801 0.257801 0.13312
0.380148 0.25539 0.130648
0.503075 0.253437 0.128603
0.62649 0.25182 0.126925
0.750301 0.250477 0.125521
0.87512 0.250034 0.125002
0 0.381491 0.132082
0.00512703 0.379461 0.1299
0.127993 0.377691 0.127993
0.251377 0.376287 0.126452
0.375189 0.375189 0.125231
0.50013 0.375082 0.125002
0.626108 0.375906 0.125689
0.753048 0.377554 0.127245
0.881727 0.38085 0.130419
0 0.500664 0.125841
0.000106813 0.500114 0.125109
0.125139 0.500328 0.125139
0.251041 0.501289 0.125917
0.378576 0.503761 0.128206
0.50779 0.50779 0.132082
0.639261 0.51397 0.138079
0.773388 0.522698 0.14667
0.911543 0.535378 0.159197
0 0.627207 0.126635
0.00418097 0.630198 0.129381
0.133867 0.634913 0.133867
0.265965 0.641901 0.140642
0.401755 0.652476 0.151019
0.540993 0.666407 0.164782
0.683177 0.683177 0.181399
0.827741 0.702281 0.200412
0.972473 0.722622 0.222904
0 0.77052 0.143877
0.0301976 0.782483 0.155581
0.170611 0.797726 0.170611
0.313573 0.815381 0.188128
0.458686 0.835096 0.207752
0.607858 0.853101 0.239979
0.757519 0.862303 0.338369
0.870497 0.870497 0.528008
0.921736 0.890578 0.734768
0 0.947951 0.195178
0.0897688 0.968017 0.215228
0.265415 0.975433 0.265415
0.491173 0.958083 0.397787
0.715953 0.929534 0.609155
0.858061 0.922652 0.793484
0.923827 0.937133 0.8972
0.958038 0.959075 0.952895
0.98175 0.98175 0.98175
0.0122377 0.0122377 0.0411841
0.0394751 0.0191806 0.0800488
0.0783246 0.0200809 0.107439
0.124727 0.0164797 0.124727
0.186969 0.0101778 0.142763
0.293904 0.000640879 0.176593
0.437583 0 0.211749
0.579568 0 0.229694
0.735225 0 0.241917
0.0143893 0.0528267 0.129702
0.0564126 0.0564126 0.154665
0.125185 0.0605173 0.189837
0.220829 0.0599222 0.220829
0.324666 0.0510567 0.233463
0.452323 0.0406348 0.246479
0.598306 0.0291295 0.256809
0.749203 0.0179294 0.261692
0.883787 0.0117189 0.260884
0 0.141894 0.22652
0.0474098 0.142809 0.238209
0.143496 0.143496 0.250568
0.259358 0.142168 0.259358
0.385794 0.138094 0.261936
0.5093 0.135485 0.26009
0.631876 0.13315 0.257832
0.754482 0.130724 0.255482
0.877562 0.128634 0.253452
0 0.260822 0.260822
0.0124056 0.261524 0.261524
0.134646 0.259281 0.259281
0.256931 0.256931 0.256931
0.379492 0.254719 0.254719
0.502556 0.252857 0.252857
0.626123 0.251377 0.251377
0.750118 0.250217 0.250217
0.875227 0.250019 0.250019
0 0.380774 0.256046
0.00440986 0.37882 0.254017
0.127428 0.377172 0.252308
0.250782 0.375723 0.250782
0.375082 0.375082 0.250095
0.500282 0.375219 0.250172
0.626429 0.376181 0.251057
0.75404 0.378485 0.253315
0.88336 0.382422 0.257176
0 0.500389 0.250477
3.0518e-05 0.500114 0.250065
0.125414 0.500679 0.250507
0.251698 0.501991 0.251698
0.379675 0.504875 0.254475
0.509499 0.509499 0.258976
0.641672 0.51635 0.265736
0.777508 0.526787 0.276066
0.916793 0.540581 0.289769
0 0.628138 0.252628
0.00553903 0.631662 0.255985
0.135943 0.637049 0.261219
0.26894 0.644923 0.26894
0.405997 0.656748 0.280613
0.546548 0.671962 0.295705
0.689433 0.689433 0.313069
0.834562 0.709087 0.332692
0.975586 0.7299 0.361364
0 0.774258 0.272862
0.0348516 0.787228 0.285649
0.175967 0.803143 0.301411
0.320134 0.821973 0.320134
0.465614 0.842023 0.340139
0.619806 0.857038 0.382574
0.770275 0.864515 0.487511
0.875685 0.875685 0.658091
0.922515 0.900496 0.812421
0 0.95465 0.327321
0.100969 0.973388 0.350225
0.299535 0.972244 0.411658
0.544381 0.948043 0.544381
0.761044 0.923781 0.720363
0.881407 0.926116 0.851606
0.936477 0.944381 0.92462
0.966659 0.966964 0.965423
0.988876 0.988876 0.988876
0.0152438 0.0152438 0.0684062
0.0440375 0.0202792 0.115328
0.0823835 0.0192416 0.145541
0.129366 0.0145418 0.167651
0.202548 0.00749218 0.202548
0.317388 0 0.253147
0.460716 0 0.30045
0.596918 0 0.324102
0.759365 0 0.348806
0.012192 0.0531167 0.175921
0.0581369 0.0581369 0.220554
0.131685 0.0612345 0.272572
0.226261 0.057496 0.310643
0.332937 0.0476387 0.332937
0.463874 0.0366827 0.357076
0.610147 0.0252384 0.376181
0.756832 0.0144503 0.385641
0.883146 0.0109102 0.384726
0 0.142123 0.318288
0.0439155 0.143404 0.342367
0.143328 0.143328 0.36492
0.260899 0.141009 0.380789
0.386114 0.136995 0.386114
0.508583 0.134691 0.383948
0.631205 0.132387 0.381796
0.753857 0.129976 0.379522
0.877104 0.128038 0.377722
0 0.261662 0.383932
0.0116121 0.260777 0.385367
0.133867 0.258518 0.383185
0.256077 0.256077 0.380804
0.378851 0.254047 0.378851
0.502068 0.252323 0.377188
0.625757 0.25095 0.375875
0.750072 0.25008 0.375082
0.875441 0.250126 0.375189
0 0.380102 0.380102
0.0037232 0.37821 0.37821
0.126879 0.376669 0.376669
0.250477 0.375433 0.375433
0.375082 0.375082 0.375082
0.500633 0.37554 0.37554
0.62707 0.376791 0.376791
0.755169 0.379568 0.379568
0.8851 0.384085 0.384085
0 0.500191 0.375204
0 0.500175 0.375128
0.125612 0.500938 0.37583
0.252552 0.502876 0.377707
0.381079 0.506294 0.381079
0.511589 0.511589 0.386313
0.644663 0.519341 0.394003
0.781781 0.531029 0.405646
0.922377 0.546105 0.420691
0 0.629114 0.378744
0.00706493 0.63328 0.382788
0.13814 0.639323 0.388724
0.272557 0.648585 0.397894
0.410651 0.661448 0.410651
0.551904 0.677333 0.426474
0.69601 0.69601 0.44509
0.841489 0.71603 0.46508
0.975769 0.737819 0.499886
0 0.778424 0.402335
0.0401007 0.792569 0.416342
0.182055 0.809277 0.432944
0.326802 0.828656 0.452262
0.474083 0.848325 0.474083
0.634577 0.859907 0.52192
0.785336 0.867079 0.621851
0.882521 0.882521 0.757824
0.925887 0.910674 0.865019
0 0.961501 0.459632
0.120439 0.975906 0.487068
0.344976 0.966155 0.552026
0.604654 0.937713 0.67126
0.802304 0.92166 0.802304
0.900755 0.931121 0.890623
0.947585 0.951873 0.943297
0.974746 0.974762 0.974685
0.995575 0.995575 0.995575
0.0175326 0.0175326 0.101854
0.0472114 0.0205081 0.154101
0.0859083 0.0180056 0.187762
0.134676 0.0123598 0.21622
0.219348 0.00425727 0.273121
0.341283 0 0.341299
0.478294 0 0.394171
0.616709 0 0.4271
0.782605 0 0.46305
0.00984207 0.05449 0.233066
0.0594644 0.0594644 0.296895
0.137087 0.0611276 0.364981
0.229953 0.0542916 0.405615
0.341726 0.0441596 0.440925
0.474907 0.0328069 0.474922
0.619989 0.0214084 0.500267
0.759838 0.0124819 0.510719
0.882506 0.0101015 0.508614
0 0.142321 0.417411
0.0401465 0.143572 0.453864
0.142916 0.142916 0.48574
0.261601 0.139498 0.505821
0.385397 0.136233 0.509987
0.507866 0.133898 0.507866
0.630304 0.13138 0.505577
0.753277 0.129274 0.503685
0.876692 0.127474 0.502083
0 0.261982 0.510109
0.0107881 0.260014 0.509239
0.133089 0.257771 0.507134
0.255375 0.255375 0.504875
0.378241 0.253407 0.503059
0.501595 0.251804 0.501595
0.625345 0.250477 0.500389
0.750118 0.250034 0.500084
0.875822 0.250416 0.500572
0 0.379446 0.504219
0.00311284 0.377676 0.502525
0.126375 0.376211 0.501122
0.250217 0.375204 0.500175
0.375097 0.375097 0.500145
0.501045 0.375937 0.501045
0.627955 0.37763 0.502785
0.756603 0.380957 0.506172
0.887221 0.386114 0.511391
0 0.500114 0.500114
9.15541e-05 0.500359 0.500359
0.125948 0.501335 0.501335
0.253468 0.503838 0.503838
0.38265 0.507897 0.507897
0.51397 0.51397 0.51397
0.64828 0.522942 0.522942
0.78645 0.535668 0.535668
0.928023 0.551736 0.551736
0 0.630289 0.505089
0.00866712 0.634974 0.509712
0.140826 0.642069 0.516762
0.276631 0.65272 0.527367
0.415915 0.666728 0.541329
0.5579 0.683345 0.5579
0.702678 0.702678 0.577203
0.847883 0.723033 0.598184
0.9729 0.746639 0.633509
0 0.782757 0.531991
0.0453193 0.797848 0.547005
0.18851 0.815778 0.564874
0.333623 0.835492 0.584558
0.48603 0.853361 0.608469
0.653956 0.86244 0.653956
0.803082 0.870756 0.735393
0.891112 0.891112 0.829938
0.930694 0.920256 0.899397
0 0.968414 0.59205
0.148775 0.975296 0.621073
0.401282 0.957565 0.679423
0.66598 0.929122 0.771237
0.837964 0.922728 0.859159
0.918105 0.93753 0.918105
0.957565 0.959518 0.956588
0.982162 0.982162 0.982162
1 1 1
0.0192721 0.0192721 0.142245
0.0493019 0.0200504 0.195621
0.0887922 0.0163882 0.233616
0.14316 0.0100252 0.27631
0.236255 0.000411994 0.354177
0.363485 0 0.439063
0.49279 0 0.49279
0.637766 0 0.538872
0.804913 0 0.584375
0.0071107 0.0565347 0.303609
0.0605936 0.0605936 0.385504
0.14052 0.0598154 0.46331
0.233707 0.0508736 0.507942
0.349844 0.0404212 0.55613
0.485023 0.0289158 0.599054
0.627512 0.0176699 0.627512
0.759182 0.0116884 0.634592
0.88188 0.00929274 0.632563
0 0.142855 0.525383
0.0362097 0.143496 0.572671
0.142031 0.142031 0.611337
0.261967 0.138018 0.633799
0.384665 0.135439 0.633875
0.507164 0.13312 0.631861
0.629664 0.130648 0.629664
0.752728 0.128618 0.627909
0.87628 0.12694 0.626505
0 0.261494 0.635187
0.0099794 0.259251 0.633158
0.132082 0.256794 0.630915
0.254688 0.254688 0.629023
0.377691 0.252842 0.62739
0.501198 0.251377 0.626123
0.625147 0.250217 0.625147
0.750195 0.250034 0.625162
0.876295 0.250782 0.626093
0 0.37879 0.628397
0.002533 0.377157 0.626902
0.125841 0.375723 0.625605
0.250095 0.375097 0.625101
0.37525 0.37525 0.625376
0.501259 0.376135 0.626383
0.628916 0.378561 0.628931
0.758236 0.382528 0.633005
0.889799 0.388632 0.639216
0 0.50013 0.625162
0.000366217 0.50071 0.625788
0.126604 0.502052 0.627192
0.254566 0.504967 0.630167
0.38436 0.509606 0.634867
0.516533 0.516533 0.64184
0.652399 0.527031 0.652399
0.791714 0.540902 0.666316
0.93402 0.557687 0.683131
0 0.631754 0.631754
0.0106813 0.637064 0.637064
0.143816 0.645136 0.645136
0.280873 0.657008 0.657008
0.421424 0.672267 0.672267
0.564355 0.689815 0.689815
0.709499 0.709499 0.709499
0.85301 0.730343 0.730343
0.967208 0.757305 0.757305
0 0.787533 0.662135
0.0508888 0.803494 0.67805
0.195056 0.82237 0.69691
0.340566 0.842435 0.71696
0.501884 0.857084 0.738674
0.677485 0.864668 0.771069
0.822416 0.876036 0.822416
0.900999 0.900999 0.879362
0.937011 0.930297 0.923583
0 0.97351 0.724407
0.190127 0.971984 0.748608
0.467735 0.947448 0.787549
0.723507 0.923552 0.843534
0.867765 0.926314 0.897032
0.933318 0.944808 0.937148
0.966857 0.967422 0.966857
0.989181 0.989181 0.989181
1 1 1
0.0203098 0.0203098 0.187961
0.0508888 0.0191806 0.241184
0.0912337 0.0144198 0.283238
0.154467 0.00732433 0.350668
0.254185 0 0.447868
0.381476 0 0.542245
0.506828 0 0.597986
0.657847 0 0.657847
0.825681 0 0.711894
0.0037995 0.0582284 0.384802
0.061265 0.061265 0.485878
0.141894 0.0573281 0.564782
0.238117 0.0474556 0.61944
0.357519 0.0364843 0.678553
0.493629 0.0250248 0.727932
0.633417 0.0142824 0.757244
0.758511 0.0108797 0.758511
0.881239 0.00848402 0.756573
0 0.143435 0.642023
0.0323186 0.143328 0.69836
0.140856 0.140856 0.74081
0.261524 0.136965 0.759777
0.383917 0.134661 0.757824
0.506386 0.13228 0.75581
0.629053 0.129946 0.753841
0.752255 0.128023 0.752255
0.875944 0.126467 0.751034
0 0.260746 0.759091
0.00917067 0.258488 0.757137
0.131319 0.256046 0.754986
0.254017 0.254017 0.753231
0.377172 0.252308 0.751797
0.500694 0.250813 0.750561
0.625086 0.25008 0.750088
0.750408 0.250156 0.750408
0.876707 0.251087 0.751583
0 0.378195 0.752682
0.00184634 0.376532 0.751217
0.125505 0.375433 0.750301
0.250065 0.375097 0.750164
0.37557 0.37557 0.750835
0.501961 0.376822 0.752255
0.63006 0.37966 0.755261
0.75996 0.384192 0.759976
0.892241 0.390997 0.766934
0 0.500191 0.750286
0.000442512 0.500862 0.75108
0.127443 0.502953 0.753277
0.255955 0.506401 0.756848
0.386465 0.511742 0.762295
0.519539 0.519539 0.770184
0.656672 0.531289 0.782055
0.797284 0.546441 0.797284
0.940215 0.563867 0.814771
0 0.633387 0.758633
0.0130007 0.63949 0.764782
0.147448 0.648844 0.774182
0.285557 0.661738 0.787137
0.426734 0.677607 0.803037
0.570932 0.696391 0.821851
0.716442 0.716442 0.841901
0.857008 0.738323 0.857008
0.958923 0.770031 0.864485
0 0.792889 0.792889
0.0569772 0.809659 0.809659
0.201724 0.829053 0.829053
0.350011 0.848661 0.848661
0.523339 0.860075 0.860075
0.705318 0.867262 0.867262
0.842069 0.882963 0.882963
0.911086 0.911086 0.911086
0.944259 0.940261 0.940261
0 0.97583 0.853758
0.244923 0.965743 0.86276
0.542382 0.937179 0.871382
0.77499 0.92163 0.892302
0.891905 0.931441 0.921553
0.94612 0.9523 0.95024
0.975174 0.975189 0.975189
0.995941 0.995941 0.995941
1 1 1
0.0204929 0.0204929 0.235462
0.0520027 0.0179141 0.290608
0.0940261 0.0122225 0.339406
0.166232 0.0040589 0.436545
0.272282 0 0.553674
0.394858 0 0.647837
0.522866 0 0.712932
0.677165 0 0.783902
0.843839 0 0.843839
0 0.0595407 0.477211
0.0610971 0.0610971 0.594873
0.142123 0.0540932 0.670253
0.242802 0.0439765 0.739895
0.364797 0.0325933 0.807736
0.500633 0.02121 0.860182
0.635248 0.0124514 0.884367
0.757855 0.010071 0.88249
0.880629 0.00769055 0.880629
0 0.143587 0.765484
0.0284428 0.142901 0.829648
0.139422 0.139422 0.87277
0.260792 0.136202 0.883711
0.383185 0.133867 0.881819
0.505547 0.13135 0.879744
0.628458 0.129259 0.878065
0.751812 0.127459 0.876677
0.875654 0.126055 0.875654
0 0.259983 0.88304
0.00831617 0.257679 0.881102
0.130587 0.255344 0.879133
0.253391 0.253391 0.877516
0.376684 0.251804 0.876265
0.500389 0.250477 0.875273
0.625116 0.25005 0.875166
0.750774 0.250446 0.875868
0.877379 0.251667 0.877379
0 0.377661 0.877058
0.00132753 0.376074 0.875746
0.125246 0.375204 0.875135
0.25008 0.375128 0.875303
0.37586 0.37586 0.87628
0.502861 0.377691 0.87834
0.631495 0.381048 0.881941
0.762097 0.386267 0.887373
0.895262 0.393942 0.895262
0 0.500389 0.875578
0.000869764 0.501381 0.876753
0.128344 0.503899 0.879454
0.257527 0.508003 0.883726
0.388678 0.51397 0.88986
0.523171 0.523171 0.899214
0.661357 0.535958 0.912139
0.802731 0.551858 0.928161
0.946807 0.570428 0.946807
0 0.634943 0.885466
0.015671 0.642252 0.892866
0.151522 0.652979 0.903716
0.290837 0.667063 0.917876
0.432837 0.683726 0.934615
0.5776 0.703075 0.953994
0.723461 0.723461 0.972992
0.859846 0.747066 0.972641
0.949004 0.785061 0.949004
0 0.798077 0.923506
0.0634318 0.816159 0.941619
0.20856 0.835904 0.961379
0.364584 0.85362 0.975891
0.551492 0.862593 0.966278
0.737301 0.871015 0.937881
0.861646 0.891646 0.92166
0.920821 0.920821 0.931014
0.951751 0.949584 0.951751
0.033051 0.975204 0.975204
0.312764 0.957015 0.957015
0.617548 0.928725 0.928725
0.818982 0.922881 0.922881
0.912734 0.937926 0.937926
0.957183 0.95996 0.95996
0.982559 0.982559 0.982559
1 1 1
1 1 1
