All_In_One/addons/Enrich_Colormaster/colormanagement/luts/film_response/Color_Implosion_21_VS.cube
TITLE "ImpulZ LUT 32"
LUT_3D_SIZE 32
0.0549 0.0431 0.0431
0.0628 0.0471 0.0471
0.0708 0.0473 0.0473
0.0788 0.0510 0.0510
0.0868 0.0510 0.0510
0.0986 0.0516 0.0549
0.1074 0.0549 0.0549
0.1185 0.0558 0.0558
0.1304 0.0588 0.0588
0.1435 0.0627 0.0627
0.1554 0.0667 0.0640
0.1675 0.0706 0.0681
0.1795 0.0721 0.0706
0.1938 0.0761 0.0745
0.2057 0.0802 0.0784
0.2195 0.0843 0.0824
0.2334 0.0902 0.0863
0.2474 0.0941 0.0902
0.2634 0.0980 0.0941
0.2793 0.1044 0.1005
0.2952 0.1098 0.1045
0.3112 0.1163 0.1098
0.3271 0.1204 0.1165
0.3470 0.1255 0.1206
0.3660 0.1324 0.1246
0.3859 0.1373 0.1294
0.4099 0.1445 0.1366
0.4338 0.1524 0.1446
0.4612 0.1639 0.1525
0.4855 0.1722 0.1605
0.5056 0.1803 0.1646
0.5294 0.1882 0.1725
0.0549 0.0511 0.0471
0.0589 0.0511 0.0471
0.0671 0.0549 0.0472
0.0788 0.0550 0.0510
0.0868 0.0554 0.0510
0.0986 0.0589 0.0549
0.1106 0.0628 0.0556
0.1194 0.0637 0.0588
0.1314 0.0668 0.0598
0.1435 0.0707 0.0628
0.1582 0.0746 0.0668
0.1701 0.0785 0.0706
0.1834 0.0825 0.0746
0.1994 0.0865 0.0785
0.2131 0.0921 0.0842
0.2296 0.0983 0.0882
0.2473 0.1041 0.0923
0.2633 0.1083 0.0981
0.2793 0.1140 0.1021
0.2952 0.1203 0.1084
0.3137 0.1257 0.1124
0.3312 0.1323 0.1177
0.3510 0.1403 0.1245
0.3709 0.1455 0.1295
0.3909 0.1523 0.1365
0.4138 0.1603 0.1414
0.4370 0.1676 0.1485
0.4616 0.1762 0.1565
0.4816 0.1808 0.1607
0.5090 0.1922 0.1685
0.5256 0.2001 0.1765
0.5453 0.2081 0.1806
0.0549 0.0591 0.0471
0.0628 0.0591 0.0471
0.0672 0.0591 0.0473
0.0788 0.0591 0.0510
0.0868 0.0630 0.0510
0.0986 0.0636 0.0549
0.1106 0.0674 0.0556
0.1225 0.0708 0.0588
0.1314 0.0747 0.0627
0.1465 0.0786 0.0639
0.1597 0.0829 0.0679
0.1716 0.0868 0.0720
0.1876 0.0907 0.0763
0.2035 0.0960 0.0803
0.2195 0.1003 0.0865
0.2373 0.1083 0.0923
0.2576 0.1162 0.1001
0.2754 0.1242 0.1044
0.2936 0.1285 0.1100
0.3136 0.1362 0.1163
0.3336 0.1419 0.1204
0.3511 0.1485 0.1260
0.3738 0.1565 0.1324
0.3938 0.1642 0.1404
0.4177 0.1721 0.1447
0.4377 0.1801 0.1524
0.4616 0.1881 0.1604
0.4855 0.1961 0.1652
0.5091 0.2040 0.1724
0.5291 0.2120 0.1804
0.5453 0.2200 0.1848
0.5613 0.2243 0.1924
0.0588 0.0671 0.0475
0.0628 0.0671 0.0510
0.0708 0.0671 0.0510
0.0788 0.0671 0.0510
0.0868 0.0672 0.0514
0.0986 0.0710 0.0549
0.1106 0.0749 0.0556
0.1225 0.0788 0.0597
0.1353 0.0828 0.0637
0.1474 0.0870 0.0671
0.1633 0.0918 0.0719
0.1796 0.0988 0.0759
0.1956 0.1039 0.0803
0.2115 0.1083 0.0867
0.2292 0.1162 0.0923
0.2477 0.1239 0.0984
0.2696 0.1322 0.1044
0.2913 0.1402 0.1123
0.3112 0.1481 0.1180
0.3314 0.1540 0.1244
0.3535 0.1605 0.1323
0.3751 0.1685 0.1364
0.3977 0.1765 0.1443
0.4187 0.1844 0.1487
0.4416 0.1924 0.1564
0.4616 0.2004 0.1643
0.4855 0.2083 0.1687
0.5055 0.2163 0.1763
0.5251 0.2243 0.1843
0.5451 0.2319 0.1890
0.5613 0.2398 0.1964
0.5769 0.2478 0.2007
0.0588 0.0750 0.0510
0.0668 0.0750 0.0510
0.0711 0.0750 0.0510
0.0793 0.0750 0.0515
0.0873 0.0755 0.0515
0.0993 0.0789 0.0554
0.1110 0.0797 0.0588
0.1230 0.0838 0.0597
0.1353 0.0878 0.0637
0.1513 0.0957 0.0678
0.1677 0.1003 0.0750
0.1837 0.1078 0.0798
0.2035 0.1157 0.0844
0.2195 0.1226 0.0918
0.2398 0.1283 0.0985
0.2597 0.1362 0.1044
0.2816 0.1462 0.1123
0.3033 0.1561 0.1203
0.3255 0.1641 0.1260
0.3494 0.1720 0.1323
0.3733 0.1805 0.1403
0.3972 0.1885 0.1482
0.4188 0.1965 0.1523
0.4411 0.2044 0.1603
0.4650 0.2124 0.1682
0.4850 0.2204 0.1727
0.5084 0.2284 0.1803
0.5255 0.2363 0.1882
0.5445 0.2442 0.1932
0.5613 0.2522 0.2002
0.5767 0.2602 0.2049
0.5887 0.2677 0.2123
0.0594 0.0830 0.0510
0.0668 0.0831 0.0516
0.0747 0.0836 0.0549
0.0831 0.0836 0.0549
0.0913 0.0869 0.0554
0.1032 0.0875 0.0588
0.1151 0.0914 0.0596
0.1270 0.0954 0.0633
0.1393 0.0997 0.0677
0.1552 0.1071 0.0723
0.1718 0.1123 0.0790
0.1885 0.1196 0.0838
0.2091 0.1283 0.0908
0.2291 0.1362 0.0964
0.2490 0.1442 0.1044
0.2717 0.1528 0.1123
0.2955 0.1641 0.1203
0.3175 0.1726 0.1267
0.3414 0.1807 0.1323
0.3653 0.1886 0.1403
0.3893 0.2005 0.1482
0.4138 0.2084 0.1562
0.4371 0.2165 0.1642
0.4610 0.2250 0.1699
0.4810 0.2330 0.1768
0.5016 0.2410 0.1842
0.5222 0.2516 0.1922
0.5414 0.2602 0.1968
0.5574 0.2652 0.2042
0.5733 0.2729 0.2091
0.5854 0.2808 0.2168
0.6013 0.2888 0.2241
0.0627 0.0909 0.0549
0.0707 0.0949 0.0549
0.0786 0.0949 0.0551
0.0867 0.0952 0.0556
0.0951 0.0956 0.0588
0.1071 0.0994 0.0596
0.1160 0.0995 0.0635
0.1310 0.1074 0.0674
0.1432 0.1115 0.0716
0.1592 0.1191 0.0764
0.1758 0.1244 0.0831
0.1957 0.1323 0.0884
0.2163 0.1403 0.0956
0.2371 0.1491 0.1036
0.2599 0.1602 0.1084
0.2817 0.1681 0.1164
0.3096 0.1800 0.1275
0.3327 0.1919 0.1323
0.3574 0.1999 0.1403
0.3813 0.2086 0.1482
0.4052 0.2197 0.1562
0.4322 0.2285 0.1642
0.4541 0.2396 0.1721
0.4769 0.2476 0.1801
0.4978 0.2563 0.1881
0.5176 0.2642 0.1961
0.5400 0.2748 0.2040
0.5574 0.2834 0.2088
0.5725 0.2885 0.2161
0.5885 0.2961 0.2211
0.6005 0.3041 0.2289
0.6133 0.3160 0.2360
0.0627 0.0998 0.0549
0.0716 0.1029 0.0558
0.0795 0.1037 0.0588
0.0906 0.1068 0.0597
0.0990 0.1073 0.0597
0.1110 0.1113 0.0636
0.1231 0.1115 0.0676
0.1351 0.1155 0.0715
0.1471 0.1234 0.0755
0.1639 0.1284 0.0804
0.1812 0.1363 0.0876
0.2037 0.1474 0.0950
0.2235 0.1562 0.1004
0.2450 0.1642 0.1084
0.2689 0.1739 0.1164
0.2929 0.1841 0.1244
0.3207 0.1960 0.1323
0.3446 0.2078 0.1403
0.3694 0.2181 0.1482
0.3933 0.2286 0.1562
0.4202 0.2382 0.1642
0.4450 0.2484 0.1721
0.4689 0.2564 0.1801
0.4920 0.2674 0.1881
0.5119 0.2763 0.1961
0.5319 0.2873 0.2040
0.5519 0.2961 0.2129
0.5694 0.3041 0.2200
0.5844 0.3121 0.2280
0.6004 0.3200 0.2331
0.6124 0.3280 0.2408
0.6244 0.3360 0.2480
0.0667 0.1108 0.0588
0.0746 0.1118 0.0589
0.0829 0.1150 0.0598
0.0916 0.1157 0.0631
0.1030 0.1191 0.0637
0.1160 0.1232 0.0677
0.1280 0.1272 0.0716
0.1400 0.1284 0.0755
0.1520 0.1324 0.0794
0.1680 0.1404 0.0845
0.1852 0.1484 0.0914
0.2081 0.1603 0.0994
0.2291 0.1697 0.1069
0.2530 0.1801 0.1124
0.2769 0.1899 0.1204
0.3018 0.2000 0.1284
0.3297 0.2129 0.1403
0.3565 0.2248 0.1482
0.3814 0.2357 0.1562
0.4082 0.2460 0.1642
0.4331 0.2565 0.1731
0.4571 0.2684 0.1828
0.4810 0.2764 0.1920
0.5039 0.2873 0.1971
0.5247 0.2963 0.2071
0.5438 0.3082 0.2159
0.5638 0.3184 0.2239
0.5804 0.3280 0.2319
0.5963 0.3360 0.2398
0.6123 0.3440 0.2449
0.6243 0.3529 0.2529
0.6363 0.3638 0.2598
0.0667 0.1187 0.0588
0.0785 0.1227 0.0627
0.0868 0.1239 0.0630
0.0984 0.1277 0.0671
0.1075 0.1317 0.0683
0.1200 0.1362 0.0751
0.1352 0.1403 0.0792
0.1480 0.1443 0.0833
0.1600 0.1484 0.0845
0.1759 0.1552 0.0913
0.1931 0.1643 0.0965
0.2157 0.1723 0.1045
0.2371 0.1842 0.1124
0.2610 0.1961 0.1204
0.2855 0.2058 0.1284
0.3127 0.2199 0.1364
0.3416 0.2318 0.1482
0.3684 0.2436 0.1562
0.3934 0.2539 0.1642
0.4201 0.2659 0.1721
0.4452 0.2765 0.1840
0.4706 0.2884 0.1920
0.4930 0.2980 0.2000
0.5157 0.3083 0.2079
0.5358 0.3192 0.2171
0.5557 0.3282 0.2250
0.5735 0.3400 0.2352
0.5923 0.3480 0.2410
0.6058 0.3599 0.2490
0.6214 0.3679 0.2569
0.6335 0.3798 0.2649
0.6454 0.3888 0.2728
0.0679 0.1268 0.0627
0.0786 0.1308 0.0640
0.0907 0.1348 0.0669
0.1000 0.1398 0.0710
0.1121 0.1442 0.0723
0.1280 0.1483 0.0790
0.1440 0.1562 0.0844
0.1559 0.1603 0.0884
0.1719 0.1643 0.0925
0.1841 0.1711 0.0965
0.1999 0.1763 0.1033
0.2211 0.1882 0.1085
0.2450 0.1977 0.1165
0.2689 0.2097 0.1245
0.2929 0.2218 0.1351
0.3207 0.2358 0.1443
0.3506 0.2497 0.1562
0.3785 0.2617 0.1642
0.4054 0.2738 0.1722
0.4320 0.2846 0.1814
0.4572 0.2965 0.1920
0.4837 0.3084 0.2000
0.5061 0.3203 0.2092
0.5276 0.3299 0.2199
0.5476 0.3402 0.2278
0.5657 0.3520 0.2358
0.5843 0.3633 0.2450
0.6015 0.3719 0.2530
0.6162 0.3838 0.2610
0.6321 0.3955 0.2690
0.6441 0.4049 0.2769
0.6562 0.4156 0.2849
0.0706 0.1387 0.0627
0.0825 0.1427 0.0668
0.0918 0.1467 0.0708
0.1066 0.1522 0.0749
0.1186 0.1588 0.0789
0.1321 0.1642 0.0844
0.1480 0.1714 0.0909
0.1664 0.1762 0.0955
0.1799 0.1832 0.1004
0.1958 0.1882 0.1045
0.2117 0.1962 0.1085
0.2291 0.2017 0.1151
0.2516 0.2121 0.1231
0.2769 0.2240 0.1324
0.3008 0.2377 0.1404
0.3287 0.2497 0.1489
0.3585 0.2656 0.1603
0.3865 0.2808 0.1722
0.4144 0.2936 0.1801
0.4424 0.3056 0.1920
0.4692 0.3176 0.2000
0.4931 0.3284 0.2106
0.5156 0.3403 0.2199
0.5380 0.3522 0.2278
0.5579 0.3632 0.2388
0.5763 0.3759 0.2477
0.5956 0.3872 0.2589
0.6122 0.3992 0.2676
0.6281 0.4091 0.2755
0.6415 0.4196 0.2849
0.6536 0.4314 0.2928
0.6681 0.4434 0.3008
0.0745 0.1481 0.0667
0.0840 0.1520 0.0706
0.0949 0.1562 0.0723
0.1105 0.1642 0.0788
0.1241 0.1722 0.0844
0.1400 0.1801 0.0884
0.1567 0.1881 0.0964
0.1734 0.1936 0.1004
0.1917 0.2001 0.1084
0.2077 0.2081 0.1124
0.2213 0.2136 0.1167
0.2410 0.2216 0.1245
0.2571 0.2296 0.1285
0.2848 0.2415 0.1365
0.3088 0.2536 0.1484
0.3346 0.2671 0.1563
0.3665 0.2831 0.1682
0.3944 0.2975 0.1783
0.4256 0.3127 0.1896
0.4533 0.3254 0.2000
0.4797 0.3390 0.2105
0.5051 0.3510 0.2199
0.5275 0.3630 0.2294
0.5490 0.3737 0.2397
0.5683 0.3871 0.2492
0.5875 0.3991 0.2596
0.6057 0.4111 0.2708
0.6216 0.4237 0.2809
0.6360 0.4355 0.2889
0.6520 0.4472 0.2969
0.6655 0.4592 0.3049
0.6775 0.4688 0.3128
0.0784 0.1585 0.0706
0.0880 0.1626 0.0722
0.0985 0.1668 0.0764
0.1148 0.1789 0.0844
0.1321 0.1881 0.0884
0.1480 0.1961 0.0964
0.1647 0.2040 0.1044
0.1838 0.2120 0.1107
0.2008 0.2200 0.1164
0.2196 0.2279 0.1232
0.2355 0.2336 0.1284
0.2529 0.2416 0.1324
0.2690 0.2495 0.1366
0.2929 0.2576 0.1445
0.3167 0.2734 0.1542
0.3446 0.2871 0.1643
0.3763 0.3031 0.1762
0.4058 0.3174 0.1881
0.4343 0.3327 0.1984
0.4623 0.3453 0.2096
0.4902 0.3604 0.2199
0.5155 0.3749 0.2318
0.5394 0.3870 0.2425
0.5594 0.4000 0.2533
0.5794 0.4110 0.2612
0.5978 0.4238 0.2731
0.6161 0.4390 0.2827
0.6320 0.4510 0.2930
0.6480 0.4630 0.3009
0.6619 0.4750 0.3089
0.6759 0.4870 0.3169
0.6896 0.4990 0.3249
0.0802 0.1704 0.0724
0.0921 0.1744 0.0762
0.1027 0.1787 0.0804
0.1201 0.1921 0.0884
0.1366 0.2040 0.0964
0.1566 0.2137 0.1044
0.1758 0.2218 0.1123
0.1935 0.2319 0.1173
0.2126 0.2408 0.1244
0.2293 0.2495 0.1323
0.2474 0.2563 0.1369
0.2651 0.2616 0.1408
0.2826 0.2711 0.1484
0.3047 0.2815 0.1563
0.3247 0.2894 0.1622
0.3526 0.3053 0.1723
0.3861 0.3230 0.1860
0.4143 0.3373 0.1961
0.4423 0.3532 0.2080
0.4735 0.3670 0.2183
0.4996 0.3811 0.2304
0.5261 0.3949 0.2424
0.5485 0.4109 0.2534
0.5713 0.4229 0.2635
0.5900 0.4376 0.2745
0.6081 0.4508 0.2851
0.6273 0.4629 0.2952
0.6439 0.4754 0.3066
0.6577 0.4891 0.3151
0.6718 0.5009 0.3231
0.6878 0.5149 0.3310
0.6998 0.5269 0.3391
0.0843 0.1803 0.0764
0.0961 0.1863 0.0825
0.1083 0.1923 0.0865
0.1242 0.2045 0.0945
0.1441 0.2166 0.1030
0.1646 0.2325 0.1123
0.1857 0.2438 0.1203
0.2045 0.2526 0.1283
0.2245 0.2616 0.1362
0.2445 0.2728 0.1411
0.2612 0.2796 0.1482
0.2772 0.2855 0.1523
0.2970 0.2935 0.1582
0.3185 0.3051 0.1662
0.3385 0.3134 0.1723
0.3605 0.3213 0.1803
0.3943 0.3411 0.1942
0.4223 0.3571 0.2062
0.4541 0.3749 0.2182
0.4821 0.3909 0.2302
0.5094 0.4029 0.2416
0.5354 0.4189 0.2535
0.5593 0.4329 0.2654
0.5792 0.4468 0.2754
0.6001 0.4627 0.2864
0.6192 0.4748 0.2972
0.6378 0.4907 0.3065
0.6537 0.5027 0.3170
0.6678 0.5147 0.3266
0.6838 0.5267 0.3350
0.6957 0.5388 0.3430
0.7117 0.5527 0.3509
0.0883 0.1923 0.0805
0.1003 0.2002 0.0864
0.1145 0.2085 0.0925
0.1322 0.2205 0.1004
0.1525 0.2364 0.1089
0.1746 0.2524 0.1209
0.1977 0.2664 0.1322
0.2176 0.2776 0.1402
0.2375 0.2865 0.1462
0.2584 0.2974 0.1542
0.2772 0.3074 0.1609
0.2951 0.3140 0.1662
0.3130 0.3213 0.1722
0.3345 0.3310 0.1782
0.3545 0.3411 0.1862
0.3765 0.3511 0.1942
0.4023 0.3610 0.2021
0.4320 0.3790 0.2141
0.4621 0.3988 0.2298
0.4940 0.4148 0.2421
0.5214 0.4307 0.2541
0.5460 0.4440 0.2655
0.5672 0.4587 0.2774
0.5912 0.4747 0.2873
0.6111 0.4867 0.2983
0.6311 0.5026 0.3092
0.6478 0.5185 0.3210
0.6658 0.5306 0.3304
0.6797 0.5426 0.3389
0.6920 0.5546 0.3469
0.7077 0.5666 0.3548
0.7197 0.5786 0.3628
0.0923 0.2043 0.0845
0.1082 0.2142 0.0925
0.1203 0.2244 0.0983
0.1402 0.2364 0.1084
0.1566 0.2524 0.1164
0.1829 0.2689 0.1289
0.2083 0.2882 0.1402
0.2305 0.3014 0.1490
0.2504 0.3133 0.1582
0.2733 0.3234 0.1662
0.2931 0.3332 0.1729
0.3122 0.3411 0.1800
0.3304 0.3492 0.1847
0.3488 0.3571 0.1920
0.3704 0.3669 0.1982
0.3921 0.3770 0.2062
0.4182 0.3871 0.2141
0.4383 0.3989 0.2222
0.4701 0.4150 0.2381
0.5020 0.4348 0.2516
0.5313 0.4511 0.2656
0.5574 0.4706 0.2776
0.5791 0.4826 0.2894
0.5991 0.4986 0.2982
0.6200 0.5105 0.3102
0.6398 0.5265 0.3212
0.6591 0.5424 0.3309
0.6756 0.5545 0.3411
0.6877 0.5664 0.3469
0.7021 0.5748 0.3548
0.7156 0.5867 0.3628
0.7276 0.5986 0.3707
0.0980 0.2163 0.0902
0.1123 0.2283 0.0965
0.1285 0.2403 0.1045
0.1481 0.2563 0.1147
0.1669 0.2711 0.1244
0.1930 0.2911 0.1369
0.2202 0.3103 0.1504
0.2425 0.3262 0.1600
0.2664 0.3383 0.1702
0.2864 0.3514 0.1782
0.3090 0.3610 0.1862
0.3289 0.3690 0.1928
0.3464 0.3792 0.1982
0.3664 0.3872 0.2062
0.3863 0.3952 0.2124
0.4063 0.4032 0.2199
0.4341 0.4150 0.2301
0.4541 0.4247 0.2381
0.4781 0.4349 0.2461
0.5099 0.4549 0.2620
0.5393 0.4746 0.2740
0.5671 0.4905 0.2896
0.5905 0.5065 0.2992
0.6110 0.5195 0.3100
0.6280 0.5322 0.3190
0.6478 0.5481 0.3309
0.6670 0.5624 0.3389
0.6836 0.5749 0.3508
0.6960 0.5845 0.3565
0.7093 0.5962 0.3628
0.7213 0.6067 0.3707
0.7356 0.6163 0.3788
0.1044 0.2283 0.0965
0.1203 0.2443 0.1045
0.1365 0.2563 0.1124
0.1565 0.2761 0.1223
0.1770 0.2911 0.1328
0.2049 0.3132 0.1448
0.2322 0.3342 0.1600
0.2560 0.3501 0.1719
0.2784 0.3661 0.1809
0.3023 0.3794 0.1918
0.3249 0.3913 0.1997
0.3448 0.3992 0.2062
0.3631 0.4072 0.2141
0.3823 0.4152 0.2205
0.4023 0.4232 0.2262
0.4228 0.4311 0.2342
0.4481 0.4430 0.2421
0.4701 0.4546 0.2516
0.4940 0.4629 0.2620
0.5179 0.4748 0.2699
0.5472 0.4947 0.2858
0.5751 0.5145 0.2979
0.5990 0.5280 0.3099
0.6190 0.5434 0.3214
0.6389 0.5554 0.3300
0.6558 0.5680 0.3389
0.6750 0.5824 0.3469
0.6916 0.5925 0.3559
0.7036 0.6040 0.3628
0.7158 0.6148 0.3707
0.7278 0.6243 0.3788
0.7397 0.6362 0.3828
0.1123 0.2443 0.1045
0.1283 0.2626 0.1124
0.1445 0.2764 0.1207
0.1684 0.2972 0.1323
0.1888 0.3150 0.1433
0.2154 0.3395 0.1567
0.2466 0.3628 0.1713
0.2705 0.3805 0.1824
0.2944 0.3964 0.1943
0.3182 0.4099 0.2048
0.3422 0.4232 0.2141
0.3621 0.4311 0.2221
0.3821 0.4391 0.2301
0.4022 0.4471 0.2342
0.4204 0.4550 0.2421
0.4402 0.4630 0.2501
0.4640 0.4709 0.2580
0.4860 0.4825 0.2660
0.5099 0.4908 0.2740
0.5339 0.5027 0.2858
0.5552 0.5146 0.2938
0.5830 0.5320 0.3059
0.6070 0.5479 0.3191
0.6280 0.5638 0.3299
0.6478 0.5758 0.3389
0.6638 0.5879 0.3469
0.6805 0.5998 0.3548
0.6961 0.6119 0.3628
0.7090 0.6204 0.3707
0.7236 0.6295 0.3762
0.7330 0.6402 0.3829
0.7451 0.6496 0.3908
0.1203 0.2641 0.1098
0.1364 0.2801 0.1204
0.1564 0.2987 0.1286
0.1803 0.3189 0.1430
0.2029 0.3394 0.1548
0.2294 0.3674 0.1686
0.2586 0.3906 0.1833
0.2864 0.4106 0.1966
0.3103 0.4283 0.2086
0.3369 0.4443 0.2182
0.3595 0.4550 0.2301
0.3806 0.4669 0.2381
0.4005 0.4749 0.2461
0.4204 0.4829 0.2501
0.4390 0.4878 0.2580
0.4588 0.4949 0.2641
0.4820 0.5028 0.2720
0.5020 0.5108 0.2793
0.5258 0.5188 0.2896
0.5498 0.5307 0.2979
0.5698 0.5399 0.3059
0.5871 0.5479 0.3138
0.6121 0.5638 0.3258
0.6349 0.5798 0.3379
0.6549 0.5953 0.3469
0.6717 0.6077 0.3575
0.6877 0.6191 0.3628
0.7036 0.6278 0.3707
0.7156 0.6363 0.3752
0.7276 0.6443 0.3828
0.7370 0.6534 0.3881
0.7490 0.6641 0.3948
0.1283 0.2868 0.1204
0.1481 0.3055 0.1285
0.1671 0.3228 0.1406
0.1910 0.3467 0.1550
0.2154 0.3695 0.1673
0.2440 0.3941 0.1812
0.2745 0.4212 0.1965
0.3023 0.4412 0.2104
0.3272 0.4602 0.2223
0.3541 0.4761 0.2342
0.3767 0.4882 0.2421
0.3980 0.4988 0.2512
0.4180 0.5068 0.2592
0.4391 0.5147 0.2660
0.4590 0.5188 0.2740
0.4761 0.5248 0.2792
0.4979 0.5308 0.2860
0.5179 0.5388 0.2940
0.5379 0.5444 0.2997
0.5618 0.5559 0.3099
0.5804 0.5638 0.3179
0.5991 0.5718 0.3258
0.6162 0.5798 0.3310
0.6389 0.5957 0.3430
0.6598 0.6086 0.3511
0.6769 0.6209 0.3628
0.6928 0.6324 0.3707
0.7082 0.6410 0.3760
0.7201 0.6495 0.3828
0.7319 0.6574 0.3871
0.7409 0.6654 0.3921
0.7529 0.6761 0.4000
0.1402 0.3146 0.1313
0.1590 0.3306 0.1403
0.1765 0.3496 0.1514
0.2044 0.3750 0.1644
0.2314 0.4014 0.1794
0.2599 0.4260 0.1953
0.2905 0.4531 0.2113
0.3182 0.4731 0.2243
0.3461 0.4921 0.2382
0.3700 0.5080 0.2473
0.3939 0.5201 0.2580
0.4139 0.5307 0.2660
0.4363 0.5387 0.2740
0.4578 0.5449 0.2820
0.4761 0.5507 0.2871
0.4949 0.5557 0.2940
0.5158 0.5606 0.2999
0.5346 0.5646 0.3060
0.5538 0.5718 0.3139
0.5738 0.5798 0.3191
0.5923 0.5877 0.3270
0.6111 0.5957 0.3350
0.6281 0.6009 0.3430
0.6430 0.6078 0.3470
0.6609 0.6207 0.3589
0.6801 0.6328 0.3668
0.6967 0.6448 0.3748
0.7122 0.6563 0.3828
0.7241 0.6643 0.3872
0.7360 0.6722 0.3911
0.7448 0.6773 0.3989
0.7559 0.6853 0.4039
0.1551 0.3454 0.1433
0.1750 0.3644 0.1552
0.1914 0.3815 0.1634
0.2193 0.4085 0.1794
0.2473 0.4333 0.1953
0.2759 0.4578 0.2088
0.3064 0.4850 0.2241
0.3342 0.5050 0.2383
0.3620 0.5240 0.2502
0.3860 0.5369 0.2621
0.4098 0.5507 0.2710
0.4324 0.5595 0.2803
0.4537 0.5675 0.2884
0.4738 0.5746 0.2949
0.4938 0.5795 0.3020
0.5118 0.5846 0.3069
0.5317 0.5886 0.3139
0.5516 0.5926 0.3198
0.5675 0.5965 0.3260
0.5874 0.6036 0.3309
0.6033 0.6091 0.3389
0.6228 0.6166 0.3460
0.6360 0.6209 0.3509
0.6520 0.6286 0.3560
0.6640 0.6326 0.3599
0.6809 0.6447 0.3709
0.6998 0.6564 0.3789
0.7127 0.6653 0.3838
0.7251 0.6732 0.3913
0.7370 0.6812 0.3958
0.7487 0.6892 0.4029
0.7569 0.6962 0.4078
0.1710 0.3774 0.1593
0.1909 0.3973 0.1711
0.2110 0.4173 0.1794
0.2388 0.4416 0.1953
0.2667 0.4691 0.2113
0.2944 0.4922 0.2233
0.3231 0.5169 0.2392
0.3501 0.5369 0.2520
0.3780 0.5549 0.2662
0.4019 0.5667 0.2741
0.4258 0.5786 0.2841
0.4483 0.5887 0.2940
0.4697 0.5970 0.3020
0.4912 0.6033 0.3083
0.5118 0.6088 0.3147
0.5297 0.6126 0.3220
0.5508 0.6166 0.3279
0.5675 0.6205 0.3340
0.5834 0.6245 0.3388
0.5993 0.6276 0.3436
0.6161 0.6330 0.3508
0.6320 0.6369 0.3548
0.6479 0.6408 0.3600
0.6599 0.6448 0.3639
0.6720 0.6495 0.3709
0.6840 0.6526 0.3750
0.7007 0.6647 0.3798
0.7132 0.6732 0.3877
0.7283 0.6812 0.3918
0.7402 0.6892 0.3992
0.7489 0.6971 0.4038
0.7608 0.7051 0.4110
0.1903 0.4197 0.1785
0.2103 0.4396 0.1872
0.2305 0.4597 0.1986
0.2584 0.4836 0.2145
0.2859 0.5070 0.2272
0.3117 0.5255 0.2392
0.3416 0.5513 0.2544
0.3694 0.5678 0.2672
0.3939 0.5861 0.2782
0.4178 0.5958 0.2879
0.4417 0.6066 0.2980
0.4656 0.6145 0.3060
0.4856 0.6250 0.3139
0.5095 0.6305 0.3220
0.5277 0.6367 0.3281
0.5470 0.6406 0.3340
0.5668 0.6446 0.3399
0.5834 0.6473 0.3460
0.5993 0.6485 0.3506
0.6153 0.6515 0.3547
0.6280 0.6530 0.3595
0.6439 0.6569 0.3634
0.6559 0.6608 0.3680
0.6679 0.6648 0.3719
0.6800 0.6684 0.3758
0.6888 0.6693 0.3798
0.7007 0.6726 0.3837
0.7166 0.6813 0.3915
0.7286 0.6892 0.3957
0.7407 0.6971 0.3997
0.7489 0.7051 0.4077
0.7608 0.7131 0.4151
0.2068 0.4602 0.1951
0.2301 0.4801 0.2031
0.2510 0.4962 0.2152
0.2785 0.5202 0.2311
0.3059 0.5441 0.2461
0.3309 0.5634 0.2551
0.3589 0.5804 0.2703
0.3859 0.5997 0.2823
0.4098 0.6123 0.2917
0.4338 0.6231 0.3021
0.4577 0.6345 0.3100
0.4802 0.6425 0.3180
0.5015 0.6495 0.3265
0.5238 0.6550 0.3340
0.5437 0.6612 0.3402
0.5635 0.6652 0.3465
0.5834 0.6677 0.3519
0.5994 0.6691 0.3559
0.6119 0.6730 0.3603
0.6273 0.6730 0.3642
0.6398 0.6735 0.3681
0.6519 0.6769 0.3720
0.6645 0.6774 0.3760
0.6759 0.6814 0.3799
0.6849 0.6844 0.3838
0.6967 0.6853 0.3869
0.7048 0.6891 0.3877
0.7166 0.6892 0.3917
0.7286 0.6971 0.3961
0.7407 0.7051 0.4036
0.7523 0.7131 0.4077
0.7608 0.7211 0.4157
0.2267 0.5040 0.2110
0.2502 0.5200 0.2230
0.2741 0.5394 0.2348
0.2980 0.5565 0.2471
