All_In_One/addons/Enrich_Colormaster/colormanagement/luts/film_response/Color_Implosion_21_VS.cube
TITLE "ImpulZ LUT 32"
LUT_3D_SIZE 5
DOMAIN_MIN 0.000000 0.000000 0.000000
DOMAIN_MAX 0.903226 0.903226 0.903226
0.0549 0.0431 0.0431
0.1185 0.0558 0.0558
0.2057 0.0802 0.0784
0.3112 0.1163 0.1098
0.4612 0.1639 0.1525
0.0627 0.0998 0.0549
0.1351 0.1155 0.0715
0.2689 0.1739 0.1164
0.4450 0.2484 0.1721
0.5844 0.3121 0.2280
0.0802 0.1704 0.0724
0.1935 0.2319 0.1173
0.3247 0.2894 0.1622
0.5261 0.3949 0.2424
0.6577 0.4891 0.3151
0.1203 0.2641 0.1098
0.2864 0.4106 0.1966
0.4390 0.4878 0.2580
0.5871 0.5479 0.3138
0.7156 0.6363 0.3752
0.2267 0.5040 0.2110
0.4019 0.6215 0.2916
0.5557 0.6794 0.3469
0.6598 0.6925 0.3787
0.7286 0.7051 0.3996
0.0667 0.0558 0.1029
0.1146 0.0588 0.0950
0.1940 0.0784 0.1146
0.2837 0.1046 0.1382
0.4070 0.1408 0.1721
0.0667 0.1068 0.1068
0.1791 0.1595 0.1447
0.3491 0.1996 0.1713
0.5186 0.2476 0.2123
0.6411 0.3034 0.2602
0.0928 0.1966 0.1329
0.2005 0.3226 0.1957
0.4402 0.4019 0.2542
0.6245 0.4607 0.3060
0.7304 0.5400 0.3723
0.1552 0.3518 0.2044
0.3069 0.5619 0.2816
0.5409 0.6372 0.3844
0.6890 0.6586 0.4236
0.7809 0.7187 0.4930
0.2476 0.5719 0.2916
0.4508 0.7190 0.3726
0.6276 0.7474 0.4550
0.7304 0.7613 0.5033
0.7918 0.7761 0.5278
0.0784 0.0724 0.1783
0.1517 0.0872 0.1879
0.2131 0.0881 0.1704
0.3226 0.1163 0.1940
0.4324 0.1451 0.2214
0.0863 0.1281 0.1839
0.1734 0.1830 0.2641
0.3199 0.1800 0.2454
0.4677 0.2053 0.2515
0.6058 0.2533 0.2885
0.1173 0.2345 0.2267
0.1673 0.3003 0.2798
0.4477 0.4712 0.4302
0.6255 0.4821 0.4242
0.7251 0.5493 0.4808
0.1896 0.4224 0.3199
0.2476 0.5135 0.3522
0.5092 0.6673 0.5249
0.6982 0.6973 0.5858
0.7800 0.7344 0.6320
0.2563 0.5796 0.3800
0.3557 0.7021 0.4420
0.6716 0.7779 0.6385
0.7513 0.7896 0.6659
0.7936 0.7918 0.6716
0.0980 0.0928 0.2563
0.1783 0.1163 0.2925
0.2632 0.1281 0.2994
0.3739 0.1373 0.2720
0.4659 0.1569 0.2877
0.1124 0.1626 0.2799
0.1743 0.1940 0.3757
0.3278 0.2222 0.4128
0.4668 0.2262 0.3570
0.5726 0.2524 0.3618
0.1534 0.2903 0.3443
0.2026 0.3347 0.4023
0.3627 0.4341 0.5144
0.5880 0.4594 0.5283
0.6925 0.5013 0.5532
0.1975 0.4276 0.3962
0.2524 0.4755 0.4324
0.3605 0.5880 0.5231
0.7256 0.7374 0.7126
0.7827 0.7609 0.7370
0.2741 0.5949 0.4768
0.3413 0.6677 0.5352
0.5423 0.7500 0.6512
0.7748 0.8101 0.7661
0.8101 0.8153 0.7709
0.1255 0.1216 0.3675
0.2123 0.1486 0.4119
0.2720 0.1490 0.4053
0.3661 0.1486 0.3600
0.4659 0.1643 0.3521
0.1408 0.2005 0.3923
0.1978 0.2171 0.4951
0.3335 0.2457 0.5392
0.4951 0.2729 0.5056
0.5592 0.2689 0.4577
0.1800 0.3247 0.4580
0.2301 0.3465 0.5078
0.3671 0.4416 0.6224
0.6133 0.5043 0.6502
0.6912 0.5026 0.6420
0.2297 0.4589 0.5042
0.2859 0.4999 0.5479
0.3623 0.5740 0.6176
0.7083 0.7335 0.7500
0.7709 0.7491 0.7622
0.2820 0.5871 0.5482
0.3456 0.6393 0.5997
0.4494 0.7147 0.6712
0.7240 0.7944 0.7736
0.8231 0.8271 0.8153
