All_In_One/addons/Enrich_Colormaster/colormanagement/luts/film_response/Color_Implosion_21_VS.cube
TITLE "ImpulZ LUT 32"
LUT_3D_SIZE 8
DOMAIN_MIN 0.000000 0.000000 0.000000
DOMAIN_MAX 0.903226 0.903226 0.903226
0.0549 0.0431 0.0431
0.0868 0.0510 0.0510
0.1304 0.0588 0.0588
0.1795 0.0721 0.0706
0.2334 0.0902 0.0863
0.2952 0.1098 0.1045
0.3660 0.1324 0.1246
0.4612 0.1639 0.1525
0.0588 0.0750 0.0510
0.0873 0.0755 0.0515
0.1353 0.0878 0.0637
0.2035 0.1157 0.0844
0.2816 0.1462 0.1123
0.3733 0.1805 0.1403
0.4650 0.2124 0.1682
0.5445 0.2442 0.1932
0.0667 0.1108 0.0588
0.1030 0.1191 0.0637
0.1520 0.1324 0.0794
0.2291 0.1697 0.1069
0.3297 0.2129 0.1403
0.4331 0.2565 0.1731
0.5247 0.2963 0.2071
0.5963 0.3360 0.2398
0.0745 0.1481 0.0667
0.1241 0.1722 0.0844
0.1917 0.2001 0.1084
0.2571 0.2296 0.1285
0.3665 0.2831 0.1682
0.4797 0.3390 0.2105
0.5683 0.3871 0.2492
0.6360 0.4355 0.2889
0.0883 0.1923 0.0805
0.1525 0.2364 0.1089
0.2375 0.2865 0.1462
0.3130 0.3213 0.1722
0.4023 0.3610 0.2021
0.5214 0.4307 0.2541
0.6111 0.4867 0.2983
0.6797 0.5426 0.3389
0.1123 0.2443 0.1045
0.1888 0.3150 0.1433
0.2944 0.3964 0.1943
0.3821 0.4391 0.2301
0.4640 0.4709 0.2580
0.5552 0.5146 0.2938
0.6478 0.5758 0.3389
0.7090 0.6204 0.3707
0.1551 0.3454 0.1433
0.2473 0.4333 0.1953
0.3620 0.5240 0.2502
0.4537 0.5675 0.2884
0.5317 0.5886 0.3139
0.6033 0.6091 0.3389
0.6640 0.6326 0.3599
0.7251 0.6732 0.3913
0.2267 0.5040 0.2110
0.3259 0.5794 0.2625
0.4258 0.6352 0.3026
0.5140 0.6694 0.3345
0.5919 0.6855 0.3585
0.6478 0.6894 0.3751
0.6928 0.6972 0.3878
0.7286 0.7051 0.3996
0.0593 0.0510 0.0750
0.0868 0.0510 0.0750
0.1265 0.0588 0.0794
0.1740 0.0721 0.0917
0.2232 0.0863 0.1040
0.2791 0.1020 0.1181
0.3394 0.1207 0.1364
0.4227 0.1447 0.1574
0.0588 0.0750 0.0750
0.0995 0.0839 0.0834
0.1682 0.1035 0.0956
0.2414 0.1201 0.1108
0.3277 0.1466 0.1324
0.4096 0.1766 0.1599
0.4930 0.2079 0.1883
0.5694 0.2403 0.2163
0.0632 0.1108 0.0799
0.1231 0.1481 0.1000
0.2045 0.1721 0.1157
0.2973 0.2016 0.1403
0.3934 0.2403 0.1731
0.4846 0.2762 0.2045
0.5655 0.3080 0.2359
0.6287 0.3409 0.2608
0.0721 0.1549 0.0907
0.1280 0.2085 0.1113
0.2369 0.2615 0.1447
0.3375 0.2934 0.1760
0.4459 0.3404 0.2179
0.5444 0.3798 0.2531
0.6214 0.4214 0.2884
0.6855 0.4680 0.3203
0.0907 0.2085 0.1069
0.1447 0.2831 0.1290
0.2767 0.3719 0.1870
0.3861 0.4126 0.2281
0.4935 0.4464 0.2654
0.5988 0.4979 0.3056
0.6773 0.5489 0.3433
0.7355 0.5980 0.3772
0.1193 0.2766 0.1369
0.1933 0.3936 0.1692
0.3326 0.5015 0.2395
0.4493 0.5489 0.2865
0.5489 0.5675 0.3179
0.6395 0.5988 0.3512
0.7150 0.6425 0.3870
0.7634 0.6797 0.4228
0.1634 0.3897 0.1796
0.2621 0.5245 0.2238
0.3949 0.6150 0.2884
0.5091 0.6512 0.3346
0.6013 0.6659 0.3668
0.6727 0.6797 0.3919
0.7320 0.7007 0.4188
0.7761 0.7286 0.4512
0.2311 0.5476 0.2434
0.3385 0.6514 0.2865
0.4538 0.6909 0.3315
0.5576 0.7153 0.3713
0.6395 0.7291 0.4065
0.7036 0.7399 0.4325
0.7482 0.7491 0.4516
0.7766 0.7570 0.4599
0.0667 0.0588 0.1147
0.0956 0.0598 0.1108
0.1236 0.0598 0.1030
0.1701 0.0745 0.1147
0.2187 0.0863 0.1265
0.2702 0.1006 0.1408
0.3286 0.1176 0.1570
0.4031 0.1373 0.1771
0.0667 0.0829 0.1147
0.1147 0.0995 0.1319
0.1594 0.0961 0.1241
0.2237 0.1084 0.1348
0.2918 0.1265 0.1466
0.3673 0.1461 0.1648
0.4512 0.1726 0.1878
0.5416 0.2040 0.2129
0.0706 0.1186 0.1157
0.1069 0.1447 0.1398
0.2079 0.1893 0.1736
0.3115 0.2134 0.1883
0.4238 0.2375 0.2012
0.5204 0.2644 0.2242
0.6002 0.2924 0.2482
0.6615 0.3242 0.2772
0.0839 0.1687 0.1329
0.1152 0.2095 0.1530
0.2260 0.2978 0.2168
0.3645 0.3375 0.2374
0.4856 0.3571 0.2502
0.5806 0.3841 0.2756
0.6522 0.4145 0.3012
0.7066 0.4582 0.3385
0.1128 0.2453 0.1659
0.1408 0.2983 0.1816
0.2385 0.4093 0.2395
0.4062 0.4867 0.3037
0.5288 0.4945 0.3189
0.6331 0.5283 0.3459
0.7051 0.5680 0.3798
0.7532 0.6116 0.4273
0.1525 0.3429 0.2110
0.1849 0.4200 0.2218
0.3126 0.5611 0.3003
0.4700 0.6204 0.3719
0.5811 0.6243 0.4023
0.6650 0.6376 0.4184
0.7350 0.6718 0.4543
0.7800 0.7066 0.4969
0.1992 0.4583 0.2591
0.2389 0.5579 0.2645
0.4102 0.6699 0.3660
0.5410 0.7012 0.4313
0.6316 0.7051 0.4640
0.6918 0.7106 0.4797
0.7511 0.7315 0.5032
0.7909 0.7520 0.5360
0.2541 0.5792 0.3075
0.3067 0.6748 0.3124
0.4906 0.7339 0.4125
0.5955 0.7496 0.4604
0.6664 0.7575 0.4963
0.7198 0.7629 0.5203
0.7619 0.7712 0.5399
0.7918 0.7800 0.5517
0.0745 0.0667 0.1559
0.1108 0.0721 0.1584
0.1515 0.0784 0.1559
0.1755 0.0784 0.1442
0.2330 0.0922 0.1565
0.2889 0.1074 0.1716
0.3487 0.1231 0.1858
0.4184 0.1408 0.2050
0.0750 0.0922 0.1599
0.1226 0.1113 0.1922
0.1873 0.1196 0.2040
0.2364 0.1157 0.1760
0.2958 0.1304 0.1839
0.3571 0.1471 0.1957
0.4307 0.1687 0.2138
0.5100 0.1967 0.2369
0.0834 0.1329 0.1638
0.1152 0.1599 0.2006
0.2025 0.2079 0.2458
0.2840 0.1962 0.2296
0.3806 0.2085 0.2320
0.4793 0.2275 0.2403
0.5792 0.2511 0.2576
0.6556 0.2845 0.2855
0.0971 0.1850 0.1810
0.1251 0.2247 0.2163
0.1745 0.2683 0.2472
0.3566 0.3675 0.3370
0.4684 0.3723 0.3307
0.5856 0.3895 0.3331
0.6625 0.4160 0.3542
0.7148 0.4593 0.3891
0.1290 0.2708 0.2247
0.1594 0.3169 0.2502
0.2001 0.3806 0.2767
0.3625 0.4974 0.3758
0.5395 0.5410 0.4278
0.6366 0.5489 0.4210
0.7022 0.5734 0.4450
0.7467 0.6171 0.4922
0.1737 0.3856 0.2801
0.2080 0.4346 0.2983
0.2497 0.5136 0.3189
0.4215 0.6209 0.4333
0.6007 0.6640 0.5136
0.6703 0.6625 0.5141
0.7341 0.6851 0.5357
0.7771 0.7160 0.5778
0.2187 0.4954 0.3261
0.2536 0.5503 0.3394
0.3416 0.6449 0.3935
0.5343 0.7134 0.5234
0.6493 0.7355 0.5714
0.7051 0.7345 0.5801
0.7472 0.7394 0.5871
0.7878 0.7619 0.6199
0.2545 0.5796 0.3580
0.2981 0.6533 0.3757
0.4381 0.7331 0.4646
0.6238 0.7678 0.5743
0.6933 0.7776 0.6027
0.7335 0.7800 0.6199
0.7653 0.7815 0.6277
0.7918 0.7878 0.6340
0.0844 0.0784 0.2001
0.1221 0.0863 0.2080
0.1726 0.0990 0.2237
0.2192 0.1040 0.2202
0.2610 0.1040 0.2001
0.3286 0.1202 0.2138
0.3885 0.1353 0.2276
0.4483 0.1490 0.2408
0.0868 0.1045 0.2080
0.1265 0.1226 0.2516
0.1947 0.1383 0.2796
0.2629 0.1442 0.2683
0.3242 0.1476 0.2398
0.3752 0.1594 0.2398
0.4336 0.1735 0.2496
0.5027 0.1967 0.2688
0.0961 0.1491 0.2129
0.1285 0.1810 0.2673
0.1863 0.2118 0.3120
0.2953 0.2236 0.3316
0.3836 0.2139 0.2973
0.4695 0.2252 0.2924
0.5542 0.2453 0.3012
0.6277 0.2733 0.3247
0.1173 0.2144 0.2443
0.1526 0.2644 0.2923
0.1790 0.2801 0.3203
0.3164 0.3600 0.3963
0.4366 0.3581 0.3905
0.5469 0.3645 0.3827
0.6350 0.3866 0.3935
0.6928 0.4239 0.4249
0.1413 0.2923 0.2806
0.1727 0.3281 0.3085
0.1952 0.3590 0.3306
0.2762 0.4263 0.3777
0.5533 0.5787 0.5356
0.6248 0.5709 0.5259
0.6943 0.5974 0.5455
0.7389 0.6312 0.5783
0.1790 0.3944 0.3286
0.2173 0.4341 0.3556
0.2448 0.4846 0.3762
0.3283 0.5640 0.4273
0.5721 0.6679 0.5832
0.6821 0.6899 0.6204
0.7350 0.7051 0.6278
0.7721 0.7262 0.6558
0.2266 0.5032 0.3776
0.2654 0.5434 0.4031
0.3012 0.6082 0.4258
0.4230 0.6787 0.5064
0.6406 0.7394 0.6435
0.7252 0.7580 0.6728
0.7551 0.7580 0.6718
0.7909 0.7737 0.6930
0.2604 0.5835 0.4095
0.3002 0.6313 0.4355
0.3631 0.7048 0.4802
0.5657 0.7556 0.6077
0.7134 0.7899 0.6899
0.7536 0.7977 0.7026
0.7791 0.7977 0.7095
0.7977 0.7996 0.7095
0.0941 0.0888 0.2443
0.1324 0.1006 0.2599
0.1878 0.1162 0.2835
0.2383 0.1241 0.2913
0.2942 0.1241 0.2697
0.3541 0.1319 0.2599
0.4100 0.1442 0.2678
0.4659 0.1565 0.2770
0.1006 0.1207 0.2560
0.1364 0.1343 0.3120
0.2020 0.1544 0.3459
0.2623 0.1643 0.3462
0.3227 0.1643 0.3070
0.3878 0.1696 0.2898
0.4384 0.1775 0.2898
0.4991 0.1967 0.3016
0.1123 0.1731 0.2702
0.1442 0.1991 0.3276
0.1863 0.2148 0.3718
0.2879 0.2393 0.4135
0.3948 0.2432 0.4008
0.4734 0.2408 0.3650
0.5424 0.2492 0.3571
0.6086 0.2733 0.3709
0.1335 0.2424 0.3061
0.1706 0.2829 0.3556
0.1907 0.2889 0.3841
0.2796 0.3424 0.4464
0.4444 0.3827 0.4851
0.5410 0.3670 0.4567
0.6247 0.3777 0.4534
0.6806 0.4087 0.4735
0.1633 0.3341 0.3522
0.1986 0.3668 0.3835
0.2163 0.3762 0.4002
0.2615 0.4106 0.4376
0.4974 0.5508 0.5675
0.6038 0.5591 0.5753
0.6659 0.5734 0.5818
0.7144 0.6058 0.6063
0.1868 0.4036 0.3762
0.2173 0.4277 0.3958
0.2453 0.4567 0.4164
0.2934 0.5229 0.4631
0.4612 0.6155 0.5582
0.6978 0.7134 0.6860
0.7375 0.7204 0.6930
0.7707 0.7419 0.7144
0.2330 0.5071 0.4238
0.2732 0.5469 0.4551
0.3012 0.5905 0.4812
0.3670 0.6459 0.5284
0.5417 0.7086 0.6239
0.7296 0.7663 0.7257
0.7668 0.7747 0.7336
0.7982 0.7873 0.7467
0.2727 0.5914 0.4635
0.3138 0.6298 0.4954
0.3478 0.6846 0.5308
0.4735 0.7331 0.6073
0.6638 0.7781 0.7013
0.7668 0.8060 0.7551
0.7913 0.8114 0.7590
0.8074 0.8114 0.7629
0.1089 0.1050 0.3002
0.1500 0.1172 0.3203
0.2040 0.1324 0.3472
0.2446 0.1403 0.3536
0.2903 0.1364 0.3295
0.3541 0.1398 0.3089
0.4178 0.1490 0.3050
0.4698 0.1608 0.3158
0.1137 0.1369 0.3080
0.1486 0.1500 0.3796
0.2138 0.1701 0.4115
0.2717 0.1785 0.4060
0.3257 0.1780 0.3742
0.3836 0.1819 0.3462
0.4359 0.1844 0.3325
0.4952 0.2006 0.3418
0.1285 0.1933 0.3326
0.1584 0.2103 0.3801
0.1962 0.2226 0.4395
0.2845 0.2492 0.4920
0.3915 0.2620 0.4865
0.4865 0.2698 0.4606
0.5385 0.2659 0.4258
0.5963 0.2806 0.4294
0.1505 0.2649 0.3699
0.1863 0.2948 0.4120
0.2056 0.2948 0.4439
0.2767 0.3424 0.5126
0.4371 0.3910 0.5620
0.5542 0.3989 0.5581
0.6193 0.3910 0.5322
0.6737 0.4087 0.5397
0.1785 0.3512 0.4120
0.2114 0.3732 0.4394
0.2325 0.3825 0.4640
0.2678 0.4091 0.5032
0.4681 0.5415 0.6091
0.6190 0.5787 0.6357
0.6659 0.5709 0.6297
0.7114 0.5940 0.6440
0.2064 0.4311 0.4408
0.2383 0.4512 0.4635
0.2654 0.4718 0.4850
0.2983 0.5126 0.5253
0.4254 0.5940 0.5959
0.6763 0.7042 0.7061
0.7271 0.7126 0.7139
0.7615 0.7301 0.7301
0.2335 0.4993 0.4601
0.2693 0.5272 0.4875
0.3012 0.5640 0.5160
0.3463 0.6184 0.5612
0.4779 0.6807 0.6297
0.6754 0.7467 0.7179
0.7786 0.7873 0.7707
0.8030 0.7987 0.7825
0.2820 0.5953 0.5124
0.3247 0.6282 0.5448
0.3536 0.6747 0.5811
0.4258 0.7144 0.6253
0.5810 0.7590 0.6935
0.7293 0.7957 0.7590
0.7987 0.8187 0.7913
0.8153 0.8192 0.7952
0.1255 0.1216 0.3675
0.1735 0.1378 0.3958
0.2242 0.1500 0.4159
0.2560 0.1525 0.4134
0.2942 0.1451 0.3894
0.3501 0.1476 0.3639
0.4104 0.1560 0.3530
0.4659 0.1643 0.3521
0.1290 0.1535 0.3683
0.1652 0.1696 0.4473
0.2242 0.1853 0.4748
0.2741 0.1928 0.4659
0.3341 0.1937 0.4399
0.4057 0.2035 0.4214
0.4551 0.2059 0.4052
0.4913 0.2045 0.3884
0.1447 0.2148 0.4013
0.1726 0.2221 0.4360
0.2098 0.2344 0.5110
0.2879 0.2579 0.5630
0.3999 0.2757 0.5610
0.5018 0.2939 0.5435
0.5625 0.3007 0.5214
0.5870 0.2929 0.4896
0.1682 0.2869 0.4399
0.1981 0.3046 0.4718
0.2218 0.3026 0.5071
0.2900 0.3527 0.5866
0.4421 0.4018 0.6243
0.5675 0.4219 0.6233
0.6331 0.4268 0.6141
0.6693 0.4190 0.5999
0.1942 0.3629 0.4718
0.2261 0.3825 0.4993
0.2501 0.3939 0.5267
0.2889 0.4205 0.5748
0.4765 0.5475 0.6606
0.6234 0.5910 0.6778
0.6812 0.5979 0.6851
0.7134 0.5940 0.6817
0.2217 0.4389 0.4972
0.2540 0.4601 0.5203
0.2845 0.4831 0.5479
0.3140 0.5165 0.5876
0.4339 0.5951 0.6484
0.6764 0.7056 0.7341
0.7385 0.7252 0.7458
0.7615 0.7262 0.7498
0.2536 0.5189 0.5242
0.2894 0.5438 0.5482
0.3203 0.5748 0.5762
0.3542 0.6145 0.6155
0.4672 0.6725 0.6691
0.6588 0.7419 0.7380
0.7747 0.7869 0.7869
0.7991 0.7948 0.7948
0.2820 0.5871 0.5482
0.3217 0.6145 0.5762
0.3496 0.6509 0.6081
0.3999 0.6925 0.6475
0.5270 0.7409 0.7013
0.6921 0.7861 0.7615
0.7834 0.8114 0.7991
0.8231 0.8271 0.8153
