All_In_One/addons/Enrich_Colormaster/colormanagement/luts/film_response/F-8700-V2.cube
# Copyright: (C) Copyright 2016 by IWLTBAP
# Cannot be resold, shared or otherwise redistributed
# Website: http://luts.iwltbap.com
TITLE "IWLTBAP 8700 V2 (LOG)"
LUT_3D_SIZE 32
0.000000 0.000000 0.000000
0.000000 0.000000 0.000000
0.000000 0.000000 0.000000
0.000000 0.000000 0.000000
0.000000 0.000000 0.000000
0.021210 0.003296 0.000000
0.055695 0.011780 0.000610
0.100098 0.021912 0.002167
0.146118 0.030121 0.001068
0.192902 0.036011 0.000000
0.239746 0.040649 0.000000
0.287415 0.044708 0.000000
0.332489 0.049316 0.000000
0.375946 0.055603 0.000000
0.421509 0.064148 0.000000
0.472992 0.073425 0.001190
0.529083 0.082977 0.008606
0.587311 0.091461 0.017029
0.645233 0.099487 0.025299
0.702240 0.108185 0.033752
0.757294 0.118866 0.042358
0.803192 0.130981 0.049530
0.837280 0.144836 0.053467
0.868683 0.159088 0.056061
0.897064 0.173645 0.056427
0.911346 0.181030 0.056580
0.913330 0.182068 0.056610
0.913330 0.182068 0.056610
0.913330 0.182068 0.056610
0.913330 0.182068 0.056610
0.913330 0.182068 0.056610
0.913330 0.182068 0.056610
0.000000 0.000000 0.000000
0.000000 0.000000 0.000000
0.000000 0.000000 0.000000
0.000000 0.000000 0.000000
0.000000 0.000000 0.000000
0.013733 0.002136 0.000000
0.044281 0.008881 0.000397
0.085266 0.018646 0.001801
0.130249 0.027954 0.002106
0.176270 0.033997 0.000153
0.222839 0.039093 0.000000
0.269745 0.043274 0.000000
0.315857 0.047363 0.000000
0.358246 0.052795 0.000000
0.400513 0.060242 0.000000
0.447998 0.069000 0.000000
0.501556 0.078308 0.004395
0.559723 0.087616 0.013184
0.619965 0.095947 0.021637
0.679321 0.104401 0.030182
0.737183 0.114319 0.039276
0.787445 0.126740 0.047028
0.826233 0.140137 0.052277
0.858429 0.154114 0.055634
0.890167 0.170105 0.056335
0.910217 0.180450 0.056580
0.913330 0.182068 0.056610
0.913330 0.182068 0.056610
0.913330 0.182068 0.056610
0.913330 0.182068 0.056610
0.913330 0.182068 0.056610
0.913330 0.182068 0.056610
0.000000 0.000000 0.000000
0.000000 0.000000 0.000000
0.000000 0.000122 0.000000
0.000000 0.000122 0.000000
0.000000 0.000519 0.000031
0.006622 0.001465 0.000092
0.033447 0.006378 0.000244
0.072021 0.015686 0.001312
0.116028 0.025421 0.002411
0.161316 0.032166 0.000305
0.206787 0.037445 0.000000
0.252289 0.041809 0.000000
0.297882 0.045685 0.000000
0.341492 0.050385 0.000000
0.384796 0.057281 0.000000
0.431458 0.065979 0.000000
0.485199 0.075500 0.002411
0.543884 0.085236 0.010834
0.605377 0.093872 0.019501
0.666077 0.102417 0.028229
0.725555 0.112244 0.037415
0.779144 0.124481 0.045685
0.821167 0.138000 0.051697
0.854370 0.152313 0.055206
0.887268 0.168579 0.056305
0.909668 0.180176 0.056580
0.913330 0.182068 0.056610
0.913330 0.182068 0.056610
0.913330 0.182068 0.056610
0.913330 0.182068 0.056610
0.913330 0.182068 0.056610
0.913330 0.182068 0.056610
0.000000 0.000000 0.000000
0.000000 0.000000 0.000000
0.000000 0.000092 0.000000
0.000000 0.001862 0.000000
0.000000 0.005432 0.000153
0.002625 0.008881 0.000519
0.029144 0.011719 0.001556
0.063873 0.017487 0.001923
0.105377 0.024719 0.002594
0.148956 0.031097 0.001007
0.194427 0.036407 0.000000
0.240845 0.040863 0.000000
0.288452 0.044861 0.000000
0.333862 0.049469 0.000000
0.378021 0.055969 0.000000
0.424896 0.064758 0.000000
0.478973 0.074432 0.001801
0.538269 0.084412 0.009979
0.600739 0.093262 0.018829
0.662750 0.101959 0.027771
0.723480 0.111877 0.037109
0.778717 0.124390 0.045624
0.822479 0.138550 0.051849
0.856415 0.153229 0.055420
0.888519 0.169250 0.056305
0.909821 0.180267 0.056580
0.913330 0.182068 0.056610
0.913330 0.182068 0.056610
0.913330 0.182068 0.056610
0.913330 0.182068 0.056610
0.913330 0.182068 0.056610
0.913330 0.182068 0.056610
0.000000 0.012268 0.004150
0.000000 0.009644 0.003265
0.000000 0.007385 0.002411
0.000000 0.007874 0.001526
0.000000 0.009033 0.000824
0.000000 0.015656 0.000916
0.026794 0.018921 0.002777
0.060608 0.024353 0.004089
0.104095 0.030640 0.004059
0.150116 0.036560 0.002045
0.195801 0.039917 0.000000
0.242279 0.042877 0.000000
0.290344 0.046295 0.000000
0.335968 0.050446 0.000000
0.380493 0.056793 0.000000
0.427979 0.065552 0.000000
0.483276 0.075378 0.002228
0.543884 0.085388 0.010803
0.607300 0.094208 0.019775
0.669891 0.102966 0.028778
0.731110 0.113220 0.038300
0.785919 0.126312 0.046783
0.829071 0.141327 0.052582
0.863007 0.156189 0.056000
0.893311 0.171722 0.056366
0.910614 0.180664 0.056580
0.913330 0.182068 0.056610
0.913330 0.182068 0.056610
0.913330 0.182068 0.056610
0.913330 0.182068 0.056610
0.913330 0.182068 0.056610
0.913330 0.182068 0.056610
0.000000 0.026367 0.008087
0.000000 0.023224 0.007721
0.000000 0.020111 0.006744
0.000000 0.020111 0.005585
0.000000 0.022003 0.004700
0.000000 0.023956 0.002777
0.023590 0.028870 0.004242
0.060944 0.033478 0.006348
0.105164 0.039368 0.006134
0.153107 0.045898 0.004089
0.201538 0.050018 0.000000
0.249359 0.052368 0.000000
0.297455 0.054443 0.000000
0.342987 0.056976 0.000000
0.388214 0.062256 0.000000
0.436584 0.070404 0.000000
0.492615 0.079926 0.002960
0.553680 0.089569 0.011902
0.616913 0.097809 0.020782
0.679108 0.105835 0.029724
0.740173 0.115936 0.039429
0.794220 0.129517 0.047668
0.836823 0.145416 0.052917
0.870209 0.160645 0.055542
0.898834 0.175323 0.055908
0.911987 0.182098 0.056061
0.913818 0.183014 0.056122
0.913788 0.182953 0.056152
0.913757 0.182922 0.056152
0.913727 0.182861 0.056183
0.913696 0.182800 0.056213
0.913666 0.182739 0.056244
0.000000 0.041748 0.010010
0.000000 0.038788 0.009644
0.000000 0.036346 0.009338
0.000000 0.036407 0.009308
0.000000 0.039917 0.009277
0.000000 0.042664 0.007751
0.019623 0.041931 0.002106
0.058807 0.045990 0.005402
0.106140 0.050323 0.007385
0.154510 0.056335 0.006287
0.206177 0.061920 0.001648
0.256378 0.064728 0.000000
0.306854 0.067627 0.000000
0.354431 0.071228 0.000000
0.402100 0.076965 0.000000
0.452271 0.084961 0.000000
0.508545 0.094269 0.003784
0.569946 0.103973 0.012817
0.632721 0.112579 0.021088
0.693634 0.120300 0.029205
0.753540 0.129852 0.038116
0.806885 0.143250 0.045197
0.849152 0.159119 0.049011
0.881683 0.174316 0.050079
0.908752 0.188049 0.050446
0.917908 0.192505 0.050751
0.918762 0.192688 0.050934
0.918518 0.192230 0.051208
0.918304 0.191833 0.051422
0.918060 0.191345 0.051666
0.917786 0.190826 0.051941
0.917603 0.190460 0.052124
0.000000 0.059875 0.012085
0.000000 0.057556 0.011810
0.000000 0.055786 0.011627
0.000000 0.055542 0.011597
0.000000 0.059235 0.012085
0.000000 0.064545 0.012512
0.007812 0.067047 0.009613
0.056061 0.062378 0.000336
0.108612 0.064453 0.003082
0.162048 0.068298 0.003906
0.215363 0.073547 0.000580
0.266724 0.077332 0.000000
0.317444 0.081329 0.000000
0.366333 0.086731 0.000000
0.415894 0.093384 0.000000
0.468842 0.102295 0.000214
0.527161 0.113281 0.004822
0.590607 0.125427 0.013855
0.656494 0.138733 0.021667
0.718506 0.151520 0.027496
0.776764 0.164520 0.032745
0.829437 0.178131 0.036438
0.871613 0.192932 0.036346
0.903351 0.207764 0.035980
0.927521 0.219666 0.034698
0.933502 0.222107 0.035187
0.933380 0.221375 0.035675
0.932861 0.220337 0.036194
0.932434 0.219513 0.036652
0.931946 0.218567 0.037140
0.931488 0.217651 0.037628
0.931122 0.216949 0.037994
0.000000 0.078094 0.012360
0.000000 0.076538 0.012421
0.000000 0.075653 0.012482
0.000000 0.075775 0.012512
0.000000 0.078857 0.012909
0.000000 0.086182 0.014160
0.000000 0.092651 0.014313
0.038544 0.094299 0.005035
0.105438 0.084106 0.000000
0.167084 0.083740 0.000610
0.224365 0.086182 0.000000
0.276978 0.090240 0.000000
0.328003 0.095123 0.000000
0.377838 0.101349 0.000000
0.428650 0.109833 0.000000
0.484344 0.120361 0.000000
0.544220 0.132416 0.006409
0.607971 0.145844 0.014404
0.674072 0.161346 0.020966
0.738129 0.177643 0.025391
0.797668 0.195038 0.028320
0.850159 0.212616 0.028229
0.892548 0.230011 0.026215
0.923615 0.246002 0.023590
0.945740 0.257141 0.021088
0.950043 0.258789 0.020630
0.949860 0.258148 0.020752
0.949615 0.257507 0.020874
0.949402 0.256836 0.020996
0.949158 0.256104 0.021118
0.948944 0.255463 0.021240
0.948761 0.254944 0.021332
0.000000 0.097015 0.011414
0.000000 0.095795 0.011475
0.000000 0.095428 0.011505
0.000000 0.095978 0.011475
0.000000 0.098419 0.011658
0.000000 0.105560 0.013214
0.000000 0.115875 0.015137
0.024139 0.123596 0.008087
0.081818 0.123901 0.000000
0.165771 0.105286 0.000000
0.232208 0.101196 0.000000
0.287994 0.103424 0.000000
0.338806 0.109192 0.000000
0.389648 0.116760 0.000000
0.441681 0.125763 0.000000
0.498016 0.136932 0.001740
0.558624 0.149719 0.008636
0.622925 0.164490 0.015869
0.688568 0.181458 0.021210
0.753235 0.200012 0.024475
0.813568 0.219879 0.025360
0.865601 0.240143 0.023071
0.906921 0.259857 0.019836
0.937195 0.277527 0.017120
0.957336 0.290771 0.015259
0.961365 0.292725 0.014923
0.961151 0.292114 0.015015
0.960968 0.291534 0.015106
0.960724 0.290833 0.015228
0.960541 0.290222 0.015320
0.960358 0.289673 0.015411
0.960175 0.289154 0.015503
0.000000 0.118195 0.010559
0.000000 0.117249 0.010590
0.000000 0.117218 0.010590
0.000000 0.118042 0.010559
0.000000 0.120178 0.010620
0.000000 0.125549 0.012054
0.000000 0.136139 0.015137
0.010681 0.148346 0.011108
0.054230 0.157532 0.000854
0.146973 0.150360 0.000000
0.229218 0.126831 0.000000
0.295685 0.121063 0.000000
0.350891 0.123840 0.000000
0.401672 0.131653 0.000000
0.454926 0.141449 0.000366
0.511139 0.152618 0.004425
0.571411 0.165680 0.011566
0.636169 0.181122 0.017944
0.702454 0.199310 0.022461
0.765137 0.218811 0.024628
0.822601 0.239624 0.024353
0.873718 0.261719 0.022308
0.914795 0.283722 0.019470
0.944855 0.303497 0.016510
0.964355 0.318207 0.014557
0.968933 0.321014 0.014160
0.968872 0.320618 0.014160
0.968781 0.320282 0.014160
0.968628 0.319763 0.014160
0.968506 0.319336 0.014160
0.968414 0.318939 0.014160
0.968292 0.318481 0.014160
0.000000 0.140198 0.010010
0.000000 0.139618 0.010010
0.000000 0.139740 0.010010
0.000000 0.140594 0.010010
0.000000 0.142426 0.010071
0.000000 0.145721 0.010986
0.000000 0.154785 0.014404
0.004028 0.167969 0.013947
0.036011 0.183563 0.002899
0.120514 0.187042 0.000000
0.214661 0.175964 0.000000
0.294708 0.148468 0.000000
0.359070 0.142578 0.000000
0.415283 0.147430 0.000000
0.468414 0.156555 0.001373
0.523529 0.167847 0.007629
0.582733 0.180878 0.014343
0.645996 0.196442 0.019897
0.712097 0.215240 0.023468
0.773926 0.235687 0.025513
0.830841 0.257385 0.024933
0.880371 0.280731 0.022156
0.921478 0.304901 0.019135
0.951721 0.326691 0.017059
0.970734 0.342896 0.015137
0.976257 0.347321 0.014557
0.976440 0.347260 0.014496
0.976379 0.347015 0.014496
0.976257 0.346680 0.014496
0.976166 0.346344 0.014465
0.976105 0.346069 0.014465
0.975983 0.345734 0.014465
0.000000 0.161469 0.009949
0.000000 0.160980 0.009949
0.000000 0.161255 0.009949
0.000000 0.162262 0.009949
0.000000 0.164154 0.009949
0.000000 0.166901 0.010529
0.000000 0.173462 0.013458
0.000000 0.183563 0.016937
0.024628 0.203278 0.003326
0.093689 0.216461 0.000000
0.195038 0.217010 0.000000
0.283966 0.200745 0.000000
0.361877 0.170319 0.000000
0.424957 0.166443 0.000000
0.481354 0.172455 0.001648
0.536346 0.182983 0.009827
0.594482 0.196350 0.016602
0.655853 0.212250 0.021759
0.720001 0.230774 0.024933
0.781555 0.251984 0.026123
0.836945 0.274292 0.025818
0.885956 0.298615 0.022949
0.926514 0.324158 0.019409
0.957092 0.348297 0.017242
0.975891 0.366028 0.016144
0.982819 0.372284 0.015717
0.983398 0.372681 0.015656
0.983368 0.372528 0.015656
0.983307 0.372253 0.015656
0.983246 0.372009 0.015656
0.983215 0.371826 0.015625
0.983124 0.371552 0.015625
0.000000 0.183624 0.009460
0.000000 0.183228 0.009460
0.000000 0.183655 0.009460
0.000000 0.184784 0.009430
0.000000 0.186768 0.009369
0.000000 0.189056 0.009644
0.000000 0.194214 0.011871
0.000000 0.203674 0.016052
0.018616 0.219727 0.007080
0.070038 0.238312 0.000000
0.172607 0.247314 0.000000
0.267456 0.250854 0.000549
0.353943 0.225769 0.000000
0.429657 0.193970 0.000000
0.491180 0.191772 0.001862
0.549042 0.199249 0.010345
0.605865 0.211578 0.017975
0.665497 0.227386 0.023132
0.727478 0.246521 0.026184
0.788116 0.267883 0.026886
0.842133 0.291260 0.026123
0.890198 0.316284 0.023621
0.930450 0.343079 0.019958
0.961426 0.368622 0.017792
0.980103 0.388275 0.017242
0.988220 0.396759 0.016876
0.989166 0.397583 0.016815
0.989136 0.397461 0.016815
0.989105 0.397308 0.016785
0.989044 0.397125 0.016785
0.989014 0.396942 0.016785
0.988953 0.396729 0.016754
0.000000 0.206421 0.008972
0.000000 0.206085 0.008972
0.000000 0.206573 0.008972
0.000000 0.207886 0.009003
0.000000 0.209991 0.009064
0.000000 0.212067 0.009216
0.000000 0.216217 0.010773
0.000610 0.225342 0.015045
0.015503 0.238129 0.012177
0.052704 0.256927 0.000153
0.151367 0.271301 0.000000
0.249481 0.285645 0.000916
0.337250 0.284943 0.008606
0.424072 0.252228 0.001892
0.497284 0.220184 0.000488
0.558319 0.219330 0.008911
0.617584 0.228363 0.017853
0.675385 0.243042 0.023560
0.734650 0.261902 0.026489
0.793365 0.284149 0.027466
0.845795 0.307983 0.026123
0.892792 0.334351 0.023926
0.933411 0.362152 0.020752
0.964508 0.389404 0.019043
0.983978 0.410278 0.019409
0.993652 0.420624 0.019257
0.994873 0.421906 0.019226
0.994873 0.421875 0.019226
0.994873 0.421844 0.019196
0.994843 0.421722 0.019196
0.994781 0.421539 0.019165
0.994751 0.421356 0.019135
0.000000 0.230042 0.009735
0.000000 0.229797 0.009735
0.000000 0.230438 0.009766
0.000000 0.231842 0.009827
0.000000 0.233978 0.009918
0.000000 0.236053 0.010101
0.000000 0.239594 0.011017
0.000214 0.248169 0.014374
0.011383 0.260071 0.016327
0.049347 0.276855 0.004608
0.134125 0.294312 0.000092
0.230804 0.312531 0.000122
0.323914 0.326599 0.010986
0.404633 0.321350 0.018433
0.493896 0.281982 0.006897
0.564667 0.250000 0.004639
0.626404 0.250397 0.015289
0.685577 0.261475 0.022614
0.742859 0.279236 0.025909
0.798981 0.301270 0.027039
0.850586 0.326385 0.026093
0.896027 0.353210 0.023651
0.935486 0.382538 0.021973
0.966309 0.411865 0.021271
0.987549 0.434326 0.022919
0.998444 0.446808 0.023499
0.999939 0.448547 0.023560
0.999939 0.448578 0.023560
0.999969 0.448608 0.023590
0.999939 0.448547 0.023560
0.999939 0.448425 0.023529
0.999908 0.448242 0.023499
0.000000 0.254669 0.011902
0.000000 0.254486 0.011871
0.000000 0.255280 0.011993
0.000000 0.256927 0.012177
0.000000 0.259369 0.012482
0.000000 0.261536 0.012756
0.000000 0.264465 0.013245
0.000000 0.272491 0.014923
0.008728 0.284851 0.018402
0.045959 0.300720 0.011139
0.118469 0.319550 0.004761
0.214722 0.339539 0.002563
0.308350 0.360413 0.007782
0.396149 0.372162 0.024323
0.470215 0.364655 0.027649
0.562622 0.320679 0.013245
0.632507 0.286011 0.009644
0.693359 0.286316 0.018768
0.751984 0.298889 0.024780
0.806305 0.319519 0.026245
0.855560 0.345886 0.025543
0.898712 0.374329 0.024445
0.936188 0.405396 0.024017
0.967224 0.436340 0.025543
0.991211 0.461029 0.027863
0.998657 0.476044 0.029724
1.000000 0.478302 0.029968
1.000000 0.478394 0.029999
1.000000 0.478455 0.029999
1.000000 0.478455 0.029999
1.000000 0.478424 0.029999
1.000000 0.478271 0.029968
0.000000 0.281799 0.015320
0.000000 0.281769 0.015320
0.000000 0.282715 0.015442
0.000000 0.284576 0.015656
0.000000 0.287231 0.016022
0.000000 0.289642 0.016418
0.000183 0.292297 0.016785
0.001007 0.299438 0.017731
0.009308 0.312897 0.019714
0.044312 0.328949 0.016724
0.106354 0.347473 0.011017
0.203400 0.368896 0.008118
0.293427 0.391693 0.008331
0.387329 0.412781 0.021820
0.463623 0.421997 0.035736
0.537598 0.415100 0.036682
0.629608 0.368530 0.020630
0.697968 0.330078 0.013641
0.757996 0.329834 0.019440
0.813141 0.344025 0.023926
0.860474 0.368378 0.025238
0.901337 0.398529 0.025421
0.937317 0.431366 0.026947
0.968781 0.463104 0.030396
0.994507 0.489685 0.034271
0.999359 0.507111 0.037170
1.000000 0.510193 0.037689
1.000000 0.510315 0.037720
1.000000 0.510468 0.037750
1.000000 0.510468 0.037750
1.000000 0.510468 0.037750
1.000000 0.510437 0.037750
0.000000 0.311798 0.020233
0.000000 0.311951 0.020264
0.000000 0.313080 0.020477
0.000000 0.315155 0.020905
0.000000 0.318207 0.021515
0.000000 0.320801 0.022034
0.000214 0.323273 0.022430
0.002594 0.329376 0.022919
0.011230 0.343109 0.023773
0.042419 0.360565 0.022308
0.098572 0.379883 0.017395
0.195770 0.401978 0.014832
0.283325 0.425964 0.013062
0.375000 0.451019 0.018066
0.462219 0.469025 0.034546
0.530518 0.479584 0.046326
0.601227 0.475891 0.047668
0.691071 0.428650 0.030975
0.757965 0.385651 0.018158
0.816345 0.382751 0.019745
0.865021 0.398590 0.023651
0.905365 0.425323 0.026459
0.939209 0.459229 0.030396
0.970825 0.492432 0.035919
0.995056 0.520782 0.041779
0.999969 0.539581 0.045990
1.000000 0.544098 0.046936
1.000000 0.544373 0.046997
1.000000 0.544586 0.047058
1.000000 0.544586 0.047058
1.000000 0.544647 0.047089
1.000000 0.544647 0.047089
0.000000 0.345612 0.026672
0.000000 0.345917 0.026733
0.000000 0.347260 0.026978
0.000000 0.349762 0.027435
0.000702 0.353485 0.028107
0.001343 0.356689 0.028656
0.002045 0.359406 0.029083
0.005096 0.364899 0.029449
0.015045 0.378448 0.029816
0.041656 0.397003 0.029022
0.105042 0.416931 0.024628
0.193848 0.441284 0.021698
0.281067 0.465271 0.019684
0.365997 0.490021 0.019409
0.453522 0.514648 0.028259
0.533630 0.530823 0.045837
0.595551 0.543091 0.055511
0.661560 0.541565 0.058197
0.747192 0.496002 0.042969
0.811737 0.450684 0.026001
0.864960 0.445740 0.024048
0.906464 0.463104 0.028290
0.941528 0.490692 0.034149
0.971985 0.523407 0.042267
0.995483 0.551758 0.050079
1.000000 0.572968 0.054962
1.000000 0.580048 0.056641
1.000000 0.580658 0.056793
1.000000 0.580841 0.056824
1.000000 0.580994 0.056854
1.000000 0.581116 0.056885
1.000000 0.581116 0.056885
0.006927 0.384186 0.033447
0.006989 0.384521 0.033508
0.007355 0.386230 0.033783
0.007935 0.389069 0.034271
0.008728 0.392975 0.034943
0.009430 0.396423 0.035553
0.009979 0.399078 0.035980
0.012085 0.403778 0.036285
0.020538 0.417236 0.036224
0.037994 0.438019 0.036041
0.113495 0.457550 0.032288
0.196381 0.481873 0.029266
0.283997 0.507690 0.027130
0.364532 0.532043 0.025543
0.446930 0.556915 0.026825
0.528595 0.580261 0.039215
0.601227 0.595490 0.055298
0.657410 0.609619 0.063538
0.718170 0.609131 0.067871
0.796600 0.565552 0.056244
0.856506 0.522186 0.039093
0.902557 0.517517 0.035583
0.939911 0.534363 0.040497
0.972198 0.561005 0.049103
0.999634 0.587311 0.057587
1.000000 0.608002 0.063477
1.000000 0.617340 0.065979
1.000000 0.618378 0.066223
1.000000 0.618652 0.066284
1.000000 0.618835 0.066345
1.000000 0.619019 0.066376
1.000000 0.618988 0.066376
0.015442 0.424561 0.040405
0.015533 0.424927 0.040466
0.015900 0.426819 0.040802
0.016541 0.429932 0.041321
0.017365 0.434052 0.042023
0.018127 0.437805 0.042664
0.018707 0.440674 0.043152
0.020477 0.444763 0.043457
0.029724 0.457977 0.042847
0.048035 0.481384 0.041901
0.120605 0.502228 0.040009
0.204620 0.524475 0.036957
0.290405 0.550781 0.035156
0.369720 0.576294 0.033234
0.446136 0.599579 0.032349
0.523560 0.624176 0.035736
0.598846 0.644775 0.050171
0.663483 0.659698 0.064178
0.716522 0.675018 0.071686
0.771667 0.676178 0.076843
0.839691 0.632874 0.069427
0.892639 0.593658 0.054596
0.934540 0.590698 0.051178
0.970642 0.606628 0.056763
0.998016 0.628357 0.064941
1.000000 0.648071 0.072021
1.000000 0.658691 0.075592
1.000000 0.660156 0.075989
1.000000 0.660522 0.076080
1.000000 0.660706 0.076111
1.000000 0.660828 0.076172
1.000000 0.660919 0.076172
0.024261 0.467590 0.047760
0.024414 0.468201 0.047852
0.024811 0.470154 0.048187
0.025482 0.473328 0.048737
0.026398 0.477661 0.049469
0.027252 0.481720 0.050171
0.027924 0.484894 0.050690
0.030151 0.488800 0.051025
0.044617 0.500854 0.050110
0.066498 0.525116 0.048065
0.129059 0.548676 0.046448
0.220154 0.570435 0.044708
0.303070 0.595367 0.043152
0.379425 0.620270 0.041504
0.452271 0.643463 0.040619
0.524353 0.666046 0.040070
0.597504 0.689362 0.046051
0.664764 0.706024 0.061066
0.723541 0.721802 0.073120
0.771423 0.737122 0.079803
0.820770 0.739532 0.085083
0.878876 0.696594 0.081360
0.927307 0.661957 0.069275
0.967468 0.657776 0.066742
0.995911 0.670715 0.072113
1.000000 0.688843 0.079895
1.000000 0.700592 0.084442
1.000000 0.702423 0.085022
1.000000 0.702728 0.085083
1.000000 0.703003 0.085144
1.000000 0.703033 0.085144
1.000000 0.703217 0.085175
0.034027 0.513794 0.055542
0.034180 0.514587 0.055664
0.034668 0.516876 0.056030
0.035431 0.520447 0.056610
0.036438 0.525146 0.057373
0.037292 0.529205 0.058044
0.037994 0.532349 0.058563
0.040131 0.536011 0.058899
0.054504 0.546021 0.058258
0.090698 0.569519 0.055573
0.151825 0.596039 0.053223
0.242950 0.617035 0.052460
0.321106 0.641449 0.051178
0.395660 0.664734 0.049683
0.466492 0.687408 0.048492
0.533173 0.708588 0.047577
0.600220 0.730103 0.048767
0.665070 0.749115 0.057526
0.726105 0.764679 0.072021
0.780396 0.781708 0.082550
0.824524 0.797211 0.088837
0.868805 0.799072 0.094421
0.918274 0.758362 0.092072
0.961151 0.725128 0.083160
0.995331 0.721161 0.081665
1.000000 0.730652 0.086151
1.000000 0.741455 0.090820
1.000000 0.743469 0.091553
1.000000 0.743866 0.091614
1.000000 0.743988 0.091614
1.000000 0.744202 0.091644
1.000000 0.744293 0.091675
0.044403 0.560608 0.063141
0.044647 0.561646 0.063293
0.045197 0.564087 0.063690
0.046082 0.567902 0.064331
0.047180 0.572662 0.065155
0.048126 0.576752 0.065826
0.048889 0.580017 0.066376
0.051208 0.583649 0.066772
0.068085 0.592529 0.066193
0.119720 0.614594 0.063385
0.192657 0.642639 0.060242
0.273315 0.663300 0.060333
0.349304 0.686584 0.059143
0.421051 0.709045 0.057922
0.486420 0.729980 0.056854
0.548126 0.749084 0.056244
0.609131 0.767487 0.056519
0.669495 0.786041 0.059784
0.727905 0.803009 0.070496
0.784607 0.820129 0.083618
0.833099 0.836731 0.092194
0.872559 0.850647 0.098328
0.909851 0.851501 0.104126
0.954803 0.813690 0.101685
0.992950 0.782501 0.094482
1.000000 0.779358 0.095490
1.000000 0.784637 0.098480
1.000000 0.786530 0.099152
1.000000 0.787018 0.099243
1.000000 0.787170 0.099274
1.000000 0.787354 0.099304
1.000000 0.787506 0.099365
0.057709 0.606232 0.071930
0.058319 0.607605 0.072266
0.059540 0.610291 0.072968
0.061249 0.614105 0.073944
0.063232 0.618469 0.075073
0.064636 0.621552 0.075867
0.065765 0.624115 0.076538
0.069885 0.627594 0.076843
0.095184 0.638519 0.075226
0.161835 0.664215 0.069855
0.235992 0.688049 0.066864
0.312042 0.703156 0.066711
0.381195 0.724182 0.066132
0.448853 0.745422 0.065002
0.510773 0.765411 0.064331
0.568512 0.784607 0.063324
0.623840 0.801910 0.063782
0.679382 0.819885 0.065338
0.734558 0.837463 0.070648
0.789368 0.853790 0.082977
0.839264 0.869781 0.094330
0.879486 0.882904 0.101990
0.913147 0.893982 0.108185
0.945221 0.891357 0.113678
0.988037 0.858582 0.109802
1.000000 0.831573 0.103516
1.000000 0.829773 0.105988
1.000000 0.830322 0.106628
1.000000 0.830688 0.106689
1.000000 0.831055 0.106720
1.000000 0.831146 0.106720
1.000000 0.831146 0.106720
0.073730 0.641724 0.081055
0.074371 0.643127 0.081390
0.075439 0.645477 0.082001
0.076843 0.648560 0.082794
0.078064 0.651245 0.083496
0.078247 0.651703 0.083588
0.078430 0.652069 0.083710
0.083069 0.654022 0.083344
0.115234 0.665680 0.080383
0.188904 0.692078 0.073639
0.266479 0.711792 0.069885
0.338440 0.722992 0.069550
0.403076 0.743134 0.069000
0.467865 0.763580 0.068176
0.527710 0.783356 0.067627
0.584198 0.803009 0.066925
0.637756 0.821167 0.067535
0.690216 0.839264 0.069336
0.744141 0.858368 0.073242
0.797760 0.876038 0.083069
0.846130 0.891296 0.095245
0.886139 0.904358 0.104614
0.918427 0.915436 0.111267
0.948181 0.921112 0.118103
0.982788 0.908203 0.119598
1.000000 0.881866 0.113892
1.000000 0.863678 0.109528
1.000000 0.863495 0.109894
1.000000 0.863586 0.109955
1.000000 0.863647 0.109955
1.000000 0.863678 0.109955
1.000000 0.863678 0.109955
0.079651 0.654755 0.084381
0.079712 0.654938 0.084442
0.079865 0.655243 0.084503
0.080017 0.655579 0.084595
0.080170 0.655945 0.084686
0.080170 0.655945 0.084686
0.080170 0.655945 0.084686
0.085266 0.657745 0.084198
0.121185 0.670441 0.080780
0.199249 0.698120 0.073517
0.275635 0.715454 0.070221
0.344330 0.726196 0.069855
0.406799 0.745667 0.069275
0.470306 0.765717 0.068542
0.529785 0.785461 0.068024
0.585968 0.805084 0.067322
0.639465 0.823456 0.067993
0.691711 0.841644 0.069855
