All_In_One/addons/Enrich_Colormaster/colormanagement/luts/film_response/F-8700-V2.cube
# Copyright: (C) Copyright 2016 by IWLTBAP
# Cannot be resold, shared or otherwise redistributed
# Website: http://luts.iwltbap.com
TITLE "IWLTBAP 8700 V2 (LOG)"
LUT_3D_SIZE 5
DOMAIN_MIN 0.000000 0.000000 0.000000
DOMAIN_MAX 0.903226 0.903226 0.903226
0.000000 0.000000 0.000000
0.100098 0.021912 0.002167
0.421509 0.064148 0.000000
0.803192 0.130981 0.049530
0.913330 0.182068 0.056610
0.000000 0.059875 0.012085
0.056061 0.062378 0.000336
0.415894 0.093384 0.000000
0.829437 0.178131 0.036438
0.932434 0.219513 0.036652
0.000000 0.206421 0.008972
0.000610 0.225342 0.015045
0.497284 0.220184 0.000488
0.892792 0.334351 0.023926
0.994873 0.421844 0.019196
0.015442 0.424561 0.040405
0.020477 0.444763 0.043457
0.446136 0.599579 0.032349
0.892639 0.593658 0.054596
1.000000 0.660522 0.076080
0.080170 0.655945 0.084686
0.085785 0.657928 0.084137
0.529266 0.785278 0.068024
0.887177 0.907227 0.104980
1.000000 0.868347 0.110413
0.000000 0.014984 0.090668
0.034576 0.038727 0.083893
0.375305 0.080231 0.066711
0.799622 0.138855 0.055817
0.914703 0.184479 0.057159
0.000000 0.044983 0.070465
0.013580 0.071106 0.087036
0.424408 0.112732 0.049438
0.842285 0.179626 0.049286
0.938843 0.221069 0.044159
0.000000 0.221649 0.032257
0.001831 0.238037 0.045105
0.497253 0.241028 0.013550
0.897705 0.357910 0.031158
0.996368 0.450378 0.036835
0.016418 0.429535 0.041595
0.021942 0.450806 0.046539
0.454376 0.609528 0.035339
0.897614 0.604462 0.057617
1.000000 0.667328 0.078583
0.080170 0.655914 0.084808
0.082642 0.659454 0.086914
0.534485 0.788483 0.076019
0.890533 0.908539 0.105927
1.000000 0.868347 0.110413
0.000000 0.112976 0.298706
0.000000 0.117523 0.277374
0.160858 0.135651 0.224091
0.732635 0.233490 0.214355
0.906311 0.314087 0.237061
0.000000 0.123993 0.276764
0.000092 0.144684 0.306366
0.173828 0.175446 0.252625
0.772552 0.286499 0.251404
0.914886 0.353058 0.271515
0.000000 0.203674 0.277161
0.003052 0.225250 0.304779
0.201782 0.353271 0.394928
0.878693 0.515747 0.374786
0.992035 0.575165 0.384735
0.051147 0.607880 0.483063
0.059906 0.638672 0.531555
0.206879 0.652222 0.352539
0.891083 0.734009 0.166504
1.000000 0.783966 0.239105
0.076324 0.736969 0.443939
0.081970 0.756226 0.492126
0.401947 0.845245 0.369293
0.867310 0.933136 0.326172
1.000000 0.908386 0.168488
0.018982 0.282745 0.647827
0.035278 0.281616 0.625183
0.063049 0.263794 0.538940
0.585358 0.310211 0.353394
0.839935 0.370026 0.380280
0.019836 0.286530 0.625092
0.037109 0.308899 0.657074
0.071228 0.298279 0.588806
0.639740 0.356689 0.404541
0.841187 0.410767 0.437531
0.030487 0.329651 0.617249
0.042084 0.353546 0.649811
0.108978 0.434265 0.745300
0.751587 0.588715 0.655792
0.925964 0.653442 0.697144
0.053223 0.445831 0.628418
0.059143 0.467987 0.656372
0.134766 0.575684 0.759705
0.825623 0.830933 0.792999
0.998444 0.865417 0.800140
0.120667 0.758942 0.848083
0.119873 0.743134 0.844574
0.166290 0.798798 0.889465
0.831818 0.959656 0.746765
1.000000 0.958282 0.530792
0.026154 0.309204 0.693207
0.041199 0.314484 0.686554
0.076263 0.325226 0.661957
0.394592 0.437561 0.650665
0.795441 0.471375 0.583160
0.032013 0.331818 0.707031
0.046814 0.349579 0.730103
0.084198 0.356812 0.703064
0.495758 0.453918 0.660645
0.803009 0.486267 0.601868
0.051178 0.405670 0.757050
0.059967 0.419495 0.769623
0.114075 0.484222 0.840454
0.653076 0.645660 0.840637
0.901428 0.651886 0.784668
0.077576 0.508606 0.816864
0.080536 0.520325 0.822540
0.133911 0.598541 0.882629
0.742157 0.833466 0.938324
0.972107 0.870087 0.918945
0.109100 0.648376 0.871826
0.109436 0.648804 0.872162
0.156372 0.705017 0.916626
0.625519 0.882782 0.965790
1.000000 0.998322 0.942749
