All_In_One/addons/Enrich_Colormaster/colormanagement/luts/film_response/F-8700-V2.cube
# Copyright: (C) Copyright 2016 by IWLTBAP
# Cannot be resold, shared or otherwise redistributed
# Website: http://luts.iwltbap.com
TITLE "IWLTBAP 8700 V2 (LOG)"
LUT_3D_SIZE 8
DOMAIN_MIN 0.000000 0.000000 0.000000
DOMAIN_MAX 0.903226 0.903226 0.903226
0.000000 0.000000 0.000000
0.000000 0.000000 0.000000
0.146118 0.030121 0.001068
0.332489 0.049316 0.000000
0.529083 0.082977 0.008606
0.757294 0.118866 0.042358
0.897064 0.173645 0.056427
0.913330 0.182068 0.056610
0.000000 0.012268 0.004150
0.000000 0.009033 0.000824
0.104095 0.030640 0.004059
0.290344 0.046295 0.000000
0.483276 0.075378 0.002228
0.731110 0.113220 0.038300
0.893311 0.171722 0.056366
0.913330 0.182068 0.056610
0.000000 0.078094 0.012360
0.000000 0.078857 0.012909
0.105438 0.084106 0.000000
0.328003 0.095123 0.000000
0.544220 0.132416 0.006409
0.797668 0.195038 0.028320
0.945740 0.257141 0.021088
0.949402 0.256836 0.020996
0.000000 0.161469 0.009949
0.000000 0.164154 0.009949
0.024628 0.203278 0.003326
0.361877 0.170319 0.000000
0.594482 0.196350 0.016602
0.836945 0.274292 0.025818
0.975891 0.366028 0.016144
0.983307 0.372253 0.015656
0.000000 0.254669 0.011902
0.000000 0.259369 0.012482
0.008728 0.284851 0.018402
0.308350 0.360413 0.007782
0.632507 0.286011 0.009644
0.855560 0.345886 0.025543
0.991211 0.461029 0.027863
1.000000 0.478455 0.029999
0.006927 0.384186 0.033447
0.008728 0.392975 0.034943
0.020538 0.417236 0.036224
0.283997 0.507690 0.027130
0.601227 0.595490 0.055298
0.856506 0.522186 0.039093
0.999634 0.587311 0.057587
1.000000 0.618652 0.066284
0.044403 0.560608 0.063141
0.047180 0.572662 0.065155
0.068085 0.592529 0.066193
0.349304 0.686584 0.059143
0.609131 0.767487 0.056519
0.833099 0.836731 0.092194
0.992950 0.782501 0.094482
1.000000 0.787018 0.099243
0.080170 0.655945 0.084686
0.080170 0.655945 0.084686
0.124725 0.671692 0.080444
0.407623 0.745911 0.069275
0.638641 0.823181 0.067932
0.847076 0.894073 0.095367
0.982117 0.914886 0.120880
1.000000 0.868347 0.110413
0.000000 0.000000 0.024536
0.000000 0.000153 0.026825
0.125793 0.031891 0.031128
0.321991 0.052338 0.009460
0.520599 0.081604 0.007843
0.751862 0.117493 0.041534
0.895508 0.172852 0.056396
0.913330 0.182068 0.056610
0.000000 0.005554 0.020874
0.000000 0.004669 0.019562
0.095764 0.032318 0.016724
0.286560 0.046600 0.001495
0.480927 0.074982 0.002075
0.729980 0.113037 0.038116
0.893585 0.171844 0.056366
0.913330 0.182068 0.056610
0.000000 0.079254 0.017944
0.000000 0.079193 0.017639
0.103882 0.086365 0.004089
0.328461 0.096680 0.001343
0.545959 0.133392 0.006775
0.799622 0.196564 0.028168
0.946472 0.258881 0.020813
0.950043 0.258728 0.020691
0.000000 0.161896 0.009949
0.000000 0.164764 0.010071
0.026276 0.205048 0.003387
0.364929 0.171478 0.000000
0.597839 0.197845 0.016998
0.839783 0.276428 0.025757
0.977783 0.368805 0.016083
0.983643 0.373779 0.015686
0.000000 0.255798 0.012054
0.000000 0.260559 0.012634
0.009857 0.287140 0.018677
0.313354 0.363159 0.008728
0.636688 0.288513 0.009918
0.858856 0.348877 0.025421
0.992279 0.464478 0.028412
1.000000 0.480591 0.030487
0.007416 0.386627 0.033844
0.009186 0.395355 0.035339
0.022369 0.421814 0.036591
0.290588 0.512421 0.027496
0.606140 0.600098 0.056030
0.859222 0.527405 0.040192
0.999695 0.591766 0.058716
1.000000 0.621460 0.066956
0.045197 0.563995 0.063690
0.047882 0.575653 0.065643
0.072876 0.597260 0.066498
0.357452 0.691559 0.059601
0.614807 0.771729 0.057251
0.836670 0.840576 0.092896
0.994629 0.786530 0.095215
1.000000 0.789856 0.099854
0.080170 0.655945 0.084686
0.080170 0.655945 0.084686
0.129303 0.673309 0.079987
0.412811 0.747559 0.069214
0.642059 0.824310 0.068115
0.849457 0.894836 0.096008
0.982910 0.914398 0.120789
1.000000 0.868347 0.110413
0.000000 0.026703 0.117981
0.000000 0.032837 0.115021
0.055054 0.051941 0.105072
0.252289 0.070343 0.090668
0.487183 0.101715 0.081116
0.751587 0.137360 0.065247
0.901794 0.187134 0.060852
0.918823 0.191803 0.058838
0.000000 0.031860 0.107941
0.000000 0.030426 0.102417
0.034088 0.044495 0.086731
0.227386 0.062531 0.076355
0.460480 0.090027 0.063660
0.732574 0.128601 0.060699
0.901947 0.187317 0.060883
0.920258 0.194397 0.059418
0.000000 0.064911 0.094299
0.000000 0.066956 0.096252
0.033539 0.103149 0.120544
0.294708 0.139374 0.105225
0.568756 0.146667 0.058746
0.819977 0.198700 0.052673
0.955658 0.261383 0.039520
0.958618 0.260956 0.038696
0.000000 0.206573 0.109100
0.000000 0.213104 0.118896
0.015259 0.217041 0.095459
0.338928 0.211578 0.041199
0.594452 0.225708 0.038483
0.847931 0.314148 0.037994
0.980774 0.419220 0.043304
0.984650 0.426727 0.046844
0.000000 0.277100 0.045563
0.000000 0.286774 0.053833
0.013885 0.302094 0.063629
0.269623 0.375671 0.029114
0.633545 0.321350 0.029114
0.860107 0.384888 0.039978
0.993042 0.504120 0.055267
1.000000 0.524841 0.062286
0.007263 0.394012 0.043213
0.008667 0.405670 0.049927
0.024567 0.426697 0.055176
0.269348 0.522186 0.041351
0.598602 0.612823 0.059784
0.860596 0.548889 0.053345
0.999603 0.608551 0.070618
1.000000 0.641022 0.083008
0.046234 0.567291 0.066925
0.049286 0.578918 0.072235
0.059906 0.604126 0.079193
0.357330 0.703308 0.073853
0.615906 0.777374 0.066467
0.840210 0.846191 0.095612
0.995331 0.792236 0.097504
1.000000 0.795349 0.103149
0.079926 0.654022 0.091370
0.079498 0.650635 0.103149
0.099518 0.683990 0.102692
0.402771 0.762299 0.104095
0.638397 0.828003 0.094910
0.850220 0.897675 0.099152
0.983093 0.915619 0.122528
1.000000 0.868744 0.110962
0.000000 0.080475 0.229309
0.000000 0.083069 0.224121
0.002228 0.091461 0.209137
0.126831 0.107697 0.185577
0.392822 0.125488 0.154327
0.700897 0.195251 0.172394
0.907379 0.267456 0.167175
0.934387 0.271088 0.150879
0.000000 0.080566 0.216766
0.000000 0.075897 0.209808
0.000000 0.078949 0.190369
0.112518 0.095703 0.168884
0.369659 0.116882 0.145477
0.688141 0.188110 0.166382
0.908936 0.268127 0.166962
0.932983 0.275452 0.158661
0.000000 0.102234 0.213684
0.000000 0.103607 0.215271
0.004608 0.134521 0.251923
0.131531 0.165070 0.223969
0.445526 0.205597 0.204712
0.777313 0.280853 0.211212
0.952301 0.347412 0.204041
0.957581 0.345306 0.196930
0.000000 0.157990 0.211365
0.000000 0.161407 0.216156
0.005524 0.194061 0.251923
0.129791 0.255859 0.289062
0.526306 0.322296 0.259521
0.843231 0.394196 0.232513
0.990936 0.466278 0.225494
0.995361 0.469513 0.225861
0.006836 0.372131 0.326660
0.009369 0.381226 0.340485
0.026001 0.407440 0.360504
0.096558 0.409454 0.268005
0.567657 0.423492 0.137146
0.838867 0.507568 0.197357
0.988892 0.609436 0.188354
0.999786 0.623047 0.195770
0.020233 0.497925 0.271301
0.024750 0.515472 0.297028
0.035431 0.534576 0.312378
0.108246 0.545837 0.228485
0.495117 0.639099 0.191345
0.846527 0.642761 0.126404
0.994507 0.701721 0.157227
1.000000 0.723816 0.164062
0.048981 0.611633 0.242096
0.052063 0.626495 0.266571
0.062561 0.644775 0.290161
0.210663 0.744415 0.244598
0.561066 0.793518 0.258911
0.828949 0.869965 0.146667
0.996765 0.838013 0.141998
1.000000 0.835297 0.154053
0.075714 0.677124 0.289856
0.075073 0.684631 0.310455
0.086823 0.692139 0.321472
0.281250 0.801056 0.269653
0.595398 0.847412 0.289795
0.830200 0.912872 0.224060
0.979614 0.941406 0.156891
1.000000 0.892578 0.145325
0.000000 0.155579 0.392548
0.000000 0.155609 0.382751
0.009583 0.156677 0.354156
0.040894 0.156036 0.313843
0.220062 0.169067 0.265625
0.630066 0.211395 0.227783
0.844971 0.313507 0.277100
0.882446 0.335388 0.286865
0.000000 0.143921 0.360046
0.000000 0.136505 0.346954
0.001190 0.139313 0.323303
0.033691 0.143158 0.291962
0.202423 0.161438 0.256866
0.620880 0.206726 0.223755
0.850433 0.317413 0.279755
0.881226 0.336395 0.289337
0.000000 0.166779 0.356842
0.000000 0.168274 0.358826
0.014740 0.198120 0.407532
0.055115 0.206085 0.375702
0.279480 0.238708 0.317230
0.696167 0.301453 0.292145
0.896027 0.408875 0.358795
0.903473 0.410675 0.357025
0.000000 0.193634 0.355225
0.000000 0.197266 0.361206
0.017731 0.229401 0.404358
0.074921 0.281494 0.466736
0.338318 0.356750 0.418152
0.749695 0.459412 0.424561
0.947266 0.545380 0.470642
0.954742 0.549255 0.471863
0.002167 0.254181 0.354523
0.003998 0.260223 0.363678
0.021759 0.287811 0.397522
0.081116 0.359467 0.470367
0.336548 0.484070 0.520966
0.793274 0.593842 0.514618
0.976776 0.663086 0.524689
0.990845 0.673553 0.530884
0.054016 0.556458 0.568604
0.056946 0.566284 0.582520
0.067139 0.590607 0.608032
0.107788 0.653534 0.648621
0.322510 0.669495 0.507690
0.821655 0.720093 0.364319
0.985901 0.777161 0.449829
1.000000 0.793762 0.448792
0.088043 0.751923 0.659668
0.092163 0.766388 0.683960
0.098114 0.782532 0.705841
0.142059 0.784698 0.620697
0.466736 0.823608 0.473633
0.794495 0.884583 0.449768
0.996979 0.881775 0.198669
1.000000 0.875641 0.223999
0.099579 0.811951 0.659088
0.102570 0.819794 0.685303
0.107819 0.827179 0.702118
0.160706 0.825043 0.599701
0.526855 0.885773 0.468231
0.805695 0.926666 0.467499
0.971893 0.964661 0.327576
1.000000 0.923737 0.193573
0.013275 0.261841 0.610504
0.016510 0.260223 0.602783
0.034363 0.257629 0.572540
0.049530 0.246521 0.519165
0.086029 0.243713 0.461945
0.501831 0.276337 0.331451
0.794861 0.334167 0.343781
0.848785 0.355560 0.351349
0.008301 0.244263 0.575409
0.006805 0.237885 0.562927
0.024323 0.237091 0.538696
0.043396 0.232635 0.494263
0.080658 0.235291 0.448944
0.494415 0.273315 0.329895
0.804932 0.339844 0.348145
0.847595 0.356628 0.354248
0.014343 0.266998 0.575134
0.015045 0.269012 0.577850
0.039978 0.300537 0.624084
0.060120 0.296997 0.589478
0.110443 0.301849 0.536346
0.600983 0.354919 0.395233
0.853638 0.427826 0.437317
0.866821 0.430969 0.436035
0.020386 0.290466 0.567657
0.021667 0.295166 0.574982
0.043365 0.328644 0.619202
0.074890 0.366760 0.670776
0.143829 0.388641 0.642059
0.665527 0.500031 0.551605
0.902740 0.577087 0.600800
0.913574 0.585083 0.609375
0.026215 0.313965 0.558594
0.028107 0.321014 0.569366
0.044006 0.349457 0.606415
0.080231 0.403351 0.665161
0.176514 0.478302 0.726593
0.711426 0.620941 0.663879
0.933929 0.700592 0.708618
0.952148 0.713043 0.721619
0.041840 0.400940 0.569183
0.044556 0.411560 0.583405
0.054047 0.434509 0.610016
0.092590 0.497498 0.672852
0.190521 0.586151 0.740356
0.756592 0.779053 0.747375
0.964783 0.823181 0.754456
0.996490 0.833374 0.758057
0.100281 0.694122 0.772644
0.102844 0.699524 0.782593
0.107697 0.708771 0.796173
0.138031 0.754120 0.834229
0.218658 0.828064 0.875671
0.767792 0.902954 0.708038
0.982513 0.915741 0.579285
1.000000 0.912781 0.622803
0.121765 0.795135 0.849945
0.121765 0.787811 0.850433
0.125183 0.784180 0.853821
0.151489 0.814728 0.876984
0.238861 0.889526 0.907196
0.785553 0.948639 0.693665
0.957703 0.979767 0.619568
1.000000 0.952393 0.406036
0.026154 0.309204 0.693207
0.029053 0.310394 0.692780
0.047760 0.315796 0.681274
0.066772 0.321350 0.666260
0.088745 0.320953 0.632446
0.305786 0.395782 0.612793
0.750031 0.421234 0.500916
0.811584 0.444824 0.522064
0.026215 0.309418 0.692780
0.026062 0.308472 0.691559
0.042542 0.313293 0.682281
0.063873 0.319183 0.665283
0.085876 0.318604 0.631470
0.297882 0.396423 0.618927
0.759796 0.431976 0.518433
0.807037 0.452454 0.539490
0.034485 0.341949 0.712280
0.035004 0.343414 0.713715
0.057251 0.370331 0.748413
0.078918 0.376984 0.740112
0.110992 0.383118 0.714478
0.400635 0.474945 0.697449
0.804565 0.506104 0.621368
0.820984 0.510986 0.626434
0.044281 0.379730 0.732635
0.045471 0.384155 0.738586
0.063721 0.408600 0.766357
0.093231 0.443146 0.808868
0.139130 0.466095 0.809570
0.497772 0.579498 0.796539
0.865936 0.600891 0.728210
0.879089 0.606201 0.735901
0.052917 0.412170 0.742706
0.054565 0.418060 0.750336
0.068573 0.441315 0.776428
0.101105 0.485474 0.821655
0.161804 0.537476 0.867340
0.569611 0.677521 0.863281
0.903107 0.697388 0.810120
0.924896 0.708801 0.820129
0.065155 0.462463 0.759125
0.067719 0.472321 0.770599
0.075775 0.491211 0.789032
0.110077 0.544342 0.836334
0.171326 0.608124 0.880707
0.637512 0.772430 0.907288
0.933044 0.829620 0.880737
0.968262 0.841644 0.884491
0.087860 0.576508 0.788788
0.090607 0.586243 0.800262
0.095276 0.599121 0.814850
0.126282 0.644318 0.855316
0.194305 0.703064 0.895050
0.575928 0.834167 0.917450
0.945282 0.942291 0.895905
1.000000 0.951294 0.896240
0.111237 0.668518 0.844788
0.110901 0.665497 0.847961
0.113556 0.665985 0.854431
0.140747 0.696472 0.882172
0.193115 0.746674 0.915253
0.411285 0.863770 0.951263
0.934753 0.986206 0.872467
1.000000 0.978424 0.808716
0.026154 0.309204 0.693207
0.027771 0.309875 0.692963
0.046204 0.315369 0.682251
0.066101 0.322937 0.670288
0.089081 0.329773 0.651947
0.255798 0.405212 0.662872
0.730530 0.460358 0.577667
0.795441 0.471375 0.583160
0.026215 0.309448 0.693359
0.026306 0.309540 0.693512
0.041992 0.314880 0.686310
0.063995 0.322296 0.671936
0.087524 0.329132 0.652924
0.259369 0.406158 0.662659
0.746338 0.463135 0.578735
0.795441 0.471375 0.583160
0.034576 0.342316 0.714203
0.035004 0.343536 0.715118
0.056610 0.369324 0.748108
0.078583 0.377075 0.741608
0.109894 0.384003 0.718384
0.381714 0.474823 0.708405
0.800446 0.510345 0.635956
0.817200 0.513733 0.636566
0.045898 0.385376 0.743042
0.046326 0.387085 0.744263
0.063965 0.409851 0.769226
0.093353 0.444244 0.811340
0.137970 0.467377 0.813599
0.485809 0.581757 0.807648
0.865570 0.601440 0.739685
0.878052 0.605835 0.739349
0.057159 0.428314 0.770996
0.057831 0.430817 0.772614
0.070892 0.449158 0.790039
0.102539 0.491089 0.831726
0.160400 0.541870 0.876801
0.555420 0.680908 0.878784
0.902313 0.702271 0.834778
0.923248 0.706116 0.829163
0.072845 0.487488 0.805695
0.073944 0.492371 0.808258
0.080841 0.506561 0.817352
0.113434 0.555023 0.857239
0.167755 0.614075 0.899323
0.603577 0.769928 0.929016
0.926361 0.833710 0.908936
0.962311 0.839447 0.905457
0.095154 0.590027 0.849884
0.096893 0.597717 0.852814
0.100525 0.608154 0.857941
0.129944 0.648560 0.888885
0.186188 0.700073 0.925354
0.511749 0.814575 0.950775
0.935211 0.946625 0.947052
0.996338 0.944946 0.933594
0.109100 0.648376 0.871826
0.109100 0.648376 0.871826
0.112000 0.652100 0.874817
0.139404 0.686157 0.901550
0.196259 0.736023 0.935577
0.441193 0.831299 0.958740
0.901306 0.977966 0.965057
1.000000 0.998322 0.942749
