All_In_One/addons/Enrich_Colormaster/colormanagement/luts/film_response/Fuji3513_ConstLclip.cube
TITLE "Generate by Resolve"
LUT_3D_SIZE 5
0.000000 0.000000 0.011765
0.058824 0.023529 0.019608
0.270588 0.050980 0.000000
0.450980 0.082353 0.019608
0.509804 0.090196 0.011765
0.019608 0.082353 0.047059
0.078431 0.101961 0.039216
0.372549 0.152941 0.000000
0.576471 0.184314 0.000000
0.635294 0.211765 0.015686
0.000000 0.243137 0.117647
0.000000 0.298039 0.082353
0.466667 0.400000 0.000000
0.721569 0.443137 0.000000
0.776471 0.478431 0.035294
0.043137 0.403922 0.180392
0.050980 0.494118 0.133333
0.556863 0.658824 0.000000
0.850980 0.733333 0.043137
0.901961 0.752941 0.066667
0.000000 0.494118 0.231373
0.156863 0.639216 0.003922
0.647059 0.745098 0.031373
0.929412 0.815686 0.086275
0.980392 0.827451 0.098039
0.000000 0.027451 0.066667
0.062745 0.027451 0.078431
0.337255 0.000000 0.078431
0.529412 0.039216 0.094118
0.588235 0.047059 0.105882
0.019608 0.101961 0.109804
0.086275 0.125490 0.121569
0.454902 0.156863 0.105882
0.721569 0.086275 0.047059
0.776471 0.121569 0.054902
0.000000 0.294118 0.203922
0.000000 0.352941 0.200000
0.564706 0.470588 0.090196
0.878431 0.490196 0.000000
0.929412 0.525490 0.000000
0.039216 0.462745 0.298039
0.058824 0.556863 0.298039
0.615686 0.764706 0.000000
0.980392 0.823529 0.003922
1.000000 0.835294 0.062745
0.019608 0.560784 0.435294
0.000000 0.705882 0.447059
0.635294 0.835294 0.396078
0.988235 0.898039 0.364706
1.000000 0.894118 0.486275
0.000000 0.094118 0.203922
0.074510 0.000000 0.294118
0.360784 0.000000 0.321569
0.568627 0.027451 0.333333
0.623529 0.043137 0.356863
0.000000 0.180392 0.298039
0.027451 0.180392 0.368627
0.478431 0.176471 0.450980
0.752941 0.121569 0.450980
0.800000 0.164706 0.474510
0.000000 0.388235 0.435294
0.015686 0.443137 0.490196
0.552941 0.549020 0.564706
0.890196 0.556863 0.556863
0.941177 0.600000 0.576471
0.000000 0.560784 0.545098
0.000000 0.650980 0.603922
0.560784 0.850980 0.643137
0.976471 0.909804 0.635294
1.000000 0.917647 0.678431
0.000000 0.639216 0.654902
0.000000 0.764706 0.737255
0.584314 0.901961 0.776471
0.964706 0.956863 0.776471
1.000000 0.960784 0.811765
0.000000 0.160784 0.321569
0.066667 0.003922 0.466667
0.376471 0.027451 0.517647
0.600000 0.050980 0.541176
0.654902 0.047059 0.564706
0.000000 0.254902 0.443137
0.000000 0.262745 0.517647
0.482353 0.176471 0.721569
0.764706 0.094118 0.737255
0.815686 0.164706 0.756863
0.000000 0.454902 0.596078
0.047059 0.505882 0.670588
0.521569 0.588235 0.854902
0.886275 0.600000 0.870588
0.933333 0.639216 0.882353
0.000000 0.623529 0.698039
0.035294 0.709804 0.780392
0.478431 0.894118 0.925490
0.952941 0.956863 0.945098
1.000000 0.968628 0.949020
0.000000 0.678431 0.756863
0.000000 0.796079 0.862745
0.525490 0.929412 0.952941
0.945098 0.988235 0.972549
1.000000 0.996078 0.980392
0.000000 0.200000 0.392157
0.062745 0.007843 0.588235
0.431373 0.000000 0.662745
0.670588 0.054902 0.662745
0.729412 0.000000 0.698039
0.000000 0.298039 0.501961
0.000000 0.309804 0.584314
0.490196 0.250980 0.800000
0.792157 0.223529 0.823529
0.839216 0.262745 0.839216
0.054902 0.478431 0.627451
0.000000 0.525490 0.709804
0.509804 0.615686 0.909804
0.886275 0.623529 0.933333
0.937255 0.662745 0.941177
0.043137 0.631373 0.717647
0.047059 0.721569 0.807843
0.450980 0.901961 0.964706
0.945098 0.964706 0.992157
1.000000 0.972549 0.996078
0.000000 0.686275 0.772549
0.047059 0.800000 0.874510
0.501961 0.929412 0.972549
0.937255 0.992157 1.000000
1.000000 1.000000 1.000000
