All_In_One/addons/Enrich_Colormaster/colormanagement/luts/film_response/Fuji3513_ConstLmap.cube
TITLE "Generate by Resolve"
LUT_3D_SIZE 33
0.000000 0.000000 0.011765
0.003922 0.000000 0.011765
0.007843 0.000000 0.011765
0.015686 0.003922 0.015686
0.019608 0.007843 0.015686
0.027451 0.011765 0.015686
0.035294 0.015686 0.015686
0.047059 0.019608 0.015686
0.058824 0.023529 0.019608
0.074510 0.027451 0.015686
0.094118 0.031373 0.015686
0.121569 0.031373 0.011765
0.149020 0.035294 0.007843
0.176471 0.043137 0.003922
0.207843 0.047059 0.000000
0.235294 0.050980 0.000000
0.266667 0.054902 0.000000
0.298039 0.058824 0.000000
0.325490 0.062745 0.000000
0.352941 0.066667 0.000000
0.376471 0.070588 0.000000
0.396078 0.074510 0.003922
0.419608 0.078431 0.011765
0.435294 0.078431 0.015686
0.450980 0.082353 0.019608
0.458824 0.082353 0.019608
0.470588 0.086275 0.023529
0.478431 0.086275 0.023529
0.486275 0.086275 0.023529
0.494118 0.090196 0.019608
0.501961 0.090196 0.019608
0.505882 0.090196 0.015686
0.509804 0.090196 0.011765
0.003922 0.007843 0.015686
0.007843 0.007843 0.015686
0.011765 0.007843 0.015686
0.015686 0.007843 0.015686
0.023529 0.015686 0.015686
0.027451 0.015686 0.015686
0.035294 0.019608 0.019608
0.047059 0.023529 0.019608
0.058824 0.027451 0.019608
0.082353 0.031373 0.019608
0.098039 0.035294 0.019608
0.125490 0.039216 0.011765
0.152941 0.043137 0.007843
0.184314 0.047059 0.007843
0.215686 0.054902 0.003922
0.247059 0.058824 0.007843
0.274510 0.062745 0.007843
0.309804 0.066667 0.000000
0.337255 0.070588 0.000000
0.364706 0.074510 0.007843
0.388235 0.078431 0.007843
0.407843 0.082353 0.011765
0.431373 0.086275 0.015686
0.447059 0.082353 0.007843
0.462745 0.086275 0.011765
0.474510 0.086275 0.011765
0.486275 0.090196 0.011765
0.494118 0.090196 0.011765
0.501961 0.090196 0.011765
0.505882 0.098039 0.027451
0.509804 0.098039 0.023529
0.517647 0.101961 0.023529
0.521569 0.101961 0.019608
0.011765 0.019608 0.019608
0.011765 0.019608 0.019608
0.015686 0.019608 0.019608
0.019608 0.019608 0.019608
0.023529 0.019608 0.019608
0.031373 0.023529 0.019608
0.039216 0.023529 0.019608
0.050980 0.027451 0.019608
0.062745 0.031373 0.023529
0.086275 0.035294 0.019608
0.105882 0.039216 0.019608
0.133333 0.043137 0.015686
0.160784 0.047059 0.011765
0.192157 0.054902 0.007843
0.223529 0.058824 0.007843
0.254902 0.066667 0.011765
0.286275 0.074510 0.015686
0.317647 0.078431 0.007843
0.349020 0.078431 0.000000
0.376471 0.082353 0.007843
0.403922 0.090196 0.015686
0.423529 0.090196 0.019608
0.443137 0.094118 0.023529
0.462745 0.094118 0.011765
0.478431 0.090196 0.000000
0.490196 0.090196 0.000000
0.501961 0.094118 0.000000
0.509804 0.094118 0.000000
0.517647 0.098039 0.000000
0.521569 0.105882 0.015686
0.521569 0.109804 0.031373
0.529412 0.113725 0.027451
0.533333 0.113725 0.027451
0.011765 0.027451 0.023529
0.015686 0.027451 0.023529
0.019608 0.027451 0.019608
0.023529 0.027451 0.019608
0.027451 0.031373 0.019608
0.035294 0.031373 0.023529
0.043137 0.035294 0.023529
0.054902 0.039216 0.023529
0.066667 0.039216 0.023529
0.090196 0.047059 0.023529
0.113725 0.050980 0.019608
0.145098 0.054902 0.011765
0.172549 0.058824 0.003922
0.203922 0.062745 0.011765
0.231373 0.070588 0.011765
0.266667 0.078431 0.015686
0.298039 0.082353 0.019608
0.329412 0.090196 0.015686
0.364706 0.090196 0.007843
0.392157 0.094118 0.000000
0.419608 0.098039 0.007843
0.439216 0.101961 0.019608
0.458824 0.105882 0.023529
0.478431 0.105882 0.011765
0.494118 0.101961 0.000000
0.505882 0.101961 0.000000
0.517647 0.105882 0.000000
0.525490 0.105882 0.000000
0.533333 0.109804 0.000000
0.537255 0.113725 0.015686
0.537255 0.121569 0.031373
0.545098 0.125490 0.027451
0.549020 0.125490 0.023529
0.015686 0.039216 0.027451
0.015686 0.039216 0.023529
0.019608 0.035294 0.023529
0.023529 0.039216 0.023529
0.027451 0.039216 0.023529
0.035294 0.039216 0.027451
0.043137 0.043137 0.027451
0.058824 0.047059 0.027451
0.074510 0.050980 0.027451
0.098039 0.054902 0.023529
0.121569 0.058824 0.023529
0.152941 0.062745 0.011765
0.180392 0.066667 0.000000
0.211765 0.074510 0.007843
0.243137 0.082353 0.011765
0.278431 0.086275 0.015686
0.309804 0.094118 0.019608
0.345098 0.098039 0.019608
0.376471 0.105882 0.019608
0.407843 0.105882 0.007843
0.435294 0.109804 0.000000
0.454902 0.113725 0.011765
0.478431 0.117647 0.023529
0.494118 0.117647 0.011765
0.513726 0.113725 0.000000
0.521569 0.117647 0.000000
0.533333 0.117647 0.000000
0.541176 0.117647 0.000000
0.549020 0.121569 0.000000
0.552941 0.129412 0.015686
0.552941 0.133333 0.027451
0.560784 0.137255 0.023529
0.564706 0.137255 0.019608
0.015686 0.047059 0.031373
0.015686 0.047059 0.031373
0.019608 0.047059 0.031373
0.023529 0.047059 0.027451
0.027451 0.047059 0.027451
0.035294 0.050980 0.027451
0.047059 0.054902 0.031373
0.062745 0.058824 0.031373
0.074510 0.062745 0.031373
0.101961 0.066667 0.027451
0.125490 0.070588 0.027451
0.160784 0.074510 0.015686
0.192157 0.078431 0.003922
0.223529 0.086275 0.000000
0.254902 0.094118 0.007843
0.290196 0.101961 0.015686
0.325490 0.105882 0.019608
0.360784 0.113725 0.011765
0.392157 0.117647 0.011765
0.423529 0.121569 0.011765
0.450980 0.125490 0.003922
0.474510 0.125490 0.000000
0.494118 0.129412 0.011765
0.509804 0.133333 0.011765
0.529412 0.129412 0.000000
0.537255 0.133333 0.007843
0.549020 0.133333 0.007843
0.556863 0.137255 0.000000
0.564706 0.141176 0.000000
0.568627 0.141176 0.000000
0.572549 0.149020 0.015686
0.576471 0.152941 0.031373
0.580392 0.156863 0.027451
0.015686 0.058824 0.035294
0.015686 0.058824 0.035294
0.015686 0.058824 0.035294
0.019608 0.058824 0.035294
0.023529 0.058824 0.031373
0.035294 0.062745 0.031373
0.047059 0.066667 0.035294
0.062745 0.070588 0.035294
0.078431 0.074510 0.035294
0.105882 0.078431 0.031373
0.133333 0.082353 0.027451
0.164706 0.090196 0.019608
0.200000 0.094118 0.007843
0.235294 0.101961 0.003922
0.270588 0.105882 0.000000
0.301961 0.113725 0.007843
0.337255 0.121569 0.015686
0.376471 0.125490 0.007843
0.407843 0.133333 0.000000
0.439216 0.137255 0.003922
0.466667 0.141176 0.007843
0.490196 0.141176 0.003922
0.513726 0.141176 0.000000
0.529412 0.145098 0.000000
0.545098 0.149020 0.000000
0.552941 0.152941 0.007843
0.564706 0.152941 0.015686
0.572549 0.156863 0.007843
0.580392 0.156863 0.000000
0.588235 0.160784 0.000000
0.592157 0.164706 0.000000
0.596078 0.168627 0.015686
0.596078 0.176471 0.031373
0.015686 0.070588 0.043137
0.015686 0.070588 0.043137
0.015686 0.070588 0.043137
0.019608 0.070588 0.039216
0.023529 0.074510 0.039216
0.031373 0.074510 0.035294
0.043137 0.078431 0.035294
0.062745 0.082353 0.035294
0.078431 0.086275 0.035294
0.109804 0.094118 0.031373
0.137255 0.098039 0.031373
0.172549 0.105882 0.019608
0.207843 0.109804 0.011765
0.247059 0.117647 0.003922
0.282353 0.125490 0.000000
0.317647 0.133333 0.000000
0.352941 0.137255 0.007843
0.388235 0.145098 0.019608
0.423529 0.149020 0.011765
0.450980 0.152941 0.007843
0.482353 0.156863 0.015686
0.505882 0.160784 0.015686
0.529412 0.160784 0.011765
0.545098 0.164706 0.000000
0.560784 0.164706 0.000000
0.568627 0.168627 0.000000
0.580392 0.172549 0.007843
0.588235 0.176471 0.007843
0.596078 0.176471 0.000000
0.600000 0.184314 0.015686
0.607843 0.184314 0.015686
0.611765 0.188235 0.007843
0.615686 0.192157 0.023529
0.019608 0.082353 0.047059
0.019608 0.082353 0.047059
0.019608 0.082353 0.047059
0.019608 0.086275 0.047059
0.019608 0.086275 0.047059
0.027451 0.090196 0.043137
0.035294 0.094118 0.039216
0.058824 0.098039 0.039216
0.078431 0.101961 0.039216
0.109804 0.105882 0.035294
0.137255 0.113725 0.031373
0.176471 0.121569 0.023529
0.215686 0.129412 0.011765
0.254902 0.137255 0.003922
0.294118 0.141176 0.000000
0.329412 0.149020 0.000000
0.368627 0.156863 0.000000
0.400000 0.160784 0.011765
0.435294 0.168627 0.023529
0.466667 0.172549 0.023529
0.494118 0.176471 0.019608
0.517647 0.180392 0.023529
0.541176 0.180392 0.023529
0.560784 0.184314 0.011765
0.576471 0.184314 0.000000
0.588235 0.188235 0.000000
0.596078 0.188235 0.000000
0.603922 0.192157 0.000000
0.611765 0.196078 0.000000
0.615686 0.200000 0.015686
0.623529 0.207843 0.031373
0.627451 0.211765 0.023529
0.635294 0.211765 0.015686
0.011765 0.098039 0.054902
0.015686 0.098039 0.054902
0.015686 0.098039 0.054902
0.007843 0.101961 0.054902
0.007843 0.101961 0.050980
0.011765 0.105882 0.047059
0.019608 0.109804 0.047059
0.054902 0.117647 0.039216
0.078431 0.121569 0.039216
0.113725 0.129412 0.031373
0.141176 0.133333 0.027451
0.184314 0.141176 0.015686
0.219608 0.149020 0.007843
0.262745 0.156863 0.003922
0.301961 0.164706 0.000000
0.341176 0.172549 0.000000
0.380392 0.176471 0.000000
0.415686 0.184314 0.007843
0.450980 0.192157 0.019608
0.482353 0.196078 0.011765
0.513726 0.200000 0.011765
0.537255 0.200000 0.011765
0.560784 0.203922 0.011765
0.576471 0.203922 0.011765
0.592157 0.207843 0.000000
0.603922 0.207843 0.000000
0.611765 0.211765 0.000000
0.619608 0.215686 0.000000
0.627451 0.219608 0.000000
0.635294 0.223529 0.015686
0.639216 0.231373 0.031373
0.643137 0.231373 0.015686
0.650980 0.235294 0.007843
0.007843 0.113725 0.062745
0.011765 0.113725 0.062745
0.011765 0.113725 0.062745
0.007843 0.117647 0.062745
0.000000 0.117647 0.058824
0.003922 0.121569 0.054902
0.003922 0.125490 0.050980
0.039216 0.133333 0.047059
0.074510 0.141176 0.039216
0.109804 0.149020 0.031373
0.149020 0.156863 0.027451
0.188235 0.164706 0.011765
0.227451 0.172549 0.000000
0.270588 0.180392 0.000000
0.313726 0.188235 0.000000
0.352941 0.192157 0.000000
0.392157 0.200000 0.000000
0.431373 0.207843 0.007843
0.466667 0.211765 0.015686
0.498039 0.215686 0.007843
0.529412 0.223529 0.000000
0.552941 0.223529 0.000000
0.580392 0.227451 0.000000
0.596078 0.227451 0.000000
0.611765 0.227451 0.000000
0.619608 0.231373 0.000000
0.631373 0.235294 0.000000
0.639216 0.239216 0.000000
0.647059 0.239216 0.000000
0.650980 0.247059 0.015686
0.654902 0.250980 0.031373
0.658824 0.254902 0.015686
0.666667 0.258824 0.000000
0.003922 0.133333 0.070588
0.003922 0.133333 0.070588
0.007843 0.133333 0.070588
0.011765 0.133333 0.070588
0.003922 0.137255 0.070588
0.000000 0.141176 0.066667
0.000000 0.145098 0.062745
0.027451 0.156863 0.043137
0.062745 0.164706 0.035294
0.113725 0.172549 0.019608
0.149020 0.180392 0.015686
0.196078 0.188235 0.015686
0.235294 0.196078 0.000000
0.278431 0.203922 0.007843
0.321569 0.211765 0.007843
0.364706 0.219608 0.000000
0.403922 0.227451 0.000000
0.443137 0.235294 0.000000
0.482353 0.239216 0.007843
0.513726 0.243137 0.007843
0.545098 0.250980 0.000000
0.568627 0.254902 0.015686
0.596078 0.254902 0.015686
0.611765 0.254902 0.000000
0.627451 0.258824 0.000000
0.639216 0.262745 0.011765
0.647059 0.262745 0.011765
0.654902 0.266667 0.007843
0.662745 0.270588 0.007843
0.666667 0.274510 0.000000
0.670588 0.278431 0.015686
0.674510 0.286275 0.023529
0.682353 0.286275 0.007843
0.000000 0.152941 0.078431
0.000000 0.152941 0.078431
0.000000 0.152941 0.078431
0.003922 0.152941 0.078431
0.011765 0.152941 0.078431
0.003922 0.160784 0.074510
0.000000 0.164706 0.070588
0.023529 0.176471 0.050980
0.050980 0.188235 0.031373
0.101961 0.196078 0.015686
0.152941 0.203922 0.000000
0.196078 0.215686 0.000000
0.243137 0.223529 0.003922
0.286275 0.231373 0.007843
0.329412 0.239216 0.015686
0.372549 0.247059 0.007843
0.415686 0.254902 0.000000
0.454902 0.262745 0.000000
0.494118 0.266667 0.000000
0.529412 0.274510 0.000000
0.560784 0.278431 0.000000
0.584314 0.282353 0.015686
0.611765 0.286275 0.031373
0.627451 0.286275 0.015686
0.647059 0.286275 0.000000
0.654902 0.290196 0.011765
0.662745 0.294118 0.023529
0.670588 0.298039 0.023529
0.678431 0.301961 0.019608
0.686275 0.305882 0.007843
0.690196 0.309804 0.000000
0.694118 0.313726 0.007843
0.698039 0.317647 0.015686
0.000000 0.172549 0.090196
0.003922 0.172549 0.090196
0.007843 0.172549 0.090196
0.007843 0.176471 0.090196
0.011765 0.176471 0.086275
0.007843 0.184314 0.086275
0.000000 0.188235 0.082353
0.000000 0.203922 0.062745
0.023529 0.215686 0.043137
0.098039 0.227451 0.023529
0.152941 0.235294 0.007843
0.203922 0.243137 0.000000
0.247059 0.250980 0.000000
0.294118 0.262745 0.003922
0.337255 0.270588 0.007843
0.384314 0.282353 0.007843
0.427451 0.290196 0.000000
0.470588 0.294118 0.000000
0.509804 0.301961 0.000000
0.545098 0.305882 0.000000
0.576471 0.309804 0.000000
0.603922 0.313726 0.011765
0.627451 0.317647 0.027451
0.647059 0.321569 0.015686
0.662745 0.321569 0.000000
0.674510 0.325490 0.000000
0.682353 0.329412 0.011765
0.690196 0.333333 0.011765
0.698039 0.337255 0.011765
0.701961 0.341176 0.023529
0.709804 0.345098 0.011765
0.713726 0.349020 0.000000
0.717647 0.352941 0.007843
0.000000 0.192157 0.098039
0.003922 0.196078 0.098039
0.011765 0.196078 0.098039
0.011765 0.196078 0.098039
0.011765 0.200000 0.098039
0.007843 0.203922 0.094118
0.000000 0.211765 0.090196
0.000000 0.227451 0.074510
0.000000 0.239216 0.054902
0.074510 0.250980 0.035294
0.152941 0.262745 0.015686
0.200000 0.270588 0.007843
0.250980 0.282353 0.000000
0.301961 0.294118 0.000000
0.349020 0.305882 0.003922
0.396078 0.313726 0.003922
0.439216 0.321569 0.000000
0.482353 0.329412 0.000000
0.521569 0.333333 0.000000
0.556863 0.341176 0.000000
0.592157 0.345098 0.000000
0.619608 0.349020 0.011765
0.643137 0.352941 0.023529
0.662745 0.356863 0.011765
0.682353 0.360784 0.000000
0.694118 0.360784 0.000000
0.701961 0.364706 0.000000
0.709804 0.368627 0.000000
0.717647 0.372549 0.000000
0.721569 0.376471 0.015686
0.729412 0.384314 0.027451
0.733333 0.388235 0.011765
0.737255 0.392157 0.000000
0.000000 0.219608 0.109804
0.011765 0.219608 0.109804
0.019608 0.219608 0.109804
0.015686 0.223529 0.109804
0.015686 0.227451 0.105882
0.019608 0.235294 0.105882
0.011765 0.239216 0.101961
0.000000 0.254902 0.086275
0.000000 0.270588 0.066667
0.070588 0.286275 0.039216
0.149020 0.294118 0.019608
0.207843 0.309804 0.011765
0.258824 0.317647 0.003922
0.309804 0.333333 0.000000
0.360784 0.341176 0.000000
0.407843 0.352941 0.000000
0.454902 0.360784 0.000000
0.498039 0.368627 0.000000
0.537255 0.376471 0.000000
0.576471 0.380392 0.000000
0.607843 0.384314 0.000000
0.635294 0.388235 0.007843
0.662745 0.392157 0.023529
0.682353 0.396078 0.011765
0.701961 0.400000 0.000000
0.713726 0.403922 0.000000
0.721569 0.403922 0.000000
0.729412 0.407843 0.000000
0.737255 0.411765 0.000000
0.741176 0.419608 0.019608
0.749020 0.423529 0.031373
0.752941 0.431373 0.031373
0.756863 0.435294 0.015686
0.000000 0.243137 0.117647
0.011765 0.247059 0.117647
0.023529 0.247059 0.117647
0.023529 0.250980 0.117647
0.019608 0.254902 0.117647
0.019608 0.262745 0.117647
0.023529 0.270588 0.113725
0.011765 0.282353 0.098039
0.000000 0.298039 0.082353
0.070588 0.313726 0.050980
0.145098 0.329412 0.023529
0.207843 0.341176 0.015686
0.262745 0.356863 0.011765
0.317647 0.368627 0.003922
0.372549 0.380392 0.000000
0.419608 0.392157 0.000000
0.466667 0.400000 0.000000
0.509804 0.407843 0.000000
0.552941 0.415686 0.000000
0.592157 0.423529 0.000000
0.627451 0.427451 0.000000
0.654902 0.431373 0.007843
0.682353 0.435294 0.019608
0.701961 0.439216 0.007843
0.721569 0.443137 0.000000
0.733333 0.443137 0.000000
0.741176 0.447059 0.000000
0.749020 0.450980 0.000000
0.756863 0.454902 0.000000
0.760784 0.458824 0.019608
0.768628 0.466667 0.035294
0.772549 0.474510 0.035294
0.776471 0.478431 0.035294
0.000000 0.274510 0.129412
0.011765 0.274510 0.129412
0.027451 0.274510 0.129412
0.015686 0.278431 0.129412
0.007843 0.282353 0.129412
0.007843 0.290196 0.125490
0.011765 0.298039 0.125490
0.011765 0.317647 0.109804
0.000000 0.329412 0.090196
0.070588 0.349020 0.054902
0.149020 0.364706 0.023529
0.211765 0.384314 0.011765
0.270588 0.396078 0.003922
0.329412 0.411765 0.003922
0.380392 0.423529 0.000000
0.431373 0.435294 0.000000
0.482353 0.447059 0.000000
0.529412 0.454902 0.000000
0.572549 0.462745 0.000000
0.607843 0.470588 0.000000
0.647059 0.474510 0.000000
0.674510 0.478431 0.000000
0.701961 0.482353 0.007843
0.721569 0.486275 0.007843
0.741176 0.490196 0.000000
0.752941 0.490196 0.007843
0.764706 0.494118 0.007843
0.772549 0.498039 0.019608
0.776471 0.501961 0.019608
0.784314 0.505882 0.007843
0.788235 0.513726 0.027451
0.792157 0.517647 0.031373
0.800000 0.525490 0.035294
0.000000 0.298039 0.141176
0.011765 0.301961 0.141176
0.027451 0.301961 0.141176
0.015686 0.305882 0.141176
0.000000 0.313726 0.141176
0.000000 0.321569 0.137255
0.000000 0.329412 0.133333
0.000000 0.345098 0.117647
0.000000 0.364706 0.101961
0.070588 0.384314 0.062745
0.149020 0.403922 0.023529
0.211765 0.419608 0.011765
0.278431 0.435294 0.000000
0.333333 0.447059 0.000000
0.392157 0.462745 0.000000
0.443137 0.474510 0.000000
0.494118 0.486275 0.000000
0.541176 0.498039 0.000000
0.588235 0.505882 0.000000
0.627451 0.513726 0.000000
0.662745 0.521569 0.000000
0.694118 0.525490 0.000000
0.721569 0.529412 0.000000
0.741176 0.533333 0.000000
0.760784 0.533333 0.000000
0.772549 0.537255 0.007843
0.784314 0.541176 0.011765
0.792157 0.545098 0.027451
0.796079 0.549020 0.039216
0.803922 0.552941 0.027451
0.811765 0.556863 0.015686
0.815686 0.564706 0.023529
0.819608 0.572549 0.031373
0.000000 0.325490 0.149020
0.000000 0.325490 0.149020
0.011765 0.329412 0.149020
0.015686 0.333333 0.149020
0.000000 0.337255 0.149020
0.019608 0.345098 0.145098
0.019608 0.356863 0.141176
0.000000 0.372549 0.125490
0.000000 0.392157 0.109804
0.070588 0.415686 0.062745
0.149020 0.435294 0.019608
0.219608 0.450980 0.019608
0.286275 0.466667 0.011765
0.345098 0.486275 0.000000
0.400000 0.498039 0.000000
0.454902 0.513726 0.000000
0.509804 0.525490 0.000000
0.560784 0.541176 0.000000
0.603922 0.549020 0.000000
0.643137 0.556863 0.007843
0.682353 0.560784 0.007843
0.709804 0.568627 0.007843
0.741176 0.572549 0.007843
0.760784 0.576471 0.007843
0.780392 0.580392 0.007843
0.792157 0.580392 0.000000
0.803922 0.584314 0.007843
0.811765 0.588235 0.015686
0.819608 0.592157 0.027451
0.823529 0.596078 0.023529
0.831373 0.603922 0.011765
0.831373 0.603922 0.007843
0.835294 0.611765 0.015686
0.000000 0.349020 0.156863
0.000000 0.352941 0.156863
0.000000 0.352941 0.156863
0.000000 0.360784 0.156863
0.000000 0.364706 0.156863
0.019608 0.372549 0.152941
0.039216 0.380392 0.152941
0.019608 0.400000 0.133333
0.000000 0.419608 0.117647
0.070588 0.443137 0.070588
0.152941 0.466667 0.019608
0.223529 0.486275 0.019608
0.290196 0.501961 0.023529
0.349020 0.517647 0.011765
0.407843 0.533333 0.000000
0.466667 0.549020 0.000000
0.521569 0.564706 0.000000
0.572549 0.580392 0.000000
0.623529 0.592157 0.000000
0.658824 0.596078 0.007843
0.698039 0.603922 0.019608
0.729412 0.611765 0.019608
0.756863 0.615686 0.019608
0.780392 0.619608 0.015686
0.800000 0.623529 0.015686
0.811765 0.627451 0.007843
0.823529 0.627451 0.000000
0.831373 0.631373 0.007843
0.839216 0.635294 0.019608
0.843137 0.639216 0.015686
0.850980 0.647059 0.011765
0.850980 0.647059 0.003922
0.854902 0.650980 0.000000
0.011765 0.364706 0.164706
0.000000 0.368627 0.160784
0.000000 0.372549 0.164706
0.011765 0.376471 0.164706
0.015686 0.384314 0.164706
0.000000 0.392157 0.156863
0.019608 0.403922 0.156863
0.019608 0.423529 0.141176
0.000000 0.443137 0.121569
0.070588 0.466667 0.062745
0.149020 0.490196 0.011765
0.227451 0.509804 0.019608
0.298039 0.525490 0.023529
0.360784 0.545098 0.011765
0.419608 0.560784 0.000000
0.474510 0.576471 0.003922
0.533333 0.592157 0.003922
0.584314 0.607843 0.000000
0.631373 0.619608 0.000000
0.674510 0.631373 0.000000
0.713726 0.639216 0.011765
0.741176 0.643137 0.023529
0.772549 0.647059 0.019608
0.792157 0.650980 0.019608
0.811765 0.654902 0.019608
0.827451 0.658824 0.007843
0.839216 0.662745 0.000000
0.847059 0.666667 0.023529
0.854902 0.670588 0.031373
0.858824 0.674510 0.015686
0.862745 0.678431 0.011765
0.866667 0.678431 0.015686
0.870588 0.682353 0.011765
0.027451 0.380392 0.168627
0.015686 0.388235 0.168627
0.000000 0.392157 0.168627
0.011765 0.396078 0.168627
0.027451 0.400000 0.168627
0.015686 0.411765 0.164706
0.000000 0.423529 0.160784
0.000000 0.443137 0.145098
0.000000 0.462745 0.125490
0.070588 0.486275 0.066667
0.149020 0.513726 0.003922
0.227451 0.533333 0.011765
0.301961 0.549020 0.027451
0.364706 0.568627 0.015686
0.431373 0.588235 0.000000
0.486275 0.603922 0.003922
0.541176 0.623529 0.007843
0.596078 0.635294 0.003922
0.643137 0.650980 0.000000
0.686275 0.658824 0.000000
0.725490 0.670588 0.000000
0.756863 0.674510 0.011765
0.788235 0.682353 0.023529
0.807843 0.686275 0.023529
0.827451 0.690196 0.023529
0.839216 0.694118 0.011765
0.854902 0.694118 0.000000
0.862745 0.698039 0.023529
0.870588 0.701961 0.043137
0.874510 0.705882 0.031373
0.878431 0.709804 0.015686
0.878431 0.709804 0.019608
0.882353 0.709804 0.023529
0.035294 0.392157 0.176471
0.015686 0.400000 0.172549
0.000000 0.403922 0.172549
0.000000 0.411765 0.172549
0.011765 0.415686 0.172549
0.031373 0.427451 0.168627
0.019608 0.439216 0.164706
0.023529 0.458824 0.145098
0.027451 0.478431 0.129412
0.082353 0.501961 0.086275
0.156863 0.525490 0.023529
0.231373 0.549020 0.000000
0.309804 0.568627 0.011765
0.376471 0.588235 0.015686
0.439216 0.607843 0.000000
0.494118 0.623529 0.000000
0.549020 0.639216 0.003922
0.603922 0.654902 0.003922
0.650980 0.670588 0.000000
0.694118 0.682353 0.000000
0.737255 0.690196 0.000000
0.768628 0.698039 0.015686
0.800000 0.705882 0.027451
0.819608 0.709804 0.031373
0.839216 0.709804 0.031373
0.850980 0.713726 0.039216
0.862745 0.717647 0.027451
0.874510 0.721569 0.027451
0.878431 0.725490 0.050980
0.882353 0.725490 0.054902
0.890196 0.729412 0.039216
0.890196 0.729412 0.039216
0.894118 0.733333 0.043137
0.043137 0.403922 0.180392
0.023529 0.411765 0.180392
0.000000 0.415686 0.176471
0.000000 0.423529 0.176471
0.000000 0.431373 0.172549
0.015686 0.439216 0.172549
0.039216 0.450980 0.168627
0.047059 0.474510 0.152941
0.050980 0.494118 0.133333
0.105882 0.517647 0.086275
0.168627 0.541176 0.039216
0.239216 0.564706 0.019608
0.313726 0.584314 0.000000
0.380392 0.603922 0.000000
0.447059 0.623529 0.000000
0.501961 0.643137 0.000000
0.556863 0.658824 0.000000
0.607843 0.674510 0.000000
0.658824 0.686275 0.000000
0.701961 0.698039 0.000000
0.749020 0.713726 0.000000
0.780392 0.717647 0.015686
0.807843 0.725490 0.031373
0.831373 0.729412 0.035294
0.850980 0.733333 0.043137
0.862745 0.737255 0.050980
0.874510 0.741176 0.058824
0.882353 0.745098 0.054902
0.890196 0.745098 0.054902
0.894118 0.749020 0.058824
0.898039 0.749020 0.062745
0.901961 0.749020 0.066667
0.901961 0.752941 0.066667
0.043137 0.411765 0.184314
0.023529 0.415686 0.180392
0.000000 0.423529 0.180392
0.000000 0.431373 0.180392
0.000000 0.439216 0.176471
0.000000 0.450980 0.168627
0.019608 0.462745 0.168627
0.019608 0.486275 0.145098
0.027451 0.505882 0.125490
0.117647 0.529412 0.070588
0.176471 0.552941 0.023529
0.250980 0.572549 0.035294
0.325490 0.592157 0.015686
0.388235 0.615686 0.000000
0.450980 0.635294 0.000000
0.509804 0.650980 0.007843
0.564706 0.670588 0.007843
0.615686 0.686275 0.000000
0.666667 0.698039 0.000000
0.709804 0.713726 0.011765
0.756863 0.725490 0.011765
0.788235 0.733333 0.023529
0.819608 0.741176 0.039216
0.839216 0.745098 0.043137
0.858824 0.749020 0.050980
0.870588 0.752941 0.054902
0.882353 0.752941 0.062745
0.890196 0.756863 0.062745
0.898039 0.760784 0.062745
0.901961 0.760784 0.066667
0.905882 0.760784 0.070588
0.909804 0.764706 0.070588
0.913726 0.764706 0.074510
0.043137 0.419608 0.184314
0.023529 0.423529 0.184314
0.000000 0.431373 0.184314
0.000000 0.439216 0.180392
0.000000 0.447059 0.180392
0.000000 0.462745 0.172549
0.000000 0.474510 0.164706
0.000000 0.498039 0.141176
0.000000 0.517647 0.117647
0.090196 0.541176 0.062745
0.184314 0.564706 0.003922
0.258824 0.584314 0.015686
0.333333 0.603922 0.031373
0.396078 0.623529 0.015686
0.458824 0.643137 0.000000
0.513726 0.662745 0.007843
0.568627 0.678431 0.015686
0.623529 0.694118 0.007843
0.674510 0.709804 0.000000
0.717647 0.725490 0.011765
0.764706 0.737255 0.023529
0.796079 0.745098 0.035294
0.827451 0.752941 0.047059
0.847059 0.756863 0.050980
0.866667 0.760784 0.058824
0.882353 0.764706 0.062745
0.894118 0.768628 0.066667
0.898039 0.772549 0.066667
0.905882 0.772549 0.066667
