All_In_One/addons/Enrich_Colormaster/colormanagement/luts/film_response/Fuji3513_ConstLmap.cube
TITLE "Generate by Resolve"
LUT_3D_SIZE 9
0.000000 0.000000 0.011765
0.019608 0.007843 0.015686
0.058824 0.023529 0.019608
0.149020 0.035294 0.007843
0.266667 0.054902 0.000000
0.376471 0.070588 0.000000
0.450980 0.082353 0.019608
0.486275 0.086275 0.023529
0.509804 0.090196 0.011765
0.015686 0.039216 0.027451
0.027451 0.039216 0.023529
0.074510 0.050980 0.027451
0.180392 0.066667 0.000000
0.309804 0.094118 0.019608
0.435294 0.109804 0.000000
0.513726 0.113725 0.000000
0.549020 0.121569 0.000000
0.564706 0.137255 0.019608
0.019608 0.082353 0.047059
0.019608 0.086275 0.047059
0.078431 0.101961 0.039216
0.215686 0.129412 0.011765
0.368627 0.156863 0.000000
0.494118 0.176471 0.019608
0.576471 0.184314 0.000000
0.611765 0.196078 0.000000
0.635294 0.211765 0.015686
0.000000 0.152941 0.078431
0.011765 0.152941 0.078431
0.050980 0.188235 0.031373
0.243137 0.223529 0.003922
0.415686 0.254902 0.000000
0.560784 0.278431 0.000000
0.647059 0.286275 0.000000
0.678431 0.301961 0.019608
0.698039 0.317647 0.015686
0.000000 0.243137 0.117647
0.019608 0.254902 0.117647
0.000000 0.298039 0.082353
0.262745 0.356863 0.011765
0.466667 0.400000 0.000000
0.627451 0.427451 0.000000
0.721569 0.443137 0.000000
0.756863 0.454902 0.000000
0.776471 0.478431 0.035294
0.000000 0.349020 0.156863
0.000000 0.364706 0.156863
0.000000 0.419608 0.117647
0.290196 0.501961 0.023529
0.521569 0.564706 0.000000
0.698039 0.603922 0.019608
0.800000 0.623529 0.015686
0.839216 0.635294 0.019608
0.854902 0.650980 0.000000
0.043137 0.403922 0.180392
0.000000 0.431373 0.172549
0.050980 0.494118 0.133333
0.313726 0.584314 0.000000
0.556863 0.658824 0.000000
0.749020 0.713726 0.000000
0.850980 0.733333 0.043137
0.890196 0.745098 0.054902
0.901961 0.752941 0.066667
0.039216 0.427451 0.188235
0.000000 0.466667 0.176471
0.000000 0.541176 0.082353
0.349020 0.619608 0.000000
0.588235 0.694118 0.000000
0.776471 0.749020 0.031373
0.882353 0.776471 0.070588
0.921569 0.788235 0.082353
0.937255 0.792157 0.082353
0.000000 0.494118 0.231373
0.000000 0.572549 0.180392
0.196078 0.635294 0.043137
0.435294 0.690196 0.035294
0.647059 0.745098 0.031373
0.823529 0.788235 0.050980
0.929412 0.815686 0.086275
0.968628 0.827451 0.094118
0.980392 0.827451 0.098039
0.000000 0.015686 0.015686
0.023529 0.011765 0.023529
0.062745 0.023529 0.027451
0.164706 0.035294 0.015686
0.298039 0.050980 0.000000
0.415686 0.058824 0.000000
0.490196 0.066667 0.000000
0.529412 0.070588 0.000000
0.552941 0.070588 0.000000
0.015686 0.039216 0.035294
0.031373 0.043137 0.035294
0.078431 0.054902 0.035294
0.203922 0.070588 0.019608
0.345098 0.094118 0.015686
0.474510 0.109804 0.000000
0.549020 0.117647 0.015686
0.584314 0.125490 0.027451
0.611765 0.133333 0.015686
0.015686 0.090196 0.058824
0.023529 0.090196 0.054902
0.090196 0.109804 0.050980
0.239216 0.137255 0.023529
0.400000 0.164706 0.023529
0.541176 0.184314 0.039216
0.623529 0.188235 0.000000
0.658824 0.196078 0.000000
0.682353 0.215686 0.023529
0.019608 0.160784 0.094118
0.035294 0.164706 0.094118
0.050980 0.200000 0.050980
0.262745 0.235294 0.031373
0.450980 0.266667 0.035294
0.611765 0.294118 0.035294
0.698039 0.301961 0.000000
0.729412 0.313726 0.023529
0.749020 0.333333 0.019608
0.015686 0.262745 0.137255
0.039216 0.274510 0.137255
0.023529 0.317647 0.105882
0.286275 0.384314 0.047059
0.505882 0.427451 0.058824
0.678431 0.458824 0.066667
0.772549 0.470588 0.047059
0.811765 0.482353 0.000000
0.827451 0.501961 0.043137
0.011765 0.372549 0.180392
0.050980 0.388235 0.184314
0.000000 0.450980 0.149020
0.313726 0.541176 0.074510
0.560784 0.603922 0.082353
0.756863 0.650980 0.094118
0.854902 0.662745 0.058824
0.894118 0.674510 0.000000
0.913726 0.694118 0.039216
0.047059 0.427451 0.215686
0.023529 0.454902 0.211765
0.000000 0.525490 0.168627
0.333333 0.619608 0.082353
0.596078 0.694118 0.094118
0.796079 0.745098 0.133333
0.901961 0.768628 0.133333
0.945098 0.780392 0.074510
0.956863 0.788235 0.082353
0.000000 0.454902 0.243137
0.000000 0.494118 0.239216
0.000000 0.572549 0.196078
0.337255 0.670588 0.000000
0.619608 0.741176 0.015686
0.827451 0.792157 0.054902
0.937255 0.815686 0.090196
0.972549 0.823529 0.098039
0.984314 0.827451 0.094118
0.003922 0.525490 0.333333
0.050980 0.603922 0.329412
0.000000 0.674510 0.270588
0.380392 0.749020 0.196078
0.654902 0.803922 0.152941
0.866667 0.843137 0.003922
0.984314 0.862745 0.105882
1.000000 0.862745 0.235294
1.000000 0.866667 0.301961
0.000000 0.027451 0.066667
0.019608 0.019608 0.074510
0.062745 0.027451 0.078431
0.180392 0.035294 0.082353
0.329412 0.027451 0.082353
0.450980 0.039216 0.086275
0.529412 0.039216 0.094118
0.564706 0.047059 0.098039
0.588235 0.047059 0.105882
0.011765 0.050980 0.082353
0.031373 0.054902 0.082353
0.082353 0.062745 0.098039
0.219608 0.078431 0.098039
0.376471 0.101961 0.105882
0.509804 0.109804 0.109804
0.611765 0.054902 0.098039
0.647059 0.023529 0.090196
0.670588 0.054902 0.101961
0.019608 0.101961 0.109804
0.039216 0.105882 0.109804
0.098039 0.121569 0.121569
0.243137 0.152941 0.129412
0.419608 0.184314 0.137255
0.592157 0.176471 0.113725
0.705882 0.137255 0.082353
0.756863 0.090196 0.043137
0.776471 0.125490 0.054902
0.011765 0.176471 0.145098
0.047059 0.184314 0.152941
0.117647 0.207843 0.160784
0.278431 0.258824 0.152941
0.474510 0.290196 0.160784
0.647059 0.309804 0.152941
0.776471 0.294118 0.098039
0.831373 0.286275 0.000000
0.850980 0.309804 0.039216
0.000000 0.294118 0.203922
0.054902 0.305882 0.207843
0.145098 0.341176 0.219608
0.298039 0.419608 0.188235
0.533333 0.466667 0.200000
0.713726 0.490196 0.203922
0.839216 0.498039 0.137255
0.898039 0.505882 0.043137
0.913726 0.529412 0.027451
0.035294 0.411765 0.258824
0.050980 0.427451 0.262745
0.156863 0.482353 0.270588
0.305882 0.592157 0.203922
0.588235 0.650980 0.243137
0.784314 0.690196 0.254902
0.909804 0.709804 0.188235
0.964706 0.717647 0.031373
0.980392 0.737255 0.058824
0.039216 0.462745 0.298039
0.000000 0.490196 0.301961
0.086275 0.556863 0.301961
0.231373 0.686275 0.156863
0.615686 0.756863 0.168627
0.835294 0.796079 0.211765
0.941177 0.815686 0.243137
1.000000 0.827451 0.141176
1.000000 0.835294 0.176471
0.000000 0.490196 0.341176
0.027451 0.529412 0.352941
0.023529 0.603922 0.349020
0.223529 0.725490 0.254902
0.615686 0.800000 0.211765
0.870588 0.847059 0.145098
1.000000 0.866667 0.066667
1.000000 0.862745 0.282353
1.000000 0.866667 0.309804
0.019608 0.560784 0.435294
0.050980 0.635294 0.454902
0.000000 0.705882 0.450980
0.325490 0.780392 0.407843
0.635294 0.835294 0.396078
0.858824 0.874510 0.372549
0.988235 0.898039 0.364706
1.000000 0.894118 0.447059
1.000000 0.894118 0.486275
0.000000 0.054902 0.129412
0.000000 0.043137 0.149020
0.066667 0.031373 0.168627
0.188235 0.039216 0.184314
0.341176 0.023529 0.188235
0.470588 0.043137 0.200000
0.552941 0.019608 0.203922
0.584314 0.035294 0.211765
0.603922 0.039216 0.219608
0.000000 0.082353 0.156863
0.027451 0.082353 0.156863
0.078431 0.070588 0.200000
0.223529 0.094118 0.215686
0.392157 0.109804 0.223529
0.537255 0.113725 0.235294
0.631373 0.054902 0.231373
0.666667 0.035294 0.235294
0.690196 0.027451 0.247059
0.000000 0.133333 0.196078
0.039216 0.137255 0.196078
0.113725 0.152941 0.207843
0.254902 0.176471 0.258824
0.439216 0.200000 0.266667
0.623529 0.192157 0.274510
0.729412 0.133333 0.262745
0.772549 0.117647 0.262745
0.792157 0.149020 0.278431
0.000000 0.215686 0.243137
0.050980 0.219608 0.250980
0.133333 0.243137 0.266667
0.282353 0.290196 0.298039
0.513726 0.313726 0.305882
0.713726 0.309804 0.298039
0.807843 0.298039 0.290196
0.843137 0.309804 0.294118
0.858824 0.333333 0.305882
0.000000 0.333333 0.309804
0.070588 0.345098 0.317647
0.168627 0.380392 0.337255
0.333333 0.447059 0.372549
0.545098 0.505882 0.368627
0.784314 0.529412 0.325490
0.890196 0.521569 0.317647
0.925490 0.537255 0.321569
0.941177 0.564706 0.329412
0.000000 0.454902 0.372549
0.094118 0.470588 0.380392
0.184314 0.521569 0.403922
0.298039 0.631373 0.403922
0.592157 0.709804 0.376471
0.803922 0.737255 0.443137
0.956863 0.756863 0.337255
1.000000 0.764706 0.325490
1.000000 0.780392 0.360784
0.000000 0.509804 0.415686
0.000000 0.533333 0.427451
0.109804 0.600000 0.450980
0.168627 0.725490 0.423529
0.592157 0.807843 0.396078
0.862745 0.854902 0.380392
0.960784 0.858824 0.443137
1.000000 0.866667 0.431373
1.000000 0.870588 0.450980
0.000000 0.533333 0.462745
0.000000 0.572549 0.482353
0.000000 0.643137 0.505882
0.003922 0.764706 0.486275
0.592157 0.839216 0.478431
0.858824 0.886275 0.462745
0.992157 0.905882 0.450980
1.000000 0.901961 0.517647
1.000000 0.905882 0.537255
0.000000 0.600000 0.549020
0.015686 0.670588 0.580392
0.000000 0.729412 0.596078
0.250980 0.811765 0.592157
0.615686 0.870588 0.592157
0.850980 0.909804 0.588235
0.980392 0.929412 0.584314
1.000000 0.925490 0.623529
1.000000 0.925490 0.650980
0.000000 0.094118 0.203922
0.003922 0.098039 0.211765
0.066667 0.039216 0.282353
0.196078 0.043137 0.305882
0.356863 0.039216 0.321569
0.494118 0.027451 0.333333
0.568627 0.027451 0.333333
0.603922 0.039216 0.345098
0.623529 0.043137 0.356863
0.000000 0.125490 0.243137
0.031373 0.129412 0.247059
0.070588 0.086275 0.333333
0.235294 0.105882 0.356863
0.411765 0.125490 0.372549
0.556863 0.125490 0.380392
0.647059 0.086275 0.388235
0.682353 0.035294 0.396078
0.705882 0.039216 0.415686
0.000000 0.180392 0.298039
0.047059 0.184314 0.301961
0.121569 0.200000 0.317647
0.258824 0.196078 0.415686
0.454902 0.223529 0.427451
0.627451 0.215686 0.447059
0.749020 0.125490 0.450980
0.780392 0.125490 0.454902
0.800000 0.164706 0.474510
0.000000 0.262745 0.360784
0.058824 0.266667 0.364706
0.149020 0.294118 0.392157
0.258824 0.313726 0.498039
0.505882 0.352941 0.498039
0.721569 0.333333 0.509804
0.815686 0.325490 0.509804
0.850980 0.333333 0.509804
0.866667 0.360784 0.529412
0.011765 0.388235 0.435294
0.082353 0.396078 0.443137
0.192157 0.439216 0.478431
0.356863 0.494118 0.517647
0.552941 0.549020 0.564706
0.784314 0.564706 0.560784
0.890196 0.556863 0.556863
0.925490 0.572549 0.560784
0.941177 0.600000 0.576471
0.000000 0.505882 0.501961
0.090196 0.521569 0.513726
0.203922 0.576471 0.552941
0.337255 0.674510 0.600000
0.564706 0.760784 0.603922
0.823529 0.788235 0.627451
0.956863 0.800000 0.596078
0.992157 0.803922 0.596078
1.000000 0.819608 0.607843
0.000000 0.560784 0.545098
0.000000 0.584314 0.564706
0.113725 0.650980 0.603922
0.176471 0.760784 0.643137
0.560784 0.850980 0.643137
0.847059 0.894118 0.647059
0.960784 0.905882 0.670588
0.996078 0.909804 0.674510
1.000000 0.913726 0.686275
0.000000 0.580392 0.584314
0.000000 0.623529 0.615686
0.000000 0.690196 0.658824
0.000000 0.796079 0.698039
0.552941 0.878431 0.705882
0.839216 0.925490 0.705882
0.976471 0.941177 0.698039
1.000000 0.945098 0.729412
1.000000 0.945098 0.745098
0.000000 0.639216 0.654902
0.000000 0.709804 0.705882
0.000000 0.764706 0.737255
0.039216 0.843137 0.764706
0.584314 0.901961 0.776471
0.831373 0.937255 0.776471
0.964706 0.956863 0.776471
1.000000 0.960784 0.792157
1.000000 0.960784 0.811765
0.000000 0.133333 0.274510
0.000000 0.133333 0.290196
0.066667 0.039216 0.392157
0.207843 0.027451 0.423529
0.368627 0.054902 0.439216
0.505882 0.035294 0.454902
0.588235 0.039216 0.462745
0.619608 0.043137 0.470588
0.639216 0.047059 0.486275
0.000000 0.168627 0.329412
0.000000 0.172549 0.333333
0.039216 0.105882 0.458824
0.231373 0.121569 0.486275
0.419608 0.137255 0.505882
0.572549 0.152941 0.517647
0.658824 0.121569 0.529412
0.701961 0.050980 0.549020
0.721569 0.050980 0.564706
0.000000 0.223529 0.392157
0.000000 0.227451 0.400000
0.098039 0.239216 0.439216
0.254902 0.196078 0.584314
0.474510 0.223529 0.596078
0.635294 0.243137 0.596078
0.749020 0.152941 0.623529
0.792157 0.113725 0.635294
0.807843 0.164706 0.650980
0.000000 0.309804 0.462745
0.000000 0.313726 0.474510
0.125490 0.337255 0.509804
0.223529 0.329412 0.666667
0.517647 0.352941 0.690196
0.721569 0.349020 0.694118
0.823529 0.337255 0.694118
0.854902 0.345098 0.698039
0.870588 0.380392 0.717647
0.035294 0.427451 0.537255
0.074510 0.443137 0.552941
0.192157 0.474510 0.588235
0.337255 0.541176 0.658824
0.541176 0.580392 0.752941
0.776471 0.588235 0.760784
0.890196 0.588235 0.760784
0.925490 0.600000 0.764706
0.937255 0.631373 0.772549
0.039216 0.549020 0.607843
0.054902 0.568627 0.627451
0.215686 0.623529 0.674510
0.376471 0.709804 0.741176
0.576471 0.784314 0.792157
0.815686 0.827451 0.807843
0.945098 0.831373 0.807843
0.980392 0.839216 0.807843
0.992157 0.850980 0.815686
0.000000 0.600000 0.647059
0.000000 0.627451 0.674510
0.133333 0.690196 0.721569
0.192157 0.792157 0.792157
0.517647 0.882353 0.835294
0.823529 0.925490 0.839216
0.960784 0.941177 0.847059
0.996078 0.945098 0.850980
1.000000 0.949020 0.858824
0.043137 0.619608 0.670588
0.000000 0.658824 0.705882
0.000000 0.725490 0.760784
0.000000 0.819608 0.831373
0.513726 0.905882 0.866667
0.819608 0.952941 0.874510
0.960784 0.972549 0.878431
0.996078 0.972549 0.890196
1.000000 0.976471 0.894118
0.000000 0.666667 0.725490
0.000000 0.733333 0.780392
0.000000 0.788235 0.823529
0.000000 0.858824 0.874510
0.552941 0.921569 0.898039
0.815686 0.960784 0.909804
0.952941 0.980392 0.909804
1.000000 0.988235 0.913726
1.000000 0.984314 0.929412
0.000000 0.160784 0.321569
0.019608 0.160784 0.333333
0.058824 0.035294 0.458824
0.207843 0.031373 0.494118
0.372549 0.035294 0.517647
0.517647 0.054902 0.533333
0.600000 0.050980 0.541176
0.635294 0.039216 0.549020
0.654902 0.047059 0.564706
0.000000 0.200000 0.380392
0.000000 0.200000 0.392157
0.000000 0.113725 0.537255
0.239216 0.101961 0.592157
0.435294 0.113725 0.611765
0.588235 0.133333 0.615686
0.678431 0.121569 0.627451
0.713726 0.082353 0.639216
0.737255 0.062745 0.666667
0.000000 0.254902 0.443137
0.000000 0.258824 0.462745
0.062745 0.266667 0.509804
0.250980 0.176471 0.698039
0.482353 0.176471 0.721569
0.666667 0.196078 0.725490
0.752941 0.184314 0.721569
0.800000 0.117647 0.745098
0.815686 0.164706 0.756863
0.000000 0.333333 0.517647
0.000000 0.341176 0.533333
0.023529 0.356863 0.584314
0.203922 0.337255 0.764706
0.513726 0.360784 0.792157
0.721569 0.356863 0.803922
0.823529 0.345098 0.803922
0.858824 0.356863 0.811765
0.874510 0.396078 0.823529
0.000000 0.454902 0.596078
0.000000 0.466667 0.615686
0.164706 0.505882 0.658824
0.192157 0.556863 0.784314
0.521569 0.588235 0.854902
0.776471 0.607843 0.870588
0.886275 0.600000 0.870588
0.921569 0.607843 0.874510
0.933333 0.639216 0.882353
0.000000 0.572549 0.666667
0.000000 0.596078 0.690196
0.203922 0.647059 0.737255
0.294118 0.733333 0.823529
0.509804 0.807843 0.905882
0.807843 0.843137 0.917647
0.937255 0.847059 0.921569
0.972549 0.854902 0.925490
0.984314 0.866667 0.925490
0.000000 0.623529 0.698039
0.027451 0.647059 0.725490
0.113725 0.709804 0.780392
0.215686 0.807843 0.862745
0.486275 0.894118 0.925490
0.811765 0.941177 0.941177
0.952941 0.956863 0.945098
0.996078 0.960784 0.945098
1.000000 0.968628 0.949020
0.039216 0.635294 0.709804
0.043137 0.678431 0.752941
0.035294 0.741176 0.807843
0.003922 0.831373 0.886275
0.486275 0.917647 0.941177
0.807843 0.964706 0.956863
0.952941 0.984314 0.960784
0.996078 0.988235 0.960784
1.000000 0.992157 0.968628
0.000000 0.678431 0.756863
0.054902 0.745098 0.815686
0.000000 0.796079 0.862745
0.039216 0.866667 0.921569
0.525490 0.929412 0.952941
0.800000 0.968628 0.964706
0.945098 0.988235 0.972549
0.996078 0.996078 0.972549
1.000000 0.996078 0.980392
0.000000 0.172549 0.349020
0.000000 0.176471 0.360784
0.050980 0.047059 0.494118
0.215686 0.043137 0.537255
0.384314 0.023529 0.564706
0.537255 0.054902 0.580392
0.615686 0.066667 0.588235
0.647059 0.062745 0.596078
0.670588 0.058824 0.615686
0.000000 0.219608 0.415686
0.000000 0.219608 0.431373
0.000000 0.211765 0.498039
0.247059 0.058824 0.658824
0.450980 0.074510 0.682353
0.615686 0.086275 0.686275
0.698039 0.109804 0.686275
0.729412 0.101961 0.698039
0.752941 0.082353 0.721569
0.000000 0.270588 0.474510
0.000000 0.278431 0.486275
0.000000 0.282353 0.549020
0.247059 0.188235 0.737255
0.486275 0.192157 0.768628
0.678431 0.172549 0.784314
0.772549 0.133333 0.788235
0.807843 0.145098 0.796079
0.823529 0.184314 0.807843
0.000000 0.349020 0.541176
0.000000 0.356863 0.556863
0.000000 0.372549 0.619608
0.192157 0.352941 0.800000
0.505882 0.368627 0.831373
0.721569 0.372549 0.847059
0.827451 0.356863 0.850980
0.858824 0.368627 0.858824
0.874510 0.400000 0.866667
0.015686 0.466667 0.619608
0.050980 0.478431 0.635294
0.101961 0.517647 0.694118
0.000000 0.560784 0.835294
0.513726 0.596078 0.894118
0.768628 0.611765 0.913726
0.886275 0.607843 0.917647
0.921569 0.615686 0.921569
0.933333 0.647059 0.929412
0.043137 0.580392 0.686275
0.047059 0.603922 0.709804
0.003922 0.658824 0.768628
0.113725 0.741176 0.866667
0.490196 0.811765 0.941177
0.796079 0.843137 0.956863
0.933333 0.850980 0.964706
0.972549 0.858824 0.964706
0.980392 0.870588 0.968628
0.000000 0.631373 0.713726
0.062745 0.654902 0.741176
0.121569 0.717647 0.800000
0.160784 0.811765 0.886275
0.474510 0.901961 0.956863
0.800000 0.945098 0.976471
0.949020 0.964706 0.984314
0.992157 0.968628 0.984314
1.000000 0.972549 0.988235
0.047059 0.643137 0.725490
0.000000 0.682353 0.764706
0.062745 0.745098 0.823529
0.000000 0.835294 0.905882
0.466667 0.921569 0.964706
0.796079 0.968628 0.980392
0.949020 0.988235 0.988235
0.992157 0.996078 0.992157
1.000000 0.996078 0.996078
0.000000 0.686275 0.768628
0.062745 0.749020 0.827451
0.000000 0.800000 0.874510
0.000000 0.870588 0.933333
0.517647 0.929412 0.968628
0.792157 0.972549 0.984314
0.941177 0.992157 0.992157
0.992157 1.000000 0.996078
1.000000 1.000000 0.996078
0.000000 0.200000 0.392157
0.000000 0.207843 0.407843
0.000000 0.082353 0.568627
0.235294 0.047059 0.619608
0.427451 0.035294 0.647059
0.584314 0.058824 0.658824
0.670588 0.074510 0.662745
0.701961 0.074510 0.674510
0.721569 0.090196 0.690196
0.000000 0.250980 0.454902
0.000000 0.254902 0.474510
0.027451 0.258824 0.533333
0.250980 0.121569 0.725490
0.474510 0.113725 0.752941
0.654902 0.003922 0.768628
0.741176 0.094118 0.760784
0.780392 0.086275 0.772549
0.803922 0.043137 0.796079
0.000000 0.298039 0.501961
0.000000 0.305882 0.517647
0.000000 0.309804 0.584314
0.231373 0.243137 0.768628
0.490196 0.250980 0.800000
0.690196 0.243137 0.819608
0.792157 0.223529 0.823529
0.827451 0.231373 0.831373
0.839216 0.262745 0.839216
0.000000 0.364706 0.556863
0.000000 0.376471 0.576471
0.000000 0.396078 0.647059
0.172549 0.384314 0.823529
0.505882 0.403922 0.854902
0.725490 0.407843 0.870588
0.835294 0.400000 0.874510
0.870588 0.403922 0.882353
0.886275 0.443137 0.890196
0.054902 0.478431 0.627451
0.000000 0.490196 0.650980
0.000000 0.525490 0.709804
0.000000 0.580392 0.847059
0.509804 0.615686 0.909804
0.760784 0.627451 0.925490
0.886275 0.623529 0.933333
0.925490 0.635294 0.937255
0.937255 0.662745 0.941177
0.000000 0.584314 0.694118
0.000000 0.607843 0.721569
0.000000 0.662745 0.780392
0.000000 0.745098 0.874510
0.466667 0.811765 0.949020
0.788235 0.847059 0.968628
0.929412 0.858824 0.976471
0.968628 0.858824 0.980392
0.980392 0.874510 0.980392
0.043137 0.631373 0.717647
0.054902 0.662745 0.752941
0.082353 0.721569 0.807843
0.105882 0.815686 0.898039
0.450980 0.901961 0.964706
0.796079 0.945098 0.984314
0.945098 0.964706 0.992157
0.988235 0.968628 0.996078
1.000000 0.972549 0.996078
0.000000 0.643137 0.729412
0.000000 0.690196 0.772549
0.043137 0.749020 0.827451
0.058824 0.839216 0.909804
0.454902 0.921569 0.968628
0.788235 0.968628 0.988235
0.945098 0.988235 0.996078
0.992157 0.996078 1.000000
1.000000 0.996078 1.000000
0.000000 0.686275 0.772549
0.003922 0.752941 0.831373
0.047059 0.800000 0.874510
0.000000 0.870588 0.937255
0.501961 0.929412 0.972549
0.788235 0.972549 0.988235
0.937255 0.992157 1.000000
0.988235 1.000000 1.000000
1.000000 1.000000 1.000000
