All_In_One/addons/Enrich_Colormaster/colormanagement/luts/film_response/Golden.3DL
#Created by: Adobe Photoshop Export Color Lookup Plugin
#Description: Golden
0 33 66 99 132 165 198 231 264 297 330 363 396 429 462 495 528 561 594 627 660 693 726 759 792 825 858 891 924 957 990 1023
725 256 271
725 256 294
725 256 321
725 256 360
725 256 414
725 256 490
725 256 588
725 256 713
725 256 867
725 256 1048
725 256 1253
725 256 1474
725 256 1706
725 256 1942
725 256 2176
725 256 2402
725 256 2614
725 256 2807
725 256 2975
725 256 3116
725 256 3224
725 256 3300
725 256 3351
725 256 3388
725 256 3423
725 256 3458
725 256 3495
725 256 3532
725 256 3570
725 256 3609
725 256 3648
725 256 3687
725 282 271
725 282 294
725 282 321
725 282 360
725 282 414
725 282 490
725 282 588
725 282 713
725 282 867
725 282 1048
725 282 1253
725 282 1474
725 282 1706
725 282 1942
725 282 2176
725 282 2402
725 282 2614
725 282 2807
725 282 2975
725 282 3116
725 282 3224
725 282 3300
725 282 3351
725 282 3388
725 282 3423
725 282 3458
725 282 3495
725 282 3532
725 282 3570
725 282 3609
725 282 3648
725 282 3687
725 321 271
725 321 294
725 321 321
725 321 360
725 321 414
725 321 490
725 321 588
725 321 713
725 321 867
725 321 1048
725 321 1253
725 321 1474
725 321 1706
725 321 1942
725 321 2176
725 321 2402
725 321 2614
725 321 2807
725 321 2975
725 321 3116
725 321 3224
725 321 3300
725 321 3351
725 321 3388
725 321 3423
725 321 3458
725 321 3495
725 321 3532
725 321 3570
725 321 3609
725 321 3648
725 321 3687
725 383 271
725 383 294
725 383 321
725 383 360
725 383 414
725 383 490
725 383 588
725 383 713
725 383 867
725 383 1048
725 383 1253
725 383 1474
725 383 1706
725 383 1942
725 383 2176
725 383 2402
725 383 2614
725 383 2807
725 383 2975
725 383 3116
725 383 3224
725 383 3300
725 383 3351
725 383 3388
725 383 3423
725 383 3458
725 383 3495
725 383 3532
725 383 3570
725 383 3609
725 383 3648
725 383 3687
725 481 271
725 481 294
725 481 321
725 481 360
725 481 414
725 481 490
725 481 588
725 481 713
725 481 867
725 481 1048
725 481 1253
725 481 1474
725 481 1706
725 481 1942
725 481 2176
725 481 2402
725 481 2614
725 481 2807
725 481 2975
725 481 3116
725 481 3224
725 481 3300
725 481 3351
725 481 3388
725 481 3423
725 481 3458
725 481 3495
725 481 3532
725 481 3570
725 481 3609
725 481 3648
725 481 3687
725 622 271
725 622 294
725 622 321
725 622 360
725 622 414
725 622 490
725 622 588
725 622 713
725 622 867
725 622 1048
725 622 1253
725 622 1474
725 622 1706
725 622 1942
725 622 2176
725 622 2402
725 622 2614
725 622 2807
725 622 2975
725 622 3116
725 622 3224
725 622 3300
725 622 3351
725 622 3388
725 622 3423
725 622 3458
725 622 3495
725 622 3532
725 622 3570
725 622 3609
725 622 3648
725 622 3687
725 806 271
725 806 294
725 806 321
725 806 360
725 806 414
725 806 490
725 806 588
725 806 713
725 806 867
725 806 1048
725 806 1253
725 806 1474
725 806 1706
725 806 1942
725 806 2176
725 806 2402
725 806 2614
725 806 2807
725 806 2975
725 806 3116
725 806 3224
725 806 3300
725 806 3351
725 806 3388
725 806 3423
725 806 3458
725 806 3495
725 806 3532
725 806 3570
725 806 3609
725 806 3648
725 806 3687
725 1027 271
725 1027 294
725 1027 321
725 1027 360
725 1027 414
725 1027 490
725 1027 588
725 1027 713
725 1027 867
725 1027 1048
725 1027 1253
725 1027 1474
725 1027 1706
725 1027 1942
725 1027 2176
725 1027 2402
725 1027 2614
725 1027 2807
725 1027 2975
725 1027 3116
725 1027 3224
725 1027 3300
725 1027 3351
725 1027 3388
725 1027 3423
725 1027 3458
725 1027 3495
725 1027 3532
725 1027 3570
725 1027 3609
725 1027 3648
725 1027 3687
725 1282 271
725 1282 294
725 1282 321
725 1282 360
725 1282 414
725 1282 490
725 1282 588
725 1282 713
725 1282 867
725 1282 1048
725 1282 1253
725 1282 1474
725 1282 1706
725 1282 1942
725 1282 2176
725 1282 2402
725 1282 2614
725 1282 2807
725 1282 2975
725 1282 3116
725 1282 3224
725 1282 3300
725 1282 3351
725 1282 3388
725 1282 3423
725 1282 3458
725 1282 3495
725 1282 3532
725 1282 3570
725 1282 3609
725 1282 3648
725 1282 3687
725 1563 271
725 1563 294
725 1563 321
725 1563 360
725 1563 414
725 1563 490
725 1563 588
725 1563 713
725 1563 867
725 1563 1048
725 1563 1253
725 1563 1474
725 1563 1706
725 1563 1942
725 1563 2176
725 1563 2402
725 1563 2614
725 1563 2807
725 1563 2975
725 1563 3116
725 1563 3224
725 1563 3300
725 1563 3351
725 1563 3388
725 1563 3423
725 1563 3458
725 1563 3495
725 1563 3532
725 1563 3570
725 1563 3609
725 1563 3648
725 1563 3687
725 1855 271
725 1855 294
725 1855 321
725 1855 360
725 1855 414
725 1855 490
725 1855 588
725 1855 713
725 1855 867
725 1855 1048
725 1855 1253
725 1855 1474
725 1855 1706
725 1855 1942
725 1855 2176
725 1855 2402
725 1855 2614
725 1855 2807
725 1855 2975
725 1855 3116
725 1855 3224
725 1855 3300
725 1855 3351
725 1855 3388
725 1855 3423
725 1855 3458
725 1855 3495
725 1855 3532
725 1855 3570
725 1855 3609
725 1855 3648
725 1855 3687
725 2140 271
725 2140 294
725 2140 321
725 2140 360
725 2140 414
725 2140 490
725 2140 588
725 2140 713
725 2140 867
725 2140 1048
725 2140 1253
725 2140 1474
725 2140 1706
725 2140 1942
725 2140 2176
725 2140 2402
725 2140 2614
725 2140 2807
725 2140 2975
725 2140 3116
725 2140 3224
725 2140 3300
725 2140 3351
725 2140 3388
725 2140 3423
725 2140 3458
725 2140 3495
725 2140 3532
725 2140 3570
725 2140 3609
725 2140 3648
725 2140 3687
725 2403 271
725 2403 294
725 2403 321
725 2403 360
725 2403 414
725 2403 490
725 2403 588
725 2403 713
725 2403 867
725 2403 1048
725 2403 1253
725 2403 1474
725 2403 1706
725 2403 1942
725 2403 2176
725 2403 2402
725 2403 2614
725 2403 2807
725 2403 2975
725 2403 3116
725 2403 3224
725 2403 3300
725 2403 3351
725 2403 3388
725 2403 3423
725 2403 3458
725 2403 3495
725 2403 3532
725 2403 3570
725 2403 3609
725 2403 3648
725 2403 3687
725 2641 271
725 2641 294
725 2641 321
725 2641 360
725 2641 414
725 2641 490
725 2641 588
725 2641 713
725 2641 867
725 2641 1048
725 2641 1253
725 2641 1474
725 2641 1706
725 2641 1942
725 2641 2176
725 2641 2402
725 2641 2614
725 2641 2807
725 2641 2975
725 2641 3116
725 2641 3224
725 2641 3300
725 2641 3351
725 2641 3388
725 2641 3423
725 2641 3458
725 2641 3495
725 2641 3532
725 2641 3570
725 2641 3609
725 2641 3648
725 2641 3687
725 2852 271
725 2852 294
725 2852 321
725 2852 360
725 2852 414
725 2852 490
725 2852 588
725 2852 713
725 2852 867
725 2852 1048
725 2852 1253
725 2852 1474
725 2852 1706
725 2852 1942
725 2852 2176
725 2852 2402
725 2852 2614
725 2852 2807
725 2852 2975
725 2852 3116
725 2852 3224
725 2852 3300
725 2852 3351
725 2852 3388
725 2852 3423
725 2852 3458
725 2852 3495
725 2852 3532
725 2852 3570
725 2852 3609
725 2852 3648
725 2852 3687
725 3036 271
725 3036 294
725 3036 321
725 3036 360
725 3036 414
725 3036 490
725 3036 588
725 3036 713
725 3036 867
725 3036 1048
725 3036 1253
725 3036 1474
725 3036 1706
725 3036 1942
725 3036 2176
725 3036 2402
725 3036 2614
725 3036 2807
725 3036 2975
725 3036 3116
725 3036 3224
725 3036 3300
725 3036 3351
725 3036 3388
725 3036 3423
725 3036 3458
725 3036 3495
725 3036 3532
725 3036 3570
725 3036 3609
725 3036 3648
725 3036 3687
725 3194 271
725 3194 294
725 3194 321
725 3194 360
725 3194 414
725 3194 490
725 3194 588
725 3194 713
725 3194 867
725 3194 1048
725 3194 1253
725 3194 1474
725 3194 1706
725 3194 1942
725 3194 2176
725 3194 2402
725 3194 2614
725 3194 2807
725 3194 2975
725 3194 3116
725 3194 3224
725 3194 3300
725 3194 3351
725 3194 3388
725 3194 3423
725 3194 3458
725 3194 3495
725 3194 3532
725 3194 3570
725 3194 3609
725 3194 3648
725 3194 3687
725 3322 271
725 3322 294
725 3322 321
725 3322 360
725 3322 414
725 3322 490
725 3322 588
725 3322 713
725 3322 867
725 3322 1048
725 3322 1253
725 3322 1474
725 3322 1706
725 3322 1942
725 3322 2176
725 3322 2402
725 3322 2614
725 3322 2807
725 3322 2975
725 3322 3116
725 3322 3224
725 3322 3300
725 3322 3351
725 3322 3388
725 3322 3423
725 3322 3458
725 3322 3495
725 3322 3532
725 3322 3570
725 3322 3609
725 3322 3648
725 3322 3687
725 3418 271
725 3418 294
725 3418 321
725 3418 360
725 3418 414
725 3418 490
725 3418 588
725 3418 713
725 3418 867
725 3418 1048
725 3418 1253
725 3418 1474
725 3418 1706
725 3418 1942
725 3418 2176
725 3418 2402
725 3418 2614
725 3418 2807
725 3418 2975
725 3418 3116
725 3418 3224
725 3418 3300
725 3418 3351
725 3418 3388
725 3418 3423
725 3418 3458
725 3418 3495
725 3418 3532
725 3418 3570
725 3418 3609
725 3418 3648
725 3418 3687
725 3488 271
725 3488 294
725 3488 321
725 3488 360
725 3488 414
725 3488 490
725 3488 588
725 3488 713
725 3488 867
725 3488 1048
725 3488 1253
725 3488 1474
725 3488 1706
725 3488 1942
725 3488 2176
725 3488 2402
725 3488 2614
725 3488 2807
725 3488 2975
725 3488 3116
725 3488 3224
725 3488 3300
725 3488 3351
725 3488 3388
725 3488 3423
725 3488 3458
725 3488 3495
725 3488 3532
725 3488 3570
725 3488 3609
725 3488 3648
725 3488 3687
725 3539 271
725 3539 294
725 3539 321
725 3539 360
725 3539 414
725 3539 490
725 3539 588
725 3539 713
725 3539 867
725 3539 1048
725 3539 1253
725 3539 1474
725 3539 1706
725 3539 1942
725 3539 2176
725 3539 2402
725 3539 2614
725 3539 2807
725 3539 2975
725 3539 3116
725 3539 3224
725 3539 3300
725 3539 3351
725 3539 3388
725 3539 3423
725 3539 3458
725 3539 3495
725 3539 3532
725 3539 3570
725 3539 3609
725 3539 3648
725 3539 3687
725 3581 271
725 3581 294
725 3581 321
725 3581 360
725 3581 414
725 3581 490
725 3581 588
725 3581 713
725 3581 867
725 3581 1048
725 3581 1253
725 3581 1474
725 3581 1706
725 3581 1942
725 3581 2176
725 3581 2402
725 3581 2614
725 3581 2807
725 3581 2975
725 3581 3116
725 3581 3224
725 3581 3300
725 3581 3351
725 3581 3388
725 3581 3423
725 3581 3458
725 3581 3495
725 3581 3532
725 3581 3570
725 3581 3609
725 3581 3648
725 3581 3687
725 3621 271
725 3621 294
725 3621 321
725 3621 360
725 3621 414
725 3621 490
725 3621 588
725 3621 713
725 3621 867
725 3621 1048
725 3621 1253
725 3621 1474
725 3621 1706
725 3621 1942
725 3621 2176
725 3621 2402
725 3621 2614
725 3621 2807
725 3621 2975
725 3621 3116
725 3621 3224
725 3621 3300
725 3621 3351
725 3621 3388
725 3621 3423
725 3621 3458
725 3621 3495
725 3621 3532
725 3621 3570
725 3621 3609
725 3621 3648
725 3621 3687
725 3668 271
725 3668 294
725 3668 321
725 3668 360
725 3668 414
725 3668 490
725 3668 588
725 3668 713
725 3668 867
725 3668 1048
725 3668 1253
725 3668 1474
725 3668 1706
725 3668 1942
725 3668 2176
725 3668 2402
725 3668 2614
725 3668 2807
725 3668 2975
725 3668 3116
725 3668 3224
725 3668 3300
725 3668 3351
725 3668 3388
725 3668 3423
725 3668 3458
725 3668 3495
725 3668 3532
725 3668 3570
725 3668 3609
725 3668 3648
725 3668 3687
725 3729 271
725 3729 294
725 3729 321
725 3729 360
725 3729 414
725 3729 490
725 3729 588
725 3729 713
725 3729 867
725 3729 1048
725 3729 1253
725 3729 1474
725 3729 1706
725 3729 1942
725 3729 2176
725 3729 2402
725 3729 2614
725 3729 2807
725 3729 2975
725 3729 3116
725 3729 3224
725 3729 3300
725 3729 3351
725 3729 3388
725 3729 3423
725 3729 3458
725 3729 3495
725 3729 3532
725 3729 3570
725 3729 3609
725 3729 3648
725 3729 3687
725 3801 271
725 3801 294
725 3801 321
725 3801 360
725 3801 414
725 3801 490
725 3801 588
725 3801 713
725 3801 867
725 3801 1048
725 3801 1253
725 3801 1474
725 3801 1706
725 3801 1942
725 3801 2176
725 3801 2402
725 3801 2614
725 3801 2807
725 3801 2975
725 3801 3116
725 3801 3224
725 3801 3300
725 3801 3351
725 3801 3388
725 3801 3423
725 3801 3458
725 3801 3495
725 3801 3532
725 3801 3570
725 3801 3609
725 3801 3648
725 3801 3687
725 3878 271
725 3878 294
725 3878 321
725 3878 360
725 3878 414
725 3878 490
725 3878 588
725 3878 713
725 3878 867
725 3878 1048
725 3878 1253
725 3878 1474
725 3878 1706
725 3878 1942
725 3878 2176
725 3878 2402
725 3878 2614
725 3878 2807
725 3878 2975
725 3878 3116
725 3878 3224
725 3878 3300
725 3878 3351
725 3878 3388
725 3878 3423
725 3878 3458
725 3878 3495
725 3878 3532
725 3878 3570
725 3878 3609
725 3878 3648
725 3878 3687
725 3949 271
725 3949 294
725 3949 321
725 3949 360
725 3949 414
725 3949 490
725 3949 588
725 3949 713
725 3949 867
725 3949 1048
725 3949 1253
725 3949 1474
725 3949 1706
725 3949 1942
725 3949 2176
725 3949 2402
725 3949 2614
725 3949 2807
725 3949 2975
725 3949 3116
725 3949 3224
725 3949 3300
725 3949 3351
725 3949 3388
725 3949 3423
725 3949 3458
725 3949 3495
725 3949 3532
725 3949 3570
725 3949 3609
725 3949 3648
725 3949 3687
725 4008 271
725 4008 294
725 4008 321
725 4008 360
