All_In_One/addons/Enrich_Colormaster/colormanagement/luts/film_response/Kodak2383_ConstLmap.cube
TITLE "Generate by Resolve"
LUT_3D_SIZE 5
0.000000 0.000000 0.000000
0.066667 0.027451 0.011765
0.305882 0.094118 0.015686
0.525490 0.133333 0.000000
0.584314 0.145098 0.019608
0.015686 0.066667 0.043137
0.098039 0.094118 0.039216
0.403922 0.160784 0.015686
0.631373 0.200000 0.019608
0.682353 0.227451 0.035294
0.031373 0.243137 0.129412
0.000000 0.317647 0.086275
0.549020 0.450980 0.000000
0.803922 0.498039 0.000000
0.850980 0.545098 0.000000
0.000000 0.400000 0.196078
0.000000 0.521569 0.145098
0.639216 0.721569 0.003922
0.921569 0.796079 0.078431
0.956863 0.811765 0.090196
0.000000 0.494118 0.219608
0.200000 0.635294 0.035294
0.694118 0.772549 0.031373
0.949020 0.839216 0.090196
0.988235 0.850980 0.101961
0.000000 0.023529 0.066667
0.070588 0.035294 0.082353
0.345098 0.043137 0.078431
0.580392 0.031373 0.078431
0.635294 0.031373 0.086275
0.019608 0.082353 0.094118
0.094118 0.101961 0.105882
0.435294 0.156863 0.113725
0.705882 0.129412 0.070588
0.784314 0.105882 0.015686
0.035294 0.266667 0.184314
0.156863 0.325490 0.207843
0.560784 0.482353 0.184314
0.850980 0.525490 0.133333
0.921569 0.568627 0.031373
0.000000 0.427451 0.262745
0.094118 0.541176 0.266667
0.647059 0.752941 0.200000
0.933333 0.823529 0.266667
1.000000 0.843137 0.125490
0.000000 0.533333 0.388235
0.000000 0.674510 0.388235
0.678431 0.839216 0.309804
1.000000 0.898039 0.266667
1.000000 0.898039 0.423529
0.000000 0.101961 0.215686
0.074510 0.023529 0.301961
0.352941 0.039216 0.349020
0.600000 0.000000 0.368627
0.658824 0.031373 0.388235
0.031373 0.156863 0.262745
0.000000 0.145098 0.360784
0.447059 0.188235 0.423529
0.733333 0.125490 0.447059
0.800000 0.125490 0.474510
0.050980 0.345098 0.396078
0.184314 0.407843 0.450980
0.568627 0.549020 0.552941
0.898039 0.568627 0.556863
0.949020 0.619608 0.576471
0.000000 0.513726 0.501961
0.121569 0.619608 0.568627
0.584314 0.850980 0.615686
0.960784 0.905882 0.650980
1.000000 0.921569 0.662745
0.000000 0.611765 0.615686
0.000000 0.733333 0.690196
0.619608 0.901961 0.733333
0.968628 0.960784 0.733333
1.000000 0.960784 0.776471
0.000000 0.164706 0.333333
0.015686 0.086275 0.454902
0.360784 0.019608 0.537255
0.615686 0.062745 0.564706
0.674510 0.047059 0.584314
0.000000 0.227451 0.411765
0.043137 0.235294 0.470588
0.466667 0.133333 0.690196
0.733333 0.172549 0.690196
0.811765 0.098039 0.741176
0.000000 0.415686 0.568627
0.141176 0.474510 0.635294
0.533333 0.576471 0.850980
0.890196 0.600000 0.866667
0.941177 0.650980 0.886275
0.000000 0.584314 0.674510
0.141176 0.678431 0.752941
0.509804 0.886275 0.917647
0.949020 0.952941 0.937255
1.000000 0.964706 0.941177
0.000000 0.658824 0.741176
0.078431 0.768628 0.839216
0.560784 0.929412 0.945098
0.945098 0.988235 0.960784
1.000000 0.996078 0.972549
0.000000 0.196078 0.380392
0.000000 0.098039 0.533333
0.407843 0.031373 0.627451
0.662745 0.074510 0.647059
0.729412 0.074510 0.678431
0.000000 0.266667 0.462745
0.000000 0.278431 0.545098
0.482353 0.203922 0.776471
0.780392 0.160784 0.800000
0.839216 0.219608 0.819608
0.000000 0.439216 0.600000
0.000000 0.494118 0.686275
0.517647 0.600000 0.905882
0.886275 0.619608 0.929412
0.941177 0.666667 0.941177
0.000000 0.596078 0.701961
0.000000 0.690196 0.792157
0.474510 0.890196 0.968628
0.941177 0.952941 0.992157
0.996078 0.964706 0.996078
0.000000 0.666667 0.764706
0.023529 0.776471 0.858824
0.529412 0.925490 0.976471
0.937255 0.992157 1.000000
1.000000 1.000000 1.000000
