All_In_One/addons/Enrich_Colormaster/colormanagement/luts/film_response/Kodak2393_ConstLclip.cube
TITLE "Generate by Resolve"
LUT_3D_SIZE 5
0.003922 0.007843 0.003922
0.058824 0.027451 0.003922
0.262745 0.078431 0.000000
0.466667 0.101961 0.000000
0.521569 0.113725 0.011765
0.011765 0.054902 0.035294
0.078431 0.082353 0.000000
0.372549 0.156863 0.019608
0.588235 0.188235 0.000000
0.639216 0.215686 0.000000
0.000000 0.196078 0.101961
0.039216 0.294118 0.062745
0.529412 0.439216 0.000000
0.772549 0.486275 0.000000
0.823529 0.533333 0.023529
0.000000 0.329412 0.160784
0.047059 0.482353 0.105882
0.635294 0.690196 0.011765
0.905882 0.768628 0.070588
0.941177 0.784314 0.070588
0.000000 0.443137 0.200000
0.239216 0.603922 0.000000
0.686275 0.741176 0.000000
0.933333 0.811765 0.090196
0.972549 0.827451 0.094118
0.000000 0.031373 0.050980
0.062745 0.027451 0.074510
0.301961 0.000000 0.062745
0.509804 0.035294 0.078431
0.568627 0.015686 0.094118
0.023529 0.070588 0.078431
0.062745 0.094118 0.094118
0.435294 0.121569 0.078431
0.694118 0.003922 0.000000
0.752941 0.082353 0.000000
0.000000 0.227451 0.160784
0.007843 0.317647 0.172549
0.580392 0.478431 0.000000
0.858824 0.509804 0.000000
0.913726 0.556863 0.000000
0.027451 0.364706 0.239216
0.000000 0.513726 0.250980
0.650980 0.749020 0.000000
0.960784 0.811765 0.003922
1.000000 0.827451 0.003922
0.000000 0.501961 0.388235
0.000000 0.666667 0.400000
0.670588 0.823529 0.345098
0.992157 0.882353 0.305882
1.000000 0.890196 0.400000
0.007843 0.086275 0.160784
0.043137 0.000000 0.254902
0.321569 0.031373 0.305882
0.537255 0.000000 0.333333
0.596078 0.027451 0.356863
0.000000 0.145098 0.235294
0.000000 0.156863 0.317647
0.447059 0.133333 0.439216
0.713726 0.000000 0.447059
0.768628 0.113725 0.478431
0.023529 0.321569 0.372549
0.027451 0.407843 0.454902
0.552941 0.545098 0.556863
0.882353 0.572549 0.560784
0.933333 0.619608 0.580392
0.000000 0.466667 0.474510
0.000000 0.603922 0.564706
0.576471 0.835294 0.619608
0.968628 0.898039 0.619608
1.000000 0.909804 0.647059
0.000000 0.588235 0.603922
0.000000 0.729412 0.690196
0.607843 0.886275 0.733333
0.964706 0.949020 0.737255
1.000000 0.952941 0.760784
0.000000 0.137255 0.266667
0.000000 0.043137 0.400000
0.341176 0.031373 0.474510
0.564706 0.039216 0.501961
0.623529 0.035294 0.533333
0.000000 0.215686 0.364706
0.000000 0.231373 0.450980
0.450980 0.105882 0.678431
0.725490 0.000000 0.698039
0.788235 0.101961 0.729412
0.031373 0.392157 0.521569
0.019608 0.474510 0.627451
0.521569 0.580392 0.839216
0.878431 0.603922 0.858824
0.933333 0.658824 0.874510
0.039216 0.541176 0.627451
0.050980 0.670588 0.745098
0.501961 0.882353 0.909804
0.949020 0.949020 0.929412
1.000000 0.960784 0.933333
0.000000 0.639216 0.717647
0.000000 0.772549 0.835294
0.556863 0.921569 0.937255
0.945098 0.984314 0.956863
1.000000 0.992157 0.964706
0.000000 0.172549 0.321569
0.000000 0.176471 0.400000
0.384314 0.000000 0.588235
0.619608 0.066667 0.603922
0.678431 0.070588 0.639216
0.000000 0.247059 0.419608
0.000000 0.270588 0.505882
0.462745 0.188235 0.756863
0.752941 0.145098 0.784314
0.811765 0.207843 0.807843
0.000000 0.415686 0.560784
0.039216 0.490196 0.662745
0.509804 0.603922 0.898039
0.874510 0.623529 0.925490
0.933333 0.674510 0.937255
0.000000 0.556863 0.658824
0.035294 0.686275 0.780392
0.466667 0.890196 0.964706
0.941177 0.956863 0.988235
0.996078 0.968628 0.992157
0.000000 0.650980 0.741176
0.000000 0.776471 0.858824
0.521569 0.925490 0.972549
0.933333 0.992157 0.996078
1.000000 1.000000 1.000000
