All_In_One/addons/Enrich_Colormaster/colormanagement/luts/film_response/Kodak2383_ConstLmap.cube
TITLE "Generate by Resolve"
LUT_3D_SIZE 33
0.000000 0.000000 0.000000
0.003922 0.000000 0.003922
0.011765 0.000000 0.003922
0.019608 0.003922 0.007843
0.027451 0.007843 0.007843
0.035294 0.015686 0.007843
0.043137 0.019608 0.011765
0.054902 0.023529 0.011765
0.066667 0.027451 0.011765
0.086275 0.035294 0.003922
0.101961 0.039216 0.000000
0.129412 0.047059 0.000000
0.156863 0.054902 0.003922
0.192157 0.062745 0.000000
0.231373 0.074510 0.000000
0.266667 0.082353 0.007843
0.305882 0.094118 0.015686
0.345098 0.101961 0.007843
0.384314 0.105882 0.000000
0.411765 0.113725 0.011765
0.439216 0.121569 0.023529
0.466667 0.121569 0.011765
0.494118 0.125490 0.000000
0.509804 0.129412 0.000000
0.525490 0.133333 0.000000
0.537255 0.133333 0.007843
0.545098 0.137255 0.015686
0.552941 0.137255 0.019608
0.560784 0.137255 0.019608
0.568627 0.141176 0.023529
0.576471 0.141176 0.023529
0.580392 0.141176 0.019608
0.584314 0.145098 0.019608
0.003922 0.007843 0.007843
0.007843 0.007843 0.007843
0.011765 0.007843 0.007843
0.019608 0.007843 0.007843
0.027451 0.015686 0.011765
0.035294 0.015686 0.011765
0.047059 0.023529 0.011765
0.058824 0.027451 0.011765
0.070588 0.031373 0.011765
0.090196 0.035294 0.011765
0.105882 0.043137 0.007843
0.137255 0.050980 0.003922
0.164706 0.058824 0.003922
0.200000 0.066667 0.003922
0.235294 0.078431 0.003922
0.278431 0.086275 0.000000
0.317647 0.098039 0.011765
0.356863 0.105882 0.007843
0.396078 0.109804 0.000000
0.427451 0.117647 0.007843
0.454902 0.125490 0.019608
0.478431 0.125490 0.011765
0.505882 0.129412 0.000000
0.517647 0.129412 0.000000
0.537255 0.133333 0.000000
0.545098 0.137255 0.000000
0.556863 0.137255 0.007843
0.564706 0.141176 0.007843
0.572549 0.141176 0.011765
0.576471 0.145098 0.011765
0.584314 0.145098 0.011765
0.588235 0.145098 0.011765
0.592157 0.149020 0.011765
0.007843 0.019608 0.019608
0.011765 0.019608 0.015686
0.015686 0.019608 0.011765
0.023529 0.019608 0.015686
0.027451 0.019608 0.015686
0.039216 0.023529 0.015686
0.047059 0.027451 0.015686
0.058824 0.031373 0.015686
0.074510 0.035294 0.015686
0.094118 0.039216 0.015686
0.113725 0.047059 0.011765
0.141176 0.054902 0.007843
0.172549 0.058824 0.007843
0.207843 0.070588 0.007843
0.243137 0.082353 0.007843
0.286275 0.090196 0.007843
0.329412 0.101961 0.003922
0.368627 0.109804 0.003922
0.411765 0.113725 0.000000
0.439216 0.121569 0.007843
0.470588 0.129412 0.019608
0.494118 0.133333 0.007843
0.517647 0.133333 0.000000
0.533333 0.133333 0.000000
0.549020 0.137255 0.000000
0.556863 0.141176 0.000000
0.568627 0.141176 0.000000
0.576471 0.145098 0.000000
0.584314 0.145098 0.000000
0.588235 0.145098 0.000000
0.596078 0.149020 0.000000
0.600000 0.149020 0.000000
0.603922 0.152941 0.000000
0.007843 0.023529 0.019608
0.011765 0.023529 0.019608
0.015686 0.023529 0.015686
0.023529 0.027451 0.015686
0.031373 0.027451 0.015686
0.039216 0.027451 0.019608
0.050980 0.031373 0.019608
0.062745 0.035294 0.019608
0.078431 0.043137 0.019608
0.098039 0.047059 0.019608
0.117647 0.050980 0.015686
0.149020 0.058824 0.015686
0.176471 0.066667 0.011765
0.215686 0.078431 0.011765
0.254902 0.086275 0.011765
0.298039 0.098039 0.019608
0.337255 0.109804 0.015686
0.380392 0.113725 0.007843
0.423529 0.121569 0.007843
0.454902 0.129412 0.003922
0.486275 0.137255 0.015686
0.505882 0.141176 0.015686
0.529412 0.141176 0.007843
0.545098 0.145098 0.011765
0.560784 0.145098 0.011765
0.568627 0.149020 0.011765
0.580392 0.149020 0.011765
0.588235 0.152941 0.011765
0.596078 0.152941 0.011765
0.600000 0.156863 0.011765
0.603922 0.156863 0.011765
0.611765 0.156863 0.011765
0.615686 0.160784 0.011765
0.007843 0.031373 0.023529
0.011765 0.031373 0.023529
0.015686 0.031373 0.019608
0.023529 0.031373 0.019608
0.031373 0.035294 0.019608
0.043137 0.035294 0.023529
0.050980 0.039216 0.023529
0.066667 0.043137 0.023529
0.078431 0.047059 0.023529
0.101961 0.054902 0.019608
0.121569 0.058824 0.019608
0.152941 0.066667 0.019608
0.184314 0.074510 0.019608
0.223529 0.086275 0.019608
0.262745 0.094118 0.015686
0.305882 0.105882 0.023529
0.349020 0.113725 0.027451
0.392157 0.121569 0.019608
0.435294 0.129412 0.015686
0.466667 0.137255 0.011765
0.498039 0.141176 0.011765
0.521569 0.145098 0.015686
0.545098 0.149020 0.015686
0.556863 0.152941 0.019608
0.572549 0.156863 0.023529
0.580392 0.156863 0.027451
0.592157 0.160784 0.027451
0.600000 0.160784 0.027451
0.603922 0.164706 0.027451
0.611765 0.164706 0.027451
0.615686 0.164706 0.027451
0.619608 0.168627 0.027451
0.627451 0.168627 0.023529
0.007843 0.035294 0.027451
0.011765 0.039216 0.027451
0.015686 0.039216 0.023529
0.023529 0.043137 0.023529
0.031373 0.043137 0.023529
0.043137 0.047059 0.027451
0.054902 0.047059 0.027451
0.070588 0.050980 0.027451
0.082353 0.054902 0.027451
0.105882 0.062745 0.023529
0.129412 0.066667 0.023529
0.164706 0.074510 0.019608
0.196078 0.086275 0.019608
0.235294 0.094118 0.019608
0.274510 0.101961 0.015686
0.317647 0.113725 0.023529
0.360784 0.125490 0.027451
0.403922 0.133333 0.019608
0.447059 0.137255 0.011765
0.478431 0.145098 0.023529
0.513726 0.152941 0.019608
0.537255 0.156863 0.015686
0.556863 0.160784 0.019608
0.572549 0.160784 0.023529
0.584314 0.164706 0.027451
0.596078 0.168627 0.031373
0.603922 0.172549 0.031373
0.611765 0.172549 0.031373
0.619608 0.172549 0.031373
0.623529 0.176471 0.031373
0.627451 0.176471 0.031373
0.631373 0.180392 0.027451
0.639216 0.180392 0.023529
0.003922 0.047059 0.031373
0.007843 0.047059 0.031373
0.011765 0.047059 0.027451
0.023529 0.050980 0.027451
0.031373 0.050980 0.031373
0.043137 0.054902 0.031373
0.054902 0.058824 0.031373
0.070588 0.062745 0.031373
0.086275 0.066667 0.031373
0.109804 0.070588 0.027451
0.133333 0.078431 0.027451
0.168627 0.086275 0.023529
0.203922 0.094118 0.019608
0.247059 0.105882 0.019608
0.286275 0.113725 0.015686
0.333333 0.121569 0.019608
0.376471 0.133333 0.027451
0.419608 0.141176 0.019608
0.458824 0.149020 0.011765
0.494118 0.156863 0.019608
0.525490 0.164706 0.031373
0.549020 0.164706 0.027451
0.572549 0.168627 0.023529
0.588235 0.172549 0.027451
0.600000 0.176471 0.031373
0.611765 0.180392 0.035294
0.619608 0.180392 0.035294
0.627451 0.184314 0.035294
0.631373 0.184314 0.035294
0.639216 0.188235 0.035294
0.643137 0.188235 0.031373
0.647059 0.192157 0.027451
0.650980 0.192157 0.023529
0.007843 0.054902 0.039216
0.011765 0.054902 0.035294
0.015686 0.058824 0.035294
0.015686 0.062745 0.035294
0.023529 0.062745 0.035294
0.043137 0.066667 0.035294
0.054902 0.070588 0.035294
0.074510 0.074510 0.035294
0.090196 0.078431 0.035294
0.113725 0.086275 0.031373
0.141176 0.090196 0.027451
0.176471 0.098039 0.023529
0.211765 0.105882 0.019608
0.258824 0.117647 0.023529
0.298039 0.129412 0.019608
0.345098 0.137255 0.015686
0.388235 0.145098 0.019608
0.431373 0.152941 0.027451
0.474510 0.160784 0.019608
0.509804 0.168627 0.019608
0.541176 0.176471 0.031373
0.564706 0.180392 0.015686
0.588235 0.180392 0.011765
0.600000 0.184314 0.019608
0.615686 0.188235 0.027451
0.623529 0.192157 0.031373
0.631373 0.192157 0.031373
0.639216 0.196078 0.023529
0.647059 0.200000 0.023529
0.654902 0.200000 0.019608
0.658824 0.203922 0.015686
0.662745 0.207843 0.031373
0.666667 0.211765 0.027451
0.015686 0.066667 0.043137
0.015686 0.066667 0.043137
0.015686 0.066667 0.043137
0.019608 0.070588 0.043137
0.019608 0.074510 0.039216
0.035294 0.078431 0.039216
0.054902 0.082353 0.039216
0.074510 0.086275 0.039216
0.098039 0.094118 0.039216
0.117647 0.098039 0.035294
0.145098 0.105882 0.031373
0.180392 0.113725 0.027451
0.219608 0.121569 0.019608
0.262745 0.133333 0.023529
0.309804 0.141176 0.023529
0.356863 0.149020 0.019608
0.403922 0.160784 0.015686
0.447059 0.168627 0.019608
0.490196 0.176471 0.023529
0.521569 0.184314 0.027451
0.556863 0.192157 0.031373
0.580392 0.192157 0.015686
0.607843 0.196078 0.000000
0.619608 0.196078 0.011765
0.631373 0.200000 0.019608
0.639216 0.203922 0.023529
0.647059 0.203922 0.027451
0.654902 0.207843 0.019608
0.662745 0.211765 0.011765
0.670588 0.215686 0.007843
0.678431 0.215686 0.000000
0.678431 0.223529 0.019608
0.682353 0.227451 0.035294
0.015686 0.082353 0.050980
0.015686 0.082353 0.050980
0.015686 0.082353 0.050980
0.007843 0.086275 0.050980
0.011765 0.090196 0.047059
0.031373 0.094118 0.043137
0.050980 0.098039 0.043137
0.074510 0.105882 0.043137
0.094118 0.109804 0.043137
0.125490 0.117647 0.039216
0.149020 0.125490 0.035294
0.188235 0.133333 0.027451
0.227451 0.141176 0.023529
0.278431 0.152941 0.015686
0.321569 0.160784 0.015686
0.372549 0.172549 0.023529
0.419608 0.180392 0.019608
0.466667 0.192157 0.023529
0.505882 0.200000 0.031373
0.541176 0.203922 0.027451
0.576471 0.211765 0.027451
0.600000 0.215686 0.015686
0.623529 0.215686 0.000000
0.639216 0.215686 0.000000
0.650980 0.219608 0.011765
0.658824 0.223529 0.011765
0.666667 0.223529 0.015686
0.670588 0.231373 0.031373
0.678431 0.231373 0.023529
0.686275 0.235294 0.003922
0.694118 0.239216 0.000000
0.698039 0.247059 0.015686
0.698039 0.250980 0.035294
0.015686 0.094118 0.058824
0.015686 0.094118 0.058824
0.011765 0.098039 0.058824
0.007843 0.101961 0.058824
0.000000 0.105882 0.054902
0.019608 0.109804 0.050980
0.043137 0.117647 0.047059
0.070588 0.125490 0.047059
0.094118 0.129412 0.047059
0.125490 0.137255 0.039216
0.152941 0.145098 0.035294
0.196078 0.152941 0.031373
0.235294 0.160784 0.023529
0.286275 0.172549 0.015686
0.337255 0.180392 0.007843
0.388235 0.192157 0.015686
0.439216 0.203922 0.019608
0.482353 0.211765 0.027451
0.525490 0.223529 0.035294
0.560784 0.227451 0.031373
0.592157 0.231373 0.027451
0.615686 0.235294 0.011765
0.639216 0.239216 0.000000
0.654902 0.239216 0.000000
0.670588 0.239216 0.000000
0.678431 0.243137 0.000000
0.686275 0.243137 0.000000
0.690196 0.250980 0.019608
0.694118 0.254902 0.039216
0.701961 0.258824 0.019608
0.709804 0.262745 0.000000
0.713726 0.270588 0.015686
0.717647 0.274510 0.035294
0.015686 0.113725 0.070588
0.019608 0.113725 0.070588
0.019608 0.117647 0.070588
0.015686 0.121569 0.066667
0.007843 0.125490 0.066667
0.003922 0.133333 0.062745
0.027451 0.141176 0.054902
0.062745 0.149020 0.047059
0.086275 0.156863 0.047059
0.129412 0.164706 0.031373
0.156863 0.172549 0.027451
0.203922 0.184314 0.027451
0.247059 0.192157 0.023529
0.298039 0.203922 0.019608
0.349020 0.211765 0.015686
0.403922 0.223529 0.011765
0.454902 0.235294 0.015686
0.505882 0.243137 0.027451
0.549020 0.254902 0.035294
0.580392 0.258824 0.027451
0.615686 0.262745 0.023529
0.639216 0.266667 0.023529
0.658824 0.270588 0.007843
0.674510 0.270588 0.000000
0.690196 0.274510 0.000000
0.698039 0.274510 0.003922
0.705882 0.278431 0.003922
0.713726 0.282353 0.000000
0.717647 0.286275 0.019608
0.721569 0.294118 0.027451
0.729412 0.298039 0.007843
0.733333 0.305882 0.007843
0.737255 0.309804 0.027451
0.019608 0.133333 0.078431
0.023529 0.133333 0.078431
0.027451 0.137255 0.078431
0.023529 0.141176 0.078431
0.019608 0.145098 0.078431
0.015686 0.152941 0.070588
0.011765 0.160784 0.066667
0.043137 0.172549 0.054902
0.078431 0.180392 0.043137
0.121569 0.192157 0.031373
0.160784 0.200000 0.019608
0.207843 0.211765 0.019608
0.258824 0.223529 0.019608
0.309804 0.231373 0.019608
0.364706 0.243137 0.019608
0.419608 0.254902 0.015686
0.474510 0.266667 0.011765
0.521569 0.278431 0.023529
0.568627 0.286275 0.031373
0.603922 0.290196 0.027451
0.635294 0.294118 0.019608
0.658824 0.298039 0.019608
0.682353 0.301961 0.019608
0.698039 0.305882 0.007843
0.709804 0.305882 0.000000
0.717647 0.309804 0.003922
0.725490 0.313726 0.007843
0.733333 0.313726 0.003922
0.737255 0.317647 0.000000
0.741176 0.325490 0.011765
0.749020 0.329412 0.019608
0.752941 0.337255 0.019608
0.760784 0.345098 0.015686
0.023529 0.156863 0.094118
0.023529 0.160784 0.094118
0.027451 0.160784 0.094118
0.015686 0.164706 0.090196
0.011765 0.172549 0.090196
0.011765 0.180392 0.086275
0.003922 0.188235 0.078431
0.023529 0.203922 0.058824
0.058824 0.211765 0.050980
0.117647 0.227451 0.035294
0.160784 0.235294 0.019608
0.215686 0.250980 0.015686
0.266667 0.258824 0.015686
0.325490 0.274510 0.015686
0.380392 0.286275 0.015686
0.435294 0.298039 0.019608
0.494118 0.309804 0.015686
0.545098 0.317647 0.023529
0.588235 0.329412 0.031373
0.627451 0.333333 0.015686
0.658824 0.337255 0.011765
0.682353 0.341176 0.023529
0.705882 0.345098 0.023529
0.717647 0.349020 0.027451
0.733333 0.349020 0.019608
0.741176 0.352941 0.000000
0.749020 0.356863 0.003922
0.752941 0.360784 0.023529
0.760784 0.364706 0.019608
0.768628 0.368627 0.000000
0.772549 0.376471 0.011765
0.776471 0.384314 0.027451
0.780392 0.392157 0.023529
0.023529 0.184314 0.105882
0.027451 0.184314 0.105882
0.027451 0.188235 0.105882
0.015686 0.192157 0.101961
0.000000 0.196078 0.101961
0.000000 0.207843 0.098039
0.000000 0.215686 0.094118
0.019608 0.231373 0.074510
0.039216 0.247059 0.054902
0.098039 0.258824 0.039216
0.160784 0.270588 0.023529
0.215686 0.286275 0.015686
0.274510 0.298039 0.011765
0.333333 0.313726 0.011765
0.396078 0.329412 0.011765
0.450980 0.341176 0.015686
0.509804 0.352941 0.019608
0.560784 0.360784 0.027451
0.611765 0.368627 0.031373
0.647059 0.376471 0.015686
0.682353 0.380392 0.000000
0.705882 0.384314 0.015686
0.725490 0.388235 0.031373
0.741176 0.392157 0.035294
0.752941 0.396078 0.039216
0.764706 0.396078 0.019608
0.772549 0.400000 0.000000
0.776471 0.403922 0.023529
0.780392 0.407843 0.039216
0.788235 0.415686 0.019608
0.796079 0.423529 0.000000
0.800000 0.431373 0.015686
0.803922 0.439216 0.031373
0.027451 0.211765 0.117647
0.023529 0.215686 0.117647
0.023529 0.215686 0.117647
0.015686 0.223529 0.117647
0.000000 0.231373 0.113725
0.000000 0.239216 0.113725
0.000000 0.250980 0.105882
0.000000 0.266667 0.090196
0.019608 0.282353 0.070588
0.094118 0.298039 0.039216
0.156863 0.313726 0.023529
0.223529 0.329412 0.019608
0.282353 0.345098 0.011765
0.349020 0.360784 0.003922
0.407843 0.376471 0.003922
0.470588 0.388235 0.003922
0.529412 0.400000 0.011765
0.584314 0.411765 0.019608
0.631373 0.423529 0.023529
0.670588 0.431373 0.015686
0.705882 0.435294 0.000000
0.729412 0.439216 0.003922
0.752941 0.443137 0.023529
0.764706 0.443137 0.015686
0.776471 0.447059 0.023529
0.784314 0.450980 0.035294
0.796079 0.450980 0.015686
0.803922 0.458824 0.000000
0.807843 0.462745 0.023529
0.811765 0.470588 0.027451
0.819608 0.474510 0.003922
0.823529 0.482353 0.000000
0.827451 0.490196 0.015686
0.031373 0.243137 0.129412
0.027451 0.243137 0.129412
0.019608 0.247059 0.129412
0.011765 0.254902 0.129412
0.000000 0.262745 0.129412
0.000000 0.274510 0.125490
0.000000 0.286275 0.121569
0.000000 0.301961 0.105882
0.000000 0.317647 0.086275
0.074510 0.337255 0.054902
0.152941 0.352941 0.023529
0.219608 0.372549 0.019608
0.290196 0.388235 0.015686
0.356863 0.407843 0.007843
0.423529 0.423529 0.000000
0.486275 0.439216 0.000000
0.549020 0.450980 0.000000
0.600000 0.462745 0.007843
0.650980 0.474510 0.015686
0.690196 0.482353 0.007843
0.729412 0.490196 0.000000
0.752941 0.494118 0.003922
0.776471 0.494118 0.011765
0.788235 0.498039 0.007843
0.803922 0.498039 0.000000
0.811765 0.501961 0.015686
0.819608 0.505882 0.027451
0.823529 0.509804 0.011765
0.831373 0.517647 0.000000
0.835294 0.521569 0.007843
0.843137 0.529412 0.011765
0.847059 0.537255 0.003922
0.850980 0.545098 0.000000
0.015686 0.270588 0.141176
0.027451 0.274510 0.141176
0.023529 0.278431 0.141176
0.011765 0.286275 0.141176
0.000000 0.294118 0.141176
0.015686 0.305882 0.141176
0.015686 0.321569 0.137255
0.000000 0.337255 0.121569
0.000000 0.352941 0.105882
0.066667 0.376471 0.054902
0.145098 0.396078 0.023529
0.227451 0.415686 0.015686
0.294118 0.435294 0.015686
0.368627 0.454902 0.011765
0.435294 0.470588 0.003922
0.501961 0.490196 0.000000
0.564706 0.501961 0.000000
0.619608 0.517647 0.000000
0.674510 0.529412 0.007843
0.713726 0.537255 0.007843
0.749020 0.545098 0.000000
0.776471 0.549020 0.015686
0.796079 0.549020 0.023529
0.811765 0.552941 0.023529
0.823529 0.552941 0.015686
0.835294 0.556863 0.000000
0.843137 0.560784 0.015686
0.847059 0.564706 0.015686
0.854902 0.568627 0.000000
0.858824 0.576471 0.019608
0.862745 0.584314 0.023529
0.866667 0.588235 0.007843
0.874510 0.596078 0.000000
0.000000 0.301961 0.152941
0.011765 0.305882 0.152941
0.027451 0.309804 0.156863
0.015686 0.317647 0.152941
0.000000 0.325490 0.152941
0.015686 0.341176 0.152941
0.035294 0.352941 0.149020
0.019608 0.372549 0.137255
0.000000 0.392157 0.121569
0.066667 0.411765 0.074510
0.141176 0.435294 0.023529
0.219608 0.454902 0.015686
0.301961 0.478431 0.011765
0.376471 0.498039 0.011765
0.450980 0.517647 0.011765
0.517647 0.533333 0.007843
0.580392 0.552941 0.000000
0.639216 0.564706 0.000000
0.694118 0.580392 0.000000
0.733333 0.588235 0.000000
0.772549 0.596078 0.000000
0.796079 0.600000 0.015686
0.819608 0.603922 0.031373
0.831373 0.603922 0.035294
0.847059 0.607843 0.035294
0.854902 0.611765 0.015686
0.862745 0.611765 0.000000
0.870588 0.619608 0.000000
0.874510 0.623529 0.000000
0.878431 0.627451 0.019608
0.886275 0.635294 0.039216
0.890196 0.639216 0.019608
0.894118 0.647059 0.000000
0.015686 0.325490 0.164706
0.015686 0.329412 0.164706
0.027451 0.333333 0.164706
0.015686 0.345098 0.164706
0.000000 0.352941 0.160784
0.000000 0.368627 0.160784
0.015686 0.380392 0.156863
0.035294 0.400000 0.145098
0.019608 0.419608 0.129412
0.062745 0.447059 0.074510
0.137255 0.470588 0.023529
0.223529 0.490196 0.007843
0.305882 0.509804 0.007843
0.384314 0.533333 0.019608
0.458824 0.556863 0.019608
0.529412 0.576471 0.003922
0.596078 0.592157 0.000000
0.654902 0.607843 0.003922
0.709804 0.623529 0.003922
0.749020 0.631373 0.000000
0.788235 0.639216 0.000000
0.811765 0.643137 0.011765
0.835294 0.647059 0.027451
0.850980 0.650980 0.035294
0.866667 0.650980 0.035294
0.874510 0.654902 0.035294
0.882353 0.658824 0.019608
0.886275 0.662745 0.023529
0.894118 0.666667 0.023529
0.898039 0.670588 0.023529
0.901961 0.674510 0.043137
0.905882 0.678431 0.039216
0.909804 0.686275 0.019608
0.035294 0.345098 0.172549
0.031373 0.352941 0.172549
0.027451 0.360784 0.176471
0.015686 0.368627 0.172549
0.000000 0.380392 0.172549
0.000000 0.396078 0.168627
0.000000 0.407843 0.164706
0.015686 0.431373 0.152941
0.035294 0.450980 0.141176
0.082353 0.478431 0.082353
0.133333 0.501961 0.023529
0.219608 0.525490 0.007843
0.309804 0.545098 0.000000
0.388235 0.568627 0.011765
0.470588 0.592157 0.027451
0.541176 0.615686 0.015686
0.611765 0.635294 0.000000
0.666667 0.650980 0.003922
0.721569 0.662745 0.007843
0.764706 0.674510 0.003922
0.803922 0.682353 0.000000
0.827451 0.686275 0.011765
0.854902 0.694118 0.023529
0.870588 0.694118 0.031373
0.882353 0.698039 0.035294
0.890196 0.701961 0.039216
0.901961 0.701961 0.039216
0.905882 0.705882 0.043137
0.909804 0.709804 0.050980
0.913726 0.713726 0.050980
0.917647 0.717647 0.047059
0.921569 0.721569 0.043137
0.925490 0.725490 0.039216
0.019608 0.364706 0.180392
0.019608 0.368627 0.180392
0.015686 0.376471 0.180392
0.015686 0.388235 0.180392
0.000000 0.396078 0.180392
0.000000 0.411765 0.176471
0.000000 0.427451 0.172549
0.023529 0.450980 0.160784
0.047059 0.470588 0.145098
0.090196 0.498039 0.086275
0.137255 0.525490 0.023529
0.227451 0.549020 0.027451
0.317647 0.572549 0.015686
0.396078 0.596078 0.000000
0.478431 0.619608 0.011765
0.549020 0.643137 0.015686
0.619608 0.662745 0.000000
0.678431 0.678431 0.000000
0.733333 0.694118 0.003922
0.776471 0.701961 0.027451
0.815686 0.713726 0.019608
0.839216 0.717647 0.031373
0.866667 0.721569 0.043137
0.882353 0.725490 0.047059
0.894118 0.729412 0.050980
0.901961 0.733333 0.050980
0.913726 0.733333 0.054902
0.917647 0.737255 0.058824
0.921569 0.737255 0.062745
0.925490 0.741176 0.062745
0.929412 0.745098 0.062745
0.929412 0.749020 0.062745
0.933333 0.752941 0.058824
0.000000 0.380392 0.184314
0.000000 0.388235 0.184314
0.000000 0.396078 0.184314
0.000000 0.403922 0.184314
0.000000 0.415686 0.184314
0.000000 0.431373 0.184314
0.000000 0.447059 0.180392
0.023529 0.466667 0.164706
0.054902 0.490196 0.152941
0.098039 0.517647 0.090196
0.141176 0.549020 0.027451
0.231373 0.572549 0.027451
0.325490 0.596078 0.035294
0.407843 0.619608 0.019608
0.486275 0.647059 0.000000
0.556863 0.666667 0.000000
0.627451 0.690196 0.000000
0.686275 0.705882 0.000000
0.745098 0.721569 0.000000
0.784314 0.729412 0.019608
0.827451 0.741176 0.043137
0.850980 0.749020 0.050980
0.878431 0.752941 0.062745
0.894118 0.756863 0.062745
0.905882 0.760784 0.066667
0.917647 0.760784 0.066667
0.925490 0.764706 0.066667
0.929412 0.768628 0.070588
0.933333 0.768628 0.074510
0.937255 0.772549 0.074510
0.941177 0.772549 0.078431
0.941177 0.776471 0.078431
0.945098 0.780392 0.078431
0.000000 0.392157 0.192157
0.000000 0.400000 0.192157
0.000000 0.403922 0.192157
0.019608 0.415686 0.192157
0.019608 0.427451 0.192157
0.023529 0.443137 0.188235
0.023529 0.458824 0.184314
0.000000 0.482353 0.160784
0.027451 0.505882 0.149020
0.105882 0.533333 0.082353
0.152941 0.564706 0.015686
0.239216 0.588235 0.011765
0.333333 0.611765 0.015686
0.411765 0.635294 0.031373
0.494118 0.662745 0.015686
0.564706 0.682353 0.003922
0.635294 0.705882 0.003922
0.694118 0.721569 0.011765
0.752941 0.737255 0.015686
0.792157 0.749020 0.027451
0.831373 0.760784 0.047059
0.858824 0.764706 0.058824
0.886275 0.772549 0.066667
0.898039 0.776471 0.070588
0.913726 0.780392 0.070588
0.921569 0.780392 0.070588
0.933333 0.784314 0.074510
0.937255 0.784314 0.074510
0.941177 0.788235 0.078431
0.945098 0.788235 0.082353
0.945098 0.792157 0.082353
0.949020 0.792157 0.082353
0.952941 0.796079 0.082353
0.000000 0.400000 0.196078
0.000000 0.407843 0.196078
0.000000 0.415686 0.196078
0.019608 0.427451 0.196078
0.043137 0.439216 0.196078
0.047059 0.454902 0.192157
0.050980 0.470588 0.188235
0.027451 0.494118 0.168627
0.000000 0.521569 0.145098
0.074510 0.549020 0.074510
0.156863 0.576471 0.003922
0.247059 0.603922 0.000000
0.341176 0.627451 0.000000
0.419608 0.650980 0.015686
0.498039 0.678431 0.031373
0.568627 0.698039 0.019608
0.639216 0.721569 0.003922
0.701961 0.737255 0.015686
0.756863 0.752941 0.027451
0.800000 0.764706 0.043137
0.839216 0.776471 0.054902
0.866667 0.784314 0.062745
0.894118 0.788235 0.074510
0.905882 0.792157 0.074510
0.921569 0.796079 0.078431
0.929412 0.800000 0.078431
0.937255 0.800000 0.078431
0.945098 0.803922 0.082353
0.949020 0.803922 0.086275
0.949020 0.807843 0.086275
0.952941 0.807843 0.090196
0.956863 0.807843 0.090196
0.956863 0.811765 0.090196
0.011765 0.403922 0.196078
0.019608 0.415686 0.200000
0.019608 0.423529 0.200000
0.000000 0.439216 0.196078
0.019608 0.450980 0.196078
0.023529 0.466667 0.192157
0.023529 0.482353 0.188235
0.035294 0.505882 0.168627
0.011765 0.529412 0.145098
0.082353 0.556863 0.074510
0.164706 0.584314 0.003922
0.254902 0.607843 0.015686
0.345098 0.635294 0.019608
0.423529 0.658824 0.000000
0.501961 0.686275 0.015686
0.572549 0.705882 0.015686
0.643137 0.729412 0.003922
0.705882 0.745098 0.019608
0.760784 0.764706 0.031373
0.803922 0.776471 0.043137
0.843137 0.788235 0.058824
0.870588 0.792157 0.066667
0.894118 0.800000 0.074510
0.909804 0.803922 0.078431
0.925490 0.807843 0.082353
0.933333 0.807843 0.082353
0.945098 0.811765 0.082353
0.949020 0.811765 0.086275
0.952941 0.815686 0.090196
0.956863 0.815686 0.090196
0.956863 0.819608 0.090196
0.960784 0.819608 0.094118
0.960784 0.819608 0.094118
0.023529 0.411765 0.200000
0.031373 0.419608 0.200000
0.043137 0.431373 0.200000
0.023529 0.447059 0.200000
0.000000 0.462745 0.196078
0.000000 0.478431 0.192157
0.000000 0.494118 0.184314
0.007843 0.517647 0.168627
0.019608 0.541176 0.145098
0.094118 0.568627 0.078431
0.172549 0.596078 0.003922
0.262745 0.619608 0.015686
0.352941 0.643137 0.035294
0.431373 0.666667 0.019608
0.509804 0.694118 0.000000
0.580392 0.713726 0.000000
0.647059 0.737255 0.000000
0.709804 0.756863 0.015686
0.764706 0.772549 0.035294
0.807843 0.784314 0.047059
0.847059 0.796079 0.058824
0.874510 0.803922 0.066667
0.898039 0.807843 0.074510
0.913726 0.811765 0.082353
0.929412 0.815686 0.086275
0.937255 0.819608 0.086275
0.949020 0.819608 0.086275
0.952941 0.823529 0.090196
0.956863 0.823529 0.090196
