All_In_One/addons/Enrich_Colormaster/colormanagement/luts/film_response/Kodak2393_ConstLclip.cube
TITLE "Generate by Resolve"
LUT_3D_SIZE 9
0.003922 0.007843 0.003922
0.023529 0.015686 0.007843
0.058824 0.027451 0.003922
0.129412 0.050980 0.011765
0.262745 0.078431 0.000000
0.388235 0.098039 0.015686
0.466667 0.101961 0.000000
0.498039 0.109804 0.015686
0.521569 0.113725 0.011765
0.007843 0.027451 0.023529
0.027451 0.031373 0.019608
0.074510 0.043137 0.000000
0.152941 0.066667 0.011765
0.305882 0.101961 0.011765
0.450980 0.125490 0.000000
0.517647 0.129412 0.000000
0.552941 0.137255 0.000000
0.576471 0.145098 0.000000
0.011765 0.054902 0.035294
0.019608 0.062745 0.035294
0.078431 0.082353 0.000000
0.192157 0.109804 0.000000
0.372549 0.156863 0.019608
0.509804 0.180392 0.027451
0.588235 0.188235 0.000000
0.619608 0.200000 0.000000
0.639216 0.215686 0.000000
0.000000 0.105882 0.058824
0.000000 0.121569 0.058824
0.062745 0.160784 0.000000
0.239216 0.207843 0.003922
0.443137 0.258824 0.023529
0.596078 0.286275 0.011765
0.670588 0.305882 0.027451
0.698039 0.317647 0.027451
0.725490 0.341176 0.000000
0.000000 0.196078 0.101961
0.000000 0.223529 0.105882
0.039216 0.294118 0.062745
0.290196 0.368627 0.000000
0.529412 0.439216 0.000000
0.698039 0.478431 0.000000
0.772549 0.486275 0.000000
0.800000 0.501961 0.019608
0.823529 0.533333 0.023529
0.027451 0.282353 0.141176
0.031373 0.329412 0.145098
0.000000 0.415686 0.094118
0.333333 0.521569 0.000000
0.596078 0.607843 0.000000
0.784314 0.658824 0.000000
0.862745 0.678431 0.000000
0.890196 0.690196 0.000000
0.905882 0.705882 0.047059
0.000000 0.329412 0.160784
0.031373 0.388235 0.164706
0.047059 0.482353 0.105882
0.360784 0.592157 0.000000
0.635294 0.690196 0.011765
0.823529 0.749020 0.047059
0.905882 0.768628 0.070588
0.933333 0.776471 0.078431
0.941177 0.784314 0.070588
0.000000 0.356863 0.172549
0.000000 0.435294 0.164706
0.070588 0.529412 0.035294
0.388235 0.623529 0.000000
0.650980 0.717647 0.000000
0.835294 0.772549 0.054902
0.921569 0.800000 0.078431
0.949020 0.807843 0.086275
0.956863 0.811765 0.090196
0.000000 0.443137 0.200000
0.062745 0.537255 0.145098
0.239216 0.603922 0.000000
0.470588 0.674510 0.023529
0.686275 0.741176 0.000000
0.850980 0.788235 0.062745
0.933333 0.811765 0.090196
0.964706 0.823529 0.090196
0.972549 0.827451 0.094118
0.003922 0.015686 0.023529
0.027451 0.019608 0.027451
0.066667 0.027451 0.027451
0.145098 0.043137 0.000000
0.274510 0.066667 0.000000
0.407843 0.090196 0.019608
0.486275 0.090196 0.000000
0.521569 0.094118 0.000000
0.537255 0.098039 0.011765
0.003922 0.031373 0.031373
0.023529 0.039216 0.035294
0.074510 0.047059 0.031373
0.176471 0.058824 0.000000
0.329412 0.094118 0.000000
0.470588 0.117647 0.007843
0.541176 0.121569 0.000000
0.572549 0.125490 0.000000
0.596078 0.133333 0.000000
0.011765 0.062745 0.047059
0.015686 0.070588 0.047059
0.078431 0.086275 0.035294
0.207843 0.109804 0.000000
0.388235 0.152941 0.023529
0.537255 0.172549 0.000000
0.607843 0.184314 0.000000
0.643137 0.192157 0.000000
0.662745 0.211765 0.000000
0.007843 0.113725 0.070588
0.000000 0.129412 0.074510
0.039216 0.172549 0.011765
0.254902 0.219608 0.000000
0.462745 0.266667 0.000000
0.623529 0.294118 0.000000
0.694118 0.305882 0.027451
0.721569 0.321569 0.023529
0.745098 0.349020 0.031373
0.000000 0.207843 0.117647
0.000000 0.239216 0.121569
0.023529 0.301961 0.094118
0.290196 0.384314 0.000000
0.545098 0.450980 0.015686
0.717647 0.490196 0.000000
0.796079 0.505882 0.000000
0.823529 0.517647 0.023529
0.843137 0.545098 0.023529
0.023529 0.298039 0.156863
0.000000 0.345098 0.160784
0.039216 0.427451 0.133333
0.329412 0.537255 0.000000
0.611765 0.627451 0.000000
0.800000 0.674510 0.023529
0.882353 0.690196 0.000000
0.909804 0.701961 0.023529
0.921569 0.717647 0.054902
0.027451 0.337255 0.180392
0.019608 0.400000 0.188235
0.000000 0.494118 0.137255
0.352941 0.603922 0.031373
0.643137 0.701961 0.000000
0.835294 0.760784 0.050980
0.921569 0.780392 0.074510
0.949020 0.788235 0.074510
0.956863 0.796079 0.078431
0.000000 0.364706 0.203922
0.039216 0.447059 0.207843
0.000000 0.541176 0.145098
0.372549 0.643137 0.027451
0.654902 0.733333 0.000000
0.847059 0.788235 0.058824
0.937255 0.811765 0.082353
0.964706 0.819608 0.090196
0.976471 0.823529 0.098039
0.011765 0.462745 0.278431
0.039216 0.556863 0.266667
0.000000 0.650980 0.141176
0.423529 0.725490 0.000000
0.698039 0.788235 0.000000
0.882353 0.827451 0.003922
0.976471 0.843137 0.003922
1.000000 0.850980 0.003922
1.000000 0.850980 0.207843
0.000000 0.031373 0.050980
0.000000 0.023529 0.070588
0.062745 0.027451 0.074510
0.152941 0.023529 0.070588
0.301961 0.000000 0.062745
0.439216 0.007843 0.070588
0.509804 0.035294 0.078431
0.549020 0.035294 0.086275
0.568627 0.015686 0.094118
0.011765 0.043137 0.062745
0.011765 0.043137 0.074510
0.070588 0.047059 0.082353
0.184314 0.054902 0.082353
0.368627 0.000000 0.062745
0.517647 0.000000 0.070588
0.584314 0.003922 0.074510
0.615686 0.003922 0.078431
0.639216 0.003922 0.090196
0.023529 0.070588 0.078431
0.023529 0.078431 0.082353
0.062745 0.094118 0.094118
0.215686 0.117647 0.098039
0.435294 0.121569 0.078431
0.607843 0.074510 0.000000
0.694118 0.003922 0.000000
0.725490 0.003922 0.000000
0.752941 0.082353 0.000000
0.007843 0.125490 0.109804
0.011765 0.141176 0.113725
0.000000 0.180392 0.117647
0.254902 0.231373 0.105882
0.509804 0.266667 0.070588
0.694118 0.270588 0.000000
0.776471 0.270588 0.000000
0.807843 0.282353 0.000000
0.831373 0.317647 0.000000
0.000000 0.227451 0.160784
0.000000 0.258824 0.168627
0.007843 0.317647 0.172549
0.270588 0.419608 0.082353
0.580392 0.478431 0.000000
0.776471 0.501961 0.000000
0.858824 0.509804 0.000000
0.886275 0.529412 0.000000
0.913726 0.556863 0.000000
0.000000 0.321569 0.207843
0.011765 0.364706 0.219608
0.000000 0.447059 0.219608
0.258824 0.584314 0.000000
0.623529 0.662745 0.000000
0.835294 0.701961 0.000000
0.921569 0.717647 0.000000
0.952941 0.725490 0.000000
0.972549 0.745098 0.000000
0.027451 0.364706 0.239216
0.000000 0.423529 0.254902
0.000000 0.513726 0.250980
0.243137 0.654902 0.000000
0.650980 0.749020 0.000000
0.870588 0.792157 0.000000
0.960784 0.811765 0.003922
0.992157 0.819608 0.003922
1.000000 0.827451 0.003922
0.000000 0.396078 0.282353
0.039216 0.478431 0.305882
0.062745 0.560784 0.305882
0.262745 0.698039 0.176471
0.650980 0.784314 0.090196
0.890196 0.835294 0.003922
0.996078 0.854902 0.003922
1.000000 0.854902 0.160784
1.000000 0.858824 0.227451
0.000000 0.501961 0.388235
0.031373 0.588235 0.411765
0.000000 0.666667 0.400000
0.356863 0.756863 0.360784
0.670588 0.823529 0.345098
0.882353 0.862745 0.325490
0.992157 0.882353 0.305882
1.000000 0.886275 0.356863
1.000000 0.890196 0.400000
0.000000 0.054902 0.098039
0.000000 0.054902 0.109804
0.050980 0.000000 0.160784
0.152941 0.000000 0.168627
0.309804 0.000000 0.180392
0.447059 0.027451 0.192157
0.525490 0.031373 0.203922
0.552941 0.015686 0.211765
0.580392 0.011765 0.219608
0.000000 0.070588 0.117647
0.007843 0.070588 0.125490
0.050980 0.035294 0.188235
0.184314 0.039216 0.207843
0.376471 0.000000 0.215686
0.521569 0.000000 0.219608
0.600000 0.000000 0.227451
0.631373 0.000000 0.235294
0.662745 0.000000 0.247059
0.000000 0.098039 0.145098
0.000000 0.105882 0.160784
0.000000 0.105882 0.223529
0.215686 0.125490 0.243137
0.443137 0.133333 0.254902
0.619608 0.090196 0.254902
0.705882 0.000000 0.250980
0.737255 0.000000 0.258824
0.760784 0.101961 0.278431
0.007843 0.160784 0.192157
0.000000 0.176471 0.207843
0.000000 0.207843 0.247059
0.239216 0.254902 0.286275
0.505882 0.286275 0.294118
0.701961 0.290196 0.290196
0.784314 0.278431 0.282353
0.819608 0.294118 0.298039
0.843137 0.337255 0.309804
0.000000 0.266667 0.254902
0.000000 0.298039 0.278431
0.000000 0.356863 0.309804
0.223529 0.454902 0.325490
0.572549 0.509804 0.317647
0.792157 0.537255 0.309804
0.886275 0.533333 0.301961
0.917647 0.552941 0.309804
0.937255 0.584314 0.321569
0.000000 0.360784 0.309804
0.000000 0.407843 0.337255
0.031373 0.486275 0.364706
0.133333 0.623529 0.341176
0.607843 0.705882 0.333333
0.858824 0.745098 0.309804
0.960784 0.756863 0.298039
0.992157 0.764706 0.301961
1.000000 0.784314 0.321569
0.000000 0.411765 0.349020
0.000000 0.470588 0.380392
0.000000 0.552941 0.411765
0.000000 0.698039 0.380392
0.615686 0.792157 0.368627
0.878431 0.843137 0.349020
0.988235 0.858824 0.329412
1.000000 0.862745 0.360784
1.000000 0.866667 0.400000
0.000000 0.447059 0.400000
0.000000 0.525490 0.443137
0.000000 0.603922 0.466667
0.003922 0.737255 0.454902
0.615686 0.827451 0.447059
0.870588 0.874510 0.431373
0.988235 0.894118 0.423529
1.000000 0.898039 0.454902
1.000000 0.898039 0.482353
0.000000 0.545098 0.498039
0.000000 0.627451 0.537255
0.023529 0.694118 0.556863
0.270588 0.788235 0.549020
0.643137 0.854902 0.552941
0.862745 0.898039 0.549020
0.976471 0.913726 0.541176
1.000000 0.921569 0.552941
1.000000 0.921569 0.588235
0.007843 0.086275 0.160784
0.000000 0.090196 0.172549
0.043137 0.000000 0.254902
0.156863 0.000000 0.286275
0.321569 0.031373 0.305882
0.458824 0.035294 0.321569
0.537255 0.000000 0.333333
0.568627 0.023529 0.341176
0.596078 0.027451 0.356863
0.000000 0.109804 0.192157
0.000000 0.113725 0.203922
0.043137 0.003922 0.325490
0.192157 0.000000 0.356863
0.388235 0.000000 0.372549
0.541176 0.000000 0.380392
0.607843 0.027451 0.384314
0.643137 0.000000 0.392157
0.674510 0.000000 0.415686
0.000000 0.145098 0.235294
0.000000 0.152941 0.254902
0.000000 0.156863 0.317647
0.211765 0.129412 0.415686
0.447059 0.133333 0.439216
0.627451 0.086275 0.447059
0.713726 0.000000 0.447059
0.745098 0.000000 0.454902
0.768628 0.113725 0.478431
0.000000 0.215686 0.298039
0.000000 0.227451 0.321569
0.000000 0.254902 0.380392
0.211765 0.278431 0.478431
0.505882 0.313726 0.501961
0.701961 0.309804 0.505882
0.792157 0.305882 0.505882
0.827451 0.321569 0.513726
0.847059 0.356863 0.533333
0.023529 0.321569 0.372549
0.000000 0.352941 0.403922
0.027451 0.407843 0.454902
0.101961 0.494118 0.537255
0.552941 0.545098 0.556863
0.784314 0.572549 0.560784
0.882353 0.572549 0.560784
0.917647 0.584314 0.564706
0.933333 0.619608 0.580392
0.000000 0.419608 0.435294
0.000000 0.462745 0.470588
0.000000 0.541176 0.521569
0.000000 0.662745 0.576471
0.580392 0.752941 0.592157
0.835294 0.788235 0.592157
0.949020 0.800000 0.592157
0.980392 0.807843 0.592157
0.996078 0.823529 0.603922
0.000000 0.466667 0.474510
0.000000 0.525490 0.517647
0.000000 0.603922 0.564706
0.000000 0.737255 0.615686
0.576471 0.835294 0.619608
0.854902 0.886275 0.627451
0.968628 0.898039 0.619608
1.000000 0.905882 0.623529
1.000000 0.909804 0.647059
0.000000 0.498039 0.513726
0.000000 0.576471 0.568627
0.000000 0.650980 0.615686
0.000000 0.772549 0.658824
0.576471 0.866667 0.670588
0.850980 0.913726 0.674510
0.968628 0.933333 0.670588
1.000000 0.937255 0.678431
1.000000 0.937255 0.705882
0.000000 0.588235 0.603922
0.000000 0.666667 0.654902
0.000000 0.729412 0.690196
0.137255 0.823529 0.721569
0.607843 0.886275 0.733333
0.847059 0.929412 0.737255
0.964706 0.949020 0.737255
1.000000 0.952941 0.737255
1.000000 0.952941 0.760784
0.000000 0.117647 0.223529
0.000000 0.121569 0.239216
0.000000 0.066667 0.333333
0.160784 0.000000 0.380392
0.329412 0.023529 0.403922
0.474510 0.027451 0.423529
0.552941 0.039216 0.435294
0.588235 0.047059 0.447059
0.611765 0.050980 0.462745
0.000000 0.145098 0.266667
0.000000 0.149020 0.278431
0.000000 0.145098 0.341176
0.192157 0.000000 0.470588
0.392157 0.000000 0.494118
0.549020 0.000000 0.498039
0.623529 0.031373 0.501961
0.654902 0.035294 0.517647
0.686275 0.000000 0.541176
0.000000 0.188235 0.313726
0.000000 0.192157 0.337255
0.000000 0.200000 0.392157
0.207843 0.121569 0.556863
0.454902 0.117647 0.588235
0.635294 0.062745 0.600000
0.721569 0.000000 0.603922
0.756863 0.000000 0.611765
0.780392 0.105882 0.631373
0.000000 0.258824 0.384314
0.000000 0.270588 0.411765
0.000000 0.298039 0.474510
0.180392 0.294118 0.631373
0.501961 0.321569 0.662745
0.705882 0.325490 0.674510
0.796079 0.317647 0.678431
0.831373 0.337255 0.686275
0.854902 0.376471 0.701961
0.000000 0.368627 0.470588
0.031373 0.396078 0.501961
0.000000 0.450980 0.568627
0.000000 0.517647 0.694118
0.537255 0.572549 0.733333
0.780392 0.596078 0.745098
0.878431 0.596078 0.745098
0.913726 0.611765 0.752941
0.933333 0.650980 0.764706
0.035294 0.466667 0.533333
0.000000 0.513726 0.576471
0.000000 0.584314 0.643137
0.000000 0.694118 0.733333
0.541176 0.780392 0.776471
0.823529 0.819608 0.788235
0.937255 0.827451 0.788235
0.972549 0.839216 0.792157
0.988235 0.854902 0.800000
0.000000 0.513726 0.572549
0.000000 0.572549 0.623529
0.000000 0.647059 0.682353
0.000000 0.764706 0.764706
0.537255 0.866667 0.807843
0.831373 0.913726 0.815686
0.956863 0.933333 0.815686
0.996078 0.937255 0.815686
1.000000 0.945098 0.827451
0.000000 0.541176 0.603922
0.000000 0.611765 0.662745
0.000000 0.686275 0.721569
0.000000 0.796079 0.800000
0.541176 0.894118 0.839216
0.831373 0.941177 0.847059
0.956863 0.960784 0.847059
1.000000 0.968628 0.850980
1.000000 0.968628 0.866667
0.000000 0.619608 0.678431
0.000000 0.694118 0.741176
0.000000 0.756863 0.788235
0.000000 0.843137 0.847059
0.584314 0.913726 0.870588
0.827451 0.952941 0.874510
0.952941 0.972549 0.878431
0.996078 0.980392 0.882353
1.000000 0.980392 0.898039
0.000000 0.137255 0.266667
0.000000 0.141176 0.282353
0.000000 0.043137 0.400000
0.164706 0.023529 0.443137
0.341176 0.031373 0.474510
0.486275 0.050980 0.494118
0.564706 0.039216 0.501961
0.600000 0.027451 0.513726
0.623529 0.035294 0.533333
0.000000 0.168627 0.309804
0.000000 0.176471 0.329412
0.000000 0.172549 0.388235
0.196078 0.000000 0.549020
0.400000 0.000000 0.576471
0.556863 0.003922 0.580392
0.635294 0.062745 0.588235
0.670588 0.043137 0.600000
0.698039 0.000000 0.623529
0.000000 0.215686 0.364706
0.000000 0.223529 0.388235
0.000000 0.231373 0.450980
0.203922 0.113725 0.643137
0.450980 0.105882 0.678431
0.643137 0.000000 0.698039
0.725490 0.000000 0.698039
0.764706 0.000000 0.709804
0.788235 0.101961 0.729412
0.000000 0.282353 0.435294
0.000000 0.301961 0.466667
0.000000 0.321569 0.529412
0.149020 0.305882 0.721569
0.494118 0.329412 0.760784
0.705882 0.333333 0.776471
0.800000 0.325490 0.780392
0.835294 0.341176 0.788235
0.854902 0.384314 0.803922
0.031373 0.392157 0.521569
0.000000 0.423529 0.560784
0.019608 0.474510 0.627451
0.000000 0.529412 0.776471
0.521569 0.580392 0.839216
0.772549 0.607843 0.854902
0.878431 0.603922 0.858824
0.913726 0.619608 0.862745
0.933333 0.658824 0.874510
0.011765 0.494118 0.592157
0.000000 0.541176 0.639216
0.000000 0.607843 0.705882
0.043137 0.705882 0.811765
0.517647 0.800000 0.890196
0.811765 0.835294 0.905882
0.929412 0.843137 0.905882
0.968628 0.850980 0.909804
0.980392 0.870588 0.913726
0.039216 0.541176 0.627451
0.027451 0.596078 0.678431
0.050980 0.670588 0.745098
0.000000 0.780392 0.843137
0.501961 0.882353 0.909804
0.819608 0.933333 0.925490
0.949020 0.949020 0.929412
0.988235 0.956863 0.933333
1.000000 0.960784 0.933333
0.000000 0.564706 0.650980
0.000000 0.635294 0.713726
0.000000 0.705882 0.776471
0.000000 0.811765 0.866667
0.509804 0.909804 0.925490
0.815686 0.956863 0.941177
0.949020 0.980392 0.945098
0.992157 0.984314 0.949020
1.000000 0.988235 0.952941
0.000000 0.639216 0.717647
0.023529 0.713726 0.784314
0.000000 0.772549 0.835294
0.000000 0.858824 0.909804
0.556863 0.921569 0.937255
0.815686 0.964706 0.952941
0.945098 0.984314 0.956863
0.992157 0.992157 0.956863
1.000000 0.992157 0.964706
0.000000 0.149020 0.290196
0.000000 0.152941 0.309804
0.000000 0.152941 0.352941
0.172549 0.031373 0.482353
0.349020 0.031373 0.513726
0.498039 0.050980 0.533333
0.580392 0.054902 0.545098
0.615686 0.050980 0.556863
0.635294 0.054902 0.572549
0.000000 0.184314 0.333333
0.000000 0.192157 0.356863
0.000000 0.196078 0.407843
0.200000 0.000000 0.592157
0.411765 0.000000 0.627451
0.572549 0.000000 0.635294
0.650980 0.050980 0.635294
0.686275 0.035294 0.647059
0.717647 0.003922 0.678431
0.000000 0.227451 0.388235
0.000000 0.235294 0.415686
0.000000 0.247059 0.478431
0.200000 0.121569 0.682353
0.454902 0.117647 0.721569
0.643137 0.050980 0.741176
0.737255 0.000000 0.749020
0.772549 0.000000 0.756863
0.792157 0.109804 0.772549
0.000000 0.298039 0.462745
0.000000 0.313726 0.490196
0.000000 0.337255 0.556863
0.137255 0.313726 0.760784
0.494118 0.337255 0.803922
0.705882 0.337255 0.823529
0.800000 0.329412 0.827451
0.839216 0.349020 0.835294
0.858824 0.392157 0.850980
0.000000 0.403922 0.545098
0.000000 0.435294 0.584314
0.000000 0.482353 0.658824
0.000000 0.541176 0.803922
0.517647 0.588235 0.882353
0.764706 0.607843 0.898039
0.874510 0.611765 0.905882
0.913726 0.623529 0.909804
0.929412 0.662745 0.921569
0.000000 0.505882 0.615686
0.000000 0.549020 0.662745
0.000000 0.615686 0.733333
0.000000 0.713726 0.847059
0.501961 0.800000 0.933333
0.803922 0.839216 0.952941
0.925490 0.847059 0.956863
0.964706 0.858824 0.960784
0.980392 0.874510 0.960784
0.000000 0.549020 0.647059
0.000000 0.607843 0.701961
0.000000 0.678431 0.772549
0.000000 0.784314 0.870588
0.482353 0.890196 0.952941
0.807843 0.937255 0.968628
0.941177 0.952941 0.976471
0.984314 0.960784 0.976471
1.000000 0.968628 0.980392
0.000000 0.576471 0.666667
0.000000 0.647059 0.733333
0.000000 0.717647 0.800000
0.000000 0.815686 0.890196
0.498039 0.913726 0.960784
0.807843 0.964706 0.976471
0.945098 0.984314 0.984314
0.988235 0.992157 0.984314
1.000000 0.996078 0.988235
0.031373 0.643137 0.733333
0.000000 0.717647 0.800000
0.015686 0.776471 0.850980
0.000000 0.858824 0.933333
0.541176 0.925490 0.964706
0.803922 0.968628 0.980392
0.941177 0.988235 0.988235
0.988235 0.996078 0.988235
1.000000 1.000000 0.992157
0.000000 0.172549 0.321569
0.000000 0.176471 0.345098
0.000000 0.176471 0.400000
0.188235 0.000000 0.556863
0.384314 0.000000 0.588235
0.541176 0.050980 0.600000
0.619608 0.066667 0.603922
0.654902 0.070588 0.619608
0.678431 0.070588 0.639216
0.000000 0.211765 0.368627
0.000000 0.219608 0.396078
0.000000 0.223529 0.443137
0.207843 0.000000 0.658824
0.435294 0.000000 0.698039
0.615686 0.000000 0.709804
0.694118 0.000000 0.705882
0.733333 0.000000 0.721569
0.760784 0.000000 0.745098
0.000000 0.247059 0.419608
0.000000 0.262745 0.443137
0.000000 0.270588 0.505882
0.188235 0.184314 0.717647
0.462745 0.188235 0.756863
0.658824 0.164706 0.776471
0.752941 0.145098 0.784314
0.792157 0.152941 0.792157
0.811765 0.207843 0.807843
0.000000 0.313726 0.478431
0.000000 0.333333 0.517647
0.000000 0.356863 0.584314
0.098039 0.345098 0.784314
0.490196 0.368627 0.827451
0.709804 0.376471 0.847059
0.811765 0.372549 0.854902
0.847059 0.380392 0.858824
0.870588 0.427451 0.874510
0.000000 0.415686 0.560784
0.000000 0.447059 0.600000
0.039216 0.490196 0.662745
0.000000 0.552941 0.823529
0.509804 0.603922 0.898039
0.764706 0.623529 0.917647
0.874510 0.623529 0.925490
0.913726 0.639216 0.929412
0.933333 0.674510 0.937255
0.035294 0.509804 0.623529
0.000000 0.556863 0.674510
0.000000 0.623529 0.745098
0.000000 0.713726 0.850980
0.482353 0.800000 0.945098
0.796079 0.839216 0.964706
0.921569 0.850980 0.972549
0.964706 0.858824 0.976471
0.976471 0.874510 0.976471
0.000000 0.556863 0.658824
0.047059 0.615686 0.713726
0.035294 0.686275 0.780392
0.000000 0.788235 0.878431
0.466667 0.890196 0.964706
0.803922 0.937255 0.984314
0.941177 0.956863 0.988235
0.984314 0.960784 0.992157
0.996078 0.968628 0.992157
0.019608 0.580392 0.678431
0.000000 0.650980 0.745098
0.050980 0.717647 0.803922
0.000000 0.815686 0.898039
0.482353 0.913726 0.968628
0.800000 0.964706 0.988235
0.937255 0.984314 0.996078
0.988235 0.992157 1.000000
1.000000 0.996078 1.000000
0.000000 0.650980 0.741176
0.023529 0.721569 0.807843
0.000000 0.776471 0.858824
0.000000 0.858824 0.941177
0.521569 0.925490 0.972549
0.800000 0.968628 0.988235
0.933333 0.992157 0.996078
0.984314 1.000000 1.000000
1.000000 1.000000 1.000000
