All_In_One/addons/Enrich_Colormaster/colormanagement/luts/film_response/Moonrise.cube
TITLE "Generate by Resolve"
LUT_3D_SIZE 9
0.0184634 0.0593118 0
0.147951 0.0369879 0
0.296925 0.00822461 0
0.485664 0 0
0.568963 0 0
0.643488 0 0
0.759396 0 0
0.84303 0 0
0.922316 0 0
0 0.136568 0
0.0870069 0.111131 0
0.27779 0.0638132 0
0.465171 0.024918 0
0.580179 0.00553903 0
0.642069 0.00456245 0
0.764126 0 0
0.855833 0 0
0.943099 0.00535592 0
0 0.217639 0
0.0356298 0.193393 0
0.246494 0.146944 0
0.463783 0.102785 0
0.604486 0.0909133 0
0.664591 0.102144 0
0.789258 0.10309 0
0.883925 0.114565 0
0.973587 0.129473 0
0 0.320958 0
0.0145876 0.311238 0
0.202106 0.285176 0
0.44921 0.236561 0
0.629587 0.214054 0
0.69894 0.228794 0.00457771
0.810391 0.242023 0
0.899168 0.26154 0
0.983917 0.281926 0.00936904
0.0167544 0.407813 0
0.119387 0.415457 0
0.256352 0.412802 0
0.463798 0.384405 0
0.648051 0.360281 0
0.761593 0.362951 0.0918135
0.856748 0.382559 0.0758068
0.931075 0.406195 0.0710155
1 0.428489 0.0702831
0.159625 0.512413 0
0.26511 0.520165 0
0.38909 0.521035 0
0.556542 0.50425 0
0.697765 0.495872 0.0775921
0.811566 0.500328 0.119631
0.897368 0.514641 0.126177
0.962371 0.533165 0.126146
1 0.550835 0.122835
0.231617 0.642985 0
0.327108 0.651606 0
0.439231 0.652506 0
0.597528 0.634379 0
0.73756 0.620233 0.0870985
0.847364 0.617304 0.132677
0.926223 0.62359 0.146685
0.984054 0.633982 0.150332
1 0.643824 0.148318
0.295079 0.756436 0
0.380209 0.7617 0
0.481132 0.758816 0
0.628748 0.736019 0.0292821
0.764645 0.714961 0.104463
0.870634 0.704219 0.144472
0.945144 0.703761 0.158587
0.998962 0.708873 0.163226
1 0.714672 0.162814
0.340703 0.847776 0
0.415976 0.847196 0
0.507424 0.839078 0
0.647181 0.812634 0.0448615
0.780316 0.787732 0.111055
0.884459 0.773602 0.14818
0.95697 0.770489 0.163165
1 0.773846 0.169635
1 0.778698 0.171756
0.0105287 0.0506905 0.128771
0.139986 0.0284886 0.107256
0.295018 0 0.0672618
0.495125 0 0.00015259
0.592325 0 0
0.63917 0 0
0.755398 0 0
0.839475 0 0
0.919448 0 0
0 0.126238 0.0571756
0.0687419 0.10309 0.0353399
0.237858 0.0692454 0.00283818
0.467033 0.0200809 0
0.602075 0 0
0.6374 0.0074464 0
0.761028 0 0
0.853956 0.00257877 0
0.941863 0.0106355 0
0 0.215991 0
0 0.201633 0
0.181415 0.166613 0
0.447501 0.111101 0
0.61973 0.0921798 0
0.661387 0.10956 0
0.785031 0.111254 0
0.881407 0.122972 0
0.972122 0.137881 0.0134432
0 0.340505 0
0 0.338323 0
0.125185 0.314733 0
0.421347 0.253849 0
0.627863 0.225742 0
0.715892 0.237263 0.00840772
0.798962 0.255528 0.0345006
0.890852 0.273976 0.04448
0.977783 0.293462 0.058381
0 0.44123 0
0.0274968 0.451957 0
0.174578 0.449226 0
0.416114 0.413077 0
0.630304 0.38117 0
0.756313 0.378714 0.094728
0.840635 0.397742 0.112978
0.916915 0.420111 0.109743
0.989868 0.441169 0.111009
0.0988174 0.538674 0
0.207095 0.546975 0
0.336217 0.547829 0
0.499336 0.537316 0
0.669459 0.518212 0.0711528
0.793576 0.514565 0.156603
0.881163 0.52755 0.164294
0.947356 0.544839 0.164416
1 0.561349 0.161135
0.177646 0.667109 0
0.276112 0.675227 0
0.394629 0.674342 0
0.566339 0.65182 0.0270848
0.716411 0.63386 0.119387
0.829587 0.628748 0.168002
0.909773 0.633371 0.183398
0.968429 0.642481 0.187472
1 0.651301 0.18558
0.246784 0.776867 0
0.334325 0.781155 0
0.440238 0.776425 0
0.598642 0.750118 0.0586099
0.743435 0.72549 0.135546
0.852766 0.712825 0.17818
0.928618 0.711086 0.193835
0.983429 0.715587 0.199435
1 0.720836 0.199619
0.295415 0.864256 0
0.372778 0.862943 0
0.468605 0.85362 0.00862135
0.617639 0.824506 0.0738537
0.759075 0.796643 0.141451
0.866789 0.780957 0.181109
0.940856 0.776928 0.197787
0.993957 0.77998 0.205493
1 0.784527 0.208469
0.000885023 0.0402533 0.290166
0.12108 0.019501 0.276768
0.278294 0 0.238727
0.495598 0 0.147829
0.613809 0 0.0623484
0.635233 0 0.0199741
0.751583 0 0.0018616
0.836118 0 0
0.916762 0 0
0 0.11191 0.231189
0.0569009 0.0905165 0.219669
0.226276 0.057084 0.186755
0.472175 0.00694286 0.107256
0.627207 0 0.0432441
0.638422 0.00634775 0.0259709
0.758816 0 0.0196536
0.852308 0.00479133 0.0255741
0.940703 0.0135348 0.0353246
0 0.201648 0.131884
0 0.189792 0.121462
0.139696 0.165255 0.0987869
0.431495 0.11339 0.0496834
0.641382 0.0862898 0.0252995
0.704631 0.101839 0.0431678
0.781033 0.116915 0.0599374
0.878355 0.128817 0.0731212
0.970123 0.144274 0.0897231
0 0.34461 0
0 0.350774 0
0.0211643 0.342641 0
0.377493 0.272236 0
0.621241 0.236011 0
0.741299 0.24065 0.0338903
0.784726 0.267659 0.0946212
0.879927 0.284535 0.108217
0.969528 0.303273 0.125017
0 0.468193 0
0 0.485832 0
0.0598917 0.48983 0
0.341665 0.446998 0
0.60267 0.402686 0
0.759793 0.392996 0.0811475
0.824552 0.412284 0.150469
0.896178 0.433799 0.1608
0.972183 0.453208 0.165286
0.0254215 0.564263 0
0.127794 0.576364 0
0.221698 0.593561 0
0.410559 0.578256 0
0.620203 0.548959 0.0373846
0.772091 0.533455 0.150256
0.857649 0.540475 0.214557
0.925551 0.556435 0.214908
0.988968 0.571679 0.211566
0.108644 0.691859 0
0.207034 0.700755 0
0.329335 0.699687 0
0.518029 0.672816 0.0663005
0.680522 0.65156 0.146059
0.804242 0.640253 0.214191
0.886397 0.643061 0.232166
0.946365 0.65098 0.237156
1 0.658763 0.235523
0.18349 0.798321 0
0.271412 0.802655 0
0.380636 0.796948 0.034165
0.552651 0.766995 0.0979934
0.712627 0.737102 0.175753
0.827649 0.721798 0.222736
0.905653 0.718685 0.241154
0.961746 0.722332 0.248173
1 0.726909 0.24921
0.23537 0.882063 0.00222782
0.313207 0.880705 0.0284123
0.412406 0.870756 0.059144
0.573297 0.839033 0.113481
0.72842 0.806836 0.181353
0.842054 0.788739 0.224903
0.918517 0.783688 0.244327
0.973053 0.786145 0.253712
1 0.790295 0.257969
0 0.0251621 0.492668
0.0867475 0.00820935 0.495415
0.226612 0 0.479088
0.453971 0 0.396445
0.609491 0 0.268345
0.626017 0 0.170275
0.742916 0 0.15256
0.828321 0 0.146609
0.910216 0 0.145754
0 0.088838 0.460334
0.0392157 0.07187 0.465537
0.185809 0.0435645 0.455192
0.440452 0 0.382116
0.633661 0 0.267414
0.681178 0 0.188022
0.75375 0 0.171374
0.847654 0 0.176867
0.936431 0.0090486 0.186145
0 0.173388 0.39237
0 0.164706 0.403632
0.121614 0.145708 0.406607
0.415106 0.095079 0.354391
0.661357 0.0649119 0.263661
0.757427 0.0788586 0.212116
0.776349 0.114275 0.205554
0.873823 0.126802 0.21799
0.96585 0.142931 0.233982
0 0.319814 0.242664
0 0.329351 0.253361
0 0.328695 0.253788
0.275883 0.285908 0.211872
0.606867 0.234562 0.166552
0.782223 0.227436 0.163897
0.843183 0.252811 0.192493
0.86482 0.289189 0.231113
0.956466 0.307012 0.250004
0 0.470298 0.0948959
0 0.495552 0.097322
0 0.513527 0.08336
0.168383 0.494957 0.0204929
0.54049 0.424994 0.0749676
0.753704 0.40235 0.127352
0.854185 0.413535 0.165652
0.904173 0.43711 0.215854
0.939925 0.463127 0.264881
0 0.58053 0.0704509
0 0.61265 0.0724956
0.0535439 0.640497 0.0548257
0.228763 0.637201 0.00395209
0.516396 0.590173 0.0428779
0.729656 0.558206 0.131075
0.846708 0.554482 0.196246
0.90985 0.566201 0.246372
0.949828 0.581811 0.297414
0.0154421 0.712077 0.0838483
0.105074 0.724514 0.10837
0.216938 0.728557 0.128481
0.346044 0.730694 0.0881514
0.55668 0.700648 0.104341
0.737743 0.67097 0.172671
0.847486 0.659464 0.23975
0.910811 0.660899 0.293568
0.961944 0.666239 0.324971
0.0906233 0.817594 0.127016
0.172137 0.824445 0.146746
0.274495 0.821927 0.161593
0.453056 0.793561 0.182727
0.611673 0.77116 0.182406
0.762188 0.744533 0.231769
0.86041 0.730999 0.290791
0.920653 0.729305 0.336004
0.975265 0.732876 0.338827
0.142596 0.899596 0.153704
0.215763 0.900313 0.166705
0.31075 0.893019 0.177661
0.479469 0.862165 0.197177
0.663874 0.822416 0.251347
0.793439 0.799008 0.299031
0.87628 0.79115 0.327428
0.933577 0.792447 0.340429
0.986954 0.795743 0.347234
0 0.0183719 0.578256
0.056199 0.00640879 0.601297
0.165301 0 0.613733
0.363912 0 0.578241
0.53727 0 0.463172
0.614313 0 0.351553
0.731853 0 0.334218
0.817975 0 0.328557
0.90135 0 0.328771
0 0.0722667 0.580179
0.0292973 0.0608682 0.605783
0.14342 0.0401007 0.624079
0.362951 0 0.600244
0.574273 0 0.497841
0.661204 0 0.383444
0.746334 0 0.353521
0.840742 0 0.358709
0.930297 0.00161746 0.36791
0 0.146868 0.559197
0 0.144106 0.592782
0.110735 0.133196 0.623758
0.357336 0.0924849 0.621149
0.619333 0.0577859 0.538613
0.754772 0.0655375 0.442481
0.786862 0.102586 0.390921
0.869123 0.120989 0.397055
0.961425 0.137728 0.412177
0 0.285389 0.471382
0 0.297368 0.508705
0.0107881 0.300038 0.544762
0.257679 0.265919 0.561517
0.592294 0.215488 0.506432
0.805432 0.2047 0.434791
0.892531 0.228046 0.407324
0.92781 0.264408 0.407828
0.950942 0.303304 0.418235
0 0.43978 0.358831
0 0.467552 0.386831
0 0.489219 0.408148
0.116121 0.483742 0.400519
0.44329 0.437552 0.351293
0.73991 0.398169 0.321233
0.885573 0.398718 0.326711
0.960281 0.417334 0.348837
1 0.441764 0.376349
0 0.575387 0.30634
0 0.605264 0.324315
0.000518807 0.639567 0.326772
0.101961 0.657176 0.282811
0.354528 0.631693 0.204944
0.669642 0.574426 0.237522
0.832547 0.559197 0.274372
0.923308 0.564553 0.296818
0.987625 0.573861 0.325689
0 0.711757 0.313558
0.0547494 0.726253 0.332723
0.137957 0.738888 0.340002
0.190249 0.765713 0.277089
0.384619 0.749294 0.197711
0.643732 0.700526 0.213153
0.80174 0.676036 0.258732
0.895354 0.669566 0.29366
0.965759 0.668711 0.324483
0.038117 0.818738 0.34342
0.111666 0.827451 0.35668
0.200397 0.829099 0.361837
0.289784 0.833371 0.314809
0.436301 0.822263 0.232013
0.649592 0.781201 0.232303
0.793362 0.756207 0.26865
0.883543 0.746334 0.304555
0.955261 0.74139 0.34023
0.0818952 0.901213 0.357778
0.147677 0.904234 0.364813
0.230625 0.901183 0.36553
0.376211 0.880186 0.351965
0.492622 0.873671 0.274968
0.667048 0.842527 0.265461
0.795056 0.821286 0.294102
0.879881 0.81236 0.32781
0.950652 0.807401 0.365148
0 0.0146487 0.626429
0.0404212 0.00933852 0.620874
0.122332 0 0.609674
0.275395 0 0.602213
0.443 0 0.545708
0.604212 0 0.515114
0.722622 0 0.49839
0.809781 0 0.49337
0.894209 0 0.494102
0 0.0656443 0.609552
0.0308385 0.0613565 0.605051
0.116579 0.0488899 0.631815
0.289509 0.0130007 0.657282
0.482765 0 0.601862
0.613703 0 0.523964
0.740627 0 0.518074
0.835569 0 0.523033
0.925689 0 0.531945
0 0.134203 0.585412
0.0182498 0.137362 0.621057
0.113176 0.134051 0.678355
0.307851 0.104768 0.72311
0.54403 0.0741283 0.688487
0.695521 0.0770733 0.601038
0.767483 0.102922 0.54728
0.865995 0.117128 0.558724
0.958541 0.134432 0.573022
0 0.2598 0.554467
0 0.275288 0.613352
0.0575265 0.282994 0.677134
0.253529 0.26006 0.740047
0.542382 0.218784 0.735027
0.770214 0.203708 0.667353
0.880003 0.222736 0.615549
0.932036 0.256718 0.592279
0.95816 0.296986 0.577188
0 0.412177 0.497704
0 0.439185 0.543359
0.00567636 0.462837 0.597543
0.148333 0.46099 0.650553
0.429465 0.422065 0.664591
0.730678 0.382513 0.618769
0.89839 0.38024 0.580896
0.987808 0.397253 0.569375
1 0.420249 0.56556
0 0.568566 0.484993
0.0059205 0.586877 0.505241
0.049134 0.615534 0.532738
0.116503 0.636851 0.548241
0.309529 0.622599 0.526482
0.597696 0.580499 0.477836
0.81178 0.55462 0.463523
0.930266 0.552895 0.465888
1 0.556909 0.474174
0 0.704692 0.498878
0.0484779 0.719295 0.515953
0.141985 0.727733 0.52636
0.170657 0.755825 0.510597
0.296117 0.756512 0.453605
0.531533 0.722591 0.382589
0.753552 0.681971 0.392355
0.8748 0.668086 0.412802
0.966705 0.662486 0.420432
0.0264286 0.811582 0.524575
0.0966049 0.820066 0.535531
0.180652 0.822354 0.539635
0.246281 0.831052 0.512062
0.328099 0.838117 0.434867
0.527581 0.808377 0.35967
0.723766 0.770916 0.361761
0.844297 0.753002 0.385458
0.940124 0.742092 0.406302
0.0624399 0.893584 0.534127
0.125032 0.896971 0.539681
0.203067 0.895323 0.539605
0.324361 0.88188 0.520546
0.37203 0.896635 0.43183
0.539269 0.87422 0.357809
0.709606 0.843626 0.354391
0.823682 0.827466 0.374853
0.919402 0.816526 0.399664
0 0.00688182 0.739712
0.0333867 0.00148013 0.733913
0.115373 0 0.722637
0.261219 0 0.694606
0.436652 0 0.659358
0.598444 0 0.629313
0.717754 0 0.613306
0.806317 0 0.609415
0.891691 0 0.610712
0 0.0581826 0.721935
0.0247501 0.0543526 0.717617
0.109575 0.0465248 0.709392
0.259648 0.0234989 0.686534
0.441932 0 0.659648
0.611826 0 0.639826
0.739208 0 0.634058
0.834791 0 0.63917
0.925322 0 0.647929
0 0.129427 0.698619
0.0227817 0.134936 0.702739
0.118715 0.138155 0.704479
0.281682 0.122576 0.718975
0.487953 0.0979934 0.723278
0.63801 0.0997024 0.661555
0.768246 0.103426 0.662242
0.866987 0.118181 0.673289
0.959686 0.135958 0.687053
0 0.256611 0.653605
0.0062562 0.269902 0.665599
0.100145 0.279606 0.69659
0.260304 0.265278 0.791836
0.509285 0.232624 0.824277
0.727184 0.218296 0.781537
0.845289 0.234745 0.732341
0.906645 0.266407 0.703502
0.949569 0.301747 0.683665
0 0.412421 0.609979
0 0.430365 0.627634
0.070634 0.448997 0.671092
0.187228 0.451484 0.761196
0.429038 0.42034 0.812467
0.704662 0.384878 0.794034
0.880491 0.380118 0.754955
0.979492 0.394644 0.731456
1 0.415473 0.712657
0 0.569375 0.595041
0.00936904 0.587564 0.614145
0.110094 0.600107 0.627665
0.15877 0.622339 0.683894
0.326589 0.609918 0.711315
0.588937 0.570474 0.701518
0.806668 0.544366 0.670527
0.935027 0.540734 0.651514
1 0.543389 0.638575
0 0.702861 0.614435
0.0522469 0.717083 0.630228
0.144961 0.725185 0.639872
0.203464 0.740856 0.650385
0.302052 0.743404 0.64126
0.501488 0.715892 0.602411
0.708034 0.68397 0.564828
0.856947 0.663874 0.560159
0.964889 0.654551 0.552499
0.0281834 0.80763 0.641138
0.0969863 0.815625 0.650523
0.179568 0.817517 0.653605
0.265873 0.817624 0.642466
0.317754 0.828733 0.606958
0.475547 0.809613 0.54725
0.659052 0.780606 0.500542
0.813397 0.754452 0.503792
0.927001 0.738994 0.516762
0.0598306 0.888182 0.648692
0.121416 0.891478 0.653361
0.198138 0.88986 0.652949
0.325109 0.874128 0.637659
0.347524 0.892683 0.584497
0.474144 0.882078 0.512673
0.638407 0.857557 0.467216
0.779095 0.83537 0.468605
0.895506 0.819409 0.486366
0 0.00273136 0.816419
0.0298161 0 0.810422
0.111864 0 0.799146
0.257939 0 0.771374
0.433845 0 0.736645
0.596201 0 0.707179
0.716167 0 0.691768
0.806149 0 0.689082
0.892576 0 0.691203
0 0.0543526 0.798138
0.0222934 0.0510719 0.794141
0.108003 0.0440986 0.786496
0.259251 0.0222629 0.764599
0.442527 0 0.738674
0.61326 0 0.719661
0.741131 0 0.714229
0.837324 0 0.719676
0.928267 0 0.728542
0 0.128725 0.77644
0.0246433 0.135378 0.781216
0.121218 0.139315 0.78323
0.280644 0.128435 0.771008
0.468406 0.112551 0.753414
0.641672 0.103197 0.74139
0.772274 0.107698 0.742245
0.871153 0.122942 0.753109
0.963836 0.141054 0.766491
0 0.258656 0.732174
0.0109255 0.272557 0.744213
0.112993 0.282872 0.752712
0.271473 0.275044 0.795926
0.4925 0.248676 0.853819
0.696986 0.236149 0.831403
0.816052 0.251881 0.790433
0.88127 0.282109 0.7626
0.953552 0.306355 0.760235
0 0.416129 0.688121
0.000671397 0.434287 0.705333
0.104967 0.448173 0.718349
0.221118 0.450874 0.806775
0.435111 0.425269 0.882048
0.688304 0.393973 0.884199
0.861479 0.388571 0.853803
0.964111 0.401312 0.829664
1 0.419959 0.805844
0 0.573449 0.671504
0.015671 0.59118 0.689479
0.116045 0.603677 0.702327
0.199268 0.615442 0.753689
0.348165 0.604959 0.811048
0.588388 0.569131 0.823178
0.795605 0.544137 0.802808
0.927749 0.538445 0.779995
1 0.539208 0.757702
0 0.705653 0.687892
0.0567941 0.719219 0.702419
0.148867 0.726986 0.711192
0.238972 0.732189 0.723705
0.321096 0.735119 0.74667
0.505913 0.708217 0.737331
0.701732 0.676982 0.716609
0.851041 0.657969 0.694652
0.967437 0.646876 0.676188
0.032105 0.80763 0.714748
0.100084 0.815045 0.723323
0.181964 0.81648 0.725887
0.295872 0.807538 0.716747
0.331716 0.819532 0.713512
0.473426 0.802075 0.681605
0.639002 0.776974 0.646647
0.78468 0.756024 0.62237
0.917311 0.7364 0.62034
0.0617838 0.886076 0.723064
0.122896 0.889235 0.727184
0.199039 0.887495 0.726314
0.325109 0.871748 0.711147
0.354421 0.885405 0.685374
0.462089 0.87808 0.63682
0.605081 0.859815 0.592584
0.741039 0.84181 0.567514
0.878691 0.821042 0.572869
0 0 0.886656
0.0268864 0 0.880568
0.108949 0 0.869245
0.25536 0 0.84181
0.431785 0 0.80766
0.594919 0 0.778958
0.715877 0 0.764431
0.806836 0 0.762524
0.894087 0 0.765255
0 0.0512856 0.868101
0.0205539 0.0485389 0.864408
0.107118 0.0423743 0.857282
0.26006 0.0222629 0.836744
0.444297 0 0.811749
0.615534 0 0.793256
0.743816 0 0.788113
0.840482 0 0.79379
0.931853 0.00390631 0.802838
0 0.128817 0.848066
0.0274357 0.136721 0.853559
0.124636 0.14139 0.855833
0.284581 0.13135 0.844038
0.472587 0.116182 0.826764
0.645869 0.107332 0.814832
0.776913 0.112718 0.815961
0.875929 0.12845 0.826673
0.96849 0.146777 0.839628
0 0.261524 0.804623
0.0164492 0.276051 0.816739
0.118959 0.287007 0.825284
0.281315 0.283497 0.819928
0.479683 0.2663 0.858473
0.669169 0.256397 0.856062
0.785702 0.271809 0.825101
0.868421 0.294423 0.817807
0.957916 0.311467 0.830625
0 0.4206 0.760189
0.00791943 0.438956 0.777005
0.112215 0.453117 0.789685
0.255222 0.452918 0.826963
0.443198 0.432273 0.923888
0.674464 0.405142 0.945052
0.840848 0.399969 0.92549
0.944015 0.411536 0.90457
1 0.428565 0.880262
0 0.578012 0.741756
0.022858 0.595605 0.759014
0.122515 0.607782 0.770962
0.24152 0.610407 0.799252
0.371084 0.601892 0.881727
0.590005 0.570031 0.913054
0.783475 0.547066 0.904418
0.914122 0.5402 0.885252
1 0.539345 0.860792
0 0.708797 0.754971
0.0619669 0.721996 0.768643
0.153017 0.729152 0.776318
0.27837 0.72398 0.776562
0.345205 0.727672 0.828214
0.515373 0.7019 0.843305
0.69781 0.672602 0.836225
0.841749 0.653895 0.819486
0.962661 0.641764 0.796078
0.0350958 0.808576 0.778271
0.102296 0.815503 0.785977
0.183474 0.81651 0.787793
0.314382 0.802411 0.774807
0.352361 0.810941 0.795636
0.481544 0.794156 0.790646
0.638056 0.769635 0.774151
0.777874 0.749325 0.758511
0.911223 0.731426 0.73814
0.0635843 0.884947 0.787015
0.124453 0.887953 0.790906
0.200381 0.886046 0.789944
0.326116 0.870024 0.775097
0.371923 0.876829 0.769192
0.466346 0.870878 0.746044
0.598062 0.854459 0.717815
0.721782 0.839963 0.695811
0.855726 0.822568 0.676127
