All_In_One/addons/Enrich_Colormaster/colormanagement/luts/film_response/Moonrise.cube
TITLE "Generate by Resolve"
LUT_3D_SIZE 5
0.0184634 0.0593118 0
0.296925 0.00822461 0
0.568963 0 0
0.759396 0 0
0.922316 0 0
0 0.217639 0
0.246494 0.146944 0
0.604486 0.0909133 0
0.789258 0.10309 0
0.973587 0.129473 0
0.0167544 0.407813 0
0.256352 0.412802 0
0.648051 0.360281 0
0.856748 0.382559 0.0758068
1 0.428489 0.0702831
0.231617 0.642985 0
0.439231 0.652506 0
0.73756 0.620233 0.0870985
0.926223 0.62359 0.146685
1 0.643824 0.148318
0.340703 0.847776 0
0.507424 0.839078 0
0.780316 0.787732 0.111055
0.95697 0.770489 0.163165
1 0.778698 0.171756
0.000885023 0.0402533 0.290166
0.278294 0 0.238727
0.613809 0 0.0623484
0.751583 0 0.0018616
0.916762 0 0
0 0.201648 0.131884
0.139696 0.165255 0.0987869
0.641382 0.0862898 0.0252995
0.781033 0.116915 0.0599374
0.970123 0.144274 0.0897231
0 0.468193 0
0.0598917 0.48983 0
0.60267 0.402686 0
0.824552 0.412284 0.150469
0.972183 0.453208 0.165286
0.108644 0.691859 0
0.329335 0.699687 0
0.680522 0.65156 0.146059
0.886397 0.643061 0.232166
1 0.658763 0.235523
0.23537 0.882063 0.00222782
0.412406 0.870756 0.059144
0.72842 0.806836 0.181353
0.918517 0.783688 0.244327
1 0.790295 0.257969
0 0.0183719 0.578256
0.165301 0 0.613733
0.53727 0 0.463172
0.731853 0 0.334218
0.90135 0 0.328771
0 0.146868 0.559197
0.110735 0.133196 0.623758
0.619333 0.0577859 0.538613
0.786862 0.102586 0.390921
0.961425 0.137728 0.412177
0 0.43978 0.358831
0 0.489219 0.408148
0.44329 0.437552 0.351293
0.885573 0.398718 0.326711
1 0.441764 0.376349
0 0.711757 0.313558
0.137957 0.738888 0.340002
0.384619 0.749294 0.197711
0.80174 0.676036 0.258732
0.965759 0.668711 0.324483
0.0818952 0.901213 0.357778
0.230625 0.901183 0.36553
0.492622 0.873671 0.274968
0.795056 0.821286 0.294102
0.950652 0.807401 0.365148
0 0.00688182 0.739712
0.115373 0 0.722637
0.436652 0 0.659358
0.717754 0 0.613306
0.891691 0 0.610712
0 0.129427 0.698619
0.118715 0.138155 0.704479
0.487953 0.0979934 0.723278
0.768246 0.103426 0.662242
0.959686 0.135958 0.687053
0 0.412421 0.609979
0.070634 0.448997 0.671092
0.429038 0.42034 0.812467
0.880491 0.380118 0.754955
1 0.415473 0.712657
0 0.702861 0.614435
0.144961 0.725185 0.639872
0.302052 0.743404 0.64126
0.708034 0.68397 0.564828
0.964889 0.654551 0.552499
0.0598306 0.888182 0.648692
0.198138 0.88986 0.652949
0.347524 0.892683 0.584497
0.638407 0.857557 0.467216
0.895506 0.819409 0.486366
0 0 0.886656
0.108949 0 0.869245
0.431785 0 0.80766
0.715877 0 0.764431
0.894087 0 0.765255
0 0.128817 0.848066
0.124636 0.14139 0.855833
0.472587 0.116182 0.826764
0.776913 0.112718 0.815961
0.96849 0.146777 0.839628
0 0.4206 0.760189
0.112215 0.453117 0.789685
0.443198 0.432273 0.923888
0.840848 0.399969 0.92549
1 0.428565 0.880262
0 0.708797 0.754971
0.153017 0.729152 0.776318
0.345205 0.727672 0.828214
0.69781 0.672602 0.836225
0.962661 0.641764 0.796078
0.0635843 0.884947 0.787015
0.200381 0.886046 0.789944
0.371923 0.876829 0.769192
0.598062 0.854459 0.717815
0.855726 0.822568 0.676127
