All_In_One/addons/Enrich_Colormaster/colormanagement/luts/film_response/Moonrise.cube
TITLE "Generate by Resolve"
LUT_3D_SIZE 33
0.0184634 0.0593118 0
0.0547494 0.05243 0
0.0876173 0.0467689 0
0.11809 0.0418708 0
0.147951 0.0369879 0
0.178851 0.0317235 0
0.21236 0.0256199 0
0.251011 0.0179141 0
0.296925 0.00822461 0
0.347402 0 0
0.397253 0 0
0.443931 0 0
0.485664 0 0
0.520394 0 0
0.54641 0 0
0.562768 0 0
0.568963 0 0
0.565484 0 0
0.567895 0 0
0.606851 0 0
0.643488 0 0
0.677256 0 0
0.70779 0 0
0.734951 0 0
0.759396 0 0
0.781994 0 0
0.80322 0 0
0.823407 0 0
0.84303 0 0
0.86244 0 0
0.881956 0 0
0.901991 0 0
0.922316 0 0
0 0.0807202 0
0.0339208 0.074052 0
0.0673075 0.0681773 0
0.0981003 0.0627756 0
0.128527 0.057435 0
0.160632 0.0516213 0
0.199496 0.0438697 0
0.245396 0.0322881 0
0.285817 0.0243381 0
0.335561 0.0135653 0
0.386465 0.00224308 0
0.434745 0 0
0.478386 0 0
0.515267 0 0
0.543572 0 0
0.562188 0 0
0.570779 0 0
0.569726 0 0
0.564477 0 0
0.603571 0 0
0.640146 0 0
0.673991 0 0
0.704707 0 0
0.732128 0 0
0.756848 0 0
0.779644 0 0
0.801068 0 0
0.821668 0 0
0.841794 0 0
0.861631 0 0
0.881559 0 0
0.902083 0 0
0.923095 0 0
0 0.100633 0
0.0155947 0.0939651 0
0.0489509 0.0878157 0
0.0804761 0.0821241 0
0.11223 0.0763256 0
0.147005 0.0696269 0
0.191165 0.0599985 0
0.241245 0.0466316 0
0.282399 0.0369268 0
0.328298 0.0277714 0
0.378439 0.0168917 0
0.427482 0.00604257 0
0.472602 0 0
0.511208 0 0
0.541527 0 0
0.562325 0 0
0.573129 0 0
0.574273 0 0
0.566903 0 0
0.602106 0 0
0.638895 0 0
0.672892 0 0
0.703761 0 0
0.731579 0 0
0.756725 0 0
0.779934 0 0
0.801724 0 0
0.82269 0 0
0.843442 0 0
0.86424 0 0
0.884932 0 0
0.905943 0 0
0.927352 0 0
0 0.118914 0
0 0.112306 0
0.0332494 0.106096 0
0.0654765 0.100145 0
0.0988022 0.0938582 0
0.136446 0.0863813 0
0.183444 0.0755474 0
0.235859 0.0614481 0
0.280308 0.0497139 0
0.325444 0.0403601 0
0.37348 0.0306859 0
0.422385 0.0202335 0
0.46833 0.0103456 0
0.508385 0.0019379 0
0.540429 0 0
0.563256 0 0
0.576364 0 0
0.579721 0 0
0.574365 0 0
0.602472 0 0
0.639536 0 0
0.673991 0 0
0.705394 0 0
0.73341 0 0
0.758953 0 0
0.782849 0 0
0.805524 0 0
0.827268 0 0
0.848615 0 0
0.869688 0 0
0.890913 0 0
0.912581 0 0
0.934478 0 0
0 0.136568 0
0 0.130037 0
0.0189975 0.123842 0
0.0520943 0.117784 0
0.0870069 0.111131 0
0.126802 0.102831 0
0.175402 0.0914015 0
0.229389 0.076997 0
0.27779 0.0638132 0
0.324346 0.0531777 0
0.371008 0.0441291 0
0.41883 0.0344549 0
0.465171 0.024918 0
0.506508 0.0166171 0
0.54023 0.0102846 0
0.565042 0.00654612 0
0.580179 0.00553903 0
0.585885 0.00737011 0
0.582956 0.01178 0
0.604761 0.0100252 0
0.642069 0.00456245 0
0.677089 0.000442512 0
0.709102 0 0
0.737957 0 0
0.764126 0 0
0.788418 0 0
0.811704 0 0
0.834012 0 0
0.855833 0 0
0.877333 0 0
0.898802 0.00114443 0
0.920684 0.00306706 0
0.943099 0.00535592 0
0 0.154482 0
0 0.148028 0
0.00534066 0.141863 0
0.039292 0.135683 0
0.0755779 0.128725 0
0.117113 0.120043 0
0.166552 0.10837 0
0.221607 0.0938582 0
0.274037 0.0796521 0
0.322744 0.0676585 0
0.370321 0.0582284 0
0.417014 0.049485 0
0.463081 0.0405585 0
0.505379 0.0326696 0
0.540887 0.0266575 0
0.567727 0.0229343 0
0.585077 0.0218204 0
0.593133 0.0235599 0
0.592782 0.0281071 0
0.609186 0.0291905 0
0.647196 0.024918 0
0.68249 0.0214542 0
0.714794 0.0191348 0
0.74406 0.0180667 0
0.770825 0.0180209 0
0.795865 0.0188907 0
0.819287 0.0199893 0
0.841794 0.021561 0
0.863859 0.0235142 0
0.885679 0.0257115 0
0.907408 0.0280003 0
0.929656 0.0305638 0
0.95201 0.0330053 0
0 0.173342 0
0 0.167117 0
0 0.160967 0
0.0263371 0.15465 0
0.0637522 0.147509 0
0.106371 0.138705 0
0.156329 0.127275 0
0.212284 0.113054 0
0.268315 0.0979019 0
0.319997 0.0846723 0
0.369497 0.0742351 0
0.416785 0.0660105 0
0.462531 0.0582437 0
0.505226 0.0509499 0
0.542077 0.0452583 0
0.571206 0.0419928 0
0.591379 0.0413977 0
0.602289 0.0434119 0
0.604807 0.0480507 0
0.614954 0.0512245 0
0.653254 0.0478065 0
0.689021 0.0453498 0
0.721675 0.0438239 0
0.75111 0.0433051 0
0.778225 0.0439918 0
0.803296 0.0451667 0
0.827008 0.0468757 0
0.849714 0.0489204 0
0.871885 0.0512551 0
0.894072 0.0541085 0
0.916075 0.0569772 0
0.938369 0.0598459 0
0.960876 0.0627298 0
0 0.194095 0
0 0.18793 0
0 0.181918 0
0.0124971 0.175738 0
0.0507057 0.168658 0
0.0937667 0.15996 0
0.143648 0.149004 0
0.200107 0.135332 0
0.259709 0.119905 0
0.315297 0.105699 0
0.367132 0.0940414 0
0.416815 0.0854047 0
0.46331 0.078645 0
0.506508 0.072694 0
0.544549 0.0677958 0
0.575494 0.0647593 0
0.598154 0.0643168 0
0.61207 0.0665751 0
0.617533 0.0711528 0
0.621378 0.0764324 0
0.659525 0.0736248 0
0.695216 0.0717327 0
0.728115 0.0710307 0
0.757763 0.0712291 0
0.784726 0.0721447 0
0.809827 0.0737316 0
0.833677 0.0759289 0
0.856611 0.0785687 0
0.879194 0.081651 0
0.90132 0.0847334 0
0.923369 0.087953 0
0.945815 0.0912795 0
0.968521 0.0946975 0
0 0.217639 0
0 0.211658 0
0 0.205768 0
0 0.199863 0
0.0356298 0.193393 0
0.0786297 0.185321 0
0.127733 0.175021 0
0.184009 0.162142 0
0.246494 0.146944 0
0.306889 0.132448 0
0.362615 0.12018 0
0.414862 0.110185 0
0.463783 0.102785 0
0.507927 0.0975204 0
0.546883 0.0936294 0
0.579553 0.0912642 0
0.604486 0.0909133 0
0.620935 0.0927291 0
0.629389 0.0969406 0
0.630716 0.103273 0
0.664591 0.102144 0
0.700069 0.100984 0
0.732692 0.100786 0
0.762219 0.101518 0
0.789258 0.10309 0
0.81442 0.105226 0
0.838224 0.107836 0
0.861433 0.111177 0
0.883925 0.114565 0
0.906142 0.118151 0
0.928283 0.121813 0
0.950698 0.12549 0
0.973587 0.129473 0
0 0.242817 0
0 0.237385 0
0 0.231983 0
0 0.226658 0
0.0211337 0.220768 0
0.0637369 0.21387 0
0.112108 0.205127 0
0.167712 0.193668 0
0.231388 0.179049 0
0.295537 0.164294 0
0.354925 0.151202 0
0.410269 0.140261 0
0.462242 0.131548 0
0.509163 0.125429 0
0.549737 0.121904 0
0.583597 0.11989 0
0.610315 0.119585 0
0.629206 0.121248 0
0.640482 0.125017 0
0.644968 0.130922 0
0.669779 0.13283 0
0.704601 0.132403 0
0.736675 0.132753 0
0.765835 0.134035 0
0.79266 0.136141 0
0.817868 0.13904 0
0.841794 0.142412 0
0.864652 0.145922 0
0.887037 0.149691 0
0.909194 0.153689 0
0.931319 0.157839 0
0.953887 0.162173 0
0.976608 0.1664 0
0 0.268421 0
0 0.263859 0
0 0.259586 0
0 0.255329 0
0.0122225 0.250492 0
0.0534524 0.244617 0
0.100145 0.237156 0
0.154482 0.227481 0
0.21796 0.214099 0
0.283848 0.199344 0
0.345937 0.185763 0
0.404013 0.173877 0
0.458488 0.163958 0
0.508705 0.156695 0
0.552193 0.151888 0
0.588251 0.149599 0
0.61677 0.149432 0
0.637842 0.151217 0
0.65182 0.154879 0
0.65922 0.160555 0
0.676555 0.164294 0
0.710399 0.164782 0
0.741817 0.166003 0
0.770459 0.168002 0
0.796918 0.170794 0
0.821805 0.174243 0
0.845335 0.177981 0
0.86804 0.182055 0
0.890227 0.186282 0
0.912139 0.190661 0
0.93431 0.195468 0
0.956512 0.199969 0
0.978958 0.204471 0
0 0.294957 0
0 0.291203 0
0 0.287724 0
0 0.28452 0
0.00973526 0.28098 0
0.0494087 0.276432 0
0.0940566 0.270451 0
0.14583 0.26183 0
0.207584 0.249699 0
0.273625 0.235706 0
0.337224 0.222187 0
0.397147 0.209873 0
0.45388 0.199344 0
0.506188 0.190707 0
0.552895 0.184649 0
0.59234 0.181308 0
0.623636 0.180591 0
0.647334 0.182452 0
0.663615 0.186023 0
0.673579 0.191302 0
0.686275 0.196429 0
0.718669 0.197833 0
0.749004 0.199908 0
0.777081 0.202976 0
0.802823 0.206378 0
0.826978 0.210208 0
0.849989 0.214389 0
0.872236 0.218891 0
0.894133 0.223682 0
0.915923 0.228717 0
0.937453 0.233555 0
0.959258 0.238346 0
0.981308 0.243107 0
0 0.320958 0
0 0.318349 0
0 0.315923 0
0 0.313649 0
0.0145876 0.311238 0
0.0522469 0.307973 0
0.0941634 0.303181 0
0.143114 0.295933 0
0.202106 0.285176 0
0.266682 0.272267 0
0.330602 0.259632 0
0.391379 0.247654 0
0.44921 0.236561 0
0.50309 0.227131 0
0.551919 0.220005 0
0.594491 0.215503 0
0.629587 0.214054 0
0.656199 0.214908 0
0.675242 0.21799 0
0.687739 0.22298 0
0.69894 0.228794 0.00457771
0.729671 0.231296 0
0.758923 0.234485 0
0.785595 0.23798 0
0.810391 0.242023 0
0.833783 0.246479 0
0.856107 0.251209 0
0.877745 0.256214 0
0.899168 0.26154 0
0.92015 0.266682 0.000610361
0.941146 0.271839 0.00347906
0.962417 0.276921 0.00639353
0.983917 0.281926 0.00936904
0 0.345708 0
0 0.344076 0
0 0.342733 0
0 0.341665 0
0.0275273 0.34023 0
0.0626383 0.338003 0
0.101808 0.334554 0
0.147738 0.328923 0
0.203449 0.319829 0
0.265507 0.308522 0
0.327855 0.296681 0
0.38819 0.285313 0
0.44625 0.274647 0
0.501015 0.26508 0
0.55108 0.257298 0
0.595789 0.25214 0
0.633494 0.249287 0
0.663569 0.249073 0
0.685847 0.251362 0
0.701244 0.255695 0.0112306
0.714351 0.261555 0.0292058
0.743587 0.264973 0.0215305
0.771038 0.268772 0.0160525
0.796414 0.273014 0.0126955
0.820035 0.277684 0.011017
0.842496 0.282597 0.0108339
0.864179 0.288136 0.0116884
0.884962 0.293507 0.0129397
0.905379 0.298939 0.0146334
0.925612 0.304387 0.0166476
0.94583 0.309773 0.0188602
0.966384 0.315068 0.0211337
0.987381 0.320562 0.0237736
0 0.368566 0
0 0.367895 0
0 0.367819 0
0.0187991 0.367742 0
0.0492866 0.367437 0
0.0819104 0.366415 0
0.118105 0.364248 0
0.160784 0.36022 0
0.212863 0.353079 0
0.271351 0.343313 0
0.331075 0.332769 0
0.389731 0.322347 0
0.446784 0.312383 0
0.501488 0.303426 0
0.552102 0.29572 0
0.597574 0.289738 0
0.636957 0.286015 0
0.669474 0.284794 0
0.69485 0.28603 0.014847
0.71342 0.289815 0.038468
0.730648 0.294606 0.0537118
0.758679 0.298528 0.0457313
0.784909 0.302892 0.0395361
0.809125 0.307683 0.0353246
0.831678 0.312871 0.0327764
0.853254 0.318639 0.0317845
0.873671 0.324224 0.0314183
0.893446 0.3299 0.031754
0.912932 0.335592 0.0325628
0.932265 0.341299 0.0337682
0.951751 0.346883 0.0354314
0.971633 0.352667 0.0372168
0.991501 0.357916 0.0387427
0 0.389212 0
0 0.389929 0
0.0245518 0.390677 0
0.0518959 0.391623 0
0.0800336 0.392462 0
0.110109 0.392752 0
0.14345 0.392111 0
0.182635 0.389609 0
0.230426 0.384009 0
0.284764 0.376059 0
0.341131 0.367178 0
0.397253 0.358083 0
0.452461 0.349279 0
0.505669 0.340948 0
0.555642 0.333455 0
0.601267 0.327459 0
0.641413 0.323339 0
0.675349 0.321386 0.00981155
0.702953 0.322057 0.0390173
0.723888 0.324559 0.0660716
0.746639 0.328374 0.0753338
0.773907 0.332525 0.0683757
0.799268 0.337163 0.0624094
0.822721 0.342489 0.0581369
0.844388 0.348013 0.0551308
0.864759 0.353689 0.053193
0.884276 0.359533 0.0521553
0.903166 0.365438 0.0517739
0.921721 0.371283 0.0518044
0.940322 0.377356 0.0523995
0.95877 0.383093 0.0529793
0.977508 0.388678 0.0536355
0.996475 0.394064 0.0543221
0.0167544 0.407813 0
0.043183 0.409522 0
0.0687572 0.41149 0
0.0937819 0.413565 0
0.119387 0.415457 0
0.147021 0.417182 0
0.177264 0.417777 0
0.212787 0.416663 0
0.256352 0.412802 0
0.306188 0.406638 0
0.358557 0.399496 0
0.41146 0.392126 0
0.463798 0.384405 0
0.514672 0.376928 0
0.563073 0.370092 0
0.607904 0.364324 0
0.648051 0.360281 0
0.682628 0.358144 0.0309758
0.711131 0.35787 0.0635996
0.733715 0.359564 0.0939956
0.761593 0.362951 0.0918135
0.788357 0.366918 0.0872358
0.813199 0.371786 0.0826123
0.835874 0.37705 0.0787671
0.856748 0.382559 0.0758068
0.876326 0.388251 0.0736553
0.895018 0.394064 0.0721904
0.913176 0.399954 0.071458
0.931075 0.406195 0.0710155
0.948684 0.41207 0.0707713
0.966217 0.4177 0.0705882
0.984009 0.423148 0.0703899
1 0.428489 0.0702831
0.0734112 0.424536 0
0.0972152 0.427314 0
0.120317 0.43035 0
0.143023 0.433555 0
0.166476 0.436881 0
0.191165 0.439429 0
0.218326 0.441215 0
0.250355 0.441459 0
0.289677 0.439292 0
0.334981 0.435004 0
0.383062 0.42974 0
0.431861 0.423636 0
0.480812 0.417212 0
0.528817 0.410864 0
0.574899 0.404929 0
0.61825 0.399832 0
0.657542 0.396017 0.0183108
0.691737 0.393545 0.054902
0.720531 0.392844 0.0898604
0.74786 0.39472 0.10396
0.77557 0.397925 0.10341
0.801862 0.402045 0.10135
0.825971 0.406394 0.0983902
0.848035 0.411261 0.0958114
0.868315 0.416648 0.093492
0.887312 0.422263 0.0916609
0.905455 0.428138 0.0903792
0.922911 0.433997 0.0893873
0.939941 0.439719 0.0885328
0.956802 0.445426 0.0878767
0.973648 0.451011 0.0872816
0.990692 0.456306 0.0865949
1 0.461616 0.0859083
0.123613 0.444739 0
0.153292 0.445274 0
0.177615 0.447822 0
0.198169 0.452262 0
0.218982 0.456291 0
0.241184 0.459907 0
0.26537 0.462867 0
0.293935 0.464378 0
0.329274 0.464027 0
0.369894 0.461326 0
0.413291 0.457465 0
0.457938 0.452888 0
0.50312 0.447807 0
0.547829 0.442634 0
0.591241 0.437919 0
0.632303 0.433371 0.00807202
0.670008 0.42974 0.0455177
0.703349 0.427359 0.0827344
0.732982 0.427604 0.103914
0.761456 0.429877 0.109026
0.788663 0.432975 0.111208
0.81416 0.4365 0.111208
0.837705 0.440604 0.110109
0.859113 0.445182 0.108675
0.878798 0.450172 0.107301
0.897383 0.455589 0.106432
0.915007 0.46125 0.105562
0.931823 0.466758 0.104677
0.948211 0.472175 0.103807
0.964385 0.477501 0.102953
0.98056 0.482795 0.102113
0.997101 0.488121 0.101259
1 0.493111 0.100175
0.14139 0.47834 0
0.170794 0.479545 0
0.197971 0.481178 0
0.223667 0.483223 0
0.249302 0.485283 0
0.275929 0.486992 0
0.304479 0.488029 0
0.337377 0.487938 0
0.373053 0.486656 0
0.409216 0.485466 0
0.448112 0.483055 0
0.488411 0.479896 0
0.529671 0.476127 0
0.571054 0.472419 0
0.611246 0.468345 0.00598154
0.649622 0.464515 0.0408637
0.685344 0.46128 0.0772869
0.716503 0.461372 0.0940566
0.746029 0.462593 0.104967
0.774136 0.464698 0.1122
0.800595 0.46714 0.116182
0.825437 0.470192 0.117968
0.848402 0.47393 0.118471
0.869307 0.478248 0.118364
0.88864 0.483223 0.118212
0.906493 0.48806 0.117723
0.923415 0.49308 0.117235
0.939742 0.498253 0.116793
0.955749 0.50338 0.116426
0.97145 0.508492 0.115755
0.987106 0.513512 0.114961
1 0.518196 0.113802
1 0.522805 0.112505
0.159625 0.512413 0
0.188281 0.513695 0
0.214862 0.515557 0
0.240024 0.517845 0
0.26511 0.520165 0
0.291142 0.522118 0
0.319234 0.52369 0
0.351141 0.523461 0
0.38909 0.521035 0
0.431174 0.516991 0
0.474006 0.512474 0
0.516091 0.508339 0
0.556542 0.50425 0
0.594919 0.500877 0.00724804
0.631052 0.498421 0.0341802
0.665263 0.496773 0.0577401
0.697765 0.495872 0.0775921
0.728756 0.49604 0.0937209
0.757961 0.496712 0.105684
0.78555 0.498207 0.114137
0.811566 0.500328 0.119631
0.835874 0.502968 0.122835
0.858228 0.506218 0.124544
0.878706 0.510323 0.125643
0.897368 0.514641 0.126177
0.914763 0.519173 0.126421
0.931182 0.523766 0.126467
0.946929 0.528389 0.126329
0.962371 0.533165 0.126146
0.977707 0.538048 0.125872
0.992889 0.542519 0.125399
1 0.546761 0.124254
1 0.550835 0.122835
0.177783 0.546151 0
0.205798 0.547601 0
0.2318 0.549645 0
0.256367 0.552087 0
0.280964 0.554742 0
0.306447 0.556909 0
0.333623 0.558312 0
0.364813 0.558236 0
0.401923 0.555932 0
0.443168 0.551965 0
0.485542 0.547768 0
0.527169 0.543374 0
0.567514 0.539162 0
0.605936 0.535485 0.00802625
0.642145 0.532601 0.0343633
0.676417 0.530587 0.0576638
0.709056 0.529717 0.0778058
0.739803 0.529213 0.0940871
0.76875 0.529412 0.106645
0.795941 0.530343 0.115892
0.821546 0.532006 0.122362
0.845426 0.534325 0.126635
0.867475 0.537453 0.129488
0.887251 0.540764 0.131151
0.905348 0.544518 0.13228
0.922255 0.548623 0.133104
0.938262 0.552895 0.133684
0.953719 0.557412 0.134157
0.968597 0.561563 0.134142
0.983276 0.565667 0.133883
0.99794 0.569772 0.133394
1 0.573648 0.132509
1 0.577264 0.131258
0.195865 0.579293 0
0.223255 0.58085 0
0.248631 0.583017 0
0.27277 0.585763 0
0.296696 0.588373 0
0.32134 0.590463 0
0.34786 0.591806 0
0.378271 0.591791 0
0.414572 0.589609 0
0.455207 0.586038 0
0.496696 0.581476 0
0.537789 0.576852 0
0.57789 0.572488 0
0.616281 0.568627 0.0111391
0.652644 0.565667 0.0370184
0.68687 0.563256 0.0598001
0.719219 0.561563 0.0793164
0.749844 0.560678 0.095613
0.778653 0.56054 0.108507
0.805585 0.561044 0.118227
0.8309 0.562402 0.125414
0.854337 0.564172 0.130282
0.875822 0.566613 0.133623
0.895216 0.569589 0.135927
0.912871 0.572885 0.137545
0.929259 0.57641 0.138689
0.944915 0.580392 0.139727
0.959823 0.584237 0.140352
0.974304 0.587991 0.140597
0.988464 0.591516 0.140459
1 0.594873 0.13994
1 0.598138 0.139071
1 0.60148 0.137987
0.213931 0.611643 0
0.240696 0.613336 0
0.265553 0.615671 0
0.288884 0.618173 0
0.312108 0.620676 0
0.336065 0.622797 0
0.361944 0.624063 0
0.391638 0.624063 0
0.427146 0.621958 0
0.466789 0.618097 0
0.507607 0.613565 0
0.548135 0.608789 0
0.587839 0.604089 0
0.626123 0.600107 0.0165103
0.662348 0.596735 0.0414588
0.696529 0.593942 0.0636149
0.72874 0.591806 0.0826276
0.759136 0.590372 0.0985275
0.787717 0.589746 0.111391
0.814572 0.590127 0.121538
0.839521 0.59086 0.128908
0.862562 0.592081 0.134112
0.883589 0.593912 0.137743
0.902571 0.596399 0.140383
0.919875 0.599313 0.142367
0.936004 0.602609 0.143938
0.951003 0.605661 0.144869
0.965362 0.608759 0.14548
0.979385 0.611948 0.14583
0.993179 0.615076 0.145846
1 0.618219 0.145602
1 0.620874 0.144732
1 0.623423 0.143465
0.231617 0.642985 0
0.257832 0.644846 0
0.281895 0.646952 0
0.30457 0.649317 0
0.327108 0.651606 0
0.350332 0.65362 0
0.375708 0.654948 0
0.4047 0.654902 0
0.439231 0.652506 0
0.477974 0.648447 0
0.518074 0.643793 0
0.558068 0.638972 0
0.597528 0.634379 0
0.635386 0.629786 0.0232853
0.671351 0.625849 0.0471199
0.705425 0.622675 0.0685588
0.73756 0.620233 0.0870985
0.767865 0.61857 0.102724
0.796262 0.617487 0.115389
0.822705 0.617044 0.125216
0.847364 0.617304 0.132677
0.87013 0.618128 0.138109
0.890791 0.61941 0.141894
0.909377 0.621332 0.144671
0.926223 0.62359 0.146685
0.941833 0.626139 0.148211
0.956497 0.628794 0.149325
0.970474 0.631418 0.150011
0.984054 0.633982 0.150332
0.997543 0.636728 0.150484
1 0.639292 0.150195
1 0.641657 0.149477
1 0.643824 0.148318
0.24889 0.673411 0
0.274159 0.674876 0
0.297597 0.676875 0
0.319707 0.679164 0
0.341634 0.681331 0
0.364248 0.68333 0
0.388861 0.68426 0
0.417029 0.683925 0
0.450797 0.681498 0
0.488731 0.677317 0
0.528069 0.67248 0
0.567529 0.667552 0
0.606439 0.662486 0.00605783
0.644038 0.657694 0.0307164
0.679789 0.653361 0.0535744
0.713634 0.649653 0.0740978
0.745647 0.646845 0.0920577
0.775769 0.644785 0.10721
0.803922 0.643183 0.119478
0.83006 0.642115 0.12903
0.854322 0.641611 0.136248
0.876722 0.641794 0.141604
0.897154 0.642786 0.145586
0.915389 0.64419 0.148409
0.931823 0.645838 0.150408
0.947005 0.647745 0.151888
0.961318 0.649912 0.153017
0.975021 0.652201 0.153826
0.988434 0.654627 0.154391
1 0.656779 0.154452
1 0.658869 0.154177
1 0.660914 0.153552
1 0.662852 0.152544
0.265293 0.70248 0
0.28986 0.703746 0
0.312551 0.70544 0
0.334005 0.7075 0
0.355505 0.709758 0
0.37734 0.71136 0
0.401251 0.712032 0
0.428626 0.71136 0
0.461616 0.708721 0
0.498848 0.70454 0
0.537575 0.699687 0
0.576303 0.69427 0
0.614664 0.688792 0.0144808
0.651926 0.683665 0.0380407
0.68748 0.679057 0.060029
0.721248 0.675151 0.079942
0.752911 0.671565 0.0969253
0.78265 0.668666 0.111238
0.810559 0.666529 0.123049
0.8365 0.665064 0.132418
0.860563 0.664195 0.13959
0.882673 0.663905 0.144884
0.902663 0.664134 0.148669
0.920577 0.665019 0.151476
0.936782 0.666362 0.153597
0.951705 0.667933 0.155138
0.965759 0.669749 0.156344
0.979187 0.671687 0.157214
0.992264 0.673625 0.157733
1 0.675563 0.157931
1 0.677394 0.157778
1 0.679103 0.157198
1 0.680873 0.156359
0.280705 0.730098 0
0.304631 0.731258 0
0.326894 0.733028 0
0.347646 0.734752 0
0.368292 0.736385 0
0.389532 0.737743 0
0.412863 0.738262 0
0.439567 0.737392 0
0.47187 0.734676 0
