All_In_One/addons/Enrich_Colormaster/colormanagement/luts/film_response/reign_R36_709.cube
TITLE "Generate by Resolve"
LUT_3D_SIZE 5
0.0281224 0.0281224 0.0281224
0.13434 0.0560159 0.0576181
0.303105 0.0663767 0.0695659
0.478843 0.0687419 0.0742809
0.652964 0.070634 0.0784924
0.102449 0.202701 0.0448005
0.221653 0.220783 0.0713817
0.405051 0.229786 0.0694438
0.59968 0.239033 0.070222
0.812451 0.250233 0.0745403
0.147051 0.406867 0
0.280735 0.439063 0.0613565
0.476722 0.463645 0.0649271
0.69749 0.47982 0.0651713
0.92726 0.492515 0.0675669
0.208637 0.666941 0
0.358938 0.693889 0.0301976
0.525597 0.713695 0.052018
0.727565 0.71696 0.0400092
0.942123 0.709972 0.024155
0.24242 0.899779 0
0.386831 0.901274 0
0.522225 0.900969 0
0.680354 0.887861 0
0.86273 0.858518 0
0.0332189 0.0418555 0.0837415
0.153521 0.0619974 0.153597
0.321614 0.0681926 0.193317
0.488823 0.0695964 0.212787
0.668055 0.0708019 0.228367
0.0595407 0.223011 0.150149
0.225513 0.225162 0.225116
0.411643 0.233265 0.23566
0.608209 0.242695 0.247623
0.824063 0.255146 0.262821
0.107744 0.43151 0.121981
0.304234 0.443793 0.223606
0.482353 0.469795 0.267185
0.704784 0.484245 0.276295
0.9337 0.495354 0.285435
0.174533 0.690364 0.0878004
0.379904 0.696513 0.197436
0.533791 0.711315 0.267506
0.724819 0.714977 0.261814
0.938354 0.705501 0.24773
0.207401 0.914046 0.0121004
0.396551 0.897444 0.10808
0.536995 0.88838 0.179919
0.672969 0.875547 0.177966
0.849424 0.846036 0.142458
0.0319524 0.0552377 0.167987
0.165179 0.0673533 0.275044
0.335454 0.0687877 0.328359
0.498665 0.0704204 0.354818
0.684108 0.0713359 0.383124
0.0174258 0.240421 0.290593
0.207797 0.23653 0.37818
0.418067 0.236789 0.408072
0.617594 0.247074 0.432029
0.83653 0.259709 0.458824
0.0352789 0.464561 0.272709
0.248173 0.473823 0.37261
0.487175 0.475074 0.47451
0.709957 0.488441 0.491417
0.937011 0.498085 0.504005
0.0951247 0.725475 0.245655
0.330449 0.719966 0.347463
0.554955 0.70695 0.45745
0.721294 0.7122 0.484611
0.933883 0.699977 0.472465
0.128099 0.939941 0.165515
0.351247 0.910674 0.256916
0.550896 0.877379 0.352499
0.671519 0.86125 0.395514
0.835889 0.833341 0.364675
0.0245518 0.0677195 0.276844
0.165942 0.0737469 0.411627
0.342992 0.06981 0.473884
0.510399 0.0708782 0.506355
0.701549 0.0711528 0.546593
0 0.253574 0.443214
0.188434 0.247929 0.53872
0.418143 0.241749 0.591134
0.627894 0.251102 0.622049
0.849439 0.264286 0.65713
0 0.492836 0.451484
0.193622 0.498604 0.566445
0.467018 0.48809 0.67744
0.714366 0.492821 0.706813
0.938735 0.499916 0.722118
0.00833143 0.759777 0.424598
0.241291 0.751858 0.523949
0.487175 0.730816 0.621775
0.717144 0.708751 0.708339
0.927047 0.694011 0.697154
0.0290837 0.969009 0.335653
0.25684 0.935805 0.418952
0.492302 0.889006 0.502129
0.682811 0.845441 0.582666
0.822461 0.820752 0.586526
0.011841 0.0796368 0.408057
0.159564 0.0804761 0.557321
0.34165 0.0728923 0.623407
0.520439 0.0713664 0.668238
0.7187 0.0704814 0.720348
0 0.266239 0.602472
0.167712 0.259495 0.706615
0.407187 0.25037 0.777676
0.634653 0.256474 0.823056
0.862623 0.267903 0.863951
0 0.515602 0.646555
0.159152 0.516503 0.772
0.442466 0.50251 0.881758
0.709895 0.498314 0.929763
0.941024 0.500008 0.941695
0 0.788357 0.62385
0.164462 0.77583 0.728069
0.419547 0.748882 0.83444
0.683635 0.714122 0.921767
0.919036 0.687526 0.918929
0 0.9953 0.52079
0.155291 0.95993 0.601526
0.388098 0.910231 0.677653
0.600214 0.859709 0.744091
0.808957 0.808072 0.808026
