All_In_One/addons/Enrich_Colormaster/colormanagement/luts/film_response/reign_R36_709.cube
TITLE "Generate by Resolve"
LUT_3D_SIZE 33
0.0281224 0.0281224 0.0281224
0.0353552 0.0327306 0.0327764
0.0436408 0.037583 0.0376745
0.053193 0.0423743 0.0425879
0.0643778 0.0464485 0.0468147
0.0783246 0.0497902 0.05037
0.0950332 0.0524147 0.0529793
0.114229 0.0543069 0.0555276
0.13434 0.0560159 0.0576181
0.154437 0.0579843 0.0592966
0.174456 0.0596323 0.0611887
0.194873 0.0611276 0.0629282
0.215793 0.0624399 0.0645151
0.237522 0.0634165 0.0669718
0.259342 0.0644694 0.068452
0.281086 0.0656748 0.0685893
0.303105 0.0663767 0.0695659
0.325338 0.0669413 0.0704204
0.347738 0.0674296 0.0712139
0.370764 0.0674601 0.0736706
0.393347 0.0678264 0.0744793
0.414481 0.0683604 0.0730297
0.436927 0.0679942 0.0755474
0.457572 0.068574 0.0738231
0.478843 0.0687419 0.0742809
0.500938 0.0684672 0.0773175
0.520882 0.0693523 0.0754559
0.542733 0.0690013 0.0786908
0.563989 0.0691234 0.0792554
0.584588 0.0698863 0.0768292
0.606821 0.0700847 0.0773327
0.630976 0.0697032 0.081178
0.652964 0.070634 0.0784924
0.0435645 0.0480507 0.0409857
0.0507362 0.0532082 0.0463417
0.0595865 0.0582742 0.0506447
0.0695964 0.0627756 0.0545205
0.0818494 0.0666514 0.0578927
0.0973678 0.0696422 0.0604715
0.116014 0.0717479 0.0622263
0.13727 0.0733654 0.0635538
0.158816 0.0745708 0.0645304
0.179721 0.0759289 0.0656596
0.200427 0.0773175 0.0668345
0.221241 0.0785992 0.0679332
0.242176 0.0797131 0.068925
0.263523 0.0808423 0.0699321
0.284657 0.0817273 0.0707561
0.305943 0.0825208 0.0715343
0.32723 0.0831769 0.0721904
0.348363 0.08365 0.0727092
0.36939 0.0840162 0.0731518
0.39057 0.0844282 0.0736706
0.411429 0.0847334 0.0740978
0.432151 0.0850385 0.0745708
0.452598 0.0854047 0.0751049
0.472892 0.0857862 0.0756847
0.493477 0.0861677 0.0762493
0.514519 0.0865492 0.0768444
0.535866 0.0868696 0.0773632
0.557778 0.0872358 0.0779278
0.580163 0.0875715 0.0784772
0.603037 0.0878462 0.0789502
0.62649 0.0881514 0.0794537
0.650523 0.0884413 0.0799725
0.674784 0.0887312 0.0804761
0.0572213 0.06981 0.0500038
0.0648661 0.0749065 0.0556649
0.0726635 0.0799878 0.06009
0.0824445 0.0845655 0.0632944
0.0954757 0.0881971 0.0657359
0.112291 0.0907454 0.0673381
0.132769 0.0925002 0.0683299
0.155306 0.093431 0.0686046
0.178027 0.0941939 0.0687572
0.199466 0.0951553 0.0691691
0.220249 0.0961929 0.0697032
0.24097 0.0972152 0.0702678
0.261997 0.0983291 0.0709544
0.282536 0.0991379 0.0714427
0.302815 0.099794 0.0718395
0.322988 0.100343 0.0722057
0.343221 0.100847 0.0725719
0.363485 0.101335 0.0729686
0.383871 0.101961 0.0735485
0.40383 0.102449 0.0740673
0.423865 0.102922 0.0745861
0.444129 0.103334 0.0750286
0.464714 0.103761 0.0754864
0.486076 0.104387 0.0761578
0.507622 0.104921 0.0767071
0.52961 0.105425 0.0772106
0.55198 0.105852 0.0776684
0.574807 0.106249 0.0780804
0.598367 0.106706 0.0785382
0.622675 0.107256 0.0790723
0.647105 0.107637 0.079469
0.671946 0.107927 0.0797589
0.69688 0.108248 0.0801251
0.0686656 0.0924392 0.0549783
0.0767224 0.0972152 0.0605631
0.0843977 0.102129 0.0654154
0.0933089 0.106783 0.0690166
0.105791 0.110491 0.0709544
0.123659 0.112856 0.071809
0.144991 0.113848 0.0717327
0.168566 0.114137 0.0712444
0.192065 0.114427 0.0708171
0.21387 0.115053 0.0707866
0.234806 0.115892 0.0710155
0.2551 0.116548 0.0711681
0.275166 0.117128 0.0713359
0.295079 0.117723 0.0715953
0.314824 0.118349 0.0719463
0.334462 0.118975 0.0723735
0.354284 0.119738 0.0730144
0.374029 0.120287 0.0734569
0.394018 0.120806 0.0738689
0.414389 0.12137 0.0742962
0.435279 0.121981 0.0747539
0.456565 0.122637 0.0752728
0.478508 0.12343 0.0758679
0.500496 0.12401 0.0762646
0.522957 0.124605 0.0766613
0.545953 0.125216 0.0770733
0.569436 0.125841 0.0775006
0.593362 0.126436 0.0778668
0.617945 0.127047 0.0782788
0.642649 0.127504 0.0785077
0.667735 0.127932 0.0787518
0.693202 0.128328 0.0789502
0.718715 0.128725 0.0791638
0.0779889 0.115511 0.0564126
0.0865034 0.119966 0.0620127
0.0944228 0.124514 0.0671092
0.102937 0.129 0.071397
0.114366 0.132723 0.0738994
0.13138 0.134829 0.0741436
0.153445 0.135363 0.0733959
0.177615 0.135088 0.072221
0.201373 0.134737 0.0712444
0.223285 0.134997 0.0709239
0.243946 0.135454 0.0709239
0.264088 0.135973 0.0710613
0.283925 0.136553 0.0713359
0.303517 0.137148 0.0717174
0.323079 0.137774 0.0720836
0.343053 0.138567 0.0725872
0.363241 0.139284 0.0730144
0.383871 0.140047 0.0734569
0.404852 0.140841 0.0739147
0.426154 0.141573 0.0742962
0.447868 0.142275 0.0746319
0.470359 0.143206 0.0751354
0.492988 0.143999 0.0755169
0.51603 0.144793 0.0758831
0.539391 0.14551 0.0761883
0.563104 0.146181 0.0764324
0.587579 0.147021 0.0768139
0.612116 0.147662 0.0770275
0.637018 0.148226 0.0771954
0.662226 0.14873 0.0773175
0.687678 0.149233 0.0774243
0.713512 0.149737 0.0775464
0.739696 0.150469 0.0779278
0.0855573 0.138399 0.0551766
0.0944228 0.142428 0.060853
0.102739 0.146685 0.0662547
0.111192 0.150759 0.0710765
0.121645 0.154025 0.0744182
0.137102 0.155947 0.0750286
0.158618 0.156222 0.0737926
0.183215 0.155596 0.072282
0.207523 0.15523 0.0712902
0.229435 0.15523 0.0709087
0.250111 0.15555 0.0709087
0.270359 0.156008 0.0710307
0.290562 0.156588 0.0712291
0.311009 0.157458 0.0716411
0.331533 0.158404 0.0721294
0.352239 0.159304 0.0725109
0.373236 0.160159 0.0728313
0.394644 0.161013 0.0731365
0.416495 0.161929 0.0734569
0.439017 0.163043 0.07393
0.461769 0.163989 0.0742351
0.484794 0.164843 0.0744488
0.508049 0.165682 0.0746777
0.531701 0.166522 0.074876
0.555703 0.16733 0.0750439
0.580362 0.168276 0.0753338
0.604944 0.168994 0.0754406
0.629847 0.169696 0.0755474
0.655085 0.170382 0.0756847
0.680674 0.171038 0.0758068
0.706432 0.171679 0.0759136
0.732799 0.172473 0.0761883
0.758831 0.173144 0.0763867
0.0918898 0.160739 0.0522927
0.10103 0.164294 0.0581369
0.109392 0.167803 0.0635996
0.117876 0.171298 0.0688182
0.128054 0.174365 0.073228
0.142458 0.176379 0.0751507
0.162753 0.176989 0.0743877
0.187457 0.17644 0.0728008
0.211902 0.175814 0.0714733
0.234318 0.175891 0.0708629
0.255711 0.17644 0.0707561
0.276844 0.177188 0.0708782
0.298039 0.178119 0.071107
0.319234 0.17908 0.0713817
0.340444 0.180072 0.0716411
0.362005 0.181155 0.0719463
0.383963 0.182254 0.0722362
0.406226 0.183291 0.0724651
0.429007 0.184436 0.072755
0.452003 0.185489 0.0729534
0.475334 0.186465 0.0730907
0.49897 0.187411 0.0732128
0.522789 0.188327 0.0733043
0.546899 0.189197 0.0733806
0.571664 0.19028 0.0736095
0.596338 0.191165 0.0737621
0.621317 0.19202 0.0738842
0.646525 0.192828 0.073991
0.672023 0.193606 0.0740826
0.698161 0.194568 0.0743725
0.724224 0.195392 0.0745708
0.750484 0.19617 0.0747539
0.776699 0.197009 0.0750134
0.0972 0.181979 0.0484474
0.1066 0.185077 0.054551
0.115373 0.188357 0.0604868
0.124239 0.191608 0.0662852
0.134417 0.194537 0.0715496
0.14815 0.196765 0.0747387
0.167361 0.197986 0.0747997
0.19144 0.197955 0.0730449
0.216678 0.197681 0.0716259
0.239826 0.197986 0.0708324
0.261875 0.198688 0.0704662
0.28394 0.199802 0.0704967
0.305867 0.20087 0.0705272
0.327825 0.201999 0.0706493
0.349828 0.203143 0.0707713
0.372045 0.204288 0.0709087
0.394751 0.205509 0.0710918
0.417838 0.206744 0.0712749
0.441047 0.207843 0.0713512
0.4645 0.208881 0.071397
0.488273 0.209888 0.0714275
0.512337 0.21091 0.0714885
0.536828 0.212085 0.0717021
0.561456 0.213153 0.0718395
0.586191 0.21413 0.071931
0.61117 0.215091 0.0720378
0.636439 0.216068 0.0721904
0.661982 0.217044 0.0723888
0.68806 0.218143 0.072694
0.714183 0.21912 0.0729229
0.740612 0.220172 0.0732738
0.767529 0.221363 0.0737316
0.794568 0.222705 0.0743877
0.102449 0.202701 0.0448005
0.112123 0.205692 0.0511025
0.121202 0.209003 0.0572061
0.130465 0.212467 0.0632486
0.141299 0.2159 0.0693523
0.154864 0.21854 0.0736858
0.173114 0.220142 0.0746929
0.196338 0.220661 0.0731365
0.221653 0.220783 0.0713817
0.24567 0.221424 0.0704814
0.268666 0.222553 0.0700847
0.291173 0.223606 0.0697185
0.313664 0.224735 0.0694896
0.336233 0.22594 0.0693675
0.358846 0.227192 0.069337
0.381781 0.228489 0.0693675
0.405051 0.229786 0.0694438
0.428473 0.230945 0.0694285
0.452155 0.23212 0.0694896
0.476112 0.23328 0.0695506
0.500328 0.234379 0.0695964
0.524926 0.235584 0.0697337
0.549691 0.236789 0.0699168
0.574578 0.237903 0.0700542
0.59968 0.239033 0.070222
0.624979 0.240116 0.0704204
0.650584 0.24126 0.0706645
0.676982 0.242756 0.0712444
0.703532 0.244144 0.0717327
0.730434 0.245563 0.0723278
0.757488 0.246998 0.0729076
0.784787 0.248447 0.0735943
0.812451 0.250233 0.0745403
0.107729 0.224125 0.0408026
0.117861 0.227512 0.0472877
0.127352 0.231159 0.0535286
0.137194 0.235035 0.0598917
0.148257 0.238453 0.0662242
0.161944 0.241382 0.071519
0.179751 0.243534 0.0737316
0.202258 0.244633 0.0728008
0.2271 0.245212 0.0708934
0.25156 0.246143 0.0697642
0.274998 0.247196 0.0690318
0.298085 0.248371 0.0684672
0.321126 0.249577 0.06804
0.344152 0.250813 0.0677195
0.367514 0.252338 0.0676738
0.390845 0.253666 0.0676127
0.41445 0.254948 0.0675669
0.438315 0.256168 0.0675364
0.462409 0.257389 0.0675364
0.486839 0.258671 0.0676432
0.511711 0.26006 0.0678721
0.536568 0.261265 0.0680095
0.561547 0.262501 0.0681926
0.586862 0.263798 0.0684672
0.612619 0.265263 0.0688945
0.638911 0.266957 0.0695354
0.665492 0.268681 0.0702373
0.692103 0.270268 0.0708629
0.719066 0.271885 0.0715496
0.74641 0.273579 0.072343
0.774044 0.275349 0.0731823
0.802213 0.277226 0.0741131
0.83032 0.279072 0.0749981
0.113207 0.247028 0.0362554
0.123766 0.250874 0.0428779
0.133745 0.254902 0.0492714
0.143923 0.2589 0.0557259
0.155474 0.262501 0.0624094
0.16936 0.265538 0.068452
0.186816 0.267887 0.0717174
0.208835 0.269596 0.0717632
0.233082 0.270558 0.0700236
0.257069 0.271595 0.0685283
0.280858 0.272709 0.0675669
0.304479 0.273945 0.0669261
0.328054 0.275273 0.0664225
0.351827 0.276844 0.0661936
0.375341 0.278202 0.065919
0.399054 0.279576 0.0657664
0.423087 0.280964 0.0657054
0.44741 0.282322 0.0656901
0.471977 0.283696 0.0657816
0.496971 0.285222 0.066041
0.522179 0.286687 0.0662852
0.547784 0.288289 0.0667124
0.573648 0.290013 0.0672618
0.59971 0.291707 0.0678416
0.626108 0.293523 0.0685588
0.652903 0.295491 0.0694285
0.67985 0.297368 0.0702525
0.707088 0.299275 0.0710918
0.734646 0.301122 0.0718853
0.762524 0.302922 0.0726024
0.790982 0.304997 0.0735485
0.819379 0.306798 0.0742809
0.847776 0.308629 0.0750591
0.118944 0.271656 0.0311284
0.129686 0.275578 0.0377356
0.139956 0.279683 0.0441291
0.1505 0.283803 0.0506905
0.162554 0.28748 0.0577096
0.176822 0.290578 0.0644083
0.194293 0.293248 0.068864
0.215518 0.295003 0.0697642
0.2392 0.296315 0.0685893
0.262837 0.297704 0.0672007
0.286458 0.299107 0.0661173
0.310445 0.300404 0.0653544
0.334707 0.301991 0.0649729
0.358694 0.303456 0.0645914
0.382666 0.304952 0.0643473
0.406806 0.306432 0.0641947
0.431266 0.307958 0.0641642
0.456474 0.309865 0.0644846
0.481804 0.31165 0.0648203
0.507408 0.313481 0.0652781
0.533272 0.315282 0.0657359
0.55938 0.317113 0.066331
0.585779 0.319081 0.0670787
0.612757 0.32134 0.0680705
0.639689 0.323354 0.0688792
0.66688 0.325338 0.0696422
0.694286 0.327291 0.0704051
0.721981 0.329244 0.0711528
0.750134 0.331243 0.071931
0.778698 0.333318 0.072755
0.807157 0.335164 0.0733959
0.835843 0.336934 0.0740215
0.864485 0.33875 0.0746777
0.124361 0.297169 0.0249943
0.135393 0.301213 0.0316625
0.145998 0.305409 0.0381628
0.156893 0.30956 0.0448768
0.169528 0.31342 0.0523079
0.184405 0.316609 0.0597848
0.201816 0.319188 0.0652018
0.222599 0.321126 0.0672465
0.245655 0.322698 0.0667887
0.268833 0.324392 0.0657359
0.292409 0.326329 0.0648814
0.31635 0.327947 0.0641031
0.340749 0.329427 0.0635538
0.36527 0.33106 0.0632792
0.389929 0.332921 0.0632486
0.414893 0.334905 0.0634165
0.440421 0.337148 0.0638132
0.465919 0.339086 0.0641337
0.491737 0.3411 0.0645914
0.517876 0.343191 0.0652018
0.544381 0.345312 0.0658579
0.571099 0.347417 0.0665293
0.598321 0.349767 0.0673991
0.625437 0.351858 0.0680858
0.652842 0.353933 0.0688029
0.680476 0.356008 0.0695048
0.708309 0.358022 0.0701762
0.736431 0.360037 0.0708476
0.765072 0.362142 0.0716106
0.793652 0.363989 0.0721904
0.822354 0.365805 0.0727245
0.85127 0.367544 0.0732433
0.880018 0.369268 0.0737621
0.129625 0.32343 0.0181735
0.141009 0.32755 0.0250553
0.152026 0.331884 0.0317845
0.163455 0.336248 0.0388647
0.176547 0.340047 0.0466468
0.191867 0.343099 0.0546578
0.209476 0.345739 0.0611124
0.230091 0.347875 0.0643473
0.252674 0.349737 0.0648356
0.275578 0.351949 0.0644846
0.298802 0.354192 0.0639048
0.322774 0.356405 0.063386
0.347524 0.358557 0.0630961
0.372717 0.360586 0.063035
0.39794 0.362676 0.0631723
0.423697 0.365148 0.0636759
0.449531 0.367422 0.0640879
0.475654 0.369696 0.0645457
0.502007 0.371939 0.0650339
0.528603 0.374151 0.0654917
0.55581 0.376593 0.0661784
0.583001 0.37882 0.0667277
0.610315 0.380987 0.0673228
0.637827 0.383124 0.0678874
0.665537 0.385199 0.068452
0.693462 0.387228 0.0690166
0.721935 0.389487 0.069749
0.75024 0.391409 0.0702678
0.778805 0.39324 0.0707408
0.807477 0.394965 0.0711528
0.836133 0.396551 0.0714885
0.864897 0.398016 0.0717632
0.893797 0.399725 0.0722515
0.135088 0.350439 0.0112459
0.146792 0.354604 0.0183108
0.158373 0.359228 0.0254368
0.170138 0.363546 0.0327459
0.183703 0.3673 0.0408942
0.199603 0.370336 0.0495308
0.217624 0.373053 0.0569467
0.238407 0.375677 0.0615854
0.261051 0.378317 0.0634623
0.283742 0.381018 0.06392
0.306767 0.383719 0.0638743
0.330571 0.386328 0.0636759
0.355245 0.388891 0.0635386
0.380774 0.391562 0.0637369
0.406683 0.39408 0.0640574
0.432654 0.39646 0.064332
0.4589 0.398825 0.064622
0.48542 0.401175 0.0649424
0.5122 0.403525 0.0653086
0.539452 0.406058 0.0658427
0.566751 0.408331 0.0662242
0.594202 0.410513 0.0665904
0.62179 0.412665 0.0669871
0.649561 0.414771 0.0673991
0.677531 0.416815 0.0678111
0.705959 0.419043 0.0684062
0.734142 0.420844 0.0687572
0.762371 0.422522 0.0690166
0.790784 0.424048 0.0692149
0.819364 0.425528 0.0694438
0.84802 0.426993 0.0697032
0.877272 0.428717 0.0701457
0.906096 0.430274 0.0705425
0.14078 0.378134 0.00428779
0.153048 0.382605 0.0117647
0.164828 0.38706 0.019028
0.177096 0.391546 0.0267185
0.191394 0.395636 0.0354467
0.208255 0.399115 0.0449378
0.227085 0.402289 0.0534981
0.248096 0.405234 0.0594186
0.27042 0.408057 0.0623484
0.292897 0.411185 0.0637064
0.315755 0.414405 0.064332
0.339391 0.417472 0.0644846
0.364004 0.420523 0.0644999
0.389288 0.423407 0.0644999
0.415061 0.426032 0.0645609
0.441413 0.428534 0.064744
0.46804 0.430961 0.0649424
0.494881 0.433326 0.0651102
0.522255 0.435935 0.0654917
0.549493 0.438209 0.0656901
0.577005 0.440421 0.0658885
0.604685 0.442557 0.0660868
0.63241 0.444602 0.0663005
0.660426 0.446708 0.0666056
0.688365 0.448539 0.0667735
0.716335 0.450202 0.0668956
0.744472 0.451804 0.0670329
0.772793 0.453407 0.0672618
0.801434 0.454978 0.0674754
0.830579 0.456794 0.0679332
0.859541 0.458381 0.0682994
0.888624 0.459892 0.0686503
0.917464 0.461402 0.0690929
0.147051 0.406867 0
0.159823 0.411597 0.00553903
0.172335 0.416556 0.0133516
0.185245 0.421424 0.0215152
0.200168 0.425681 0.0307469
0.217945 0.429541 0.0410468
0.237385 0.432807 0.0505074
0.258549 0.43592 0.057435
0.280735 0.439063 0.0613565
0.302846 0.442451 0.063386
0.325399 0.446006 0.0644846
0.348898 0.449561 0.0650492
0.373083 0.452735 0.065095
0.397986 0.455711 0.0649729
0.423484 0.458503 0.0648508
0.449714 0.461097 0.0647898
0.476722 0.463645 0.0649271
0.504005 0.466133 0.0650645
0.531289 0.468391 0.0651102
0.558648 0.470512 0.0651102
0.586145 0.472465 0.0650339
0.613733 0.474296 0.0649577
0.641566 0.476249 0.0650187
0.669459 0.47808 0.0651102
0.69749 0.47982 0.0651713
0.725704 0.481559 0.0653086
0.754116 0.483268 0.0655222
0.782696 0.484947 0.0657969
0.811734 0.486763 0.0662394
0.84065 0.488304 0.0665446
0.86952 0.489754 0.0668498
0.898497 0.491112 0.0671702
0.92726 0.492515 0.0675669
0.154391 0.437217 0
0.167651 0.44213 3.0518e-05
0.180667 0.447318 0.00823987
0.194141 0.452506 0.0168612
0.209888 0.457313 0.0266728
0.228016 0.461006 0.0371862
0.247913 0.464271 0.0471809
0.269154 0.46746 0.0549325
0.291279 0.470756 0.059678
0.313146 0.474418 0.0624552
0.335439 0.478294 0.0641337
0.358328 0.481804 0.0648661
0.382101 0.4851 0.0650645
0.406638 0.488212 0.0649729
0.431846 0.491142 0.0647746
0.457862 0.493919 0.0646067
0.484596 0.496437 0.0644694
0.511681 0.498482 0.0642405
0.538903 0.500404 0.0640116
0.566262 0.502297 0.063798
0.593851 0.504128 0.0636301
0.621958 0.506233 0.0637217
0.649882 0.508095 0.0637217
0.677974 0.509926 0.0637827
0.706188 0.511727 0.06392
0.734524 0.513436 0.0640726
0.763104 0.515206 0.0643626
0.79176 0.516869 0.0646677
0.820462 0.518318 0.0648661
0.849271 0.519707 0.065095
0.87805 0.520974 0.0653086
0.906767 0.522072 0.0654612
0.935393 0.523278 0.0657359
0.162539 0.468772 0
0.176211 0.47396 0
0.189517 0.479332 0.00326543
0.203494 0.484886 0.0121614
0.219394 0.489494 0.0219577
0.238041 0.493202 0.0328069
0.258412 0.496452 0.0433204
0.279866 0.499596 0.0517586
0.302083 0.503197 0.0574807
0.323568 0.506859 0.060853
0.345266 0.510597 0.0628977
0.367727 0.514199 0.0639963
0.391012 0.51754 0.0644083
0.41503 0.520607 0.0643778
0.439857 0.523613 0.06421
0.465202 0.526116 0.0637522
0.491325 0.528405 0.0632944
0.518196 0.530495 0.0629282
0.545647 0.532464 0.0626993
0.573419 0.534508 0.0626383
0.601526 0.536614 0.0626841
0.629557 0.538476 0.0626383
0.657572 0.540276 0.0626535
0.685664 0.541985 0.0626841
0.713863 0.543618 0.0627451
0.742306 0.545327 0.0629435
0.77084 0.54696 0.0631571
0.799207 0.548287 0.0632181
0.827634 0.549416 0.0632181
0.856077 0.550408 0.0631418
0.88455 0.551354 0.0630961
0.913268 0.552346 0.0631266
0.941497 0.553109 0.063035
0.170825 0.501274 0
0.184939 0.506859 0
0.19855 0.512367 0
0.212573 0.517678 0.00682078
0.228779 0.52224 0.0167391
0.247822 0.525841 0.0278325
0.268635 0.528954 0.0387732
0.290593 0.53228 0.0480507
0.312444 0.535515 0.0543069
0.333562 0.539086 0.0582742
0.354711 0.542657 0.0607462
0.376516 0.546059 0.0621347
0.399176 0.549249 0.0627604
0.422919 0.552544 0.0630961
0.44715 0.555413 0.0629587
0.472236 0.558129 0.0626688
0.498192 0.560647 0.0623178
0.52488 0.562936 0.0619821
0.552239 0.565072 0.0617838
0.580224 0.567178 0.0618143
0.608164 0.568917 0.0616922
0.636194 0.570611 0.0616007
0.664225 0.572259 0.0615549
0.692287 0.573816 0.0615091
0.720623 0.575448 0.0616159
0.748623 0.576669 0.0614633
0.776684 0.577768 0.0612802
0.804822 0.578805 0.0611124
0.833036 0.579644 0.0608377
0.861265 0.580346 0.0604868
0.889403 0.580896 0.0600748
0.917403 0.581186 0.0594797
0.94519 0.581476 0.0589609
0.179171 0.534676 0
0.193317 0.540063 0
0.207034 0.545525 0
0.221317 0.550774 0.00077821
0.237812 0.555261 0.0108339
0.257221 0.558679 0.0221561
0.278569 0.561761 0.0336004
0.300359 0.564385 0.0431525
0.321981 0.567269 0.049958
0.342718 0.570626 0.05449
0.363516 0.574166 0.0575875
0.385245 0.577951 0.0597543
0.40763 0.581353 0.0609445
0.430838 0.584604 0.0615549
0.454765 0.587655 0.0617838
0.479484 0.590448 0.0617227
0.505013 0.592981 0.0614633
0.531533 0.595514 0.0612955
0.558419 0.597574 0.0609598
0.585855 0.599405 0.0607156
0.613718 0.600961 0.0604715
0.641596 0.602335 0.0602274
0.669398 0.603616 0.0599374
0.697444 0.60502 0.0598001
0.725292 0.606104 0.0594797
0.753094 0.607004 0.0590524
0.780774 0.607645 0.0584878
0.808392 0.608118 0.0578164
0.836271 0.60853 0.057145
0.864286 0.608942 0.0565042
0.891997 0.609033 0.0556497
0.919661 0.608896 0.0546426
0.946975 0.608698 0.0536507
0.187121 0.568185 0
0.201389 0.573449 0
0.215183 0.578775 0
0.229572 0.583749 0
0.246296 0.588052 0.00427253
0.265965 0.59115 0.0157473
0.287449 0.593576 0.0273594
0.309514 0.596048 0.0375372
0.331167 0.598962 0.0451667
0.351995 0.602411 0.0504921
0.372869 0.606348 0.05449
0.394125 0.609979 0.0571908
0.416098 0.613397 0.0589151
0.438819 0.616602 0.0599374
0.462242 0.619608 0.060441
0.486473 0.622385 0.0605936
0.511757 0.625162 0.0606394
0.537453 0.627314 0.0602426
0.563699 0.629129 0.0597086
0.590448 0.630686 0.059144
0.617792 0.632013 0.0585946
0.645487 0.633112 0.0581064
0.673259 0.634241 0.0576944
0.700664 0.634882 0.0569619
0.728038 0.635401 0.0561532
0.755474 0.635843 0.0553292
0.78291 0.636164 0.0544442
0.810513 0.6365 0.0535897
0.837903 0.636393 0.05243
0.865309 0.636149 0.051194
0.892729 0.635889 0.049958
0.920226 0.635508 0.0486915
0.947433 0.635142 0.0474556
0.194568 0.601343 0
0.208804 0.606241 0
0.222583 0.611261 0
0.237293 0.61622 0
0.254261 0.620356 0
0.274357 0.623346 0.00906386
0.296361 0.625772 0.02121
0.318914 0.628153 0.0320745
0.340749 0.630991 0.0404517
0.3617 0.634607 0.0467079
0.382055 0.638163 0.0511482
0.402869 0.641657 0.0543679
0.424399 0.644999 0.0565957
0.446616 0.648142 0.0580148
0.469612 0.651179 0.0589151
0.493156 0.653742 0.0591592
0.517433 0.65597 0.0589456
0.542473 0.657938 0.0584726
0.568093 0.659586 0.0577707
0.594125 0.660838 0.0568551
0.620829 0.661952 0.0559854
0.647761 0.662608 0.054963
0.674968 0.663111 0.0540017
0.702159 0.663432 0.0529641
0.729244 0.663554 0.0518044
0.756283 0.663493 0.0505226
0.783566 0.663569 0.0493629
0.810697 0.663371 0.0480354
0.837949 0.66305 0.0466011
0.865202 0.662577 0.0451057
0.892424 0.662028 0.0435798
0.919768 0.661433 0.0420386
0.947036 0.661006 0.0406653
0.201434 0.63389 0
0.215991 0.638895 0
0.230243 0.64419 0
0.245151 0.649027 0
0.262425 0.65301 0
0.282918 0.655833 0.00254826
0.305303 0.657984 0.0151064
0.328252 0.660212 0.0265965
0.350286 0.662943 0.0357061
0.37084 0.666117 0.042359
0.39086 0.669474 0.0473335
0.41117 0.672679 0.0509804
0.432029 0.675685 0.0534981
0.453712 0.678721 0.0552682
0.475929 0.681453 0.0562753
0.498711 0.683726 0.0565347
0.522164 0.685588 0.056199
0.546258 0.687099 0.055436
0.571023 0.688365 0.0544442
0.596551 0.689601 0.0534218
0.622431 0.690303 0.052079
0.6486 0.690623 0.0505989
0.675074 0.690715 0.0491035
0.701915 0.690654 0.0476844
0.728832 0.690501 0.0462501
0.755962 0.69044 0.044892
0.782849 0.690044 0.0432898
0.809796 0.68957 0.0416571
0.836912 0.689021 0.0399786
0.864073 0.688365 0.0382544
0.891325 0.68777 0.0365911
0.918379 0.686824 0.034699
0.945159 0.685893 0.0328374
0.208637 0.666941 0
0.22356 0.672038 0
0.237873 0.676997 0
0.252949 0.68162 0
0.270405 0.685359 0
0.291173 0.687922 0
0.31397 0.689906 0.00891127
0.337118 0.691783 0.0207828
0.358938 0.693889 0.0301976
0.379004 0.696651 0.0372168
0.398733 0.699641 0.0425422
0.41854 0.702602 0.04654
0.438987 0.705547 0.0494698
0.459648 0.707942 0.0511788
0.480888 0.710094 0.052079
0.502861 0.712047 0.0523384
0.525597 0.713695 0.052018
0.549065 0.715099 0.0512398
0.573068 0.716091 0.0500496
0.597574 0.716747 0.0485389
0.622721 0.717189 0.046891
0.648371 0.717403 0.0451514
0.674327 0.717403 0.0433661
0.700816 0.717311 0.0417029
0.727565 0.71696 0.0400092
0.75436 0.716487 0.0382696
0.781155 0.715892 0.0364538
0.807904 0.715145 0.0345312
0.834745 0.714244 0.0325017
0.86183 0.713451 0.0305791
0.888731 0.712428 0.0285191
0.915633 0.711238 0.0263371
0.942123 0.709972 0.024155
0.215991 0.699931 0
0.230854 0.704585 0
0.245274 0.709346 0
0.260456 0.713741 0
0.277989 0.717144 0
0.298985 0.719448 0
0.321736 0.72079 0.00201419
0.344839 0.722057 0.014023
0.366583 0.723781 0.0237278
0.386297 0.726055 0.0309758
0.405447 0.728557 0.0364538
0.424689 0.731182 0.0406958
0.444266 0.733532 0.0436408
0.464302 0.735668 0.0455482
0.484794 0.737514 0.0465248
0.505898 0.739055 0.0467231
0.527901 0.740459 0.0464027
0.550668 0.74165 0.045594
0.573983 0.742458 0.0442969
0.597879 0.743008 0.0426795
0.622385 0.743282 0.0408331
0.647456 0.743374 0.03888
0.673075 0.74342 0.0369726
0.698955 0.743145 0.0349432
0.725124 0.742519 0.0328222
0.751598 0.741711 0.0307317
0.778195 0.740826 0.0286259
0.804791 0.739849 0.0264591
0.831632 0.738857 0.0242771
0.858213 0.737514 0.0218662
0.884749 0.73608 0.0194247
0.911391 0.734585 0.0169528
0.937682 0.733043 0.0144961
0.222904 0.732174 0
0.23772 0.736416 0
0.251987 0.740719 0
0.267079 0.744701 0
0.284779 0.747982 0
0.305577 0.749615 0
0.328252 0.750332 0
0.351156 0.750896 0.00596628
0.372671 0.752056 0.0157626
0.392157 0.753994 0.0232548
0.410941 0.756268 0.0290532
0.42948 0.758267 0.0332799
0.448325 0.760159 0.0363012
0.467674 0.761959 0.0383307
0.487572 0.763622 0.0395056
