All_In_One/addons/Enrich_Colormaster/colormanagement/luts/film_response/reign_R36_709.cube
TITLE "Generate by Resolve"
LUT_3D_SIZE 9
0.0281224 0.0281224 0.0281224
0.0643778 0.0464485 0.0468147
0.13434 0.0560159 0.0576181
0.215793 0.0624399 0.0645151
0.303105 0.0663767 0.0695659
0.393347 0.0678264 0.0744793
0.478843 0.0687419 0.0742809
0.563989 0.0691234 0.0792554
0.652964 0.070634 0.0784924
0.0779889 0.115511 0.0564126
0.114366 0.132723 0.0738994
0.201373 0.134737 0.0712444
0.283925 0.136553 0.0713359
0.363241 0.139284 0.0730144
0.447868 0.142275 0.0746319
0.539391 0.14551 0.0761883
0.637018 0.148226 0.0771954
0.739696 0.150469 0.0779278
0.102449 0.202701 0.0448005
0.141299 0.2159 0.0693523
0.221653 0.220783 0.0713817
0.313664 0.224735 0.0694896
0.405051 0.229786 0.0694438
0.500328 0.234379 0.0695964
0.59968 0.239033 0.070222
0.703532 0.244144 0.0717327
0.812451 0.250233 0.0745403
0.124361 0.297169 0.0249943
0.169528 0.31342 0.0523079
0.245655 0.322698 0.0667887
0.340749 0.329427 0.0635538
0.440421 0.337148 0.0638132
0.544381 0.345312 0.0658579
0.652842 0.353933 0.0688029
0.765072 0.362142 0.0716106
0.880018 0.369268 0.0737621
0.147051 0.406867 0
0.200168 0.425681 0.0307469
0.280735 0.439063 0.0613565
0.373083 0.452735 0.065095
0.476722 0.463645 0.0649271
0.586145 0.472465 0.0650339
0.69749 0.47982 0.0651713
0.811734 0.486763 0.0662394
0.92726 0.492515 0.0675669
0.179171 0.534676 0
0.237812 0.555261 0.0108339
0.321981 0.567269 0.049958
0.40763 0.581353 0.0609445
0.505013 0.592981 0.0614633
0.613718 0.600961 0.0604715
0.725292 0.606104 0.0594797
0.836271 0.60853 0.057145
0.946975 0.608698 0.0536507
0.208637 0.666941 0
0.270405 0.685359 0
0.358938 0.693889 0.0301976
0.438987 0.705547 0.0494698
0.525597 0.713695 0.052018
0.622721 0.717189 0.046891
0.727565 0.71696 0.0400092
0.834745 0.714244 0.0325017
0.942123 0.709972 0.024155
0.233799 0.792828 0
0.293858 0.804852 0
0.381262 0.805341 0
0.453971 0.810971 0.0181277
0.530602 0.815656 0.022858
0.617319 0.816419 0.0168765
0.712352 0.813062 0.00581369
0.813107 0.805615 0
0.915221 0.795377 0
0.24242 0.899779 0
0.29987 0.906645 0
0.386831 0.901274 0
0.45449 0.90135 0
0.522225 0.900969 0
0.59762 0.896712 0
0.680354 0.887861 0
0.7691 0.874739 0
0.86273 0.858518 0
0.0313726 0.0348974 0.0519265
0.0714122 0.0514839 0.0827649
0.144121 0.0593423 0.102083
0.226673 0.064332 0.117968
0.313039 0.0672923 0.129885
0.400046 0.0683604 0.137743
0.48452 0.0690166 0.143236
0.568902 0.0698863 0.148013
0.660655 0.0705272 0.153048
0.0631266 0.126055 0.098085
0.112978 0.137514 0.12665
0.203891 0.136278 0.137652
0.286213 0.137728 0.140764
0.366766 0.14052 0.145144
0.452811 0.143404 0.149722
0.545586 0.14641 0.154574
0.644083 0.148867 0.158999
0.746944 0.150805 0.162997
0.0874952 0.211261 0.0925612
0.14313 0.219471 0.122499
0.223651 0.223056 0.146853
0.316945 0.226658 0.148379
0.408942 0.231495 0.151629
0.504585 0.235996 0.154742
0.604303 0.240635 0.158236
0.709255 0.246265 0.162875
0.818601 0.25243 0.168307
0.111727 0.306523 0.0782177
0.171099 0.318166 0.111055
0.25153 0.324163 0.150515
0.34316 0.332021 0.152377
0.443793 0.339651 0.155642
0.549157 0.34818 0.160937
0.658198 0.356695 0.166415
0.770642 0.364675 0.171481
0.885359 0.371359 0.175555
0.136355 0.4168 0.057969
0.202106 0.431998 0.0962081
0.293034 0.440635 0.147936
0.377218 0.455879 0.162615
0.479606 0.466773 0.164828
0.589258 0.474983 0.166979
0.701198 0.482109 0.169482
0.815534 0.488655 0.172641
0.930892 0.494072 0.175647
0.169558 0.545022 0.0408026
0.238865 0.56199 0.0811627
0.33637 0.567895 0.137133
0.414954 0.582849 0.162829
0.507622 0.595209 0.167849
0.615244 0.602808 0.168154
0.726543 0.607202 0.168048
0.837079 0.608713 0.166369
0.947448 0.608103 0.163546
0.199283 0.676432 0.0158846
0.270542 0.691493 0.0580301
0.373358 0.69369 0.117754
0.448661 0.704128 0.150759
0.528618 0.712978 0.159945
0.622385 0.716701 0.156588
0.72636 0.716121 0.15021
0.83331 0.71284 0.143175
0.940307 0.707835 0.13518
0.223758 0.800137 0
0.291585 0.808621 0.0246586
0.393164 0.803342 0.0819257
0.464973 0.807462 0.116655
0.535378 0.812589 0.129793
0.617151 0.813748 0.127382
0.709407 0.810071 0.117021
0.809216 0.802121 0.104555
0.910613 0.791012 0.0912337
0.231266 0.905058 0
0.295735 0.908919 0
0.396231 0.898009 0.029099
0.465705 0.895735 0.0639353
0.528161 0.895109 0.0795758
0.597635 0.890837 0.0786755
0.676295 0.88188 0.0665599
0.76318 0.868772 0.0491646
0.856168 0.852369 0.0305638
0.0332189 0.0418555 0.0837415
0.0747997 0.0568399 0.12604
0.153521 0.0619974 0.153597
0.2365 0.0659037 0.176043
0.321614 0.0681926 0.193317
0.40618 0.0687266 0.204639
0.488823 0.0695964 0.212787
0.574685 0.0704051 0.220371
0.668055 0.0708019 0.228367
0.0473793 0.135012 0.155489
0.101289 0.143954 0.190311
0.205798 0.137804 0.205692
0.287938 0.139086 0.210697
0.369604 0.141955 0.217884
0.457084 0.144945 0.225559
0.550759 0.147768 0.233356
0.649805 0.150088 0.240681
0.752834 0.15198 0.24741
0.0595407 0.223011 0.150149
0.116533 0.231418 0.180194
0.225513 0.225162 0.225116
0.319478 0.228641 0.229877
0.411643 0.233265 0.23566
0.507942 0.237888 0.241535
0.608209 0.242695 0.247623
0.713741 0.248569 0.254856
0.824063 0.255146 0.262821
0.0813458 0.320363 0.137972
0.146273 0.330907 0.170809
0.261845 0.325383 0.224979
0.345739 0.334798 0.244068
0.447593 0.342428 0.250584
0.553582 0.350973 0.258579
0.662928 0.359411 0.266346
0.775189 0.366918 0.273289
0.88986 0.373281 0.279301
0.107744 0.43151 0.121981
0.18175 0.445319 0.160998
0.304234 0.443793 0.223606
0.383413 0.458305 0.261448
0.482353 0.469795 0.267185
0.592233 0.477287 0.271321
0.704784 0.484245 0.276295
0.818784 0.490257 0.281147
0.9337 0.495354 0.285435
0.143084 0.560067 0.108934
0.220417 0.574411 0.150118
0.345266 0.571206 0.214939
0.426444 0.583062 0.261585
0.510872 0.597025 0.276005
0.616449 0.604349 0.277562
0.727291 0.607782 0.278096
0.837583 0.608499 0.27718
0.947723 0.607248 0.275181
0.174533 0.690364 0.0878004
0.253773 0.702602 0.130861
0.379904 0.696513 0.197436
0.462119 0.702098 0.246174
0.533791 0.711315 0.267506
0.622156 0.715785 0.267689
0.724819 0.714977 0.261814
0.831632 0.711192 0.255268
0.938354 0.705501 0.24773
0.199619 0.811399 0.0588083
0.274556 0.816876 0.0983749
0.396353 0.804425 0.161273
0.477775 0.803815 0.208453
0.543221 0.808454 0.234333
0.618021 0.810361 0.238453
0.706554 0.806882 0.229633
0.805112 0.798413 0.217197
0.905638 0.786297 0.203586
0.207401 0.914046 0.0121004
0.278492 0.915068 0.0484627
0.396551 0.897444 0.10808
0.476341 0.890486 0.152834
0.536995 0.88838 0.179919
0.599695 0.884215 0.186969
0.672969 0.875547 0.177966
0.757153 0.862516 0.161074
0.849424 0.846036 0.142458
0.0333715 0.0486305 0.12256
0.0755779 0.0622721 0.174517
0.160922 0.0644846 0.211765
0.245411 0.0669871 0.238987
0.329274 0.0686961 0.259525
0.41178 0.0691386 0.272877
0.49337 0.0700694 0.282948
0.58088 0.0708934 0.29369
0.675868 0.0711223 0.304997
0.0366827 0.141802 0.218418
0.093019 0.148882 0.255283
0.2047 0.139864 0.276783
0.2907 0.14023 0.282521
0.373129 0.14313 0.291905
0.461845 0.146258 0.30309
0.556313 0.148913 0.314305
0.655741 0.151064 0.324819
0.759213 0.152926 0.334569
0.0356756 0.232807 0.217685
0.0939651 0.241093 0.252094
0.216846 0.230793 0.300771
0.32195 0.23061 0.31223
0.414557 0.235126 0.321233
0.511543 0.239628 0.33051
0.612955 0.244709 0.340078
0.719249 0.250675 0.350378
0.83061 0.257221 0.361273
0.0481117 0.334447 0.206439
0.112535 0.345327 0.241138
0.236194 0.338109 0.292195
0.348287 0.337499 0.337133
0.450919 0.345525 0.346746
0.55726 0.354086 0.356817
0.666865 0.362371 0.366491
0.779202 0.369619 0.375143
0.893477 0.375494 0.382483
0.0714733 0.448234 0.193759
0.146502 0.462394 0.233265
0.284977 0.456809 0.292103
0.395804 0.459464 0.350805
0.484855 0.472541 0.370336
0.5953 0.47953 0.376806
0.70779 0.486198 0.383749
0.821607 0.492134 0.390051
0.93576 0.496605 0.395071
0.105623 0.577966 0.183307
0.185428 0.591104 0.223575
0.329656 0.582559 0.28658
0.439811 0.584298 0.347219
0.51635 0.598077 0.38323
0.617548 0.605783 0.387152
0.727718 0.607965 0.388052
0.837858 0.607965 0.388067
0.947631 0.606256 0.386786
0.137804 0.707362 0.163699
0.221027 0.717891 0.205737
0.365881 0.705577 0.271336
0.471885 0.702296 0.329427
0.543557 0.708736 0.369711
0.622736 0.714534 0.378424
0.723064 0.713573 0.373144
0.829709 0.709255 0.367086
0.936248 0.702907 0.360098
0.163394 0.825574 0.134218
0.242878 0.829221 0.172763
0.382269 0.81088 0.23563
0.48397 0.803067 0.290181
0.554849 0.803769 0.330922
0.62118 0.806104 0.347204
0.703883 0.803281 0.341695
0.800748 0.794476 0.32932
0.900618 0.781491 0.31548
0.172076 0.92607 0.0870375
0.247898 0.925063 0.122637
0.382086 0.901686 0.182727
0.479011 0.888136 0.233188
0.547387 0.881483 0.271458
0.604913 0.876677 0.290761
0.671 0.868788 0.288014
0.751385 0.856199 0.272404
0.842664 0.839689 0.253758
0.0319524 0.0552377 0.167987
0.0747845 0.0677653 0.228855
0.165179 0.0673533 0.275044
0.252644 0.0679789 0.306477
0.335454 0.0687877 0.328359
0.4168 0.0694743 0.343053
0.498665 0.0704204 0.354818
0.587274 0.0710613 0.36817
0.684108 0.0713359 0.383124
0.0268406 0.147707 0.283406
0.0844892 0.153704 0.321691
0.199359 0.143191 0.347463
0.292454 0.141711 0.35761
0.377447 0.144244 0.368994
0.467201 0.147311 0.38262
0.562188 0.149874 0.396521
0.661631 0.151888 0.409781
0.765576 0.153933 0.422629
0.0174258 0.240421 0.290593
0.0787213 0.248325 0.329229
0.207797 0.23653 0.37818
0.322011 0.233036 0.398108
0.418067 0.236789 0.408072
0.515297 0.241428 0.419242
0.617594 0.247074 0.432029
0.724468 0.253254 0.445258
0.83653 0.259709 0.458824
0.018204 0.346853 0.283558
0.0831769 0.357565 0.321981
0.211902 0.348867 0.379126
0.341482 0.343267 0.428672
0.454093 0.348791 0.44271
0.560708 0.357321 0.455268
0.670619 0.365164 0.467628
0.783169 0.371923 0.47863
0.897566 0.377401 0.488136
0.0352789 0.464561 0.272709
0.109758 0.479149 0.313954
0.248173 0.473823 0.37261
0.371572 0.473213 0.427222
0.487175 0.475074 0.47451
0.597711 0.482002 0.483177
0.709957 0.488441 0.491417
0.823484 0.494148 0.498604
0.937011 0.498085 0.504005
0.0649729 0.596063 0.263691
0.144305 0.608881 0.304509
0.291936 0.599634 0.364752
0.42153 0.595956 0.421744
0.528649 0.597848 0.479637
0.618311 0.606882 0.496864
0.728359 0.608133 0.498665
0.837781 0.607416 0.499229
0.946929 0.60531 0.498253
0.0951247 0.725475 0.245655
0.178805 0.735195 0.286885
0.330449 0.719966 0.347463
0.456428 0.71043 0.403861
0.554955 0.70695 0.45745
0.62565 0.712413 0.487648
0.721294 0.7122 0.484611
0.827665 0.707103 0.47892
0.933883 0.699977 0.472465
0.119234 0.841306 0.214511
0.200443 0.844099 0.251484
0.349584 0.822721 0.310597
0.469688 0.808881 0.365011
0.562631 0.801389 0.414923
0.628992 0.800748 0.45008
0.701961 0.799176 0.453147
0.795972 0.790097 0.440894
0.895308 0.776364 0.426902
0.128099 0.939941 0.165515
0.206348 0.937667 0.199588
0.351247 0.910674 0.256916
0.46453 0.89134 0.307836
0.550896 0.877379 0.352499
0.613764 0.868437 0.38613
0.671519 0.86125 0.395514
0.746029 0.849683 0.383246
0.835889 0.833341 0.364675
0.0289464 0.0615244 0.219303
0.0724193 0.073106 0.288365
0.166674 0.0704814 0.341955
0.256901 0.0692912 0.377478
0.340414 0.0690623 0.400092
0.421149 0.0697948 0.415015
0.504494 0.0707256 0.429374
0.594659 0.0711986 0.445548
0.692714 0.0713207 0.463447
0.0169833 0.153307 0.3505
0.0756847 0.158434 0.389471
0.192477 0.147021 0.418326
0.290929 0.143893 0.434562
0.380972 0.145571 0.449424
0.472648 0.148196 0.465339
0.568368 0.150607 0.48159
0.66807 0.152651 0.496925
0.772152 0.154818 0.512016
0.00248722 0.247135 0.366003
0.0660563 0.254719 0.407874
0.198367 0.242283 0.457572
0.316716 0.236973 0.484489
0.420035 0.238727 0.498619
0.519661 0.243122 0.511086
0.622492 0.248981 0.525444
0.730297 0.255726 0.541115
0.842756 0.26215 0.557107
0 0.357321 0.366903
0.0600595 0.367422 0.409308
0.197208 0.356802 0.470802
0.331685 0.3505 0.519722
0.454643 0.352529 0.542443
0.564965 0.360189 0.555215
0.674647 0.367803 0.568582
0.786816 0.374197 0.581399
0.90132 0.379614 0.593118
0.00198367 0.479545 0.359167
0.076524 0.494133 0.403357
0.216892 0.487816 0.466178
0.34551 0.485115 0.526192
0.47892 0.480919 0.576654
0.599908 0.484642 0.589059
0.711681 0.490837 0.59855
0.824903 0.495933 0.60734
0.938079 0.499107 0.61384
0.0246586 0.613169 0.350408
0.103502 0.62594 0.392584
0.250889 0.616709 0.453101
0.380499 0.613062 0.508782
0.500755 0.610849 0.561105
0.618585 0.607431 0.606882
0.727932 0.608164 0.609461
0.836667 0.607034 0.610132
0.945312 0.604578 0.609171
0.0513161 0.743206 0.332418
0.134371 0.752377 0.373526
0.285847 0.7364 0.431983
0.415244 0.725307 0.483955
0.532998 0.716045 0.533242
0.635752 0.709239 0.585092
0.719356 0.710643 0.596338
0.825666 0.704784 0.591333
0.930999 0.696849 0.585092
0.0722515 0.857328 0.299367
0.153048 0.859571 0.335729
0.304448 0.837369 0.391775
0.432212 0.821012 0.441672
0.544396 0.807309 0.489921
0.638102 0.79649 0.538094
0.702815 0.794278 0.563043
0.790936 0.785473 0.552392
0.889647 0.770794 0.538094
0.0792248 0.954559 0.248859
0.157717 0.951308 0.281559
0.307301 0.922728 0.33492
0.43003 0.900069 0.382345
0.533425 0.879942 0.426474
0.618326 0.862669 0.468666
0.676905 0.852659 0.49688
0.74168 0.842786 0.493614
0.829175 0.827039 0.475593
0.0245518 0.0677195 0.276844
0.0686351 0.078294 0.352667
0.165942 0.0737469 0.411627
0.258244 0.0709392 0.45034
0.342992 0.06981 0.473884
0.424918 0.0701152 0.489174
0.510399 0.0708782 0.506355
0.602411 0.0712596 0.525872
0.701549 0.0711528 0.546593
0.00682078 0.158495 0.419013
0.0666667 0.163088 0.458183
0.185016 0.151202 0.490394
0.287282 0.146929 0.512749
0.382055 0.147417 0.532555
0.477195 0.149142 0.551049
0.574075 0.151171 0.569116
0.674571 0.153292 0.586786
0.779156 0.155688 0.603906
0 0.253574 0.443214
0.0541085 0.260899 0.48777
0.188434 0.247929 0.53872
0.309316 0.241825 0.571237
0.418143 0.241749 0.591134
0.523095 0.245289 0.606256
0.627894 0.251102 0.622049
0.736584 0.257877 0.639506
0.849439 0.264286 0.65713
0 0.366384 0.453834
0.0411841 0.375845 0.499397
0.18468 0.363928 0.5626
0.321706 0.357931 0.612268
0.449241 0.358175 0.642329
0.56733 0.363272 0.658793
0.679194 0.370123 0.67245
0.791104 0.376104 0.685634
0.905592 0.381674 0.698619
0 0.492836 0.451484
0.0482948 0.507073 0.499123
0.193622 0.498604 0.566445
0.329854 0.493309 0.628809
0.467018 0.48809 0.67744
0.598642 0.487572 0.698146
0.714366 0.492821 0.706813
0.826673 0.497459 0.715221
0.938735 0.499916 0.722118
0 0.628733 0.443549
0.0658579 0.641428 0.488075
0.214496 0.631449 0.551431
0.345968 0.626581 0.610193
0.471168 0.62182 0.666453
0.606958 0.611658 0.713573
0.727062 0.608118 0.718837
0.83505 0.606668 0.719936
0.943404 0.603616 0.720073
0.00833143 0.759777 0.424598
0.0905776 0.768307 0.465965
0.241291 0.751858 0.523949
0.369741 0.740307 0.574746
0.487175 0.730816 0.621775
0.603052 0.720088 0.667414
0.717144 0.708751 0.708339
0.822705 0.702403 0.703883
0.927047 0.694011 0.697154
0.0249027 0.872847 0.388449
0.105089 0.874769 0.424567
0.256046 0.852262 0.479149
0.383795 0.835325 0.526802
0.499428 0.820081 0.570565
0.612375 0.803388 0.613901
0.710552 0.788296 0.659419
0.785763 0.780697 0.663905
0.884092 0.765103 0.649653
0.0290837 0.969009 0.335653
0.107088 0.965179 0.367697
0.25684 0.935805 0.418952
0.381643 0.911727 0.462715
0.492302 0.889006 0.502129
0.596307 0.865538 0.542168
0.682811 0.845441 0.582666
0.740398 0.835065 0.601938
0.822461 0.820752 0.586526
0.0188144 0.0737926 0.340093
0.0636149 0.08336 0.421332
0.163531 0.0771344 0.483848
0.257099 0.0728313 0.524041
0.343221 0.071107 0.548531
0.427619 0.0707713 0.565972
0.515724 0.0709239 0.585763
0.610071 0.0711681 0.608743
0.710277 0.0708476 0.632441
0 0.163485 0.488853
0.057435 0.167681 0.527855
0.177188 0.155642 0.564065
0.282353 0.150561 0.592371
0.380911 0.149859 0.617441
0.479652 0.1505 0.639536
0.579065 0.151873 0.65948
0.680827 0.153918 0.678996
0.78648 0.15671 0.698619
0 0.259953 0.522118
0.0422065 0.267079 0.569314
0.178195 0.253681 0.621897
0.300786 0.246998 0.658778
0.413397 0.24567 0.684169
0.523583 0.248219 0.703746
0.63241 0.253513 0.721508
0.742779 0.259968 0.740429
0.856184 0.266163 0.75967
0 0.374655 0.542916
0.0248722 0.383764 0.591318
0.1729 0.371252 0.655375
0.311421 0.365377 0.706325
0.441321 0.364691 0.741802
0.564965 0.3673 0.763699
0.681956 0.372473 0.779034
0.795377 0.377844 0.792477
0.909987 0.383276 0.806104
0 0.504723 0.547829
0.0242313 0.518196 0.598489
0.175235 0.507973 0.669017
0.316213 0.500771 0.731044
0.454871 0.495354 0.779309
0.590951 0.492744 0.806714
0.714656 0.495003 0.818189
0.828824 0.498527 0.82536
0.939788 0.500008 0.831006
0 0.642695 0.542107
0.0323491 0.654795 0.58909
0.184543 0.643503 0.656291
0.320745 0.636316 0.718044
0.452888 0.628672 0.774899
0.591959 0.617044 0.818402
0.722469 0.608774 0.831312
0.834409 0.605798 0.830457
0.941817 0.602304 0.829679
0 0.774945 0.52221
0.0492714 0.782361 0.564065
0.20029 0.765026 0.623407
0.329381 0.75256 0.675822
0.44828 0.741695 0.724987
0.569329 0.728649 0.77438
0.701656 0.711009 0.816037
0.819257 0.699916 0.814786
0.922637 0.691066 0.808103
0 0.887327 0.482307
0.0581064 0.888899 0.518624
0.208438 0.866056 0.5729
0.335424 0.848722 0.619821
0.45008 0.832944 0.66215
0.562524 0.815808 0.702708
0.672724 0.796719 0.741192
0.780255 0.77557 0.775341
0.877714 0.759518 0.76112
0 0.982727 0.426322
0.0563516 0.978439 0.457984
0.205447 0.948531 0.507759
0.329442 0.923598 0.549386
0.439994 0.90013 0.586145
0.547662 0.875425 0.621576
0.652964 0.849897 0.656886
0.745861 0.826856 0.695674
0.815763 0.81445 0.697505
0.011841 0.0796368 0.408057
0.0574655 0.0882734 0.493172
0.159564 0.0804761 0.557321
0.254322 0.0751354 0.598459
0.34165 0.0728923 0.623407
0.429236 0.0719005 0.6448
0.520439 0.0713664 0.668238
0.617227 0.0710918 0.694102
0.7187 0.0704814 0.720348
0 0.168383 0.559411
0.0478981 0.172274 0.598901
0.168887 0.160037 0.639109
0.2766 0.154589 0.673381
0.378119 0.15285 0.703624
0.48011 0.152422 0.729717
0.582345 0.153033 0.752194
0.686213 0.154681 0.773281
0.793713 0.157839 0.795239
0 0.266239 0.602472
0.0301823 0.273243 0.652277
0.167712 0.259495 0.706615
0.291737 0.252445 0.74728
0.407187 0.25037 0.777676
0.521401 0.251896 0.801785
0.634653 0.256474 0.823056
0.748074 0.262181 0.843565
0.862623 0.267903 0.863951
0 0.382422 0.633295
0.00994888 0.391562 0.68426
0.161364 0.378744 0.749081
0.300923 0.372854 0.801633
0.432288 0.371557 0.841337
0.559716 0.372488 0.86862
0.681224 0.375509 0.887053
0.798474 0.379843 0.901473
0.914168 0.384787 0.915206
0 0.515602 0.646555
0.00331121 0.528328 0.699763
0.159152 0.516503 0.772
0.302983 0.50811 0.833204
0.442466 0.50251 0.881758
0.580621 0.498772 0.913619
0.709895 0.498314 0.929763
0.828931 0.499596 0.93724
0.941024 0.500008 0.941695
0 0.655283 0.644388
0.00331121 0.666789 0.693889
0.159899 0.653666 0.763897
0.300786 0.644221 0.826642
0.436606 0.634318 0.881407
0.576562 0.622126 0.923033
0.711009 0.61149 0.941817
0.831113 0.605203 0.943404
0.940826 0.600702 0.941131
0 0.788357 0.62385
0.0118563 0.794812 0.666773
0.164462 0.77583 0.728069
0.296254 0.761791 0.782925
0.419547 0.748882 0.83444
0.547753 0.733104 0.88423
0.683635 0.714122 0.921767
0.811383 0.698146 0.928069
0.919036 0.687526 0.918929
0 0.900374 0.580362
0.0136721 0.901564 0.617365
0.164034 0.877913 0.672496
0.291203 0.859754 0.720409
0.406378 0.842985 0.763867
0.520272 0.824353 0.806104
0.634989 0.80235 0.847272
0.760037 0.77496 0.880659
0.871031 0.753933 0.870512
0 0.9953 0.52079
0.00683604 0.990478 0.552377
0.155291 0.95993 0.601526
0.278386 0.934234 0.6421
0.388098 0.910231 0.677653
0.495018 0.885252 0.711406
0.600214 0.859709 0.744091
0.704677 0.83386 0.776272
0.808957 0.808072 0.808026
