All_In_One/addons/Enrich_Colormaster/colormanagement/luts/film_response/Republic.cube
TITLE "Republic"
LUT_3D_SIZE 5
DOMAIN_MIN 0.000000 0.000000 0.000000
DOMAIN_MAX 0.903226 0.903226 0.903226
0.0000 0.0157 0.0000
0.0941 0.0275 0.0000
0.4431 0.0471 0.0078
0.6824 0.0980 0.0196
0.9059 0.1529 0.0353
0.0000 0.2275 0.0000
0.0902 0.2275 0.0039
0.4431 0.2392 0.0118
0.6784 0.2549 0.0235
0.9059 0.2745 0.0392
0.0078 0.4353 0.0078
0.1529 0.4353 0.0078
0.4392 0.4353 0.0078
0.6784 0.4471 0.0275
0.9059 0.4627 0.0471
0.0157 0.6824 0.0157
0.1725 0.6824 0.0196
0.4510 0.6784 0.0157
0.6745 0.6784 0.0078
0.9020 0.6863 0.0353
0.0275 0.9059 0.0314
0.1765 0.9059 0.0314
0.4510 0.9059 0.0314
0.6745 0.9020 0.0196
0.8980 0.9020 0.0118
0.0000 0.0235 0.1333
0.0941 0.0196 0.1333
0.4431 0.0392 0.1569
0.6824 0.0902 0.1608
0.9059 0.1490 0.1725
0.0000 0.2275 0.1294
0.0902 0.2275 0.1294
0.4314 0.2431 0.1647
0.6784 0.2627 0.1804
0.9059 0.2863 0.1882
0.0039 0.4353 0.1647
0.1608 0.4314 0.1765
0.4196 0.4275 0.1765
0.6745 0.4510 0.1961
0.9020 0.4667 0.2000
0.0118 0.6824 0.1804
0.1843 0.6784 0.1961
0.4510 0.6784 0.2000
0.6706 0.6745 0.2000
0.9020 0.6902 0.2039
0.0235 0.9059 0.1882
0.2000 0.9059 0.2078
0.4588 0.9020 0.2078
0.6784 0.9020 0.2118
0.8980 0.9020 0.2078
0.0157 0.0431 0.4314
0.1412 0.0392 0.4275
0.4431 0.0314 0.4275
0.6824 0.0824 0.4314
0.9059 0.1373 0.4275
0.0118 0.2275 0.4275
0.1490 0.2392 0.4157
0.4314 0.2314 0.4157
0.6784 0.2549 0.4314
0.9059 0.2784 0.4314
0.0039 0.4353 0.4196
0.1255 0.4314 0.4157
0.4392 0.4353 0.4196
0.6706 0.4549 0.4353
0.9020 0.4863 0.4431
0.0078 0.6824 0.4314
0.1451 0.6784 0.4314
0.4588 0.6706 0.4392
0.6667 0.6706 0.4431
0.8980 0.6941 0.4549
0.0196 0.9059 0.4353
0.1569 0.9059 0.4392
0.4784 0.9020 0.4549
0.6824 0.9020 0.4549
0.8941 0.8980 0.4588
0.0196 0.0941 0.6863
0.1529 0.0902 0.6863
0.4431 0.0824 0.6863
0.6824 0.0667 0.6863
0.9059 0.1255 0.6863
0.0196 0.2431 0.6863
0.1647 0.2549 0.6824
0.4431 0.2549 0.6824
0.6784 0.2471 0.6824
0.9059 0.2745 0.6863
0.0157 0.4471 0.6863
0.1412 0.4471 0.6824
0.4549 0.4549 0.6745
0.6706 0.4510 0.6745
0.9020 0.4784 0.6902
0.0039 0.6824 0.6824
0.1098 0.6784 0.6784
0.4353 0.6706 0.6706
0.6549 0.6824 0.6196
0.8902 0.7059 0.6353
0.0118 0.9059 0.6824
0.1216 0.9059 0.6824
0.4510 0.9020 0.6902
0.6706 0.8980 0.6392
0.8863 0.8980 0.6392
0.0392 0.1529 0.9176
0.1569 0.1490 0.9176
0.4431 0.1451 0.9176
0.6784 0.1333 0.9176
0.9059 0.1137 0.9176
0.0353 0.2667 0.9176
0.1765 0.2784 0.9176
0.4471 0.2784 0.9176
0.6824 0.2745 0.9176
0.9059 0.2667 0.9176
0.0235 0.4588 0.9176
0.1529 0.4627 0.9176
0.4667 0.4824 0.9137
0.6824 0.4784 0.9137
0.9020 0.4745 0.9137
0.0118 0.6902 0.9176
0.1216 0.6902 0.9176
0.4471 0.6941 0.9137
0.6667 0.7020 0.8941
0.8902 0.7020 0.8941
0.0039 0.9059 0.9137
0.0863 0.9059 0.9137
0.4196 0.9020 0.9098
0.6627 0.8980 0.8863
0.8824 0.9020 0.8745
