All_In_One/addons/Enrich_Colormaster/colormanagement/luts/film_response/SavingPrivateDamon.cube
TITLE "Generate by Resolve"
LUT_3D_SIZE 9
0 0 0
0 0 0
0 0 0
0 0 0
0 0.0268864 0.00648508
0 0.043534 0.0281071
0 0.0493477 0.0382849
0 0.047715 0.041413
0 0.0439155 0.0426032
0 0 0
0 0 0
0 0 0
0.044358 0 0
0.0530098 0.000793469 0.0221408
0.0488746 0.0155032 0.0445106
0.053315 0.0174563 0.0448768
0.0404669 0.0272526 0.0433051
0.0357824 0.0665446 0.083711
0 0 0.00827039
0 0 0
0 0 0
0.0948043 0.00805676 0
0.154543 0.0249943 0.0121309
0.18265 0.0506447 0.048661
0.218845 0.0763714 0.0515908
0.232776 0.10988 0.0870832
0.220325 0.152087 0.152651
0.0093843 0.0756542 0.0430762
0 0.107195 0.0239719
0.00416571 0.132677 0
0.113787 0.143343 0
0.207721 0.151568 0.0173037
0.270298 0.16762 0.0589609
0.325719 0.188205 0.0704662
0.356603 0.218265 0.139574
0.356924 0.256535 0.22005
0.00723278 0.195911 0.0600137
0 0.228962 0.0372168
0.03505 0.261387 0
0.132876 0.277165 0
0.237049 0.284642 0.0502632
0.323323 0.296559 0.0775311
0.395087 0.315221 0.129976
0.441489 0.340536 0.208103
0.459342 0.37406 0.299794
0.0172732 0.313085 0.0906691
0.0517739 0.347829 0.0773938
0.104967 0.378607 0.0513008
0.190372 0.397681 0.0636606
0.285573 0.411719 0.110857
0.375891 0.428443 0.150759
0.455268 0.446143 0.212665
0.512474 0.468421 0.29427
0.544182 0.496849 0.392432
0.114549 0.42742 0.193851
0.15552 0.460426 0.197467
0.208698 0.489418 0.195102
0.277226 0.514 0.202899
0.355993 0.534936 0.222782
0.440528 0.553262 0.261509
0.517555 0.570413 0.321675
0.577249 0.58941 0.403525
0.615991 0.612085 0.504662
0.230457 0.533623 0.314366
0.267338 0.565103 0.320241
0.310994 0.595483 0.315969
0.371939 0.620157 0.328069
0.443687 0.64097 0.354177
0.518669 0.659464 0.395773
0.586603 0.676097 0.455955
0.642451 0.693156 0.53695
0.684672 0.712398 0.608301
0.341375 0.6336 0.425223
0.378256 0.662455 0.435737
0.423117 0.689357 0.443656
0.482963 0.71133 0.469322
0.545235 0.730755 0.502693
0.606622 0.74818 0.548318
0.662943 0.763989 0.606821
0.710033 0.779324 0.672007
0.746822 0.797726 0.694743
0 0 0
0 0 0
0 0 0
0 0 0
0 0.0179141 0
0 0.0442512 0
0 0.0505531 0
0 0.0493477 0.00541695
0 0.0405737 0.00865187
0 0 0
0 0 0
0 0 0
0.0624094 0 0
0.111604 0 0
0.0897841 0.0157015 0.0136721
0.100114 0.0193332 0.0230411
0.0966964 0.0235904 0.0407111
0.0797284 0.0670787 0.0850996
0 0 0
0 0 0
0 0.000289921 0
0.10985 0.00654612 0
0.206271 0.0168002 0
0.229953 0.0454566 0.0276951
0.258305 0.075227 0.0583963
0.281407 0.108431 0.103212
0.277028 0.149432 0.156405
0.00314336 0.070573 0.0394598
0 0.100969 0.0419928
0.00888075 0.132189 0.00750744
0.116518 0.147753 0
0.242756 0.151644 0
0.312398 0.166018 0.0403906
0.360754 0.190036 0.0995346
0.399588 0.218875 0.156619
0.408057 0.255924 0.223468
0.0139925 0.192035 0.0997177
0.0128328 0.22501 0.0904707
0.0462501 0.261479 0.0401923
0.124392 0.288457 0
0.247654 0.295293 0.00387579
0.347707 0.302907 0.0757305
0.423056 0.320302 0.149538
0.477226 0.343648 0.21593
0.503594 0.37557 0.294606
0.0419471 0.315877 0.1608
0.0704204 0.352102 0.152636
0.106493 0.388952 0.114382
0.16965 0.418967 0.0599985
0.278889 0.430518 0.0935683
0.383612 0.439979 0.165408
0.473472 0.455451 0.219013
0.53901 0.474922 0.28867
0.578912 0.501274 0.374731
0.119371 0.438437 0.238102
0.151827 0.474281 0.235706
0.192569 0.507866 0.216754
0.255055 0.535058 0.200412
0.347341 0.550286 0.235447
0.439536 0.566766 0.268345
0.525597 0.582345 0.314611
0.593805 0.598825 0.383246
0.640558 0.619257 0.471992
0.221637 0.548608 0.339269
0.258259 0.579705 0.346471
0.303166 0.608179 0.345968
0.362112 0.632853 0.350378
0.432364 0.654429 0.363455
0.511055 0.672969 0.389975
0.586114 0.688838 0.435065
0.649561 0.704021 0.501579
0.697124 0.721019 0.588037
0.338155 0.644022 0.453071
0.373312 0.672572 0.463203
0.412894 0.70016 0.464271
0.46717 0.723552 0.47602
0.529824 0.743557 0.497017
0.594232 0.760952 0.528191
0.656199 0.77644 0.574487
0.710323 0.79057 0.635462
0.753033 0.804685 0.707439
0 0 0
0 0 0
0 0 0
0 0 0
0.00704967 0.00636301 0
0 0.0353704 0
0 0.0498054 0
0 0.0499275 0
0 0.0426795 0
0 0 0
0 0 0
0 0 0
0.0462043 0 0
0.13666 0 0.00807202
0.156451 0.00546273 0.0247044
0.141344 0.0220035 0.0451667
0.148714 0.0199588 0.0634012
0.142824 0.0613718 0.0962387
0 0 0
0 0 0.010132
0 0.0107881 0.033814
0.105913 0.00747692 0.0340429
0.226703 0.0133669 0.0425727
0.297383 0.0335546 0.0656748
0.292866 0.0746929 0.110109
0.325948 0.10631 0.141222
0.331502 0.14551 0.179217
0 0.0693065 0.0812543
0.0077821 0.0976272 0.107607
0.0416724 0.127657 0.121538
0.114046 0.148806 0.04477
0.261036 0.149599 0.044358
0.372412 0.158114 0.0773938
0.403006 0.187747 0.149111
0.438636 0.217533 0.197009
0.456641 0.25359 0.247242
0.0263676 0.188464 0.164508
0.0564126 0.220935 0.181827
0.0872511 0.255161 0.176089
0.131823 0.28925 0.102922
0.252293 0.301701 0.0579538
0.386862 0.305074 0.0906996
0.460578 0.320684 0.180713
0.511254 0.344289 0.247379
0.545235 0.374472 0.310048
0.0809033 0.313817 0.236225
0.111833 0.348486 0.245884
0.142718 0.385046 0.231846
0.180743 0.422431 0.173022
0.269551 0.446097 0.122698
0.394675 0.453361 0.151263
0.494545 0.462638 0.237888
0.565194 0.479271 0.305043
0.612512 0.503182 0.376669
0.149126 0.440131 0.307759
0.178897 0.476036 0.313237
0.209049 0.512474 0.297368
0.246738 0.548348 0.253666
0.323705 0.571694 0.230777
0.431907 0.582559 0.26627
0.53196 0.593072 0.328328
0.609873 0.606928 0.382177
0.664698 0.624674 0.456565
0.229404 0.5579 0.386877
0.259892 0.590585 0.392493
0.293523 0.622354 0.383398
0.337621 0.651835 0.363836
0.412726 0.67068 0.374166
0.50161 0.684993 0.40618
0.583444 0.700679 0.433402
0.655604 0.714229 0.483116
0.711086 0.728725 0.555123
0.332082 0.656397 0.483955
0.365927 0.684489 0.494911
0.404639 0.710872 0.497749
0.453559 0.734279 0.500267
0.515404 0.754391 0.512917
0.580423 0.772427 0.528267
0.646769 0.787686 0.556771
0.708156 0.801114 0.603769
0.758328 0.813825 0.667002
0 0 0
0 0 0
0 0 0
0 0 0
0.012665 0 0
0.0331273 0.0205081 0
0 0.0482032 0
0 0.0500801 0
0 0.0441138 0.00634775
0 0 0
0 0 0
0 0 0
0.0146639 0 0.0126497
0.117983 0 0.0675212
0.196048 0 0.0914626
0.181964 0.0191501 0.094377
0.190387 0.0226902 0.104341
0.196857 0.0568551 0.125582
0 0 0
0 0 0.0272221
0 0.0179294 0.0541085
0.0663615 0.0284123 0.0902419
0.198322 0.0265812 0.14818
0.319799 0.0322728 0.166644
0.352392 0.0653391 0.179248
0.358557 0.105837 0.199191
0.376822 0.142794 0.222187
0 0.0738537 0.108171
0.0307927 0.10309 0.140719
0.0707561 0.13138 0.171618
0.116274 0.157763 0.195987
0.255985 0.15201 0.196307
0.393881 0.155718 0.200473
0.467414 0.176699 0.221912
0.467613 0.216632 0.262119
0.495155 0.251102 0.293706
0.0585184 0.190768 0.209873
0.0949111 0.220966 0.238926
0.135363 0.250889 0.264408
0.176043 0.281224 0.275013
0.252201 0.30457 0.198077
0.40798 0.304707 0.197299
0.518181 0.313436 0.233402
0.545037 0.342306 0.304112
0.579843 0.371939 0.351583
0.120562 0.313237 0.295933
0.157 0.345464 0.31957
0.193713 0.37818 0.334051
0.228504 0.413153 0.32546
0.275563 0.448905 0.247532
0.399619 0.461448 0.220203
0.530312 0.465522 0.255512
0.59556 0.480293 0.34197
0.642054 0.502739 0.405859
0.188586 0.439292 0.374533
0.221851 0.473198 0.392706
0.254597 0.507698 0.398474
0.285649 0.543038 0.380575
0.324224 0.579232 0.316274
0.421042 0.597559 0.293858
0.540246 0.605142 0.324712
0.626322 0.613458 0.403815
0.686824 0.628107 0.46746
0.260151 0.559899 0.450919
0.290623 0.591669 0.464195
0.320699 0.623896 0.464179
0.351156 0.65626 0.44477
0.39321 0.687007 0.404898
0.478981 0.703426 0.406882
0.576715 0.713481 0.439414
0.660441 0.723369 0.490455
0.724178 0.735454 0.546014
0.34229 0.664378 0.531182
0.372229 0.692851 0.542763
0.403357 0.721187 0.543389
0.438193 0.748318 0.532662
0.491905 0.769711 0.528481
0.563943 0.784573 0.544137
0.637278 0.79762 0.566552
0.704555 0.810407 0.594156
0.762448 0.821851 0.642863
0 0 0
0 0 0
0 0 0
0 0 0
0.0031281 0 0
0.0574807 0.00660716 0.0191653
0.0427253 0.0354314 0.0162203
0.0314946 0.047715 0.0218051
0.0222629 0.043946 0.0310826
0 0 0
0 0 0
0 0 0
0.00209049 0 0.0298924
0.0876631 0 0.097673
0.188525 0 0.15024
0.227771 0.00523384 0.15964
0.216403 0.0237888 0.154253
0.238193 0.0549935 0.168887
0 0 0.0172885
0 0.00164797 0.0479438
0.00527962 0.0267338 0.0810712
0.0596017 0.0437476 0.120806
0.154177 0.0502174 0.191745
0.287205 0.0488594 0.252094
0.384543 0.0622568 0.27129
0.380926 0.107195 0.268894
0.406973 0.142855 0.279973
0.00920119 0.0820783 0.130999
0.0438087 0.111269 0.163729
0.083238 0.139361 0.193835
0.128878 0.164599 0.219409
0.206867 0.175784 0.261189
0.356329 0.170977 0.32311
0.485527 0.176318 0.337026
0.512932 0.210224 0.343725
0.520516 0.250782 0.359503
0.0807965 0.196323 0.24033
0.119615 0.226215 0.27187
0.163409 0.255161 0.302007
0.210346 0.283253 0.330663
0.261463 0.310353 0.354543
0.403388 0.307256 0.35845
0.53875 0.31107 0.361379
0.601846 0.332204 0.381994
0.604746 0.370352 0.419532
0.152956 0.315984 0.338064
0.193362 0.346853 0.367681
0.236652 0.376913 0.3953
0.281651 0.407294 0.420218
0.325246 0.4383 0.430289
0.399786 0.464668 0.36228
0.549813 0.465232 0.361318
0.645502 0.473869 0.398123
0.668513 0.500816 0.46479
0.226032 0.440131 0.427161
0.263798 0.472404 0.453956
0.303136 0.504265 0.476371
0.341283 0.535851 0.48983
0.376745 0.568872 0.479393
0.427024 0.60061 0.416297
0.544015 0.612802 0.391333
0.655863 0.616739 0.426093
0.71043 0.629511 0.505501
0.297826 0.560723 0.510185
0.332036 0.591028 0.532448
0.366552 0.62121 0.547616
0.399451 0.651286 0.550896
0.43061 0.682445 0.530556
0.477684 0.711238 0.485954
0.566506 0.726757 0.468467
0.666178 0.733532 0.496468
0.736675 0.741085 0.565911
0.371847 0.667109 0.588159
0.403128 0.694713 0.605554
0.433921 0.722133 0.614359
0.464012 0.749752 0.611872
0.494026 0.7776 0.590753
0.546059 0.798444 0.575753
0.619303 0.811826 0.577417
0.698878 0.820356 0.603342
0.76556 0.828885 0.64448
0 0 0
0 0 0
0 0 0
0 0 0
0 0 0.00228885
0.0578775 0 0.0511025
0.0829633 0.0183566 0.0651713
0.0610513 0.0428779 0.0555734
0.0680858 0.0419623 0.0654459
0 0 0
0 0 0
0 0 0.00523384
0 0 0.051545
0.0696269 0 0.117891
0.162676 0 0.185565
0.241932 0 0.222461
0.239643 0.0218662 0.209888
0.265141 0.0569314 0.219196
0 0 0.0376898
0 0.0104524 0.0716716
0.0133669 0.0355993 0.108965
0.0621653 0.0561227 0.153262
0.138506 0.0671397 0.217762
0.246128 0.0719158 0.294896
0.367315 0.0753796 0.347601
0.415198 0.104768 0.349615
0.421149 0.147448 0.343603
0.0194247 0.0909743 0.154025
0.0539101 0.120119 0.187747
0.0931868 0.148013 0.219669
0.13814 0.173297 0.25127
0.202899 0.189609 0.292821
0.304265 0.197482 0.369528
0.446372 0.195148 0.428794
0.539223 0.209567 0.442084
0.533089 0.254627 0.43508
0.0966964 0.204211 0.265934
0.135576 0.234119 0.297597
0.178805 0.263172 0.327413
0.224582 0.291264 0.354864
0.275624 0.317159 0.378759
0.353872 0.33135 0.423682
0.502968 0.327337 0.486885
0.618479 0.33257 0.499031
0.640406 0.365896 0.504952
0.177035 0.321752 0.369345
0.218708 0.3523 0.400351
0.263905 0.381811 0.43032
0.312016 0.411231 0.460121
0.362219 0.439963 0.489052
0.415671 0.468071 0.514519
0.546593 0.467918 0.522744
0.663996 0.47187 0.525704
0.715587 0.492195 0.544991
0.256641 0.443503 0.46656
0.297551 0.475166 0.497383
0.341329 0.505348 0.526574
0.387015 0.534707 0.554009
0.433356 0.563165 0.577676
0.47808 0.591928 0.58706
0.544915 0.616281 0.53048
0.672923 0.617609 0.529213
0.75079 0.624964 0.564065
0.332891 0.563149 0.557717
0.370687 0.59234 0.584787
0.410452 0.620661 0.608759
0.450553 0.648325 0.62855
0.489219 0.675746 0.639902
0.523537 0.704341 0.628443
0.572305 0.730114 0.583825
0.66923 0.74081 0.560967
0.759625 0.744564 0.592096
0.406607 0.669139 0.637736
0.441138 0.695644 0.660105
0.476295 0.721416 0.677867
0.510842 0.74699 0.689876
0.542031 0.77232 0.690898
0.569116 0.798627 0.669444
0.617426 0.818769 0.647379
0.69012 0.831327 0.632776
0.769284 0.836942 0.655222
0 0 0
0 0 0
0 0 0
0 0 0
0 0 0.0189822
0.0519875 0 0.074876
0.100465 0.00537118 0.108904
0.0919661 0.0317082 0.0979477
0.100114 0.0383459 0.103517
0 0 0
0 0 0
0 0 0.0265049
0 0 0.0742351
0.0620737 0 0.139513
0.141817 0 0.209628
0.230426 0 0.267124
0.26836 0.0220951 0.274937
0.278676 0.0630198 0.269093
0 0 0.0595865
0 0.0193942 0.0968185
0.0217899 0.0448005 0.137697
0.0681315 0.066743 0.184771
0.135409 0.0806439 0.246815
0.223514 0.0909743 0.322515
0.333776 0.0962539 0.392554
0.422736 0.111284 0.423636
0.427451 0.155261 0.405585
0.0287022 0.100099 0.178454
0.0632639 0.129183 0.213703
0.102602 0.15697 0.248234
0.147234 0.18233 0.284169
0.205066 0.202411 0.329229
0.286076 0.215808 0.396353
0.400137 0.220417 0.47216
0.520424 0.224979 0.519432
0.559915 0.255085 0.516136
0.109224 0.213016 0.290929
0.147845 0.242985 0.323033
0.190188 0.271839 0.353231
0.235706 0.300099 0.382528
0.286 0.326101 0.412757
0.352117 0.344732 0.456199
0.453407 0.354467 0.531731
0.584283 0.352621 0.586664
0.663325 0.366979 0.598199
0.195148 0.329442 0.39617
0.236408 0.359762 0.427115
0.281422 0.389731 0.457465
0.328511 0.419272 0.4869
0.377295 0.448188 0.514672
0.430594 0.474983 0.538659
0.503639 0.49221 0.583719
0.63328 0.488121 0.640436
0.729809 0.493629 0.651286
0.280751 0.449592 0.498192
0.322713 0.480949 0.529854
0.367849 0.510597 0.559762
0.415625 0.539422 0.588815
0.465202 0.566934 0.61648
0.515099 0.593545 0.643046
0.563882 0.618204 0.665507
0.670832 0.620005 0.674174
0.766033 0.623652 0.676982
0.362112 0.567239 0.593439
0.40238 0.596063 0.622217
0.44535 0.623331 0.649058
0.490455 0.649805 0.674693
0.535134 0.674968 0.698131
0.577905 0.699138 0.718044
0.616739 0.723171 0.724926
0.670604 0.744152 0.683833
0.773129 0.745739 0.681788
0.438895 0.672129 0.67628
0.476493 0.6981 0.701289
0.515618 0.722759 0.723751
0.554101 0.74641 0.743664
0.590875 0.769421 0.759915
0.623941 0.791821 0.7682
0.651362 0.814984 0.75523
0.695094 0.834333 0.729442
0.77142 0.843168 0.710491
0 0 0
0 0 0
0 0 0
0 0 0
0 0 0.0348669
0.0472725 0 0.0958572
0.102983 0 0.14229
0.118837 0.0181582 0.145418
0.119997 0.0337835 0.140398
0 0 0
0 0 0.0101625
0 0 0.0479438
0 0 0.0975814
0.056672 0 0.161563
0.133303 0 0.236103
0.217441 0.00633249 0.302068
0.279347 0.0284428 0.331624
0.284688 0.07187 0.315007
0 0.00222782 0.0823682
0 0.0282292 0.122683
0.0301976 0.0539101 0.166659
0.0753643 0.0767529 0.216068
0.135561 0.0938888 0.276875
0.21474 0.106004 0.350149
0.308629 0.115679 0.422095
0.406226 0.126818 0.474479
0.444419 0.160067 0.471153
0.0376745 0.109316 0.204166
0.0724041 0.138338 0.241184
0.11194 0.166049 0.278233
0.156527 0.191577 0.317342
0.211276 0.213352 0.36437
0.283757 0.229084 0.426764
0.375158 0.240864 0.498756
0.486397 0.247456 0.5617
0.565591 0.263844 0.584878
0.120226 0.222202 0.31667
0.158694 0.252201 0.349615
0.200778 0.28101 0.381109
0.246143 0.309209 0.412909
0.295842 0.335256 0.447623
0.358175 0.35555 0.492775
0.436484 0.372915 0.557351
0.544137 0.378454 0.625452
0.647837 0.383307 0.66627
0.209735 0.338155 0.421927
0.250523 0.368627 0.453269
0.294759 0.398764 0.484108
0.340612 0.428214 0.513771
0.388785 0.457237 0.542748
0.441016 0.483635 0.571725
0.503441 0.505043 0.613977
0.592248 0.514824 0.678904
0.701762 0.513664 0.725765
0.299794 0.457328 0.525612
0.341619 0.488472 0.556649
0.386633 0.518135 0.586114
0.433585 0.5467 0.614176
0.481941 0.574395 0.640894
0.529152 0.600473 0.66508
0.577737 0.623667 0.68481
0.636698 0.64033 0.724056
0.741604 0.637766 0.771847
0.385962 0.573251 0.621988
0.427131 0.601755 0.65066
0.471305 0.628656 0.677699
0.516884 0.654383 0.703548
0.562158 0.679088 0.728328
0.606104 0.702296 0.751568
0.648615 0.724315 0.77348
0.689708 0.744884 0.792416
0.772152 0.747951 0.800916
0.466911 0.676738 0.706462
0.505959 0.702022 0.731807
0.546777 0.726177 0.755856
0.586954 0.748882 0.778225
0.626245 0.770397 0.7991
0.664302 0.790936 0.81828
0.699886 0.810254 0.834028
0.731243 0.828992 0.837903
0.772824 0.845899 0.810788
0 0 0
0 0 0
0 0 0
0 0 0
0 0 0.0513619
0.0446937 0 0.116411
0.100572 0 0.169039
0.13254 0.00798047 0.18674
0.130556 0.0290227 0.173037
0 0 0
0 0 0.0290684
0 0 0.0698253
0.00335698 0 0.121233
0.0578927 0 0.186908
0.130449 0.00729381 0.263355
0.207553 0.02121 0.331212
0.277104 0.0400244 0.374563
0.300725 0.0773022 0.367742
0 0.0107729 0.106233
0.00163272 0.0372625 0.149371
0.0387579 0.0631113 0.195987
0.0831922 0.0864881 0.247288
0.139422 0.105547 0.307622
0.213138 0.118761 0.379995
0.294865 0.132448 0.44892
0.386145 0.144884 0.50811
0.447776 0.169802 0.524651
0.0466011 0.118593 0.2309
0.0815442 0.14757 0.269673
0.121035 0.174914 0.308598
0.165911 0.20087 0.350484
0.218967 0.223636 0.398886
0.286946 0.240284 0.459785
0.365286 0.256855 0.524697
0.461051 0.268238 0.588342
0.550866 0.280674 0.630137
0.130617 0.231556 0.343343
0.1691 0.261555 0.377295
0.211124 0.290333 0.410346
0.256428 0.318486 0.444663
0.305699 0.344533 0.482399
0.364721 0.366644 0.528572
0.434501 0.386145 0.585397
0.522347 0.39913 0.649226
0.619181 0.405936 0.702922
0.222385 0.347326 0.447898
0.262776 0.377966 0.479957
0.306401 0.408194 0.51133
0.35169 0.437629 0.541711
0.399466 0.466514 0.572427
0.451118 0.492836 0.604959
0.509773 0.515312 0.646342
0.579049 0.532372 0.701335
0.669154 0.53817 0.758022
0.31548 0.466026 0.550851
0.356725 0.496895 0.581247
0.401205 0.52668 0.610437
0.44712 0.555108 0.638041
0.493965 0.582666 0.66453
0.539757 0.608301 0.689204
0.586999 0.630884 0.713237
0.637629 0.650889 0.749752
0.709484 0.660014 0.802213
0.405447 0.580392 0.646479
0.446418 0.608454 0.674327
0.490715 0.635431 0.701045
0.534997 0.660929 0.726116
0.578485 0.685283 0.749783
0.620584 0.708446 0.771862
0.660899 0.730053 0.791562
0.70193 0.748699 0.8065
0.746883 0.764065 0.83949
0.490333 0.68246 0.730968
0.529595 0.707408 0.755978
0.570138 0.731121 0.779751
0.610056 0.753353 0.80206
0.649149 0.774334 0.823117
0.687022 0.794079 0.842939
0.723491 0.812757 0.861677
0.757778 0.829999 0.87892
0.790051 0.845762 0.893553
