All_In_One/addons/Enrich_Colormaster/colormanagement/luts/film_response/SavingPrivateDamon.cube
TITLE "Generate by Resolve"
LUT_3D_SIZE 5
0 0 0
0 0 0
0 0.0268864 0.00648508
0 0.0493477 0.0382849
0 0.0439155 0.0426032
0 0 0.00827039
0 0 0
0.154543 0.0249943 0.0121309
0.218845 0.0763714 0.0515908
0.220325 0.152087 0.152651
0.00723278 0.195911 0.0600137
0.03505 0.261387 0
0.237049 0.284642 0.0502632
0.395087 0.315221 0.129976
0.459342 0.37406 0.299794
0.114549 0.42742 0.193851
0.208698 0.489418 0.195102
0.355993 0.534936 0.222782
0.517555 0.570413 0.321675
0.615991 0.612085 0.504662
0.341375 0.6336 0.425223
0.423117 0.689357 0.443656
0.545235 0.730755 0.502693
0.662943 0.763989 0.606821
0.746822 0.797726 0.694743
0 0 0
0 0 0
0.00704967 0.00636301 0
0 0.0498054 0
0 0.0426795 0
0 0 0
0 0.0107881 0.033814
0.226703 0.0133669 0.0425727
0.292866 0.0746929 0.110109
0.331502 0.14551 0.179217
0.0263676 0.188464 0.164508
0.0872511 0.255161 0.176089
0.252293 0.301701 0.0579538
0.460578 0.320684 0.180713
0.545235 0.374472 0.310048
0.149126 0.440131 0.307759
0.209049 0.512474 0.297368
0.323705 0.571694 0.230777
0.53196 0.593072 0.328328
0.664698 0.624674 0.456565
0.332082 0.656397 0.483955
0.404639 0.710872 0.497749
0.515404 0.754391 0.512917
0.646769 0.787686 0.556771
0.758328 0.813825 0.667002
0 0 0
0 0 0
0.0031281 0 0
0.0427253 0.0354314 0.0162203
0.0222629 0.043946 0.0310826
0 0 0.0172885
0.00527962 0.0267338 0.0810712
0.154177 0.0502174 0.191745
0.384543 0.0622568 0.27129
0.406973 0.142855 0.279973
0.0807965 0.196323 0.24033
0.163409 0.255161 0.302007
0.261463 0.310353 0.354543
0.53875 0.31107 0.361379
0.604746 0.370352 0.419532
0.226032 0.440131 0.427161
0.303136 0.504265 0.476371
0.376745 0.568872 0.479393
0.544015 0.612802 0.391333
0.71043 0.629511 0.505501
0.371847 0.667109 0.588159
0.433921 0.722133 0.614359
0.494026 0.7776 0.590753
0.619303 0.811826 0.577417
0.76556 0.828885 0.64448
0 0 0
0 0 0
0 0 0.0189822
0.100465 0.00537118 0.108904
0.100114 0.0383459 0.103517
0 0 0.0595865
0.0217899 0.0448005 0.137697
0.135409 0.0806439 0.246815
0.333776 0.0962539 0.392554
0.427451 0.155261 0.405585
0.109224 0.213016 0.290929
0.190188 0.271839 0.353231
0.286 0.326101 0.412757
0.453407 0.354467 0.531731
0.663325 0.366979 0.598199
0.280751 0.449592 0.498192
0.367849 0.510597 0.559762
0.465202 0.566934 0.61648
0.563882 0.618204 0.665507
0.766033 0.623652 0.676982
0.438895 0.672129 0.67628
0.515618 0.722759 0.723751
0.590875 0.769421 0.759915
0.651362 0.814984 0.75523
0.77142 0.843168 0.710491
0 0 0
0 0 0
0 0 0.0513619
0.100572 0 0.169039
0.130556 0.0290227 0.173037
0 0.0107729 0.106233
0.0387579 0.0631113 0.195987
0.139422 0.105547 0.307622
0.294865 0.132448 0.44892
0.447776 0.169802 0.524651
0.130617 0.231556 0.343343
0.211124 0.290333 0.410346
0.305699 0.344533 0.482399
0.434501 0.386145 0.585397
0.619181 0.405936 0.702922
0.31548 0.466026 0.550851
0.401205 0.52668 0.610437
0.493965 0.582666 0.66453
0.586999 0.630884 0.713237
0.709484 0.660014 0.802213
0.490333 0.68246 0.730968
0.570138 0.731121 0.779751
0.649149 0.774334 0.823117
0.723491 0.812757 0.861677
0.790051 0.845762 0.893553
