All_In_One/addons/Enrich_Colormaster/colormanagement/luts/film_response/SavingPrivateDamon.cube
TITLE "Generate by Resolve"
LUT_3D_SIZE 33
0 0 0
0 0 0
0 0 0
0 0 0
0 0 0
0 0 0
0 0 0
0 0 0
0 0 0
0 0 0
0 0 0
0 0 0
0 0 0
0 0.005066 0
0 0.0120851 0
0 0.0195315 0
0 0.0268864 0.00648508
0 0.0337682 0.0151369
0 0.038056 0.0205997
0 0.0410315 0.0245518
0 0.043534 0.0281071
0 0.0456855 0.031281
0 0.0473793 0.0340429
0 0.0485695 0.0363775
0 0.0493477 0.0382849
0 0.0496681 0.039765
0 0.0495308 0.0407874
0 0.0488289 0.0413062
0 0.047715 0.041413
0 0.0461585 0.041062
0 0.0441138 0.0402533
0 0.0437629 0.0411994
0 0.0439155 0.0426032
0 0 0
0 0 0
0 0 0
0 0 0
0 0 0
0 0 0
0 0 0
0 0 0
0 0 0
0 0 0
0 0 0
0 0 0
0 0 0
0 7.62951e-05 0
0 0.00662242 0
0 0.0136721 0.0028687
0 0.020737 0.0123751
0 0.0274052 0.0212558
0 0.0318456 0.0271
0 0.0344854 0.0305028
0 0.0366827 0.0335241
0 0.0384222 0.0360876
0 0.0397345 0.0382544
0 0.0406348 0.0400092
0 0.0410773 0.0413367
0 0.0409705 0.0421607
0 0.0404822 0.0425879
0 0.0395514 0.0425574
0 0.0381323 0.0420844
0 0.0361944 0.0411078
0 0.0338903 0.0397498
0 0.0328374 0.0396429
0 0.0327459 0.0404822
0 0 0
0 0 0
0 0 0
0 0 0
0 0 0
0 0 0
0 0 0
0 0 0
0 0 0
0 0 0
0 0 0
0 0 0
0 0 0
0.00265507 0 0
0.000183108 0.000579843 0
0 0.00717174 0.00794995
0 0.0138705 0.0178378
0 0.0202487 0.0270848
0 0.0250858 0.0337377
0 0.0274052 0.0364996
0 0.0292973 0.0388495
0 0.0307927 0.0408026
0 0.0318456 0.0423285
0 0.0323949 0.0433814
0 0.0325628 0.0440528
0 0.0322881 0.0442969
0 0.0315862 0.0440986
0 0.0303502 0.0434119
0 0.0287633 0.042359
0 0.0267796 0.0409247
0 0.0243687 0.0390631
0 0.029221 0.0420844
0 0.0345922 0.0480201
0 0 0
0 0 0
0 0 0
0 0 0
0 0 0
0 0 0
0 0 0
0 0 0
0 0 0
0 0 0
0.000595102 0 0
0.0135805 0 0
0.0235142 0 0
0.0294041 0 0
0.0304723 0 0.000808728
0.0266117 0.00077821 0.0109255
0.0196994 0.00709544 0.0213169
0.0118868 0.0131533 0.0310063
0.00480659 0.0183566 0.0388952
0.00743114 0.0204776 0.041001
0.00909438 0.0221561 0.0426947
0.0102388 0.0233616 0.0439307
0.00982681 0.0242008 0.0448157
0.00840772 0.0246281 0.0452735
0.00575265 0.0246128 0.0453346
0.00244144 0.0241093 0.0449226
0 0.0232853 0.0441901
0 0.0220493 0.043061
0 0.0204013 0.0415351
0 0.0221561 0.04065
0 0.0332036 0.0479286
0 0.0441444 0.0604715
0 0.0495766 0.0660868
0 0 0
0 0 0
0 0 0
0 0 0
0 0 0
0 0 0
0 0 0
0 0 0
0 0 0
0 0 0
0.0152895 0 0
0.0311437 0 0
0.044358 0 0
0.0534066 0 0
0.0575418 0 0.000808728
0.0572213 0 0.0112001
0.0530098 0.000793469 0.0221408
0.0470741 0.00656138 0.0324865
0.0406195 0.0118868 0.0415808
0.0450446 0.0139925 0.0434577
0.0488746 0.0155032 0.0445106
0.0516213 0.0166018 0.045182
0.0531777 0.0173037 0.0454871
0.0537728 0.0175937 0.0453651
0.053315 0.0174563 0.0448768
0.0511482 0.016968 0.0440528
0.0475929 0.016083 0.0428626
0.0433051 0.0173648 0.0420233
0.0404669 0.0272526 0.0433051
0.0358129 0.0375982 0.0498817
0.0301366 0.0486152 0.0632334
0.0229343 0.06009 0.0770733
0.0357824 0.0665446 0.083711
0 0 0
0 0 0
0 0 0
0 0 0
0 0 0
0 0 0
0 0 0
0 0 0
0 0 0
0.00587472 0 0
0.0264744 0 0
0.0450904 0 0
0.0610666 0 0
0.07364 0 0
0.0812543 0 0
0.0837873 0 0.00866712
0.0824903 0 0.020264
0.0794385 0.000701915 0.0312657
0.0751659 0.00576791 0.041001
0.079057 0.00828565 0.0438544
0.0848402 0.00970474 0.0443732
0.0898604 0.0106813 0.0444648
0.0933547 0.0113069 0.0442664
0.095491 0.0115511 0.0437324
0.096376 0.011429 0.0428931
0.0974899 0.0173648 0.0435187
0.0985885 0.026215 0.0446632
0.097734 0.0352026 0.0457008
0.095613 0.04477 0.05037
0.0923018 0.0551766 0.0637675
0.087602 0.0659953 0.0776074
0.0818647 0.0775006 0.0921798
0.088777 0.0853895 0.100969
0 0 0
0 0 0
0 0 0
0 0 0
0 0 0
0 0 0
0 0 0
0 0 0
0 0 0
0.0104219 0 0
0.0332189 0 0
0.0546273 0 0
0.0737316 0 0
0.0891737 0 0
0.100053 0 0
0.106096 0 0.00340276
0.107988 0 0.0157168
0.107179 0 0.0276646
0.10518 0.000671397 0.0382086
0.109316 0.00349432 0.042237
0.117296 0.00482185 0.0422675
0.124224 0.00781262 0.0426337
0.131075 0.0147402 0.0438697
0.136721 0.0220035 0.0450141
0.14168 0.0298009 0.0460365
0.144808 0.0377661 0.0469825
0.146502 0.046067 0.047837
0.146777 0.0548257 0.0495308
0.14609 0.0645304 0.0629435
0.14435 0.0749371 0.0770886
0.140414 0.0855879 0.0915847
0.134859 0.0966812 0.1066
0.136599 0.105974 0.118074
0 0 0.00128176
0 0 0.00129702
0 0 0
0 0 0
0 0 0
0 0 0
0 0 0
0 0 0
0 0 0
0.0126192 0 0
0.0373083 0 0
0.060914 0 0
0.0824903 0 0
0.101015 0 0
0.115724 0 0
0.125292 0 0
0.130755 0 0.0117037
0.133501 0.00407416 0.0253452
0.135271 0.0121309 0.0377356
0.140948 0.0191043 0.0443275
0.151583 0.0250401 0.0454414
0.161089 0.0312657 0.0464637
0.169375 0.0378271 0.0473945
0.176837 0.0449683 0.048249
0.182559 0.0522011 0.0490425
0.186816 0.0598154 0.0497902
0.189609 0.0678264 0.0504921
0.191379 0.0767529 0.0609445
0.192065 0.0864424 0.0751965
0.190692 0.0963912 0.0898299
0.187533 0.106828 0.105074
0.182742 0.117754 0.120836
0.179797 0.128267 0.135363
0 0 0.00827039
0 0 0.00939956
0 0 0.00900282
0 0 0.00579843
0 0 0
0 0 0
0 0 0
0 0 0
0 0 0
0.0188602 0.00120546 0
0.0450752 0.00337224 0
0.0706951 0.00553903 0
0.0948043 0.00805676 0
0.115877 0.0108644 0
0.133059 0.0144656 0
0.145678 0.019089 0
0.154543 0.0249943 0.0121309
0.160113 0.0314641 0.026627
0.163973 0.0384833 0.0398413
0.170489 0.0451209 0.0478065
0.18265 0.0506447 0.048661
0.194018 0.0567636 0.0494545
0.203662 0.0629435 0.0502022
0.211933 0.0694743 0.0509194
0.218845 0.0763714 0.0515908
0.224216 0.0836652 0.0522469
0.228733 0.0918746 0.0580301
0.231586 0.100633 0.0722667
0.232776 0.10988 0.0870832
0.232258 0.1196 0.102495
0.229892 0.129839 0.118563
0.226215 0.14078 0.135363
0.220325 0.152087 0.152651
0.00352483 0 0.0191196
0.00103761 0 0.0195773
0 0.00350958 0.0184787
0 0.0104372 0.0146944
0 0.0167849 0.00708019
0 0.0222019 0
0 0.0265354 0
0 0.0289311 0
0 0.0315404 0
0.0227665 0.0343175 0
0.050248 0.0368048 0
0.0772259 0.0387121 0
0.102907 0.04065 0
0.126177 0.0429236 0
0.146014 0.0459449 0
0.16173 0.049958 0
0.17322 0.0547494 0.0121767
0.181628 0.0603494 0.027451
0.188083 0.0665751 0.0414282
0.196216 0.0728923 0.0505531
0.21001 0.0781567 0.0512856
0.222324 0.0836194 0.0519875
0.233265 0.0894331 0.0526589
0.242756 0.095613 0.0533303
0.250874 0.102266 0.0540017
0.257694 0.109407 0.0546883
0.263157 0.117418 0.0684672
0.266987 0.125933 0.0834821
0.269108 0.13492 0.0991226
0.269444 0.144411 0.115404
0.268208 0.15465 0.13254
0.264973 0.165209 0.150118
0.259724 0.176272 0.168292
0.00679026 0.0172732 0.0285496
0.00402838 0.0247807 0.0282902
0.000595102 0.0322576 0.0263828
0 0.0395819 0.0219577
0 0.0467842 0.0140841
0 0.0529641 0.00180056
0 0.0580453 0
0 0.0616922 0
0 0.0650797 0
0.0254978 0.0683604 0
0.0531167 0.0707103 0
0.0809949 0.0725719 0
0.108049 0.0742962 0
0.133333 0.0764477 0
0.155291 0.0788434 0
0.173358 0.0819715 0
0.187671 0.0859388 0.0126497
0.198932 0.0907301 0.0285191
0.208347 0.0964523 0.0431067
0.218189 0.102052 0.0529793
0.233173 0.106828 0.0536812
0.246815 0.111925 0.0543679
0.259007 0.117388 0.0550851
0.269856 0.123339 0.0558022
0.279194 0.129732 0.0565652
0.287114 0.136675 0.0640574
0.293629 0.144442 0.0792706
0.298451 0.152667 0.0951247
0.301488 0.16141 0.11165
0.303075 0.170932 0.129076
0.302327 0.180713 0.146975
0.299763 0.191012 0.165454
0.295216 0.201846 0.184619
0.00869764 0.0461128 0.0364843
0.00573739 0.0538338 0.0355383
0.00209049 0.0619059 0.0328832
0 0.0695354 0.0278019
0 0.0768597 0.0195926
0 0.0836042 0.0074464
0 0.0896468 0
0 0.0944381 0
0.00151064 0.0989548 0
0.0274052 0.102388 0
0.0550088 0.104967 0
0.0835584 0.10721 0
0.111498 0.108873 0
0.137835 0.110491 0
0.161547 0.112428 0
0.181857 0.114961 0
0.199008 0.118486 0.0141756
0.213016 0.122591 0.0304723
0.22472 0.127321 0.0454414
0.236805 0.13228 0.055375
0.253071 0.136706 0.0561379
0.268025 0.141527 0.0569314
0.281697 0.146868 0.0577554
0.293538 0.152361 0.0586099
0.303761 0.158251 0.0594949
0.313085 0.16524 0.0747692
0.320623 0.172717 0.0908064
0.326543 0.180789 0.107622
0.330724 0.189441 0.125216
0.332815 0.198428 0.143328
0.332967 0.20795 0.162127
0.331136 0.218021 0.181659
0.327382 0.228626 0.201801
0.0093843 0.0756542 0.0430762
0.00633249 0.083711 0.0415198
0.00267033 0.0916762 0.0381628
0 0.0995499 0.0325017
0 0.107195 0.0239719
0 0.114656 0.0118563
0 0.121096 0
0 0.126528 0
0.00416571 0.132677 0
0.0295415 0.136431 0
0.0570993 0.139574 0
0.0854505 0.141695 0
0.113787 0.143343 0
0.141024 0.144823 0
0.166079 0.146456 0
0.188571 0.148852 0.000686656
0.207721 0.151568 0.0173037
0.224094 0.155001 0.0337377
0.238209 0.159091 0.0488594
0.252796 0.163439 0.0580606
0.270298 0.16762 0.0589609
0.286595 0.172305 0.0599222
0.301137 0.177096 0.0608988
0.314076 0.182269 0.0619364
0.325719 0.188205 0.0704662
0.336065 0.194903 0.0865339
0.34464 0.202121 0.103426
0.35169 0.210071 0.121263
0.356603 0.218265 0.139574
0.359609 0.226978 0.158587
0.360678 0.236225 0.178302
0.359716 0.246036 0.198795
0.356924 0.256535 0.22005
0.00927749 0.105547 0.0484932
0.00622568 0.113603 0.0463722
0.00260929 0.121736 0.0424353
0 0.12987 0.036286
0 0.137957 0.0274815
0 0.145403 0.0155489
0 0.152255 0.000137331
0 0.158846 0
0.00885023 0.165713 0
0.0328222 0.170535 0
0.059678 0.173617 0
0.0878004 0.175906 0
0.116243 0.177646 0
0.143969 0.179095 0
0.170275 0.180865 0
0.193927 0.18265 0.00572213
0.214939 0.18497 0.0223697
0.233417 0.1879 0.0386816
0.249683 0.19147 0.0536965
0.267063 0.195605 0.061326
0.285542 0.199466 0.0623941
0.302632 0.203632 0.0635386
0.318212 0.208148 0.064744
0.332219 0.213062 0.066804
0.34522 0.219028 0.0828565
0.356832 0.225681 0.0998398
0.366491 0.232654 0.117525
0.374228 0.240055 0.135897
0.380087 0.247974 0.155062
0.384024 0.256413 0.17499
0.385977 0.265385 0.195651
0.385901 0.274922 0.217075
0.384237 0.285252 0.239322
0.00866712 0.135546 0.0529183
0.00569161 0.143801 0.0503548
0.00215152 0.152224 0.0459449
0 0.160403 0.0394598
0 0.168399 0.0305943
0 0.176043 0.0190127
0 0.1832 0.00444038
0 0.19118 0
0.0155642 0.198367 0
0.0373693 0.203876 0
0.0637217 0.207141 0
0.0914626 0.209613 0
0.119966 0.211734 0
0.147906 0.213275 0
0.174517 0.214694 0
0.199207 0.216327 0.0131838
0.221653 0.218387 0.0295567
0.24184 0.220996 0.0454719
0.260197 0.224399 0.0602121
0.279561 0.227939 0.0653086
0.298939 0.231586 0.0666056
0.31696 0.235523 0.0679637
0.333501 0.23978 0.069398
0.348898 0.244831 0.0801556
0.362997 0.250645 0.0968795
0.375555 0.256992 0.114488
0.386084 0.26363 0.132845
0.394781 0.270756 0.15201
0.401633 0.278386 0.171923
0.406622 0.286519 0.192554
0.409796 0.295277 0.213962
0.411124 0.304707 0.236255
0.410346 0.314427 0.25893
0.00784314 0.165835 0.0566262
0.00505074 0.174121 0.0537575
0.00173953 0.182406 0.0490578
0 0.190631 0.0424506
0 0.198672 0.0337224
0 0.206561 0.0226444
0 0.214633 0.00973526
0.00784314 0.222812 0
0.0241703 0.230213 0
0.0439155 0.236561 0
0.0697948 0.239979 0
0.097261 0.242832 0
0.125277 0.244907 0
0.153079 0.246525 0
0.179934 0.248005 0.00750744
0.205249 0.249622 0.0230564
0.228702 0.251575 0.0389258
0.250462 0.254292 0.0542763
0.270024 0.257191 0.0683604
0.291234 0.260517 0.0701152
0.31136 0.264012 0.0716106
0.33019 0.267765 0.0731823
0.347768 0.272023 0.0791943
0.364523 0.277333 0.0956283
0.379492 0.282856 0.112825
0.392798 0.288762 0.130755
0.404349 0.295125 0.149569
0.414115 0.301961 0.169192
0.422065 0.30927 0.189593
0.428168 0.317098 0.210758
0.432563 0.325597 0.232822
0.435019 0.33463 0.255695
0.435431 0.344045 0.279042
0.00723278 0.195911 0.0600137
0.00468452 0.20412 0.0569619
0.00167849 0.212406 0.0521553
0 0.220615 0.0456092
0 0.228962 0.0372168
0 0.237018 0.0271305
0.00604257 0.245701 0.016144
0.0192416 0.253895 0.00340276
0.03505 0.261387 0
0.0539712 0.268086 0
0.0786297 0.272236 0
0.105394 0.275013 0
0.132876 0.277165 0
0.160357 0.278965 0.00593576
0.187137 0.280613 0.0201114
0.212757 0.282383 0.0351568
0.237049 0.284642 0.0502632
0.259419 0.286992 0.0646677
0.280842 0.28986 0.0741894
0.302602 0.293141 0.0758068
0.323323 0.296559 0.0775311
0.342855 0.300252 0.0806744
0.361685 0.304845 0.0960555
0.379263 0.309957 0.112627
0.395087 0.315221 0.129976
0.409354 0.320882 0.148135
0.421836 0.32697 0.167285
0.432547 0.333516 0.187274
0.441489 0.340536 0.208103
0.448844 0.348272 0.229969
0.454276 0.35639 0.252522
0.457725 0.364965 0.275822
0.459342 0.37406 0.299794
0.00712596 0.22562 0.0634012
0.00491341 0.233814 0.0603189
0.00225834 0.2421 0.0555886
0 0.250507 0.0493019
0 0.258701 0.0416724
0.00839246 0.267643 0.033463
0.0196231 0.276249 0.0238041
0.0328222 0.284367 0.0129244
0.0484627 0.291875 0.00123598
0.0669413 0.298726 0
0.0900587 0.303212 0
0.116289 0.306111 0
0.143175 0.308492 0.00830091
0.170123 0.310536 0.0209354
0.196567 0.312444 0.0347295
0.22237 0.314687 0.049073
0.246647 0.316823 0.0631723
0.269505 0.319249 0.0766461
0.292073 0.322377 0.0805524
0.314137 0.325689 0.0822309
0.335302 0.329137 0.084947
0.356069 0.333455 0.0991836
0.375601 0.337987 0.114565
0.393683 0.342718 0.130938
0.410361 0.347799 0.148302
0.425376 0.353246 0.166735
0.438666 0.359091 0.18613
0.450233 0.365377 0.206439
0.46006 0.372122 0.227634
0.468452 0.379644 0.250019
0.4748 0.387381 0.272953
0.479301 0.395651 0.296803
0.482063 0.404425 0.32134
0.00784314 0.254948 0.067155
0.00601205 0.263096 0.0641794
0.00383001 0.271504 0.0597238
0.00512703 0.279927 0.0542763
0.0139162 0.288914 0.0483253
0.0239414 0.297704 0.0412451
0.0354925 0.306127 0.0331273
0.0491188 0.314366 0.0243076
0.064683 0.321736 0.0150912
0.0826276 0.328267 0.00608835
0.104555 0.333165 0.00436408
0.130144 0.336233 0.0140841
0.156298 0.338872 0.0253605
0.182605 0.341268 0.0378576
0.208728 0.343771 0.0510719
0.23386 0.346044 0.0642863
0.257984 0.34844 0.0771801
0.281132 0.351339 0.0855726
0.303883 0.354726 0.0871595
0.326253 0.358282 0.0925002
0.34815 0.362234 0.105058
0.369436 0.366644 0.119234
0.389349 0.370993 0.134401
0.408042 0.375601 0.150759
0.425345 0.380529 0.168154
0.441001 0.385794 0.186709
0.454978 0.391424 0.206271
0.467292 0.397467 0.226841
0.478141 0.404166 0.248569
0.487175 0.411215 0.271107
0.494423 0.418662 0.294484
0.499916 0.426627 0.318807
0.5037 0.435111 0.343877
0.00970474 0.284001 0.0716564
0.00836194 0.292058 0.0694743
0.0135958 0.300755 0.0656596
0.0219883 0.309682 0.0615702
0.031342 0.318486 0.0565805
0.0418708 0.327047 0.050782
0.0539712 0.335439 0.0443885
0.0677806 0.343343 0.0375219
0.0834211 0.3505 0.0307469
0.101183 0.356939 0.0243839
0.122103 0.362112 0.0227665
0.146899 0.365438 0.0328679
0.172137 0.368414 0.0439765
0.197726 0.371496 0.055848
0.222751 0.374166 0.0679026
0.247242 0.376822 0.0798657
0.27097 0.379614 0.0908827
0.293889 0.383398 0.0942855
0.316884 0.38732 0.1037
0.339513 0.391272 0.11458
0.361791 0.395529 0.127153
0.383062 0.39968 0.140871
0.403357 0.403983 0.155901
0.422507 0.40853 0.172198
0.440269 0.413336 0.189578
0.456428 0.418448 0.208179
0.47097 0.423896 0.227878
0.484123 0.429938 0.248844
0.495537 0.436271 0.27071
0.505241 0.442985 0.293492
0.513298 0.450156 0.317235
0.519661 0.457847 0.342
0.524376 0.466041 0.367559
0.0172732 0.313085 0.0906691
0.0247807 0.321874 0.0900893
0.0329442 0.330648 0.0872358
0.0419013 0.33933 0.0828565
0.0517739 0.347829 0.0773938
0.0630503 0.356374 0.0713817
0.0754559 0.364248 0.064683
0.0893721 0.371679 0.057847
0.104967 0.378607 0.0513008
0.122347 0.384955 0.0454719
0.142184 0.390372 0.0431373
0.165942 0.394003 0.0525673
0.190372 0.397681 0.0636606
0.214725 0.401022 0.0758526
0.238926 0.404257 0.0891432
0.262852 0.407492 0.103487
0.285573 0.411719 0.110857
0.308354 0.4159 0.118563
0.33109 0.420005 0.127733
0.353872 0.424353 0.138674
0.375891 0.428443 0.150759
0.397253 0.432609 0.164263
0.417792 0.436927 0.179141
0.437247 0.441428 0.195239
0.455268 0.446143 0.212665
0.471794 0.451133 0.231281
0.486809 0.456428 0.251072
0.500374 0.462165 0.272068
0.512474 0.468421 0.29427
0.52282 0.474876 0.317311
0.531563 0.481773 0.341375
0.538674 0.489097 0.366476
0.544182 0.496849 0.392432
0.038056 0.342611 0.113146
0.0461433 0.351247 0.113329
0.0549477 0.359854 0.111513
0.0645609 0.368307 0.108492
0.0752117 0.376745 0.104768
0.0868696 0.384924 0.100481
0.0995651 0.392645 0.0957351
0.113558 0.399985 0.0909438
0.129015 0.406882 0.0864576
0.145998 0.413291 0.0825971
0.165011 0.418952 0.0813001
0.188006 0.423301 0.0908064
0.211078 0.427161 0.101061
0.234318 0.430915 0.112322
0.257572 0.434592 0.124544
0.279469 0.4392 0.130648
0.301579 0.443778 0.136858
0.323919 0.448173 0.144442
0.346349 0.452445 0.153475
0.368841 0.456901 0.164157
0.390799 0.461128 0.176104
0.412177 0.46537 0.189441
0.432822 0.469703 0.204181
0.452338 0.474174 0.220142
0.470497 0.478798 0.237491
0.487266 0.483635 0.256092
0.502617 0.488792 0.275959
0.516655 0.494392 0.297154
0.529046 0.50016 0.319326
0.539879 0.506264 0.342535
0.549142 0.512749 0.366949
0.556909 0.519631 0.392218
0.563088 0.526925 0.418509
0.0616159 0.371359 0.138079
0.0702068 0.379873 0.139086
0.0794995 0.388327 0.138338
0.0897688 0.396933 0.136767
0.100649 0.405112 0.134325
0.112444 0.413031 0.131456
0.125307 0.420661 0.128389
0.139345 0.427939 0.125399
0.154574 0.434867 0.122499
0.17113 0.441367 0.12018
0.189517 0.447318 0.120119
0.211383 0.451987 0.129152
0.233356 0.456275 0.138781
0.255528 0.460426 0.149142
0.27602 0.465644 0.153048
0.297124 0.470588 0.158053
0.3187 0.475303 0.164279
0.340581 0.47985 0.171817
0.362814 0.484459 0.180957
0.384833 0.488807 0.191348
0.406531 0.49305 0.203098
0.427802 0.497307 0.216281
0.448341 0.501625 0.230762
0.467735 0.506004 0.246693
0.485893 0.510506 0.263935
0.502739 0.515175 0.282475
0.518395 0.520241 0.30248
0.532601 0.525505 0.323613
0.545266 0.530953 0.34583
0.556481 0.536706 0.369192
0.566217 0.54284 0.39379
0.574502 0.549325 0.419287
0.581247 0.556191 0.445853
0.0873121 0.399558 0.165164
0.0961776 0.408011 0.166873
0.105837 0.416449 0.167102
0.116396 0.424933 0.166613
0.127504 0.43299 0.165377
0.139467 0.440833 0.163821
0.152392 0.448402 0.162112
0.166323 0.455634 0.160449
0.181277 0.462531 0.158877
0.197436 0.469169 0.157794
0.215381 0.475257 0.159106
0.23595 0.479957 0.167452
0.256046 0.484977 0.174105
0.275273 0.490547 0.17731
0.295216 0.495842 0.181445
0.315785 0.500877 0.186603
0.336828 0.505699 0.19292
0.358221 0.510323 0.200488
0.380072 0.515084 0.209674
0.401663 0.519448 0.219928
0.423072 0.523751 0.231601
0.444129 0.528038 0.244572
0.464347 0.532326 0.259007
0.483513 0.536645 0.27483
0.501549 0.541054 0.291997
0.518364 0.545586 0.310475
0.533913 0.550301 0.330251
0.548409 0.55552 0.351614
0.561288 0.560708 0.373892
0.572793 0.566186 0.397345
0.582879 0.571984 0.42208
0.591592 0.578119 0.447776
0.59884 0.584604 0.474586
0.114549 0.42742 0.193851
0.123766 0.435966 0.196323
0.133745 0.444434 0.197482
0.144274 0.452537 0.197696
0.15552 0.460426 0.197467
0.167529 0.468086 0.196963
0.180362 0.475471 0.196323
0.194095 0.482582 0.195697
0.208698 0.489418 0.195102
0.224338 0.495979 0.194903
0.241886 0.502068 0.197543
0.25922 0.508156 0.200046
0.277226 0.514 0.202899
0.295995 0.5196 0.20647
0.315435 0.524956 0.210895
0.33547 0.530053 0.216297
0.355993 0.534936 0.222782
0.376944 0.539696 0.230518
0.39826 0.544442 0.239673
0.419471 0.548898 0.249973
0.440528 0.553262 0.261509
0.461143 0.557565 0.27451
0.480919 0.561822 0.288869
0.499763 0.566094 0.304601
0.517555 0.570413 0.321675
0.534234 0.574838 0.340108
0.549767 0.579446 0.359899
0.564187 0.58436 0.38114
0.577249 0.58941 0.403525
0.588937 0.594629 0.427085
0.599298 0.600137 0.451865
0.608331 0.605951 0.477714
0.615991 0.612085 0.504662
0.142962 0.454871 0.223713
0.1523 0.463233 0.226703
0.162402 0.471473 0.228504
0.173007 0.479362 0.22948
0.184283 0.487037 0.23006
0.196246 0.49453 0.230396
0.208942 0.501762 0.230594
0.222431 0.508766 0.230823
0.236744 0.515572 0.231098
0.250095 0.523201 0.227878
0.264881 0.530114 0.226627
0.281773 0.536187 0.229374
0.299397 0.542031 0.23267
0.317708 0.547631 0.236652
0.336675 0.552987 0.241428
0.356222 0.558129 0.24712
0.376242 0.563058 0.253864
0.396811 0.567971 0.261906
0.417563 0.572686 0.271107
0.438285 0.577188 0.281346
0.458885 0.581567 0.292988
0.478889 0.58587 0.305974
0.498146 0.590112 0.320287
0.516564 0.594339 0.335958
0.53402 0.598596 0.352987
0.550454 0.60293 0.371374
0.565866 0.607431 0.391165
0.580209 0.612177 0.41236
0.593271 0.617014 0.43473
0.605051 0.622019 0.458412
0.615595 0.627268 0.483146
0.624872 0.632807 0.509056
0.632822 0.63859 0.535515
0.172274 0.481666 0.254353
0.181674 0.489845 0.257786
0.191684 0.497704 0.259998
0.202319 0.505394 0.261601
0.213565 0.512901 0.262852
0.225452 0.520226 0.263905
0.237613 0.52752 0.264225
0.248951 0.535256 0.261891
0.261067 0.543084 0.259174
0.273716 0.550652 0.255818
0.288701 0.557244 0.256397
0.305272 0.563272 0.259648
0.322545 0.569055 0.263432
0.340459 0.574609 0.267857
0.358999 0.579965 0.27306
0.378073 0.585122 0.279118
0.397604 0.590082 0.286152
0.417777 0.595102 0.294545
0.437934 0.599786 0.303731
0.458183 0.604303 0.314199
0.47805 0.608698 0.325917
0.497383 0.612985 0.338918
0.51606 0.617197 0.353231
0.533959 0.621393 0.368887
0.551003 0.625589 0.38587
0.567117 0.629847 0.404196
0.582269 0.634241 0.423941
0.59646 0.638834 0.44509
0.609445 0.643519 0.467491
0.621241 0.648325 0.491112
0.631876 0.653361 0.515831
0.641276 0.658595 0.541161
0.650431 0.664103 0.561044
0.202121 0.507698 0.285405
0.211429 0.515541 0.289082
0.221469 0.523217 0.291783
0.231724 0.530877 0.293416
0.241566 0.538796 0.293309
0.251804 0.546624 0.292576
0.262516 0.554376 0.291264
0.273716 0.562005 0.289403
0.285527 0.569589 0.287083
