All_In_One/addons/Enrich_Colormaster/colormanagement/luts/film_response/Sedona.cube
# Copyright: (C) Copyright 2016 by IWLTBAP
# Cannot be resold, shared or otherwise redistributed
# Website: http://luts.iwltbap.com
TITLE "IWLTBAP Sedona (Rec.709)"
LUT_3D_SIZE 5
DOMAIN_MIN 0.000000 0.000000 0.000000
DOMAIN_MAX 0.903226 0.903226 0.903226
0.000000 0.000000 0.013947
0.301505 0.026080 0.008664
0.500040 0.074824 0.010282
0.655605 0.118792 0.011079
0.780744 0.160963 0.011753
0.000000 0.096870 0.068000
0.192452 0.111903 0.030119
0.494691 0.163504 0.008392
0.698944 0.204490 0.008392
0.820617 0.236853 0.008594
0.000000 0.266353 0.136010
0.126600 0.298977 0.142420
0.474509 0.306960 0.056017
0.729580 0.376571 0.027792
0.851835 0.395559 0.022670
0.040151 0.470409 0.216742
0.131288 0.491848 0.222250
0.521934 0.604448 0.212846
0.750167 0.540247 0.110558
0.880838 0.569014 0.099745
0.077973 0.624704 0.262570
0.177665 0.652548 0.264342
0.522659 0.737514 0.267879
0.785755 0.778796 0.232701
0.895736 0.698998 0.171277
0.000000 0.030977 0.176378
0.323442 0.027253 0.133964
0.519485 0.052270 0.115555
0.645374 0.068989 0.068271
0.748157 0.091194 0.069244
0.000000 0.164070 0.223357
0.151023 0.169342 0.187512
0.462899 0.218859 0.139507
0.702482 0.258121 0.103966
0.824948 0.282323 0.065763
0.014586 0.333970 0.279741
0.063203 0.305480 0.239618
0.458561 0.333123 0.161368
0.742858 0.357439 0.064396
0.864989 0.366906 0.058962
0.056274 0.519955 0.330184
0.109572 0.513916 0.301417
0.438467 0.584856 0.297226
0.755800 0.550818 0.145655
0.902845 0.602171 0.146051
0.088073 0.652363 0.342548
0.156586 0.661340 0.337604
0.448933 0.730637 0.347789
0.766702 0.788827 0.281465
0.914542 0.725694 0.217696
0.000000 0.138377 0.334629
0.194979 0.018195 0.235216
0.509506 0.073800 0.232086
0.657996 0.098639 0.217986
0.757978 0.096656 0.209087
0.006811 0.255578 0.369685
0.056854 0.226064 0.355446
0.462630 0.192820 0.241696
0.681563 0.213789 0.207946
0.785830 0.221962 0.164902
0.023074 0.353890 0.400592
0.062484 0.358275 0.402233
0.375604 0.399781 0.372081
0.689441 0.438288 0.289455
0.845639 0.453737 0.246074
0.066400 0.545464 0.466819
0.108052 0.559439 0.460136
0.256386 0.566325 0.445189
0.723844 0.603833 0.349827
0.909627 0.623273 0.281988
0.098527 0.682547 0.489540
0.138442 0.686502 0.460014
0.341339 0.723872 0.483098
0.725485 0.806196 0.451231
0.921569 0.765127 0.334573
0.015264 0.206646 0.462668
0.187954 0.034306 0.338421
0.387921 0.071212 0.335915
0.660813 0.118586 0.332869
0.772568 0.145459 0.326187
0.023404 0.338989 0.503753
0.059714 0.318633 0.510604
0.300514 0.189593 0.382559
0.687930 0.225906 0.339981
0.804125 0.251173 0.325784
0.037288 0.414789 0.527911
0.077697 0.433162 0.544877
0.219357 0.432882 0.538550
0.685655 0.403844 0.388030
0.821949 0.400589 0.345402
0.068420 0.542092 0.572746
0.116009 0.573264 0.595137
0.221504 0.597337 0.609620
0.660312 0.673266 0.576136
0.887304 0.680395 0.497023
0.112310 0.712608 0.631644
0.151048 0.723373 0.628302
0.228620 0.732461 0.614438
0.615490 0.797514 0.614106
0.913762 0.822684 0.552925
0.026585 0.283884 0.573779
0.211791 0.059823 0.423507
0.366234 0.079315 0.417154
0.592541 0.125577 0.422507
0.773881 0.154667 0.423537
0.038039 0.404326 0.609463
0.074579 0.360733 0.609063
0.274613 0.206539 0.481856
0.548078 0.212031 0.430552
0.805134 0.253620 0.427725
0.055212 0.484464 0.637385
0.093067 0.491225 0.645384
0.195008 0.461547 0.635036
0.527078 0.371469 0.497375
0.826903 0.388612 0.438207
0.078254 0.573699 0.670907
0.119507 0.590137 0.683457
0.187498 0.615531 0.702969
0.534226 0.656689 0.683910
0.859055 0.636110 0.570199
0.114522 0.706089 0.719356
0.157963 0.727349 0.734766
0.208353 0.747607 0.747737
0.428279 0.797863 0.779308
0.871590 0.889239 0.735297
