All_In_One/addons/Enrich_Colormaster/colormanagement/luts/film_response/Sedona.cube
# Copyright: (C) Copyright 2016 by IWLTBAP
# Cannot be resold, shared or otherwise redistributed
# Website: http://luts.iwltbap.com
TITLE "IWLTBAP Sedona (Rec.709)"
LUT_3D_SIZE 32
0.000000 0.000000 0.013947
0.002749 0.000000 0.011855
0.048985 0.000000 0.009458
0.115068 0.000030 0.010206
0.173871 0.004174 0.010209
0.222807 0.011700 0.008935
0.264577 0.019522 0.008404
0.301505 0.026080 0.008664
0.333114 0.032218 0.008950
0.363313 0.039624 0.009282
0.392345 0.046967 0.009511
0.420980 0.054470 0.009717
0.448689 0.061441 0.009935
0.474302 0.067898 0.010127
0.500040 0.074824 0.010282
0.525897 0.082153 0.010375
0.551121 0.089409 0.010515
0.574017 0.095784 0.010637
0.596031 0.101921 0.010795
0.616620 0.107727 0.010883
0.636388 0.113213 0.010975
0.655605 0.118792 0.011079
0.674713 0.124607 0.011130
0.693159 0.130259 0.011161
0.710720 0.135478 0.011193
0.728296 0.141163 0.011255
0.746620 0.148105 0.011429
0.764526 0.154955 0.011558
0.780744 0.160963 0.011753
0.797415 0.168103 0.012370
0.813799 0.175139 0.013162
0.829315 0.184052 0.015686
0.000000 0.000000 0.015398
0.000229 0.000000 0.013103
0.028437 0.000000 0.010204
0.084824 0.000047 0.009603
0.142261 0.004365 0.010396
0.193623 0.012594 0.009184
0.241374 0.022157 0.008394
0.281003 0.029481 0.008392
0.316655 0.036439 0.008392
0.349236 0.044203 0.008401
0.381054 0.052523 0.008607
0.412020 0.060800 0.008869
0.442280 0.068978 0.009109
0.470697 0.076483 0.009363
0.499011 0.084428 0.009538
0.526523 0.092397 0.009692
0.553899 0.100428 0.009907
0.578629 0.107539 0.010064
0.601565 0.114038 0.010223
0.623464 0.120317 0.010355
0.643930 0.126214 0.010467
0.663743 0.132022 0.010552
0.683262 0.137751 0.010633
0.701569 0.143107 0.010665
0.719249 0.148341 0.010697
0.736855 0.154181 0.010781
0.755376 0.160292 0.010707
0.773153 0.166135 0.010675
0.789417 0.172121 0.010730
0.805306 0.177399 0.010645
0.820846 0.183685 0.011119
0.833960 0.191680 0.013427
0.000000 0.000083 0.022561
0.000000 0.000154 0.021574
0.009860 0.000274 0.015131
0.053263 0.001426 0.010818
0.111042 0.007486 0.008810
0.166797 0.016801 0.008785
0.219370 0.026330 0.008511
0.263358 0.033859 0.008392
0.301361 0.040485 0.008392
0.337257 0.048574 0.008392
0.371298 0.057304 0.008392
0.404186 0.065983 0.008392
0.436611 0.074674 0.008392
0.466973 0.082892 0.008514
0.496973 0.091415 0.008721
0.526092 0.099990 0.008923
0.554999 0.108648 0.009184
0.581375 0.116455 0.009403
0.606539 0.123900 0.009594
0.628867 0.130522 0.009764
0.650049 0.136613 0.009882
0.670202 0.142439 0.010015
0.689971 0.148355 0.010109
0.708749 0.153948 0.010175
0.726483 0.159264 0.010240
0.744136 0.164811 0.010240
0.762186 0.170716 0.010183
0.779459 0.176455 0.010158
0.795982 0.182204 0.010155
0.812005 0.187557 0.010093
0.826417 0.193093 0.010411
0.838129 0.199312 0.011527
0.000000 0.007954 0.030383
0.000000 0.009037 0.031023
0.003545 0.013924 0.030421
0.036770 0.009652 0.017783
0.086617 0.016965 0.012641
0.143779 0.027580 0.009846
0.201248 0.035445 0.008430
0.249908 0.042442 0.008392
0.289640 0.048715 0.008392
0.327729 0.056197 0.008392
0.364119 0.064837 0.008392
0.398736 0.073405 0.008392
0.432519 0.082041 0.008392
0.464491 0.090210 0.008392
0.495447 0.098504 0.008392
0.525963 0.107079 0.008460
0.556123 0.116180 0.008650
0.583524 0.124335 0.008895
0.609212 0.131942 0.009112
0.632880 0.138997 0.009284
0.654701 0.145420 0.009424
0.675693 0.151768 0.009548
0.695373 0.157687 0.009678
0.713972 0.163063 0.009784
0.731826 0.168588 0.009833
0.749594 0.174159 0.009839
0.767363 0.179864 0.009842
0.784220 0.185631 0.009839
0.801273 0.191377 0.009778
0.817289 0.196963 0.009766
0.831286 0.201508 0.009679
0.841679 0.207123 0.010368
0.000000 0.028107 0.038557
0.000000 0.029204 0.039432
0.000692 0.033353 0.042146
0.030697 0.040257 0.035789
0.067401 0.030768 0.020484
0.124221 0.037943 0.013743
0.181064 0.050043 0.010848
0.234653 0.057572 0.008726
0.277622 0.062089 0.008407
0.318775 0.068593 0.008392
0.357262 0.076511 0.008392
0.393606 0.084698 0.008392
0.429312 0.093028 0.008392
0.462273 0.100832 0.008392
0.494764 0.108995 0.008392
0.526992 0.117735 0.008392
0.558023 0.126311 0.008392
0.586766 0.134402 0.008462
0.612677 0.141622 0.008655
0.636914 0.148536 0.008838
0.659134 0.154695 0.009010
0.680408 0.160969 0.009201
0.699991 0.166645 0.009329
0.718816 0.172216 0.009402
0.736867 0.177622 0.009464
0.754692 0.183157 0.009480
0.772075 0.188941 0.009501
0.788842 0.194675 0.009444
0.805772 0.200325 0.009390
0.821896 0.205789 0.009355
0.835841 0.210377 0.009297
0.845005 0.214954 0.009452
0.000000 0.049873 0.047984
0.000000 0.050572 0.048606
0.000255 0.053788 0.052139
0.021057 0.060972 0.049941
0.063890 0.069014 0.040587
0.105657 0.055806 0.023611
0.165685 0.061637 0.015383
0.220291 0.073598 0.012003
0.263834 0.082588 0.010089
0.308098 0.088132 0.008619
0.350158 0.093895 0.008395
0.389021 0.100696 0.008392
0.426532 0.107924 0.008392
0.461816 0.115436 0.008392
0.494979 0.123043 0.008392
0.528426 0.131510 0.008392
0.560856 0.140015 0.008392
0.590117 0.147658 0.008392
0.617349 0.154657 0.008392
0.642075 0.161223 0.008475
0.664723 0.166946 0.008641
0.685949 0.172705 0.008793
0.705558 0.177880 0.008925
0.724426 0.183065 0.009057
0.742336 0.188014 0.009173
0.759824 0.193318 0.009212
0.776930 0.198940 0.009217
0.793519 0.204625 0.009165
0.810574 0.210029 0.009159
0.826335 0.215509 0.009078
0.840249 0.220218 0.009049
0.848745 0.225048 0.009369
0.000000 0.072525 0.057633
0.000000 0.072295 0.057586
0.000124 0.075145 0.060943
0.013790 0.080933 0.062810
0.048504 0.090581 0.057201
0.100615 0.097608 0.043605
0.147808 0.082979 0.026618
0.208853 0.087702 0.017535
0.253480 0.097582 0.014243
0.297301 0.108970 0.012036
0.341061 0.117209 0.009746
0.382150 0.122836 0.008557
0.423426 0.128560 0.008392
0.460427 0.134136 0.008392
0.495392 0.140712 0.008392
0.530184 0.148558 0.008392
0.563916 0.156320 0.008392
0.594227 0.163722 0.008392
0.622307 0.170350 0.008392
0.647469 0.176577 0.008392
0.670630 0.181940 0.008392
0.692587 0.187444 0.008450
0.712071 0.191979 0.008589
0.730779 0.196544 0.008691
0.748524 0.201212 0.008821
0.765704 0.206232 0.008870
0.782497 0.211568 0.008876
0.799182 0.216909 0.008851
0.815810 0.222333 0.008851
0.831554 0.227683 0.008828
0.844477 0.232215 0.008826
0.852673 0.236526 0.009133
0.000000 0.096870 0.068000
0.000000 0.095425 0.066984
0.000158 0.097068 0.069338
0.010659 0.102244 0.073384
0.037551 0.110790 0.070569
0.082877 0.123429 0.063526
0.144402 0.127766 0.047125
0.192452 0.111903 0.030119
0.243252 0.115518 0.022218
0.289141 0.123660 0.017037
0.333068 0.136033 0.014422
0.374919 0.146222 0.012228
0.417635 0.153272 0.009696
0.457516 0.158527 0.008556
0.494691 0.163504 0.008392
0.531436 0.169600 0.008392
0.566822 0.176127 0.008392
0.598564 0.182683 0.008392
0.628223 0.189194 0.008392
0.653854 0.194951 0.008392
0.676947 0.199598 0.008392
0.698944 0.204490 0.008392
0.718701 0.208790 0.008392
0.737582 0.213197 0.008427
0.755005 0.217451 0.008476
0.772039 0.221870 0.008549
0.788277 0.226460 0.008580
0.804671 0.231424 0.008592
0.820617 0.236853 0.008594
0.836382 0.242214 0.008599
0.848441 0.246243 0.008600
0.856559 0.249930 0.008629
0.000000 0.120264 0.077267
0.000000 0.118364 0.076074
0.000252 0.118763 0.077127
0.010693 0.123429 0.081148
0.032456 0.131431 0.081567
0.070236 0.143455 0.078122
0.130661 0.159075 0.066232
0.189433 0.152644 0.048989
0.230678 0.140178 0.034722
0.281133 0.143639 0.026147
0.327285 0.151473 0.020467
0.369407 0.162613 0.017188
0.412491 0.173944 0.014367
0.453548 0.181961 0.011755
0.492546 0.187802 0.009411
0.531610 0.193422 0.008469
0.569525 0.199531 0.008392
0.602753 0.204957 0.008392
0.632739 0.210081 0.008392
0.659201 0.214811 0.008392
0.683133 0.219086 0.008392
0.706005 0.223770 0.008392
0.725369 0.227621 0.008392
0.744088 0.231485 0.008392
0.761366 0.235247 0.008392
0.777866 0.238460 0.008392
0.794052 0.242672 0.008440
0.810155 0.247464 0.008476
0.825197 0.252359 0.008483
0.841521 0.257510 0.008514
0.852004 0.261061 0.008545
0.859847 0.264358 0.008575
0.000000 0.144014 0.086254
0.000000 0.141666 0.084882
0.000979 0.142003 0.085941
0.011675 0.144950 0.088858
0.029070 0.152370 0.091226
0.062155 0.163637 0.089686
0.113689 0.177478 0.080925
0.184184 0.191955 0.068649
0.227809 0.178079 0.052547
0.269572 0.168358 0.038960
0.320240 0.172220 0.029887
0.364533 0.178762 0.023891
0.408348 0.188435 0.019328
0.450115 0.199558 0.016043
0.489345 0.209189 0.013471
0.529388 0.217063 0.010793
0.569271 0.223963 0.008967
0.604318 0.229320 0.008430
0.635536 0.233499 0.008392
0.663837 0.237599 0.008392
0.688497 0.241260 0.008392
0.711514 0.245320 0.008392
0.731316 0.248438 0.008392
0.750092 0.250842 0.008392
0.767113 0.253812 0.008392
0.783730 0.256786 0.008392
0.799908 0.260588 0.008400
0.815265 0.264807 0.008450
0.830688 0.269406 0.008482
0.846147 0.273751 0.008521
0.855535 0.277219 0.008583
0.863522 0.280505 0.008624
0.000000 0.167531 0.094874
0.000000 0.164855 0.093307
0.002772 0.164218 0.093798
0.014110 0.166569 0.096387
0.027937 0.172470 0.098964
0.056005 0.183236 0.099432
0.102937 0.197031 0.094514
0.167188 0.213314 0.082656
0.230610 0.222983 0.073448
0.268309 0.202596 0.054571
0.311040 0.195873 0.041749
0.358826 0.199228 0.033054
0.404080 0.205430 0.026404
0.447314 0.214334 0.021603
0.487042 0.225663 0.018716
0.527010 0.237173 0.015684
0.567539 0.247733 0.013167
0.604240 0.255060 0.010885
0.637638 0.260522 0.009275
0.667518 0.264276 0.008585
0.692895 0.266644 0.008419
0.716698 0.269147 0.008392
0.736988 0.271126 0.008392
0.755871 0.272704 0.008392
0.773304 0.275348 0.008392
0.789812 0.277874 0.008427
0.805521 0.280893 0.008463
0.820518 0.284164 0.008502
0.835921 0.288043 0.008552
0.850706 0.292181 0.008594
0.859460 0.295522 0.008645
0.867401 0.298475 0.008708
0.000000 0.190856 0.103760
0.000000 0.187963 0.102163
0.004918 0.186241 0.101954
0.017148 0.188841 0.104887
0.029107 0.193590 0.107053
0.052290 0.203661 0.109330
0.094652 0.217482 0.107563
0.155488 0.233440 0.096587
0.217888 0.249230 0.089687
0.278229 0.251900 0.076772
0.309754 0.227368 0.056584
0.351023 0.222395 0.044731
0.399355 0.226582 0.036064
0.444300 0.232466 0.029232
0.484547 0.241247 0.025023
0.526010 0.252543 0.021115
0.566770 0.266633 0.018656
0.604948 0.278730 0.016260
0.638806 0.287119 0.014140
0.669561 0.292618 0.012126
0.696139 0.295483 0.010408
0.721020 0.296943 0.009131
0.741966 0.298020 0.008640
0.761441 0.298957 0.008419
0.778956 0.300138 0.008457
0.795015 0.301724 0.008500
0.810385 0.303788 0.008551
0.825193 0.306132 0.008582
0.840240 0.309311 0.008615
0.854190 0.313171 0.008676
0.862607 0.315495 0.008709
0.870671 0.317872 0.008770
0.000000 0.215570 0.114312
0.000071 0.212591 0.112644
0.008509 0.210227 0.111925
0.020837 0.212334 0.114250
0.032860 0.217312 0.116497
0.051334 0.225415 0.119460
0.087701 0.238914 0.120254
0.145074 0.255022 0.113536
0.206056 0.270403 0.102337
0.269427 0.284589 0.095758
0.321388 0.276349 0.078549
0.349855 0.253660 0.059994
0.392575 0.250744 0.048566
0.440285 0.254710 0.039614
0.481589 0.260094 0.033289
0.524269 0.268902 0.027762
0.566794 0.281654 0.024058
0.605437 0.295894 0.021772
0.639861 0.308359 0.019850
0.670931 0.317713 0.017814
0.698816 0.323657 0.015844
0.724413 0.326972 0.013951
0.746134 0.328178 0.012577
0.765963 0.328933 0.011722
0.783739 0.329411 0.010912
0.799659 0.330020 0.010460
0.814911 0.330559 0.010233
0.829442 0.331868 0.010208
0.844106 0.334240 0.010342
0.857233 0.336892 0.010616
0.865465 0.338299 0.010714
0.873524 0.339741 0.010733
0.000000 0.241063 0.125397
0.001457 0.237743 0.123499
0.013135 0.235447 0.122435
0.025480 0.236655 0.123924
0.036905 0.241579 0.125945
0.052432 0.248638 0.129171
0.082571 0.260636 0.131587
0.135107 0.276600 0.128808
0.196274 0.291996 0.116784
0.258197 0.308506 0.110151
0.321832 0.319403 0.101099
0.363317 0.302373 0.081417
0.390995 0.280878 0.063476
0.434433 0.279002 0.052104
0.478772 0.282687 0.043743
0.522849 0.288702 0.036197
0.566633 0.298345 0.030459
0.605908 0.310916 0.027292
0.640645 0.324420 0.025463
0.672167 0.337185 0.023924
0.700884 0.347439 0.022403
0.727101 0.354531 0.020765
0.749560 0.359187 0.019675
0.769414 0.361391 0.018593
0.787424 0.362600 0.017680
0.803931 0.362760 0.016622
0.819248 0.362380 0.015918
0.833773 0.362426 0.015478
0.848174 0.363424 0.015407
0.860547 0.364551 0.015246
0.868600 0.364497 0.014977
0.876560 0.364885 0.014760
0.000000 0.266353 0.136010
0.005404 0.262671 0.133615
0.017779 0.260725 0.132814
0.030120 0.261439 0.133660
0.040824 0.265898 0.135260
0.055277 0.273052 0.138615
0.080449 0.283162 0.141822
0.126600 0.298977 0.142420
0.186492 0.314706 0.133711
0.248967 0.331060 0.122759
0.312344 0.348591 0.119242
0.371920 0.354306 0.107577
0.405691 0.329070 0.084874
0.432786 0.308515 0.067042
0.474509 0.306960 0.056017
0.520642 0.311363 0.046701
0.565834 0.317780 0.038537
0.606084 0.328436 0.034244
0.641729 0.340149 0.031472
0.673690 0.352449 0.029498
0.703013 0.365268 0.028458
0.729580 0.376571 0.027792
0.752347 0.385216 0.027575
0.772912 0.390685 0.027020
0.791058 0.394441 0.026439
0.807746 0.395862 0.025126
0.823270 0.396810 0.024276
0.837574 0.395424 0.023160
0.851835 0.395559 0.022670
0.863498 0.395526 0.022048
0.871693 0.394472 0.021293
0.879790 0.393959 0.020772
0.002068 0.293215 0.147140
0.009908 0.289547 0.144866
0.022824 0.287550 0.143941
0.035390 0.288330 0.144480
0.045741 0.292086 0.145331
0.058735 0.298428 0.148270
0.078580 0.306960 0.151750
0.119956 0.322835 0.155045
0.176510 0.338768 0.150678
0.239587 0.354733 0.137418
0.303150 0.372402 0.132757
0.363450 0.386776 0.127629
0.419611 0.386338 0.113041
0.446726 0.355862 0.088807
0.472582 0.336707 0.071631
0.517108 0.336982 0.059965
0.564454 0.341657 0.049698
0.605724 0.349153 0.043369
0.642663 0.358468 0.038925
0.675293 0.369062 0.036064
0.705072 0.380722 0.034394
0.732047 0.392957 0.033761
0.755406 0.405188 0.034673
0.776293 0.414427 0.035082
0.794779 0.420961 0.035126
0.811694 0.424810 0.034397
0.827480 0.427027 0.033491
0.841749 0.427841 0.032617
0.855571 0.428447 0.032012
0.866670 0.428174 0.031000
0.874490 0.427064 0.030131
0.882285 0.425526 0.029036
0.006782 0.322013 0.158893
0.015063 0.318882 0.157190
0.028303 0.316358 0.155775
0.041211 0.317004 0.155970
0.051244 0.319562 0.155789
0.062892 0.325296 0.158307
0.078038 0.332956 0.161910
0.111298 0.347153 0.166422
0.166107 0.363751 0.165902
0.230117 0.380284 0.155330
0.297365 0.397813 0.145728
0.356168 0.414544 0.143464
0.417224 0.426402 0.135885
0.465576 0.419297 0.119455
0.488040 0.386946 0.094637
0.515613 0.369095 0.077020
0.561503 0.369919 0.064564
0.605010 0.374940 0.055782
0.643496 0.381492 0.049146
0.677288 0.389482 0.044602
0.706906 0.398928 0.041999
0.735145 0.410299 0.040673
0.758818 0.422137 0.041362
0.780045 0.433538 0.042530
0.799215 0.444279 0.044220
0.816792 0.452164 0.045108
0.832802 0.457391 0.045325
0.847105 0.460511 0.045336
0.860755 0.462366 0.044762
0.870914 0.463543 0.044371
0.878753 0.463669 0.043563
0.886160 0.461040 0.041417
0.011738 0.350832 0.170131
0.020327 0.347265 0.168208
0.033899 0.344431 0.166534
0.047027 0.345221 0.166585
0.057319 0.348059 0.166285
0.068325 0.353170 0.168219
0.081584 0.360287 0.171686
0.106308 0.372342 0.176852
0.153769 0.388754 0.179362
0.222222 0.407383 0.173503
0.291638 0.425714 0.161116
0.352028 0.442801 0.158901
0.412736 0.460169 0.156831
0.468669 0.469174 0.148925
0.509149 0.453434 0.128045
0.531543 0.419157 0.100048
0.561132 0.401370 0.080944
0.604109 0.402818 0.069867
0.644312 0.407319 0.061199
0.678677 0.412857 0.055095
0.709923 0.420545 0.051216
0.738107 0.430123 0.049314
0.762079 0.440585 0.049454
0.784117 0.452182 0.050989
0.803667 0.463558 0.053290
0.821721 0.474176 0.055383
0.837986 0.483108 0.057395
0.852320 0.488728 0.058268
0.866115 0.492620 0.058374
0.875772 0.495728 0.058792
0.883524 0.497235 0.058466
0.890712 0.495401 0.056357
0.017780 0.380703 0.181779
0.026406 0.377005 0.179744
0.040295 0.374219 0.178126
0.053724 0.375356 0.178529
0.064477 0.378695 0.177778
0.075813 0.384157 0.179872
0.088535 0.390580 0.183108
0.107993 0.400919 0.188414
0.149259 0.417721 0.193906
0.214812 0.435815 0.191535
0.287541 0.455209 0.179042
0.351050 0.472361 0.174975
0.409831 0.488960 0.172858
0.466692 0.504572 0.170696
0.519085 0.508895 0.159668
0.552569 0.485417 0.135115
0.575856 0.451496 0.106059
0.604554 0.434941 0.087234
0.644501 0.436494 0.076595
0.680538 0.440921 0.069327
0.713155 0.446664 0.063874
0.741613 0.453800 0.060900
0.766227 0.463045 0.060599
0.788495 0.472845 0.061452
0.807977 0.483017 0.063246
0.825854 0.492482 0.064934
0.842480 0.502204 0.067249
0.856552 0.510582 0.069532
0.870306 0.517149 0.071039
0.879570 0.522526 0.072545
0.887510 0.526806 0.073548
0.894666 0.526990 0.072274
0.025100 0.411729 0.194495
0.033365 0.408435 0.192848
0.047858 0.406089 0.191579
0.061515 0.406932 0.191609
0.072223 0.409614 0.190002
0.083629 0.414521 0.191619
0.095995 0.420795 0.194560
0.115441 0.431660 0.200430
0.148711 0.447056 0.207405
0.209960 0.465264 0.208228
0.288403 0.484729 0.196088
0.351686 0.501369 0.189918
0.412224 0.518167 0.187724
0.465665 0.533720 0.186525
0.518610 0.545432 0.181449
0.569333 0.546018 0.167722
0.595525 0.514678 0.140278
0.617704 0.484732 0.114374
0.645584 0.470535 0.096899
0.682007 0.472588 0.087533
0.715608 0.476581 0.080722
0.744861 0.481439 0.075995
0.769876 0.487601 0.073989
0.792191 0.494841 0.073277
0.811754 0.503270 0.074271
0.829778 0.511726 0.075652
0.845986 0.519690 0.076969
0.860081 0.527560 0.078957
0.874099 0.535116 0.080811
0.883012 0.542790 0.083553
0.891020 0.549572 0.085801
0.898060 0.552101 0.085592
0.032401 0.440892 0.205632
0.040407 0.439441 0.205639
0.055808 0.437704 0.204784
0.069440 0.437988 0.203955
0.080362 0.440245 0.202332
0.092014 0.445439 0.203432
0.104680 0.451933 0.206322
0.123037 0.462571 0.212100
0.153331 0.476980 0.219402
0.213290 0.495370 0.221844
0.291344 0.514559 0.211574
0.356016 0.530805 0.203775
0.416488 0.546918 0.201256
0.468466 0.561938 0.200213
0.519520 0.576630 0.198802
0.570941 0.584655 0.190250
0.615204 0.576821 0.173275
0.635294 0.542787 0.146197
0.657707 0.518003 0.123694
0.683792 0.506574 0.108461
0.717412 0.508331 0.100048
0.747689 0.511193 0.093485
0.773125 0.514901 0.089634
0.795412 0.519188 0.087202
0.815732 0.525287 0.086561
0.833542 0.532014 0.086975
0.849351 0.538460 0.087687
0.863738 0.544897 0.088657
0.877459 0.551994 0.090360
0.886135 0.559468 0.092881
0.894001 0.566682 0.095296
0.901199 0.571298 0.095928
0.040151 0.470409 0.216742
0.047582 0.469084 0.216870
0.063037 0.468213 0.216727
0.077475 0.468626 0.215855
0.089141 0.471339 0.214098
0.101203 0.476446 0.214738
0.113720 0.482412 0.217345
0.131288 0.491848 0.222250
0.163401 0.507063 0.229861
0.219605 0.524800 0.232937
0.296818 0.543377 0.224384
0.362529 0.560239 0.217217
0.422835 0.576084 0.214832
0.473630 0.590487 0.213866
0.521934 0.604448 0.212846
0.572611 0.616584 0.208538
0.624231 0.623561 0.199059
0.654546 0.604797 0.179509
0.674227 0.572699 0.153405
0.693759 0.549375 0.132855
0.718803 0.539649 0.119493
0.750167 0.540247 0.110558
0.776077 0.541996 0.105217
0.799331 0.544285 0.101199
0.819456 0.548288 0.099196
0.836975 0.552493 0.098234
0.852897 0.557502 0.098218
0.867501 0.562664 0.098393
0.880838 0.569014 0.099745
0.889535 0.576033 0.102098
0.897277 0.583372 0.104759
0.904486 0.587545 0.105027
0.046788 0.496803 0.225053
0.053923 0.496809 0.226297
0.069767 0.496306 0.226597
0.085397 0.498230 0.227403
0.097300 0.500134 0.224744
0.108727 0.503998 0.224511
0.120830 0.509171 0.226159
0.139856 0.519873 0.231479
0.170970 0.534653 0.239064
0.230011 0.553408 0.242303
0.307847 0.572452 0.235454
0.370022 0.588418 0.229683
0.430040 0.603760 0.227387
0.480615 0.617518 0.226027
0.526519 0.630386 0.224687
0.575340 0.644631 0.223168
0.622173 0.651419 0.214685
0.667475 0.653582 0.204315
0.689256 0.626473 0.182551
0.708382 0.599545 0.160403
0.726093 0.577547 0.141191
0.751042 0.569103 0.128439
0.777952 0.569221 0.121582
0.801796 0.569388 0.115586
0.822147 0.570823 0.111790
0.839949 0.573822 0.110107
0.856160 0.577218 0.109120
0.870851 0.581504 0.109159
0.884257 0.586880 0.109924
0.892717 0.592884 0.111776
0.900268 0.599438 0.114176
0.907215 0.604396 0.115440
0.052977 0.521303 0.232179
0.059562 0.522184 0.234195
0.076214 0.523333 0.236055
0.092419 0.524710 0.236174
0.104386 0.526963 0.234093
0.116270 0.531116 0.233302
0.129418 0.537374 0.235167
0.147954 0.547194 0.240218
0.180782 0.562485 0.247774
0.241756 0.581801 0.250775
0.316089 0.600035 0.245406
0.379695 0.615324 0.240326
0.437184 0.629154 0.237594
0.485683 0.642020 0.236398
0.531674 0.654864 0.235198
0.577912 0.668045 0.233712
0.623326 0.677765 0.228744
0.668456 0.683805 0.220376
0.703668 0.675048 0.206173
0.721096 0.648057 0.185801
0.739732 0.624433 0.166739
0.756556 0.604791 0.149849
0.779122 0.597598 0.139384
0.803618 0.596523 0.132275
0.824410 0.596181 0.127245
0.842762 0.596943 0.123632
0.859328 0.598762 0.121590
0.874202 0.601921 0.121007
0.887208 0.605712 0.121037
0.895664 0.611160 0.122795
0.903153 0.617105 0.125000
0.909978 0.621452 0.126094
0.058963 0.544697 0.238680
0.065136 0.545722 0.240706
0.081719 0.547682 0.243581
0.098970 0.550366 0.244996
0.111582 0.552867 0.242436
0.123826 0.556863 0.241184
0.136174 0.561864 0.242328
0.155675 0.571934 0.247107
0.189644 0.587414 0.254502
0.252602 0.606597 0.256650
0.327271 0.624204 0.251743
0.385689 0.638505 0.249231
0.443421 0.652774 0.247165
0.491326 0.665070 0.245874
0.536090 0.677071 0.244461
0.581153 0.689449 0.242601
0.624729 0.700979 0.240276
0.664258 0.704630 0.231323
0.709150 0.708754 0.221798
0.730873 0.690811 0.207073
0.750139 0.666843 0.188492
0.767509 0.645290 0.171126
0.782429 0.628755 0.158142
0.804021 0.623385 0.149486
0.825755 0.621576 0.142797
0.844508 0.620120 0.137225
0.861394 0.619805 0.133571
0.876860 0.621578 0.132035
0.889921 0.625167 0.132347
0.898353 0.629302 0.133321
0.905647 0.633526 0.134288
0.912214 0.637159 0.135069
0.064303 0.566227 0.243936
0.070552 0.567960 0.246119
0.086235 0.570153 0.249297
0.105171 0.573909 0.251749
0.117998 0.576396 0.249535
0.129892 0.579436 0.247045
0.143359 0.585185 0.248387
0.162323 0.594761 0.252902
0.196556 0.609963 0.260032
0.261843 0.629348 0.261706
0.331930 0.646384 0.258857
0.391353 0.659846 0.257119
0.446409 0.672626 0.254854
0.492777 0.684204 0.253433
0.537203 0.695477 0.251631
0.580916 0.706836 0.249504
0.623998 0.718333 0.247349
0.661495 0.723095 0.240495
0.703469 0.727469 0.231797
0.739232 0.725123 0.221201
0.756664 0.703971 0.206555
0.775807 0.683574 0.190839
0.790552 0.663506 0.175570
0.804618 0.647625 0.162954
0.825336 0.643365 0.155201
0.845274 0.641776 0.149443
0.863074 0.640992 0.145424
0.878753 0.641458 0.142954
0.892016 0.643574 0.142258
0.900520 0.646178 0.142145
0.907678 0.649755 0.142853
0.914423 0.653452 0.143930
0.069793 0.587948 0.251083
0.075263 0.588870 0.251157
0.090463 0.591912 0.254580
0.109644 0.595112 0.257014
0.123465 0.597704 0.254591
0.135511 0.601004 0.252239
0.149088 0.606771 0.253554
0.168442 0.616390 0.257984
0.203326 0.631237 0.264647
0.265978 0.649547 0.266308
0.335855 0.665742 0.265039
0.392716 0.678430 0.263633
0.446681 0.690719 0.261560
0.492517 0.701229 0.259596
0.535145 0.711502 0.257576
0.578399 0.722482 0.255449
0.621311 0.733470 0.252964
0.659782 0.741631 0.249291
0.695359 0.744066 0.240906
0.735607 0.747887 0.232443
0.762866 0.737966 0.220505
0.780605 0.718215 0.206976
0.797918 0.700968 0.194523
0.811718 0.682052 0.180800
0.825521 0.667970 0.169308
0.845423 0.663736 0.161916
0.863872 0.662268 0.157249
0.880250 0.661392 0.153689
0.894011 0.662402 0.152198
0.902718 0.664480 0.151998
0.909910 0.667056 0.152084
0.916804 0.670161 0.152827
0.074093 0.606870 0.256761
0.079365 0.607712 0.255804
0.092939 0.610551 0.257591
0.113552 0.614355 0.260379
0.127746 0.616909 0.258186
0.140390 0.620561 0.255999
0.154266 0.626297 0.257205
0.172789 0.634856 0.261273
0.207196 0.649090 0.267874
0.267778 0.666374 0.271116
0.334416 0.681731 0.269974
0.389843 0.693682 0.268664
0.442493 0.705119 0.266611
0.487835 0.715122 0.264596
0.529986 0.725036 0.262686
0.572757 0.735422 0.260291
0.615734 0.746376 0.258071
0.654595 0.756337 0.256113
