All_In_One/addons/Enrich_Colormaster/colormanagement/luts/film_response/Sedona.cube
# Copyright: (C) Copyright 2016 by IWLTBAP
# Cannot be resold, shared or otherwise redistributed
# Website: http://luts.iwltbap.com
TITLE "IWLTBAP Sedona (Rec.709)"
LUT_3D_SIZE 8
DOMAIN_MIN 0.000000 0.000000 0.000000
DOMAIN_MAX 0.903226 0.903226 0.903226
0.000000 0.000000 0.013947
0.173871 0.004174 0.010209
0.333114 0.032218 0.008950
0.448689 0.061441 0.009935
0.551121 0.089409 0.010515
0.636388 0.113213 0.010975
0.710720 0.135478 0.011193
0.780744 0.160963 0.011753
0.000000 0.028107 0.038557
0.067401 0.030768 0.020484
0.277622 0.062089 0.008407
0.429312 0.093028 0.008392
0.558023 0.126311 0.008392
0.659134 0.154695 0.009010
0.736867 0.177622 0.009464
0.805772 0.200325 0.009390
0.000000 0.120264 0.077267
0.032456 0.131431 0.081567
0.230678 0.140178 0.034722
0.412491 0.173944 0.014367
0.569525 0.199531 0.008392
0.683133 0.219086 0.008392
0.761366 0.235247 0.008392
0.825197 0.252359 0.008483
0.000000 0.215570 0.114312
0.032860 0.217312 0.116497
0.206056 0.270403 0.102337
0.392575 0.250744 0.048566
0.566794 0.281654 0.024058
0.698816 0.323657 0.015844
0.783739 0.329411 0.010912
0.844106 0.334240 0.010342
0.006782 0.322013 0.158893
0.051244 0.319562 0.155789
0.166107 0.363751 0.165902
0.417224 0.426402 0.135885
0.561503 0.369919 0.064564
0.706906 0.398928 0.041999
0.799215 0.444279 0.044220
0.860755 0.462366 0.044762
0.032401 0.440892 0.205632
0.080362 0.440245 0.202332
0.153331 0.476980 0.219402
0.416488 0.546918 0.201256
0.615204 0.576821 0.173275
0.717412 0.508331 0.100048
0.815732 0.525287 0.086561
0.877459 0.551994 0.090360
0.058963 0.544697 0.238680
0.111582 0.552867 0.242436
0.189644 0.587414 0.254502
0.443421 0.652774 0.247165
0.624729 0.700979 0.240276
0.750139 0.666843 0.188492
0.825755 0.621576 0.142797
0.889921 0.625167 0.132347
0.077973 0.624704 0.262570
0.131937 0.634898 0.261456
0.207569 0.664654 0.271396
0.436389 0.718751 0.271840
0.606754 0.757603 0.262975
0.752116 0.780847 0.242052
0.837511 0.727596 0.196551
0.895736 0.698998 0.171277
0.000000 0.000126 0.102643
0.189368 0.003539 0.086205
0.360745 0.025677 0.069370
0.462365 0.042164 0.044253
0.550306 0.056222 0.042254
0.622140 0.067829 0.040936
0.688660 0.087986 0.041027
0.765842 0.134163 0.043414
0.000000 0.052587 0.122890
0.053041 0.069104 0.115801
0.262094 0.098761 0.080079
0.429085 0.131334 0.062203
0.566822 0.158537 0.041420
0.668721 0.183373 0.039291
0.742699 0.201680 0.038534
0.808525 0.226618 0.040585
0.000000 0.160312 0.163464
0.014712 0.143604 0.139726
0.238956 0.162406 0.094020
0.426613 0.181253 0.048724
0.579310 0.200058 0.038334
0.691504 0.222934 0.035934
0.768601 0.239377 0.034025
0.830518 0.260826 0.035686
0.000086 0.255904 0.192044
0.016929 0.235789 0.164345
0.177723 0.270394 0.164264
0.399701 0.259849 0.073573
0.575319 0.290638 0.046075
0.709937 0.303005 0.032882
0.792493 0.305036 0.030752
0.853582 0.318830 0.031756
0.015471 0.360387 0.224824
0.033466 0.343405 0.201698
0.128268 0.361777 0.213087
0.389592 0.419052 0.161265
0.564260 0.369843 0.080698
0.715865 0.402288 0.055267
0.811101 0.434331 0.052290
0.873342 0.439358 0.050674
0.042232 0.472850 0.258504
0.063337 0.467078 0.247081
0.140677 0.478376 0.254648
0.372784 0.536666 0.236148
0.600343 0.582785 0.200999
0.723385 0.508225 0.113356
0.828844 0.532800 0.101712
0.892601 0.568669 0.111573
0.067649 0.568244 0.279315
0.090059 0.568368 0.276992
0.171155 0.585297 0.289347
0.384296 0.643126 0.286342
0.601735 0.696890 0.264802
0.752488 0.681901 0.217115
0.839271 0.633138 0.164073
0.905033 0.643642 0.158168
0.084229 0.641274 0.300752
0.107134 0.642444 0.292019
0.192643 0.662351 0.305287
0.385619 0.712108 0.301903
0.578527 0.753419 0.288724
0.737321 0.783347 0.269583
0.846484 0.739955 0.222075
0.908892 0.714094 0.197092
0.000000 0.051942 0.203947
0.098450 0.000050 0.149036
0.354129 0.033849 0.147541
0.468811 0.052734 0.138969
0.563727 0.059405 0.128388
0.633525 0.068393 0.103809
0.691609 0.074766 0.076353
0.749382 0.091055 0.077299
0.000000 0.130570 0.227875
0.011836 0.098896 0.206986
0.278878 0.084962 0.142177
0.428531 0.103893 0.128986
0.551167 0.110073 0.098620
0.653527 0.147999 0.069728
0.728288 0.177495 0.067717
0.794868 0.211485 0.068204
0.000000 0.196440 0.251918
0.011931 0.175977 0.234459
0.182036 0.200750 0.211385
0.370749 0.217399 0.168228
0.536636 0.257346 0.154724
0.676162 0.278985 0.131180
0.762992 0.289817 0.114828
0.827119 0.304284 0.099254
0.008941 0.293275 0.287259
0.025465 0.280081 0.270642
0.097213 0.268211 0.248876
0.367233 0.292074 0.192605
0.549057 0.318658 0.163255
0.697866 0.322520 0.125941
0.789138 0.326373 0.102054
0.852008 0.341352 0.079276
0.025540 0.390080 0.313137
0.044103 0.385561 0.299828
0.087544 0.367313 0.274901
0.310194 0.409989 0.269716
0.539806 0.393942 0.177676
0.712472 0.424642 0.098419
0.815403 0.416412 0.075764
0.877604 0.419515 0.074772
0.051742 0.499751 0.343625
0.073069 0.501391 0.333476
0.117213 0.491907 0.311578
0.281098 0.525895 0.327678
0.545114 0.580227 0.275279
0.715861 0.521269 0.146228
0.834187 0.548857 0.129896
0.901362 0.581858 0.140903
0.076062 0.591820 0.361882
0.098125 0.592812 0.348592
0.147560 0.594451 0.338189
0.304475 0.635673 0.362782
0.554426 0.688729 0.325457
0.747053 0.707918 0.257553
0.843476 0.647191 0.192201
0.912395 0.662394 0.188918
0.090179 0.657989 0.365976
0.111876 0.658212 0.347467
0.174262 0.668399 0.355609
0.325848 0.708358 0.374643
0.541803 0.750401 0.348328
0.721143 0.785008 0.298546
0.849901 0.757820 0.252712
0.915946 0.729647 0.225181
0.000000 0.115432 0.294553
0.076855 0.005608 0.211226
0.264708 0.026688 0.206816
0.460364 0.060745 0.203342
0.562126 0.080798 0.194677
0.639642 0.084747 0.186964
0.698647 0.076967 0.179232
0.756042 0.091248 0.172294
0.000000 0.191886 0.316163
0.014208 0.153535 0.298099
0.174916 0.079441 0.216029
0.428912 0.112408 0.200910
0.556507 0.134727 0.189421
0.650874 0.136365 0.176054
0.709114 0.117102 0.153472
0.764628 0.131349 0.109729
0.004542 0.244738 0.334588
0.021112 0.232598 0.326326
0.100838 0.216848 0.305543
0.366559 0.208802 0.233060
0.529801 0.220832 0.197794
0.659044 0.233471 0.166351
0.743952 0.268502 0.156398
0.806152 0.291052 0.148484
0.013815 0.304925 0.353384
0.033389 0.304062 0.353015
0.080545 0.286068 0.334890
0.307140 0.330744 0.317356
0.516570 0.343640 0.254834
0.660796 0.380123 0.236507
0.772938 0.393674 0.208410
0.838045 0.399896 0.192482
0.031610 0.406784 0.390893
0.055074 0.416517 0.393999
0.079193 0.406764 0.376784
0.202482 0.411596 0.354447
0.518183 0.435853 0.285965
0.690200 0.453581 0.250153
0.803273 0.444080 0.207250
0.867818 0.449784 0.194351
0.057338 0.513763 0.421025
0.081761 0.524247 0.420283
0.103184 0.521122 0.403424
0.194055 0.518561 0.392057
0.458515 0.569837 0.387302
0.692795 0.553502 0.286289
0.832420 0.578481 0.226953
0.904690 0.581558 0.196684
0.080857 0.607291 0.440764
0.105117 0.614058 0.434092
0.128178 0.613547 0.413762
0.222839 0.626122 0.418880
0.460155 0.676778 0.432371
0.707355 0.727950 0.382518
0.840347 0.667555 0.268648
0.917169 0.687873 0.232825
0.096715 0.676076 0.449384
0.119156 0.678319 0.435446
0.141158 0.677015 0.409562
0.271658 0.703954 0.441340
0.485859 0.748975 0.440466
0.697973 0.794946 0.406854
0.846705 0.782773 0.318576
0.918560 0.749684 0.263865
0.001155 0.158021 0.372152
0.067060 0.029299 0.282353
0.222861 0.028228 0.264612
0.388838 0.061546 0.268744
0.558742 0.087931 0.261215
0.643094 0.105971 0.251738
0.706768 0.114568 0.247099
0.764754 0.123090 0.244702
0.005314 0.240700 0.397583
0.022735 0.205612 0.387726
0.125023 0.107108 0.309338
0.321162 0.104420 0.266640
0.554197 0.140005 0.261780
0.658218 0.159442 0.249584
0.724353 0.164060 0.239287
0.776910 0.172650 0.230899
0.013166 0.291111 0.413311
0.032247 0.289114 0.415790
0.074777 0.269390 0.406451
0.273030 0.213716 0.323694
0.531206 0.225756 0.273754
0.661323 0.240694 0.252326
0.739593 0.241860 0.236411
0.790493 0.242660 0.212420
0.020527 0.335908 0.426792
0.042362 0.343637 0.434879
0.066094 0.344557 0.434413
0.200184 0.347134 0.420965
0.505355 0.332395 0.332948
0.648681 0.338228 0.277759
0.752011 0.349213 0.241783
0.817007 0.381064 0.237809
0.032665 0.402801 0.446956
0.057188 0.417872 0.459139
0.084370 0.420581 0.458746
0.174910 0.415923 0.448217
0.449874 0.471874 0.427403
0.666736 0.484604 0.352217
0.782012 0.509867 0.332811
0.857540 0.513407 0.308501
0.061962 0.525030 0.497449
0.088921 0.541657 0.505950
0.111963 0.546750 0.501795
0.177766 0.546871 0.492618
0.338154 0.570432 0.476649
0.678802 0.597770 0.403786
0.821650 0.606783 0.367177
0.898419 0.589807 0.331789
0.087126 0.621497 0.521426
0.111169 0.631232 0.521093
0.133647 0.635237 0.510767
0.193772 0.640797 0.500222
0.351528 0.667046 0.514705
0.647059 0.725472 0.492959
0.824126 0.700004 0.407327
0.918566 0.722010 0.383920
0.100841 0.689258 0.529759
0.124120 0.694873 0.522409
0.146913 0.696120 0.502208
0.214828 0.701474 0.487972
0.419962 0.743864 0.521048
0.651966 0.791112 0.504451
0.834917 0.821144 0.465003
0.921241 0.780102 0.404743
0.012534 0.198454 0.445583
0.062879 0.061676 0.359940
0.214820 0.033291 0.323407
0.329133 0.057255 0.321185
0.497363 0.090637 0.327360
0.642487 0.112766 0.318785
0.711231 0.128012 0.310211
0.771894 0.143427 0.311378
0.014716 0.288821 0.475101
0.034264 0.251572 0.468994
0.083908 0.140393 0.407200
0.272464 0.105320 0.335341
0.448031 0.128043 0.327176
0.657955 0.163580 0.322125
0.732935 0.179662 0.312016
0.790077 0.198290 0.308715
0.023007 0.339087 0.489301
0.043495 0.340739 0.496987
0.068548 0.325918 0.498194
0.210967 0.234975 0.421667
0.394648 0.222212 0.361700
0.664059 0.242703 0.327227
0.750442 0.255446 0.315100
0.803866 0.264644 0.307538
0.030900 0.382578 0.503721
0.053400 0.392443 0.513730
0.075270 0.397957 0.520252
0.166060 0.381613 0.507494
0.379255 0.334098 0.429017
0.657893 0.345175 0.354748
0.758674 0.346129 0.326542
0.813881 0.345368 0.312343
0.039649 0.429784 0.518054
0.064142 0.443967 0.530324
0.088188 0.454624 0.538820
0.162158 0.464485 0.543127
0.319627 0.483348 0.535423
0.659879 0.467936 0.423861
0.758327 0.464747 0.374639
0.825736 0.463777 0.343012
0.060819 0.514237 0.548050
0.088012 0.533549 0.562327
0.114218 0.547404 0.571499
0.172321 0.559047 0.578299
0.282813 0.573770 0.583188
0.621256 0.633683 0.545832
0.788015 0.646671 0.493705
0.881535 0.644509 0.455989
0.094995 0.638062 0.600311
0.120426 0.651055 0.607013
0.144177 0.659707 0.607980
0.168909 0.664675 0.604126
0.288288 0.678433 0.607566
0.558951 0.719687 0.592961
0.799390 0.748719 0.546728
0.914093 0.752380 0.508359
0.109898 0.707672 0.611995
0.131993 0.713995 0.609722
0.153642 0.718174 0.602576
0.179072 0.720416 0.588960
0.300047 0.733160 0.587360
0.579304 0.786388 0.594724
0.793369 0.838958 0.579518
0.915761 0.812720 0.523846
0.021803 0.227347 0.508764
0.071331 0.084721 0.420432
0.224008 0.043932 0.374917
0.317102 0.062143 0.371111
0.426482 0.084022 0.373626
0.610073 0.121242 0.379059
0.711129 0.134184 0.373179
0.773347 0.147615 0.367273
0.022848 0.329354 0.541705
0.045506 0.282086 0.534800
0.081339 0.163205 0.473682
0.252207 0.109990 0.395520
0.379121 0.122941 0.380397
0.596471 0.160478 0.382690
0.730759 0.181288 0.377196
0.794668 0.204596 0.369693
0.031815 0.380812 0.556161
0.051946 0.378708 0.563006
0.074995 0.358309 0.564836
0.163904 0.254569 0.500470
0.344548 0.215712 0.424378
0.567579 0.230339 0.388985
0.748735 0.252246 0.380957
0.812548 0.273080 0.373253
0.040133 0.424625 0.570579
0.062335 0.432758 0.579333
0.083764 0.435510 0.586494
0.154648 0.412637 0.576552
0.320611 0.343894 0.508087
0.534804 0.329304 0.432674
0.759053 0.337699 0.387408
0.826210 0.355191 0.380599
0.050200 0.469856 0.586773
0.074005 0.481634 0.596993
0.097586 0.491857 0.605605
0.134296 0.506364 0.616526
0.273747 0.500412 0.606140
0.539020 0.453500 0.502954
0.766166 0.457474 0.431121
0.837548 0.465521 0.418260
0.065456 0.530259 0.609099
0.090572 0.544175 0.620150
0.116243 0.558461 0.631042
0.159987 0.572076 0.641678
0.271756 0.592995 0.651424
0.536560 0.633985 0.626990
0.772273 0.625768 0.547182
0.844383 0.607337 0.504281
0.091780 0.621903 0.643642
0.117815 0.637415 0.654793
0.144518 0.653540 0.665508
0.172570 0.665740 0.673107
0.277962 0.689821 0.689619
0.475169 0.724551 0.692465
0.762066 0.781482 0.658447
0.894045 0.783192 0.616004
0.117977 0.724469 0.684759
0.141804 0.734278 0.689976
0.164946 0.742137 0.692636
0.186872 0.746788 0.690803
0.263572 0.757692 0.692494
0.437831 0.782435 0.696789
0.719979 0.833873 0.671977
0.899412 0.858215 0.643219
0.026585 0.283884 0.573779
0.085967 0.098091 0.466283
0.243967 0.057497 0.421486
0.325624 0.069958 0.417828
0.409501 0.087695 0.418108
0.551638 0.117170 0.421728
0.696185 0.143487 0.425842
0.773881 0.154667 0.423537
0.030243 0.362853 0.597080
0.053484 0.307065 0.589808
0.092477 0.178162 0.519267
0.261593 0.126628 0.443858
0.367994 0.131692 0.427502
0.515839 0.154691 0.425017
0.704196 0.188002 0.428053
0.792530 0.207681 0.425787
0.040363 0.416373 0.613053
0.059054 0.408184 0.615638
0.083606 0.377326 0.614718
0.156680 0.266351 0.549067
0.328066 0.216806 0.473157
0.481412 0.227817 0.444999
0.706425 0.248946 0.430454
0.808513 0.269616 0.428113
0.050068 0.462431 0.628839
0.070918 0.464093 0.632056
0.091084 0.462042 0.638391
0.148661 0.429102 0.625520
0.277932 0.348147 0.561563
0.475088 0.317392 0.484524
0.702155 0.325673 0.437308
0.821075 0.343743 0.430167
0.060859 0.507602 0.646155
0.083188 0.513049 0.650528
0.105756 0.519790 0.656901
0.132601 0.527363 0.666612
0.250000 0.502840 0.649507
0.485503 0.438826 0.554487
0.691187 0.431461 0.478797
0.833210 0.442960 0.454349
0.073897 0.558490 0.665088
0.096647 0.565866 0.670877
0.121255 0.577562 0.679712
0.145883 0.589037 0.689606
0.252851 0.609928 0.701027
0.473672 0.622719 0.676764
0.691161 0.586768 0.584022
0.853239 0.591298 0.537877
0.094125 0.629034 0.693316
0.117606 0.637550 0.699697
0.143340 0.651706 0.709919
0.168220 0.662471 0.717189
0.260795 0.684794 0.733822
0.424233 0.721619 0.747913
0.713335 0.779093 0.720166
0.872125 0.770219 0.669292
0.114522 0.706089 0.719356
0.139093 0.717462 0.727953
0.164185 0.730392 0.736815
0.187950 0.740371 0.743040
0.254653 0.759040 0.756003
0.376908 0.785404 0.773617
0.652213 0.843414 0.763938
0.871590 0.889239 0.735297
