All_In_One/addons/Enrich_Colormaster/colormanagement/luts/film_response/Sia.cube
TITLE "Sia"
LUT_3D_SIZE 5
DOMAIN_MIN 0.000000 0.000000 0.000000
DOMAIN_MAX 0.903226 0.903226 0.903226
0.0000 0.0000 0.0000
0.1294 0.0118 0.0157
0.3765 0.0392 0.0235
0.6118 0.0471 0.0275
0.7843 0.0627 0.0471
0.0118 0.1843 0.0157
0.1412 0.1765 0.0157
0.3882 0.2000 0.0314
0.6157 0.2118 0.0392
0.7882 0.2235 0.0549
0.0392 0.3725 0.0392
0.1804 0.3608 0.0353
0.3922 0.3569 0.0353
0.6196 0.3686 0.0431
0.7922 0.3882 0.0627
0.0627 0.6000 0.0549
0.2118 0.5961 0.0549
0.4392 0.5922 0.0549
0.6235 0.5882 0.0549
0.7922 0.6196 0.0706
0.0863 0.8314 0.0863
0.2549 0.8275 0.0824
0.4863 0.8275 0.0824
0.6549 0.8275 0.0784
0.7922 0.8235 0.0784
0.0118 0.0157 0.1333
0.1255 0.0157 0.1333
0.3686 0.0471 0.1451
0.6078 0.0588 0.1647
0.7843 0.0745 0.1882
0.0118 0.1804 0.1333
0.1608 0.2157 0.1608
0.4196 0.2353 0.1804
0.6471 0.2431 0.2000
0.8078 0.2588 0.2314
0.0392 0.3686 0.1608
0.1961 0.3961 0.1882
0.4235 0.3922 0.1882
0.6471 0.4078 0.2078
0.8118 0.4275 0.2392
0.0627 0.6000 0.1922
0.2431 0.6471 0.2275
0.4784 0.6431 0.2275
0.6549 0.6392 0.2275
0.8118 0.6745 0.2549
0.0863 0.8314 0.2314
0.2863 0.8627 0.2706
0.5098 0.8588 0.2667
0.6784 0.8588 0.2667
0.8157 0.8588 0.2667
0.0392 0.0549 0.3451
0.1647 0.0549 0.3451
0.3608 0.0549 0.3412
0.6078 0.0706 0.3725
0.7843 0.0902 0.4078
0.0392 0.2235 0.3451
0.1961 0.2549 0.3804
0.4118 0.2549 0.3804
0.6431 0.2627 0.4118
0.8078 0.2706 0.4471
0.0392 0.3608 0.3451
0.1961 0.3922 0.3804
0.4627 0.4275 0.4235
0.6706 0.4471 0.4549
0.8431 0.4784 0.4980
0.0627 0.6000 0.3804
0.2431 0.6471 0.4275
0.5020 0.6863 0.4667
0.6745 0.6863 0.4627
0.8431 0.7216 0.5059
0.0863 0.8275 0.4314
0.2863 0.8588 0.4745
0.5451 0.8863 0.5176
0.7020 0.8863 0.5176
0.8471 0.8863 0.5098
0.0627 0.0902 0.5843
0.2000 0.0902 0.5843
0.4118 0.0902 0.5843
0.6039 0.0863 0.5843
0.7804 0.1059 0.6078
0.0627 0.2588 0.5843
0.2431 0.2863 0.6196
0.4627 0.2863 0.6196
0.6392 0.2863 0.6157
0.8039 0.2980 0.6431
0.0627 0.3961 0.5843
0.2431 0.4314 0.6196
0.5020 0.4667 0.6510
0.6667 0.4667 0.6510
0.8392 0.4980 0.6824
0.0627 0.5961 0.5843
0.2431 0.6431 0.6196
0.5020 0.6863 0.6510
0.6980 0.7294 0.6902
0.8667 0.7608 0.7176
0.0863 0.8275 0.6157
0.2863 0.8588 0.6510
0.5451 0.8863 0.6902
0.7255 0.9098 0.7216
0.8706 0.9098 0.7176
0.0863 0.1255 0.7804
0.2392 0.1255 0.7804
0.4627 0.1255 0.7804
0.6353 0.1255 0.7804
0.7804 0.1255 0.7765
0.0863 0.2863 0.7804
0.2863 0.3176 0.8039
0.5020 0.3176 0.8039
0.6667 0.3176 0.8039
0.8039 0.3176 0.8039
0.0863 0.4314 0.7804
0.2863 0.4667 0.8039
0.5451 0.5098 0.8392
0.6980 0.5098 0.8392
0.8392 0.5098 0.8392
0.0863 0.6392 0.7804
0.2863 0.6824 0.8039
0.5451 0.7294 0.8392
0.7255 0.7647 0.8706
0.8667 0.7647 0.8706
0.0863 0.8235 0.7804
0.2863 0.8588 0.8078
0.5451 0.8863 0.8392
0.7255 0.9098 0.8706
0.9020 0.9373 0.9059
