All_In_One/addons/Enrich_Colormaster/colormanagement/luts/film_response/Tcolor.cube
TITLE "Generate by Resolve"
LUT_3D_SIZE 5
0.0207065 0.0317693 0.0111849
0.553536 0 0
1 0 0
1 0 0
1 0 0
0 0.201877 0
0.195102 0.185107 0
1 0.0191348 0
1 0.0759136 0
1 0.187274 0
0 0.578882 0
0.115892 0.601251 0
0.712413 0.586954 0
1 0.585061 0
1 0.665553 0
0.13901 0.873976 0.134417
0.397757 0.911421 0.224247
0.720088 0.953002 0
1 0.968765 0
1 0.987533 0
0.432441 1 0.429419
0.586007 1 0.435569
0.835187 1 0.211688
1 1 0
1 1 0
0.401312 0 0.700771
0.538781 0 0.341726
1 0 0
1 0 0
1 0 0
0 0.271733 0.522393
0.140459 0.178851 0.116304
1 0 0
1 0.0445563 0
1 0.172274 0
0 0.626169 0.00769055
0.142718 0.609735 0.130922
0.698985 0.601831 0
1 0.606729 0
1 0.675807 0
0.104036 0.90602 0.312642
0.401709 0.932265 0.394141
0.730755 0.953399 0.26424
1 0.972366 0
1 0.986755 0
0.379416 1 0.556924
0.568505 1 0.572534
0.837079 1 0.42475
1 1 0
1 1 0
0.884184 0 1
1 0 1
1 0 1
1 0 0.574746
1 0 0.463416
0.32015 0 1
0.990478 0 1
1 0 1
1 0 0.707622
1 0.0497597 0.638254
0 0.719738 1
0 0.787671 1
0.612757 0.584054 0.611139
1 0.565881 0.412329
1 0.624537 0.418784
0 1 1
0 1 0.941451
0.720607 0.929564 0.733181
1 0.942275 0.477043
1 0.952834 0.328038
0 1 1
0.194034 1 0.984222
0.811231 1 0.834836
1 1 0.631357
1 1 0.462165
0.885954 0 1
1 0 1
1 0 1
1 0 1
1 0 1
0.636805 0 1
1 0 1
1 0 1
1 0 1
1 0.0149233 1
0 0.612512 1
0 0.652384 1
0.973816 0.447013 1
1 0.542077 1
1 0.602441 1
0 1 1
0 1 1
0.181384 1 1
0.946166 0.928618 1
1 0.92137 0.933761
0 1 1
0 1 1
0.387213 1 1
1 1 1
1 1 0.97377
0.890562 0 1
1 0 1
1 0 1
1 0 1
1 0 1
0.698863 0 1
1 0 1
1 0 1
1 0 1
1 0.0525521 1
0 0.578668 1
0 0.609064 1
1 0.433921 1
1 0.538872 1
1 0.603693 1
0 1 1
0 1 1
0.0813458 1 1
1 0.885451 1
1 0.912871 1
0 1 1
0 1 1
0.0690623 1 1
0.76704 1 1
1 1 1
