All_In_One/addons/Enrich_Colormaster/colormanagement/luts/film_response/Tcolor.cube
TITLE "Generate by Resolve"
LUT_3D_SIZE 33
0.0207065 0.0317693 0.0111849
0.0750134 0.0213626 0
0.129427 0.0119478 0
0.183566 0.00230411 0
0.240909 0 0
0.30605 0 0
0.376593 0 0
0.457664 0 0
0.553536 0 0
0.667201 0 0
0.800641 0 0
0.954437 0 0
1 0 0
1 0 0
1 0 0
1 0 0
1 0 0
1 0 0
1 0 0
1 0 0
1 0 0
1 0 0
1 0 0
1 0 0
1 0 0
1 0 0
1 0 0
1 0 0
1 0 0
1 0 0
1 0 0
1 0 0
1 0 0
0.00440986 0.0532235 0
0.0332494 0.0514076 0
0.0821393 0.0443122 0
0.132372 0.0360571 0
0.188861 0.025391 0
0.251331 0.0132601 0
0.322805 0 0
0.409339 0 0
0.508446 0 0
0.624033 0 0
0.759274 0 0
0.914275 0 0
1 0 0
1 0 0
1 0 0
1 0 0
1 0 0
1 0 0
1 0 0
1 0 0
1 0 0
1 0 0
1 0 0
1 0 0
1 0 0
1 0 0
1 0 0
1 0 0
1 0 0
1 0 0
1 0 0
1 0 0
1 0 0
0 0.0733196 0
0.0122225 0.07187 0
0.0491188 0.0683909 0
0.100587 0.0603799 0
0.148699 0.0537423 0
0.205295 0.0440681 0
0.273304 0.0306706 0
0.356268 0.0134127 0
0.458335 0 0
0.580423 0 0
0.718578 0 0
0.876051 0 0
1 0 0
1 0 0
1 0 0
1 0 0
1 0 0
1 0 0
1 0 0
1 0 0
1 0 0
1 0 0
1 0 0
1 0 0
1 0 0
1 0 0
1 0 0
1 0 0
1 0 0
1 0 0
1 0 0
1 0 0
1 0 0
0 0.0932479 0
0 0.0899367 0
0.0245212 0.0889448 0
0.0659037 0.0842603 0
0.121096 0.0756542 0
0.174777 0.0677958 0
0.235813 0.0581369 0
0.311864 0.043595 0
0.40882 0.0234379 0
0.529549 0 0
0.675502 0 0
0.836316 0 0
1 0 0
1 0 0
1 0 0
1 0 0
1 0 0
1 0 0
1 0 0
1 0 0
1 0 0
1 0 0
1 0 0
1 0 0
1 0 0
1 0 0
1 0 0
1 0 0
1 0 0
1 0 0
1 0 0
1 0 0
1 0 0
0 0.112245 0
0 0.108431 0
0.00932326 0.107362 0
0.0384375 0.105653 0
0.0841535 0.100191 0
0.14493 0.0905165 0
0.207904 0.0810559 0
0.277897 0.0703899 0
0.367147 0.053727 0
0.480476 0.0303502 0
0.623514 0 0
0.791974 0 0
0.966995 0 0
1 0 0
1 0 0
1 0 0
1 0 0
1 0 0
1 0 0
1 0 0
1 0 0
1 0 0
1 0 0
1 0 0
1 0 0
1 0 0
1 0 0
1 0 0
1 0 0
1 0 0
1 0 0
1 0 0
1 0 0
0 0.131548 0
0 0.12842 0
0 0.126375 0
0.0198215 0.125673 0
0.0532387 0.123507 0
0.104906 0.11725 0
0.174105 0.106279 0
0.249348 0.094728 0
0.332738 0.0818189 0
0.438331 0.0627298 0
0.571283 0.035462 0
0.737118 0 0
0.919112 0 0
1 0 0
1 0 0
1 0 0
1 0 0
1 0 0
1 0 0
1 0 0
1 0 0
1 0 0
1 0 0
1 0 0
1 0 0
1 0 0
1 0 0
1 0 0
1 0 0
1 0 0
1 0 0
1 0 0
1 0.0018616 0
0 0.152468 0
0 0.149279 0
0 0.148501 0
0.00257877 0.1467 0
0.0309911 0.145998 0
0.0695811 0.143496 0
0.129 0.13608 0
0.210254 0.123552 0
0.30132 0.10927 0
0.401266 0.0942702 0
0.525444 0.0720684 0
0.678508 0.0412451 0
0.857633 0.00242618 0
1 0 0
1 0 0
1 0 0
1 0 0
1 0 0
1 0 0
1 0 0
1 0 0
1 0 0
1 0 0
1 0 0
1 0 0
1 0 0
1 0 0
1 0 0
1 0.00352483 0
1 0.0176394 0
1 0.0332647 0
1 0.0484474 0
1 0.0631723 0
0 0.175525 0
0 0.172549 0
0 0.171801 0
0 0.171389 0
0.0107118 0.170169 0
0.0431525 0.169451 0
0.0881971 0.166644 0
0.158511 0.158312 0
0.255802 0.143252 0
0.365148 0.12636 0
0.483452 0.108949 0
0.626734 0.0846418 0
0.791669 0.0530251 0
0.970581 0.0166476 0
1 0 0
1 0 0
1 0 0
1 0 0
1 0 0
1 0 0
1 0 0
1 0 0
1 0 0
1 0 0
1 0.010132 0
1 0.0233158 0
1 0.0380865 0
1 0.0521096 0
1 0.066392 0
1 0.0808881 0
1 0.095491 0
1 0.110079 0
1 0.124987 0
0 0.201877 0
0 0.199283 0
0 0.19855 0
0 0.199191 0
0 0.198444 0
0.0193942 0.198032 0
0.0571756 0.19762 0
0.110613 0.194781 0
0.195102 0.185107 0
0.311528 0.16788 0
0.441672 0.14873 0
0.578546 0.129717 0
0.732692 0.105638 0
0.899092 0.0767987 0
1 0.0464332 0
1 0.0243076 0
1 0.0191348 0
1 0.017319 0
1 0.0195315 0
1 0.0247349 0
1 0.0321508 0
1 0.0410773 0
1 0.0518044 0
1 0.0632792 0
1 0.0759136 0
1 0.0889448 0
1 0.102602 0
1 0.116365 0
1 0.130632 0
1 0.144717 0
1 0.159121 0
1 0.173236 0
1 0.187274 0
0 0.232456 0
0 0.230396 0
0 0.229786 0
0 0.230655 0
0 0.232441 0
0 0.231891 0
0.0314336 0.232242 0
0.0761883 0.232471 0
0.140902 0.229831 0
0.242252 0.219379 0
0.380026 0.20032 0
0.53109 0.179416 0
0.679667 0.161151 0
0.834775 0.140475 0
0.99202 0.11693 0
1 0.0966506 0
1 0.0912032 0
1 0.0893416 0
1 0.0906844 0
1 0.0946212 0
1 0.101335 0
1 0.109834 0
1 0.12015 0
1 0.131273 0
1 0.143542 0
1 0.156115 0
1 0.16936 0
1 0.18262 0
1 0.196002 0
1 0.209751 0
1 0.223209 0
1 0.236545 0
1 0.250019 0
0 0.26807 0
0 0.266957 0
0 0.267308 0
0 0.268482 0
0 0.270634 0
0 0.273503 0
0.00799573 0.273579 0
0.0513924 0.275425 0
0.105455 0.276905 0
0.183383 0.275029 0
0.303273 0.264088 0
0.461372 0.243595 0
0.625406 0.222477 0
0.775601 0.205417 0
0.920684 0.188495 0
1 0.171771 0
1 0.165682 0
1 0.163455 0
1 0.164279 0
1 0.167529 0
1 0.17351 0
1 0.181292 0
1 0.190677 0
1 0.201389 0
1 0.212711 0
1 0.224887 0
1 0.237156 0
1 0.249638 0
1 0.262501 0
1 0.27509 0
1 0.287602 0
1 0.300206 0
1 0.312322 0
0 0.309926 0
0 0.310094 0
0 0.311589 0
0 0.31397 0
0 0.316945 0
0 0.320806 0
0 0.324117 0
0.0328832 0.325658 0
0.0840314 0.329168 0
0.148119 0.331899 0
0.239399 0.329732 0
0.375555 0.31722 0
0.543191 0.296025 0
0.708553 0.274708 0
0.852644 0.2589 0
0.98352 0.245716 0
1 0.239094 0
1 0.237919 0
1 0.238666 0
1 0.241703 0
1 0.246723 0
1 0.25391 0
1 0.262486 0
1 0.272084 0
1 0.28278 0
1 0.293782 0
1 0.305104 0
1 0.316869 0
1 0.328405 0
1 0.339986 0
1 0.351537 0
1 0.362631 0
1 0.373999 0
0 0.35848 0
0 0.360067 0
0 0.363027 0
0 0.366949 0
0 0.371328 0
0 0.375708 0
0 0.380392 0
0.0204623 0.381888 0
0.0724346 0.385611 0
0.130678 0.389502 0
0.204471 0.391852 0
0.308659 0.387945 0
0.452583 0.374014 0
0.617014 0.35314 0
0.773312 0.333471 0
0.907897 0.318959 0
1 0.309041 0
1 0.308034 0
1 0.309926 0
1 0.313054 0
1 0.31809 0
1 0.324544 0
1 0.33228 0
1 0.341283 0
1 0.350774 0
1 0.360754 0
1 0.371252 0
1 0.381628 0
1 0.392309 0
1 0.403006 0
1 0.413855 0
1 0.425025 0
1 0.435966 0
0 0.412497 0
0 0.415625 0
0 0.419699 0
0 0.424399 0
0 0.429191 0
0 0.434226 0
0 0.438682 0
0.0144656 0.440345 0
0.0690471 0.443473 0
0.125811 0.447105 0
0.191287 0.450278 0
0.274678 0.451087 0
0.386419 0.445182 0
0.527977 0.430961 0
0.678538 0.41239 0
0.818936 0.395361 0
0.948989 0.380911 0
1 0.37409 0
1 0.374899 0
1 0.37882 0
1 0.383932 0
1 0.390158 0
1 0.39765 0
1 0.405692 0
1 0.414313 0
1 0.423713 0
1 0.433402 0
1 0.443793 0
1 0.454261 0
1 0.464897 0
1 0.475914 0
1 0.486656 0
1 0.497627 0
0 0.46833 0
0 0.472389 0
0 0.477012 0
0 0.482292 0
0 0.487449 0
0 0.492561 0
0 0.496696 0
0.0186313 0.497642 0
0.075227 0.499718 0
0.132311 0.502586 0
0.193896 0.50544 0
0.265751 0.507362 0
0.355093 0.50634 0
0.466941 0.499123 0
0.596735 0.485817 0
0.728985 0.470619 0
0.859251 0.454826 0
0.978531 0.441398 0
1 0.437842 0
1 0.438712 0
1 0.443091 0
1 0.449256 0
1 0.456397 0
1 0.464744 0
1 0.47364 0
1 0.483085 0
1 0.493202 0
1 0.503471 0
1 0.513939 0
1 0.524788 0
1 0.535439 0
1 0.546258 0
1 0.556756 0
0 0.523781 0
0 0.528405 0
0 0.533333 0
0 0.53872 0
0 0.543725 0
0 0.548226 0
0 0.551797 0
0.0351873 0.551171 0
0.0923781 0.552377 0
0.149142 0.554025 0
0.208408 0.556069 0
0.273884 0.558206 0
0.348577 0.558923 0
0.4383 0.556176 0
0.543084 0.549096 0
0.657435 0.537789 0
0.778653 0.523735 0
0.896345 0.510033 0
1 0.500191 0
1 0.498283 0
1 0.499474 0
1 0.504845 0
1 0.512352 0
1 0.520562 0
1 0.529686 0
1 0.539605 0
1 0.549676 0
1 0.559991 0
1 0.570703 0
1 0.581231 0
1 0.591974 0
1 0.60235 0
1 0.612528 0
0 0.578882 0
0 0.583291 0
0 0.588266 0
0 0.593042 0
0 0.597543 0
0 0.601205 0
0 0.60235 0
0.059556 0.601114 0
0.115892 0.601251 0
0.171908 0.601892 0
0.229389 0.603235 0
0.289586 0.60473 0
0.354726 0.606088 0
0.428382 0.60618 0
0.512489 0.603052 0
0.606134 0.597055 0
0.712413 0.586954 0
0.822538 0.575296 0
0.92723 0.564858 0
1 0.559823 0
1 0.560189 0
1 0.563455 0
1 0.568734 0
1 0.576135 0
1 0.585061 0
1 0.594461 0
1 0.604349 0
1 0.614603 0
1 0.624811 0
1 0.635279 0
1 0.645472 0
1 0.655497 0
1 0.665553 0
0 0.631312 0
0 0.635416 0
0 0.639536 0
0 0.643626 0
0 0.647044 0
0 0.64921 0
0.034638 0.647044 0
0.0910048 0.646036 0
0.14522 0.64567 0
0.199435 0.645869 0
0.253803 0.646342 0
0.309865 0.647608 0
0.368368 0.649317 0
0.431403 0.65095 0
0.501564 0.651484 0
0.579004 0.649744 0
0.668177 0.644846 0
0.76669 0.637171 0
0.865522 0.628626 0
0.957321 0.621424 0
1 0.621149 0
1 0.623514 0
1 0.627878 0
1 0.634043 0
1 0.641138 0
1 0.649271 0
1 0.65832 0
1 0.667689 0
1 0.67747 0
1 0.687037 0
1 0.696788 0
1 0.706111 0
1 0.715541 0
0 0.674434 0
0 0.682506 0
0 0.685802 0
0 0.688731 0
0 0.690776 0
0.0182956 0.688655 0
0.0750744 0.687099 0
0.126696 0.68632 0
0.17789 0.686046 0
0.229114 0.686061 0
0.281392 0.686915 0
0.3346 0.688441 0
0.388907 0.690944 0
0.445655 0.694179 0
0.505714 0.69691 0
0.571267 0.698451 0
0.64686 0.697658 0
0.731426 0.694072 0
0.821454 0.688472 0
0.909392 0.683116 0
0.990204 0.680522 0
1 0.682597 0
1 0.686458 0
1 0.691524 0
1 0.697993 0
1 0.705058 0
1 0.712871 0
1 0.72079 0
1 0.729168 0
1 0.737652 0
1 0.746273 0
1 0.754467 0
1 0.762631 0
0 0.715038 0
0 0.724071 0
0 0.726238 0
0 0.727855 0
0.0123445 0.725856 0
0.0684367 0.72398 0
0.117998 0.72372 0
0.16611 0.723781 0
0.214267 0.724056 0
0.263157 0.72491 0
0.312642 0.726268 0
0.363195 0.728664 0
0.414298 0.732235 0
0.466056 0.736355 0
0.5196 0.740764 0
0.576654 0.744595 0
0.641871 0.746487 0
0.715526 0.746242 0
0.795331 0.74403 0
0.876936 0.740536 0
0.953918 0.737881 0
1 0.739544 0
1 0.74284 0
1 0.747402 0
1 0.752804 0
1 0.759152 0
1 0.765728 0
1 0.772839 0
1 0.780072 0
1 0.787015 0
1 0.794095 0
1 0.801022 0
1 0.807477 0
0 0.753506 0
0 0.759838 0
0 0.761227 0
0.0199283 0.758785 0
0.0727092 0.757473 0
0.119524 0.757733 0
0.163989 0.758419 0.0152285
0.207935 0.759548 0.0308232
0.252888 0.761074 0.0427558
0.298436 0.762707 0.0489052
0.345037 0.764828 0.0469978
0.392905 0.767971 0.0336767
0.441016 0.772198 0.00503548
0.490074 0.777935 0
0.539208 0.783429 0
0.590173 0.788617 0
0.648264 0.792645 0
0.713558 0.794598 0
0.78497 0.794705 0
0.85948 0.793652 0
0.932235 0.791989 0
1 0.793118 0
1 0.796017 0
1 0.800031 0
1 0.804715 0
1 0.81004 0
1 0.815824 0
1 0.821698 0
1 0.827619 0
1 0.833585 0
1 0.839399 0
1 0.844892 0
1 0.850111 0
0 0.789807 0
0 0.791577 0
0.0374304 0.788357 0
0.0854047 0.787854 0.0166476
0.128679 0.789014 0.0365606
0.16968 0.790799 0.0547189
0.21001 0.793042 0.0710307
0.250492 0.795651 0.0849012
0.291829 0.798138 0.0950637
0.334417 0.800778 0.100343
0.378393 0.803815 0.0986343
0.423407 0.807279 0.0864881
0.469032 0.811978 0.0620584
0.514672 0.8177 0.0231327
0.561471 0.824659 0
0.608881 0.831037 0
0.661555 0.836088 0
0.721126 0.839734 0
0.786206 0.841428 0
0.854719 0.841962 0
0.922484 0.841581 0
0.986954 0.842481 0
1 0.845045 0
1 0.848188 0
1 0.85211 0
1 0.856519 0
1 0.861295 0
1 0.865995 0
1 0.871015 0
1 0.87599 0
1 0.880766 0
1 0.885222 0
1 0.889357 0
0 0.819287 0.0216068
0.0576028 0.816052 0.0385748
0.102556 0.81677 0.0571298
0.142901 0.818891 0.0753338
0.180713 0.821729 0.0924849
0.217594 0.825116 0.108492
0.25417 0.828687 0.122667
0.291112 0.832242 0.134325
0.329625 0.835889 0.143008
0.36939 0.839261 0.146838
0.410727 0.842725 0.144167
0.453712 0.846769 0.132509
0.496941 0.851423 0.109331
0.540536 0.857328 0.0740063
0.584283 0.863874 0.0262608
0.629847 0.871504 0
0.678889 0.877317 0
0.734005 0.881804 0
0.794202 0.884413 0
0.857816 0.885786 0
0.921157 0.88632 0
0.981247 0.887053 0
1 0.889036 0
1 0.891585 0
1 0.894682 0
1 0.898268 0
1 0.902129 0
1 0.906188 0
1 0.910307 0
1 0.914382 0
1 0.918273 0
1 0.921859 0
1 0.925048 0
0.078294 0.843702 0.0797284
0.121187 0.845319 0.0964675
0.159319 0.848142 0.112856
0.194568 0.851804 0.128634
0.228519 0.856184 0.143771
0.261662 0.860594 0.157336
0.294926 0.865049 0.169268
0.329183 0.869627 0.179156
0.364843 0.873716 0.185748
0.402518 0.877775 0.188403
0.44181 0.881529 0.184741
0.483024 0.885664 0.172763
0.524544 0.890227 0.150057
0.566262 0.895903 0.116182
0.607919 0.902083 0.0713512
0.650721 0.908949 0.0162966
0.698085 0.915801 0
0.749722 0.920455 0
0.806409 0.923827 0
0.865965 0.925612 0
0.925292 0.926467 0
0.981643 0.927199 0
1 0.928786 0
1 0.930663 0
1 0.933059 0
1 0.935958 0
1 0.939147 0
1 0.942535 0
1 0.946075 0
1 0.949615 0
1 0.952804 0
1 0.955154 0
1 0.957702 0
0.13901 0.873976 0.134417
0.175708 0.877272 0.148943
0.209232 0.881468 0.163119
0.240925 0.886473 0.176913
0.271305 0.891585 0.189563
0.301717 0.896971 0.201282
0.332326 0.902037 0.2112
0.364248 0.907042 0.219318
0.397757 0.911421 0.224247
0.433509 0.915618 0.225437
0.471382 0.919585 0.220966
0.511772 0.924025 0.209247
0.552499 0.928603 0.187625
0.593423 0.934142 0.155825
0.634165 0.940276 0.114305
0.675273 0.9467 0.0636454
0.720088 0.953002 0
0.769574 0.958297 0
0.82266 0.961425 0
0.878401 0.963058 0
0.934112 0.963729 0
0.987381 0.964446 0
1 0.965698 0
1 0.967056 0
1 0.968765 0
1 0.970886 0
1 0.973312 0
1 0.975937 0
1 0.978271 0
1 0.980957 0
1 0.98349 0
1 0.985718 0
1 0.987533 0
0.190478 0.9066 0.183307
0.223255 0.911254 0.196033
0.2533 0.916365 0.208103
0.281788 0.921904 0.219669
0.310552 0.928344 0.231449
0.339696 0.934981 0.242481
0.369207 0.941146 0.251728
0.400031 0.946899 0.259159
0.432425 0.951659 0.263401
0.467201 0.955886 0.26421
0.504082 0.959518 0.259556
0.542504 0.962676 0.246937
0.581857 0.9664 0.225452
0.621027 0.97081 0.194034
0.659892 0.97586 0.15349
0.69894 0.981292 0.104631
0.741283 0.986633 0.0421149
0.788434 0.991821 0
0.838529 0.994598 0
0.891157 0.995956 0
0.943938 0.996521 0
0.994446 0.997009 0
1 0.997833 0
1 0.998764 0
1 0.999924 0
1 1 0
1 1 0
1 1 0
1 1 0
1 1 0
1 1 0
1 1 0
1 1 0
0.237507 0.943053 0.229419
0.268132 0.949096 0.241276
0.296757 0.955703 0.252872
0.324056 0.962493 0.26392
0.350545 0.968872 0.273899
0.377554 0.975082 0.283223
0.405219 0.980606 0.291035
0.434058 0.98529 0.296834
0.464942 0.989364 0.300008
0.498024 0.99263 0.29955
0.533288 0.9953 0.293843
0.570184 0.997452 0.28043
0.608042 1 0.258579
0.645716 1 0.227375
0.682902 1 0.187243
0.72015 1 0.139345
0.760433 1 0.0788586
0.804852 1 0.00320439
0.853101 1 0
0.903227 1 0
0.953506 1 0
1 1 0
1 1 0
1 1 0
1 1 0
1 1 0
1 1 0
1 1 0
1 1 0
1 1 0
1 1 0
1 1 0
1 1 0
0.281804 0.982651 0.273793
0.309895 0.988632 0.283955
0.336004 0.994507 0.293614
0.361273 1 0.303136
0.386191 1 0.31194
0.411109 1 0.319448
0.437049 1 0.325841
0.464393 1 0.330434
0.49366 1 0.332296
