All_In_One/addons/Enrich_Colormaster/colormanagement/luts/film_response/Tcolor.cube
TITLE "Generate by Resolve"
LUT_3D_SIZE 9
0.0207065 0.0317693 0.0111849
0.240909 0 0
0.553536 0 0
1 0 0
1 0 0
1 0 0
1 0 0
1 0 0
1 0 0
0 0.112245 0
0.0841535 0.100191 0
0.367147 0.053727 0
0.966995 0 0
1 0 0
1 0 0
1 0 0
1 0 0
1 0 0
0 0.201877 0
0 0.198444 0
0.195102 0.185107 0
0.732692 0.105638 0
1 0.0191348 0
1 0.0321508 0
1 0.0759136 0
1 0.130632 0
1 0.187274 0
0 0.35848 0
0 0.371328 0
0.0724346 0.385611 0
0.452583 0.374014 0
1 0.309041 0
1 0.31809 0
1 0.350774 0
1 0.392309 0
1 0.435966 0
0 0.578882 0
0 0.597543 0
0.115892 0.601251 0
0.354726 0.606088 0
0.712413 0.586954 0
1 0.560189 0
1 0.585061 0
1 0.624811 0
1 0.665553 0
0 0.753506 0
0.0727092 0.757473 0
0.252888 0.761074 0.0427558
0.441016 0.772198 0.00503548
0.648264 0.792645 0
0.932235 0.791989 0
1 0.804715 0
1 0.827619 0
1 0.850111 0
0.13901 0.873976 0.134417
0.271305 0.891585 0.189563
0.397757 0.911421 0.224247
0.552499 0.928603 0.187625
0.720088 0.953002 0
0.934112 0.963729 0
1 0.968765 0
1 0.978271 0
1 0.987533 0
0.320455 1 0.313085
0.41738 1 0.345357
0.518776 1 0.360418
0.651576 1 0.312535
0.792538 1 0.135821
0.970001 1 0
1 1 0
1 1 0
1 1 0
0.432441 1 0.429419
0.501335 1 0.436103
0.586007 1 0.435569
0.706447 1 0.379644
0.835187 1 0.211688
0.991333 1 0
1 1 0
1 1 0
1 1 0
0.186481 0 0.273075
0.243107 0 0.145052
0.527413 0 0.0615549
1 0 0
1 0 0
1 0 0
1 0 0
1 0 0
1 0 0
0 0.138872 0.228717
0.0574044 0.0963149 0.0403601
0.375265 0.0309148 0
0.973175 0 0
1 0 0
1 0 0
1 0 0
1 0 0
1 0 0
0 0.229252 0.00384527
0 0.195331 0
0.176394 0.182879 0
0.724971 0.0975967 0
1 0 0
1 0.0147402 0
1 0.0682689 0
1 0.127138 0
1 0.18613 0
0 0.376623 0
0 0.380484 0
0.0916762 0.386892 0
0.446128 0.381018 0
1 0.320699 0
1 0.318746 0
1 0.351049 0
1 0.392721 0
1 0.437308 0
0 0.595285 0
0 0.608301 0
0.140536 0.604669 0
0.37293 0.607996 0
0.70898 0.595621 0
1 0.57171 0
1 0.596628 0
1 0.634134 0
1 0.673548 0
0 0.768704 0
0.0852216 0.763592 0.0833143
0.268757 0.766735 0.143267
0.458213 0.775448 0.125826
0.655711 0.799619 0
0.932799 0.801358 0
1 0.813123 0
1 0.834592 0
1 0.855512 0
0.138842 0.886046 0.214359
0.2748 0.902586 0.265187
0.405249 0.920745 0.299687
0.565362 0.934173 0.277867
0.726055 0.955169 0.116884
0.932464 0.968093 0
1 0.972412 0
1 0.980682 0
1 0.988861 0
0.314763 1 0.379294
0.415045 1 0.409964
0.520119 1 0.425696
0.657908 1 0.389502
0.79556 1 0.235187
0.965225 1 0
1 1 0
1 1 0
1 1 0
0.414496 1 0.480415
0.493889 1 0.49369
0.582727 1 0.494743
0.709072 1 0.45005
0.836561 1 0.302998
0.984878 1 0.0369879
1 1 0
1 1 0
1 1 0
0.401312 0 0.700771
0.434806 0 0.448051
0.538781 0 0.341726
1 0 0.137774
1 0 0
1 0 0
1 0 0
1 0 0
1 0 0
0 0.0486458 0.739788
0.282933 0 0.462882
0.370779 0.00758373 0.242313
0.935821 0 0.0469825
1 0 0
1 0 0
1 0 0
1 0 0
1 0 0
0 0.271733 0.522393
0 0.234714 0.378637
0.140459 0.178851 0.116304
0.739406 0.0689555 0
1 0 0
1 0 0
1 0.0445563 0
1 0.10956 0
1 0.172274 0
0 0.431968 0.0918441
0 0.416648 0.0566415
0.0970932 0.389364 0.0831006
0.429618 0.384283 0
0.978821 0.326619 0
1 0.302724 0
1 0.337316 0
1 0.380987 0
1 0.427436 0
0 0.626169 0.00769055
0 0.627909 0.0744335
0.142718 0.609735 0.130922
0.389166 0.603159 0.0971084
0.698985 0.601831 0
1 0.581155 0
1 0.606729 0
1 0.641581 0
1 0.675807 0
0 0.786068 0.131258
0.0636301 0.777768 0.202625
0.269673 0.774884 0.257404
0.473365 0.777096 0.262333
0.657557 0.800198 0.0995804
0.926894 0.807843 0
1 0.81796 0
1 0.838117 0
1 0.858213 0
0.104036 0.90602 0.312642
0.255879 0.917647 0.35758
0.401709 0.932265 0.394141
0.574121 0.936904 0.387961
0.730755 0.953399 0.26424
0.923613 0.967773 0
1 0.972366 0
1 0.979583 0
1 0.986755 0
0.282841 1 0.464485
0.393912 1 0.492576
0.509957 1 0.509178
0.659663 1 0.486397
0.797421 1 0.365591
0.953841 1 0.112398
1 1 0
1 1 0
1 1 0
0.379416 1 0.556924
0.468803 1 0.56939
0.568505 1 0.572534
0.707607 1 0.541176
0.837079 1 0.42475
0.974868 1 0.190494
1 1 0
1 1 0
1 1 0
0.771328 0 1
0.851453 0 1
0.873075 0 0.933303
1 0 0.710323
1 0 0.471992
1 0 0.163516
1 0 0.0401312
1 0 0.00190738
1 0 0
0.4963 0 1
0.68809 0 1
0.768704 0 0.904799
0.934386 0 0.639551
1 0 0.407507
1 0 0.137163
1 0 0.038056
1 0 0.0287022
1 0 0.0456245
0 0.117388 1
0.126955 0.0318608 1
0.554665 0 0.975799
0.724315 0.0248264 0.52166
1 0 0.333227
1 0 0.107698
1 0 0.0530709
1 0.0480812 0.062501
1 0.119249 0.0903944
0 0.532311 1
0 0.515084 0.934234
0 0.482002 0.76141
0.372778 0.372808 0.352331
0.969726 0.290776 0.0962844
1 0.264302 0
1 0.282506 0
1 0.327367 0
1 0.376837 0
0 0.706889 0.536187
0 0.705287 0.466789
0 0.67863 0.412497
0.38909 0.593652 0.374624
0.661402 0.594995 0.172564
1 0.582528 0
1 0.60267 0
1 0.633463 0
1 0.664149 0
0 0.841688 0.396124
0 0.838697 0.432135
0.151339 0.809323 0.442374
0.464607 0.777996 0.456825
0.656275 0.788708 0.394034
0.896025 0.801556 0.127687
1 0.81236 0
1 0.832593 0
1 0.852903 0
0 0.972992 0.525795
0.102998 0.968414 0.53991
0.314961 0.96144 0.553262
0.55816 0.938354 0.55819
0.732784 0.93901 0.508797
0.895705 0.954253 0.297841
1 0.959182 0.115618
1 0.966201 0.0187839
1 0.973587 0
0.105394 1 0.64712
0.262516 1 0.652399
0.427359 1 0.655283
0.637201 1 0.644572
0.796597 1 0.588174
0.93106 1 0.398108
1 1 0.217197
1 1 0.114611
1 1 0.0303655
0.219776 1 0.721431
0.344747 1 0.718044
0.487129 1 0.712001
0.681376 1 0.693385
0.834455 1 0.63473
0.956405 1 0.462348
1 1 0.291402
1 1 0.188876
1 1 0.106722
0.884184 0 1
1 0 1
1 0 1
1 0 1
1 0 1
1 0 0.747066
1 0 0.574746
1 0 0.503944
1 0 0.463416
0.735805 0 1
0.927123 0 1
1 0 1
1 0 1
1 0 1
1 0 0.785931
1 0 0.622339
1 0 0.574121
1 0 0.559548
0.32015 0 1
0.608576 0 1
0.990478 0 1
1 0 1
1 0 1
1 0 0.853681
1 0 0.707622
1 0 0.664546
1 0.0497597 0.638254
0 0.38352 1
0 0.381506 1
0 0.335164 1
0.750118 0.198627 1
0.941421 0.254383 0.765301
1 0.238148 0.632944
1 0.257374 0.559274
1 0.303471 0.547082
1 0.353521 0.554513
0 0.719738 1
0 0.770214 1
0 0.787671 1
0 0.694026 0.921675
0.612757 0.584054 0.611139
0.999786 0.5505 0.459251
1 0.565881 0.412329
1 0.595376 0.412802
1 0.624537 0.418784
0 0.890639 1
0 0.903349 1
0 0.90399 1
0.221424 0.838575 0.73901
0.6542 0.779126 0.658885
0.855283 0.791485 0.503777
1 0.798932 0.357259
1 0.819089 0.298894
1 0.836118 0.267628
0 1 1
0 1 1
0 1 0.941451
0.388205 0.985031 0.770809
0.720607 0.929564 0.733181
0.871519 0.935195 0.640726
1 0.942275 0.477043
1 0.946914 0.392462
1 0.952834 0.328038
0 1 1
0 1 1
0.100099 1 0.966781
0.486046 1 0.834394
0.777447 1 0.796765
0.91577 1 0.715953
1 1 0.566873
1 1 0.471336
1 1 0.397879
0 1 1
0 1 1
0.194034 1 0.984222
0.541009 1 0.872679
0.811231 1 0.834836
0.945815 1 0.76173
1 1 0.631357
1 1 0.537896
1 1 0.462165
0.884642 0 1
1 0 1
1 0 1
1 0 1
1 0 1
1 0 1
1 0 0.962203
1 0 0.892836
1 0 0.849638
0.793194 0 1
0.928222 0 1
1 0 1
1 0 1
1 0 1
1 0 1
1 0 1
1 0 0.998886
1 0 0.977935
0.55584 0 1
0.745769 0 1
1 0 1
1 0 1
1 0 1
1 0 1
1 0 1
1 0 1
1 0.0106966 1
0 0.209445 1
0.0348974 0.20885 1
0.368887 0.170611 1
1 0.0514687 1
1 0.161425 1
1 0.206256 1
1 0.241764 1
1 0.293217 0.996338
1 0.344747 0.988083
0 0.677333 1
0 0.710185 1
0 0.72813 1
0 0.643275 1
0.835859 0.485557 1
0.984955 0.530129 0.887724
1 0.550591 0.864683
1 0.578973 0.865629
1 0.606195 0.871641
0 0.900801 1
0 0.949386 1
0 0.99733 1
0 0.951888 1
0.306157 0.866316 1
0.813916 0.785077 0.840711
1 0.778454 0.770047
1 0.790265 0.748333
1 0.802075 0.733211
0 1 1
0 1 1
0 1 1
0 1 1
0.485863 0.984039 1
0.864836 0.920211 0.891768
0.983764 0.928923 0.800229
1 0.932738 0.72015
1 0.939391 0.66331
0 1 1
0 1 1
0 1 1
0.0848554 1 1
0.577783 1 1
0.905547 1 0.93814
0.995926 1 0.878706
1 1 0.789746
1 1 0.719295
0 1 1
0 1 1
0 1 1
0.166217 1 1
0.636011 1 1
0.93225 1 0.968719
1 1 0.92491
1 1 0.851957
1 1 0.778943
0.885954 0 1
0.992096 0 1
1 0 1
1 0 1
1 0 1
1 0 1
1 0 1
1 0 1
1 0 1
0.813245 0 1
0.930571 0 1
1 0 1
1 0 1
1 0 1
1 0 1
1 0 1
1 0 1
1 0 1
0.636805 0 1
0.790845 0 1
1 0 1
1 0 1
1 0 1
1 0 1
1 0 1
1 0 1
1 0.0149233 1
0.0636454 0.149645 1
0.251896 0.156466 1
0.549172 0.13402 1
1 0.022446 1
1 0.100114 1
1 0.181369 1
1 0.232883 1
1 0.290013 1
1 0.343832 1
0 0.612512 1
0 0.642695 1
0 0.652384 1
0.190021 0.565713 1
0.973816 0.447013 1
1 0.50576 1
1 0.542077 1
1 0.574334 1
1 0.602441 1
0 0.917067 1
0 0.954177 1
0 0.989761 1
0 0.98584 1
0.265888 0.865278 1
0.928176 0.740383 1
1 0.76965 1
1 0.783047 1
1 0.793271 1
0 1 1
0 1 1
0 1 1
0 1 1
0.181384 1 1
0.630991 0.980835 1
0.946166 0.928618 1
1 0.921447 0.962173
1 0.92137 0.933761
0 1 1
0 1 1
0 1 1
0 1 1
0.306386 1 1
0.754253 1 1
0.978241 1 1
1 1 0.985473
1 1 0.918303
0 1 1
0 1 1
0 1 1
0 1 1
0.387213 1 1
0.815854 1 1
1 1 1
1 1 1
1 1 0.97377
0.888212 0 1
0.987167 0 1
1 0 1
1 0 1
1 0 1
1 0 1
1 0 1
1 0 1
1 0 1
0.82266 0 1
0.933852 0 1
1 0 1
1 0 1
1 0 1
1 0 1
1 0 1
1 0 1
1 0 1
0.672862 0 1
0.814527 0 1
1 0 1
1 0 1
1 0 1
1 0 1
1 0 1
1 0 1
1 0.0315557 1
0.171221 0.13434 1
0.350484 0.146532 1
0.624475 0.13463 1
1 0.0436103 1
1 0.0773022 1
1 0.174655 1
1 0.236072 1
1 0.295933 1
1 0.350332 1
0 0.590555 1
0 0.618372 1
0 0.624735 1
0.330755 0.53727 1
1 0.4374 1
1 0.495674 1
1 0.540246 1
1 0.574533 1
1 0.603326 1
0 0.900771 1
0 0.938369 1
0 0.969802 1
0 0.971496 1
0.33547 0.841657 1
0.999268 0.724819 1
1 0.758282 1
1 0.779126 1
1 0.791943 1
0 1 1
0 1 1
0 1 1
0 1 1
0.0890669 1 1
0.601083 0.977325 1
1 0.903716 1
1 0.916899 1
1 0.918273 1
0 1 1
0 1 1
0 1 1
0 1 1
0.125307 1 1
0.559091 1 1
0.835554 1 1
1 1 1
1 1 1
0 1 1
0 1 1
0 1 1
0 1 1
0.212924 1 1
0.654063 1 1
0.934295 1 1
1 1 1
1 1 1
0.890562 0 1
0.984787 0 1
1 0 1
1 0 1
1 0 1
1 0 1
1 0 1
1 0 1
1 0 1
0.830747 0 1
0.937713 0 1
1 0 1
1 0 1
1 0 1
1 0 1
1 0 1
1 0 1
1 0 1
0.698863 0 1
0.833982 0 1
1 0 1
1 0 1
1 0 1
1 0 1
1 0 1
1 0 1
1 0.0525521 1
0.249393 0.130159 1
0.420233 0.147189 1
0.672206 0.144991 1
1 0.0667582 1
1 0.0655985 1
1 0.173373 1
1 0.241947 1
1 0.303334 1
1 0.357702 1
0 0.578668 1
0 0.604288 1
0 0.609064 1
0.440589 0.525154 1
1 0.433921 1
1 0.489799 1
1 0.538872 1
1 0.574762 1
1 0.603693 1
0 0.891402 1
0 0.92726 1
0 0.954665 1
0 0.945602 1
0.408835 0.82356 1
1 0.714336 1
1 0.746181 1
1 0.772061 1
1 0.787823 1
0 1 1
0 1 1
0 1 1
0 1 1
0.0813458 1 1
0.65008 0.956085 1
1 0.885451 1
1 0.902846 1
1 0.912871 1
0 1 1
0 1 1
0 1 1
0 1 1
0.033463 1 1
0.49572 1 1
0.834775 1 1
1 0.994476 1
1 1 1
0 1 1
0 1 1
0 1 1
0 1 1
0.0690623 1 1
0.496529 1 1
0.76704 1 1
0.929732 1 1
1 1 1
