All_In_One/addons/Enrich_Colormaster/colormanagement/luts/film_response/Tetrachrome_400_VS.cube
TITLE "ImpulZ LUT 32"
LUT_3D_SIZE 5
DOMAIN_MIN 0.000000 0.000000 0.000000
DOMAIN_MAX 0.903226 0.903226 0.903226
0.0275 0.0314 0.0314
0.1303 0.0471 0.0392
0.2096 0.0588 0.0471
0.2889 0.0693 0.0549
0.3761 0.0937 0.0702
0.0480 0.1234 0.0588
0.1760 0.1595 0.0715
0.2828 0.1821 0.0833
0.3613 0.1909 0.0911
0.4472 0.2144 0.1103
0.0784 0.2232 0.0920
0.2593 0.3073 0.1107
0.3796 0.3386 0.1369
0.4598 0.3504 0.1534
0.5365 0.3661 0.1722
0.1059 0.3347 0.1294
0.2200 0.3869 0.1333
0.3804 0.4397 0.1587
0.5491 0.5033 0.2445
0.6180 0.5151 0.2575
0.1255 0.4192 0.1565
0.1975 0.4506 0.1643
0.3667 0.5047 0.1796
0.5723 0.5944 0.2869
0.6314 0.5957 0.3133
0.0314 0.0440 0.1264
0.1107 0.0440 0.1429
0.2075 0.0588 0.1342
0.3073 0.0706 0.1391
0.4188 0.0976 0.1779
0.0588 0.1360 0.1469
0.1996 0.1839 0.1957
0.3308 0.1634 0.1342
0.3857 0.1469 0.1203
0.4869 0.1814 0.1539
0.0881 0.2428 0.1870
0.1360 0.3103 0.1351
0.4581 0.4101 0.2328
0.5304 0.3814 0.2171
0.5958 0.3867 0.2416
0.1146 0.3435 0.2096
0.1499 0.4035 0.1783
0.3926 0.4916 0.2092
0.6349 0.5866 0.3329
0.6750 0.5709 0.3234
0.1495 0.4354 0.2441
0.2049 0.5030 0.2638
0.4434 0.5884 0.2743
0.6572 0.6632 0.3682
0.7025 0.6606 0.3783
0.0370 0.0549 0.1979
0.0998 0.0471 0.2175
0.2131 0.0588 0.2310
0.3247 0.0745 0.2467
0.4271 0.1073 0.2838
0.0676 0.1508 0.2271
0.1107 0.1460 0.2850
0.3338 0.1604 0.3338
0.4062 0.1321 0.2807
0.5090 0.1892 0.3243
0.0998 0.2641 0.2781
0.1721 0.3317 0.3504
0.4345 0.4345 0.4306
0.6071 0.3718 0.3365
0.6759 0.3685 0.3489
0.1709 0.4058 0.3591
0.2237 0.4725 0.3832
0.2921 0.5060 0.3144
0.6680 0.6110 0.4110
0.7290 0.6136 0.4386
0.2384 0.5247 0.4206
0.2620 0.5526 0.4206
0.3079 0.6028 0.3657
0.6589 0.6846 0.4238
0.7447 0.7034 0.4655
0.0431 0.0706 0.2693
0.1077 0.0567 0.2898
0.2367 0.0654 0.3181
0.3543 0.0928 0.3386
0.4192 0.1094 0.3552
0.0745 0.1664 0.3016
0.0833 0.1194 0.3251
0.2415 0.1107 0.3778
0.4258 0.1586 0.4035
0.4746 0.1735 0.3953
0.1116 0.2859 0.3600
0.1508 0.3090 0.4140
0.2629 0.3413 0.4990
0.5818 0.3765 0.5552
0.6276 0.3580 0.5174
0.2237 0.4498 0.4682
0.3121 0.5557 0.5696
0.4094 0.5831 0.5949
0.6393 0.6393 0.6276
0.7094 0.6311 0.6106
0.3203 0.5944 0.5543
0.3399 0.6337 0.5791
0.4243 0.6677 0.6015
0.6129 0.6912 0.6103
0.7486 0.7290 0.6350
0.0506 0.0824 0.3251
0.1194 0.0667 0.3561
0.2737 0.0976 0.3996
0.3634 0.1094 0.3996
0.4271 0.1216 0.4074
0.0784 0.1704 0.3574
0.0994 0.1422 0.3848
0.2459 0.1452 0.4493
0.4062 0.1735 0.4554
0.4632 0.1726 0.4436
0.1273 0.3129 0.4345
0.1723 0.3200 0.4773
0.2875 0.3585 0.5742
0.5384 0.3646 0.6140
0.6124 0.3606 0.5889
0.2315 0.4629 0.5265
0.2921 0.5095 0.5866
0.4191 0.5819 0.6686
0.6064 0.6154 0.6846
0.7046 0.6263 0.6925
0.3251 0.5878 0.5996
0.3652 0.6436 0.6554
0.4948 0.6955 0.7073
0.6664 0.7278 0.7278
0.7486 0.7486 0.7447
