All_In_One/addons/Enrich_Colormaster/colormanagement/luts/film_response/Tetrachrome_400_FC.cube
TITLE "ImpulZ LUT 32"
LUT_3D_SIZE 32
0.0235 0.0235 0.0235
0.0316 0.0275 0.0275
0.0436 0.0314 0.0311
0.0635 0.0314 0.0275
0.0834 0.0314 0.0235
0.1039 0.0314 0.0235
0.1239 0.0314 0.0235
0.1438 0.0314 0.0196
0.1628 0.0314 0.0196
0.1827 0.0314 0.0196
0.1999 0.0314 0.0196
0.2185 0.0314 0.0196
0.2399 0.0314 0.0196
0.2598 0.0314 0.0196
0.2820 0.0314 0.0196
0.3018 0.0314 0.0196
0.3256 0.0314 0.0196
0.3476 0.0335 0.0196
0.3692 0.0353 0.0196
0.3915 0.0353 0.0196
0.4154 0.0353 0.0196
0.4367 0.0353 0.0196
0.4593 0.0353 0.0196
0.4833 0.0353 0.0196
0.5102 0.0392 0.0196
0.5350 0.0392 0.0196
0.5589 0.0431 0.0196
0.5828 0.0431 0.0196
0.6031 0.0471 0.0231
0.6230 0.0510 0.0235
0.6428 0.0587 0.0275
0.6588 0.0627 0.0353
0.0235 0.0315 0.0275
0.0315 0.0315 0.0275
0.0399 0.0354 0.0275
0.0599 0.0354 0.0271
0.0799 0.0354 0.0235
0.1039 0.0393 0.0235
0.1239 0.0394 0.0234
0.1469 0.0432 0.0196
0.1667 0.0432 0.0196
0.1838 0.0432 0.0196
0.2026 0.0432 0.0196
0.2225 0.0432 0.0196
0.2437 0.0432 0.0196
0.2639 0.0434 0.0196
0.2860 0.0434 0.0196
0.3077 0.0434 0.0196
0.3296 0.0453 0.0196
0.3516 0.0472 0.0196
0.3715 0.0472 0.0196
0.3932 0.0472 0.0196
0.4154 0.0472 0.0196
0.4393 0.0472 0.0196
0.4633 0.0472 0.0196
0.4871 0.0473 0.0196
0.5111 0.0511 0.0196
0.5350 0.0512 0.0196
0.5589 0.0544 0.0196
0.5828 0.0551 0.0197
0.6031 0.0589 0.0235
0.6267 0.0626 0.0236
0.6428 0.0706 0.0313
0.6588 0.0748 0.0353
0.0232 0.0397 0.0275
0.0313 0.0397 0.0275
0.0397 0.0397 0.0275
0.0596 0.0397 0.0271
0.0794 0.0399 0.0235
0.0999 0.0440 0.0232
0.1239 0.0481 0.0196
0.1469 0.0515 0.0196
0.1667 0.0551 0.0196
0.1866 0.0554 0.0196
0.2041 0.0554 0.0196
0.2266 0.0554 0.0196
0.2464 0.0551 0.0196
0.2679 0.0554 0.0196
0.2901 0.0554 0.0196
0.3115 0.0554 0.0196
0.3355 0.0554 0.0196
0.3555 0.0591 0.0196
0.3754 0.0591 0.0196
0.3972 0.0591 0.0196
0.4193 0.0591 0.0196
0.4393 0.0591 0.0196
0.4633 0.0591 0.0196
0.4871 0.0593 0.0196
0.5111 0.0621 0.0196
0.5350 0.0632 0.0196
0.5592 0.0663 0.0199
0.5828 0.0672 0.0235
0.6034 0.0711 0.0235
0.6267 0.0745 0.0272
0.6428 0.0825 0.0313
0.6588 0.0868 0.0353
0.0196 0.0517 0.0275
0.0276 0.0517 0.0274
0.0358 0.0517 0.0271
0.0560 0.0553 0.0235
0.0760 0.0556 0.0231
0.0999 0.0559 0.0196
0.1235 0.0599 0.0196
0.1438 0.0635 0.0196
0.1667 0.0641 0.0196
0.1877 0.0674 0.0196
0.2077 0.0674 0.0196
0.2306 0.0674 0.0196
0.2516 0.0674 0.0196
0.2743 0.0674 0.0196
0.2955 0.0688 0.0196
0.3159 0.0710 0.0196
0.3398 0.0710 0.0196
0.3597 0.0713 0.0196
0.3814 0.0713 0.0196
0.3997 0.0713 0.0196
0.4211 0.0713 0.0196
0.4433 0.0713 0.0196
0.4636 0.0713 0.0196
0.4871 0.0713 0.0196
0.5111 0.0749 0.0196
0.5350 0.0753 0.0196
0.5622 0.0791 0.0229
0.5867 0.0791 0.0235
0.6067 0.0831 0.0235
0.6274 0.0870 0.0275
0.6432 0.0943 0.0313
0.6627 0.1024 0.0353
0.0157 0.0637 0.0270
0.0236 0.0637 0.0235
0.0321 0.0637 0.0235
0.0556 0.0677 0.0231
0.0760 0.0677 0.0196
0.0966 0.0716 0.0196
0.1199 0.0724 0.0196
0.1438 0.0755 0.0196
0.1638 0.0760 0.0196
0.1877 0.0794 0.0196
0.2108 0.0802 0.0196
0.2316 0.0829 0.0196
0.2555 0.0834 0.0196
0.2794 0.0834 0.0196
0.2994 0.0834 0.0196
0.3219 0.0834 0.0196
0.3457 0.0834 0.0196
0.3656 0.0834 0.0196
0.3854 0.0834 0.0196
0.4053 0.0834 0.0196
0.4252 0.0834 0.0196
0.4450 0.0834 0.0196
0.4672 0.0834 0.0196
0.4911 0.0868 0.0196
0.5149 0.0873 0.0221
0.5389 0.0873 0.0235
0.5633 0.0912 0.0235
0.5872 0.0946 0.0235
0.6076 0.0981 0.0235
0.6306 0.0990 0.0275
0.6468 0.1068 0.0314
0.6632 0.1147 0.0392
0.0157 0.0797 0.0235
0.0271 0.0797 0.0235
0.0358 0.0803 0.0235
0.0524 0.0803 0.0229
0.0760 0.0836 0.0196
0.0966 0.0843 0.0196
0.1199 0.0875 0.0196
0.1438 0.0914 0.0196
0.1667 0.0914 0.0190
0.1877 0.0921 0.0190
0.2116 0.0954 0.0196
0.2323 0.0954 0.0196
0.2555 0.0954 0.0196
0.2801 0.0993 0.0196
0.3033 0.0993 0.0196
0.3260 0.0993 0.0196
0.3498 0.0993 0.0196
0.3696 0.0993 0.0196
0.3895 0.0993 0.0196
0.4094 0.0993 0.0196
0.4292 0.0993 0.0196
0.4491 0.0993 0.0196
0.4717 0.0993 0.0196
0.4950 0.0999 0.0196
0.5189 0.1032 0.0196
0.5428 0.1039 0.0221
0.5673 0.1065 0.0235
0.5913 0.1078 0.0235
0.6117 0.1110 0.0235
0.6345 0.1150 0.0275
0.6514 0.1227 0.0314
0.6673 0.1307 0.0392
0.0157 0.0917 0.0235
0.0244 0.0956 0.0235
0.0358 0.0959 0.0227
0.0556 0.0995 0.0196
0.0760 0.0995 0.0196
0.0967 0.1003 0.0196
0.1239 0.1035 0.0196
0.1438 0.1044 0.0187
0.1677 0.1074 0.0157
0.1885 0.1082 0.0157
0.2116 0.1113 0.0157
0.2355 0.1113 0.0163
0.2594 0.1113 0.0196
0.2833 0.1129 0.0196
0.3073 0.1152 0.0196
0.3300 0.1152 0.0196
0.3538 0.1152 0.0196
0.3751 0.1152 0.0196
0.3951 0.1152 0.0196
0.4134 0.1152 0.0196
0.4333 0.1138 0.0196
0.4550 0.1152 0.0196
0.4758 0.1152 0.0196
0.4997 0.1181 0.0196
0.5228 0.1191 0.0196
0.5467 0.1223 0.0196
0.5714 0.1231 0.0235
0.5953 0.1265 0.0235
0.6157 0.1278 0.0235
0.6384 0.1309 0.0275
0.6554 0.1387 0.0313
0.6714 0.1466 0.0392
0.0157 0.1068 0.0235
0.0276 0.1115 0.0234
0.0361 0.1118 0.0196
0.0526 0.1155 0.0196
0.0721 0.1164 0.0187
0.1005 0.1194 0.0187
0.1248 0.1194 0.0157
0.1478 0.1194 0.0157
0.1716 0.1234 0.0157
0.1925 0.1272 0.0157
0.2165 0.1272 0.0157
0.2404 0.1272 0.0157
0.2634 0.1272 0.0163
0.2873 0.1289 0.0187
0.3112 0.1312 0.0196
0.3321 0.1312 0.0196
0.3590 0.1312 0.0196
0.3798 0.1312 0.0196
0.4015 0.1321 0.0196
0.4214 0.1321 0.0196
0.4398 0.1312 0.0196
0.4598 0.1312 0.0196
0.4810 0.1312 0.0196
0.5037 0.1341 0.0196
0.5276 0.1351 0.0196
0.5506 0.1391 0.0196
0.5779 0.1423 0.0229
0.5994 0.1429 0.0235
0.6224 0.1465 0.0235
0.6432 0.1478 0.0275
0.6623 0.1546 0.0313
0.6793 0.1626 0.0392
0.0157 0.1196 0.0235
0.0276 0.1237 0.0234
0.0397 0.1278 0.0196
0.0556 0.1318 0.0192
0.0726 0.1353 0.0157
0.1005 0.1363 0.0157
0.1288 0.1363 0.0157
0.1527 0.1393 0.0157
0.1765 0.1403 0.0157
0.2004 0.1404 0.0157
0.2205 0.1442 0.0157
0.2444 0.1446 0.0157
0.2683 0.1471 0.0157
0.2922 0.1481 0.0157
0.3161 0.1481 0.0164
0.3391 0.1481 0.0196
0.3639 0.1481 0.0196
0.3857 0.1510 0.0196
0.4069 0.1510 0.0196
0.4278 0.1510 0.0196
0.4478 0.1520 0.0196
0.4678 0.1510 0.0196
0.4878 0.1510 0.0196
0.5117 0.1520 0.0196
0.5317 0.1520 0.0196
0.5556 0.1559 0.0196
0.5818 0.1583 0.0229
0.6063 0.1599 0.0235
0.6274 0.1638 0.0235
0.6476 0.1667 0.0272
0.6674 0.1754 0.0313
0.6844 0.1824 0.0392
0.0118 0.1356 0.0235
0.0277 0.1397 0.0234
0.0397 0.1437 0.0196
0.0596 0.1513 0.0185
0.0765 0.1524 0.0157
0.1045 0.1558 0.0157
0.1328 0.1563 0.0157
0.1595 0.1600 0.0157
0.1817 0.1603 0.0157
0.2084 0.1603 0.0157
0.2324 0.1642 0.0157
0.2535 0.1669 0.0157
0.2763 0.1681 0.0157
0.3002 0.1681 0.0157
0.3240 0.1687 0.0157
0.3480 0.1720 0.0176
0.3719 0.1720 0.0196
0.3937 0.1720 0.0196
0.4135 0.1720 0.0196
0.4334 0.1709 0.0196
0.4558 0.1720 0.0196
0.4770 0.1720 0.0196
0.4980 0.1720 0.0196
0.5197 0.1720 0.0196
0.5405 0.1739 0.0196
0.5635 0.1759 0.0196
0.5875 0.1781 0.0229
0.6114 0.1799 0.0235
0.6341 0.1838 0.0235
0.6555 0.1866 0.0275
0.6754 0.1955 0.0314
0.6952 0.2034 0.0392
0.0118 0.1476 0.0235
0.0277 0.1556 0.0234
0.0399 0.1609 0.0196
0.0608 0.1676 0.0157
0.0804 0.1724 0.0157
0.1064 0.1763 0.0157
0.1376 0.1803 0.0157
0.1647 0.1812 0.0157
0.1899 0.1816 0.0157
0.2176 0.1842 0.0157
0.2416 0.1842 0.0157
0.2642 0.1881 0.0157
0.2882 0.1881 0.0157
0.3094 0.1885 0.0157
0.3321 0.1920 0.0157
0.3559 0.1920 0.0176
0.3798 0.1960 0.0196
0.4029 0.1960 0.0196
0.4238 0.1960 0.0196
0.4426 0.1920 0.0196
0.4638 0.1920 0.0196
0.4876 0.1947 0.0196
0.5076 0.1960 0.0196
0.5299 0.1960 0.0196
0.5515 0.1960 0.0196
0.5728 0.1991 0.0209
0.5967 0.1999 0.0229
0.6193 0.1999 0.0235
0.6406 0.2038 0.0235
0.6645 0.2077 0.0275
0.6847 0.2154 0.0327
0.7071 0.2260 0.0392
0.0118 0.1636 0.0235
0.0277 0.1715 0.0234
0.0399 0.1795 0.0193
0.0638 0.1875 0.0157
0.0853 0.1929 0.0157
0.1137 0.1995 0.0157
0.1456 0.2042 0.0157
0.1735 0.2081 0.0157
0.2015 0.2081 0.0157
0.2283 0.2095 0.0157
0.2537 0.2120 0.0157
0.2775 0.2120 0.0157
0.3000 0.2120 0.0157
0.3200 0.2120 0.0157
0.3440 0.2120 0.0157
0.3639 0.2125 0.0196
0.3911 0.2159 0.0196
0.4117 0.2185 0.0196
0.4348 0.2199 0.0196
0.4556 0.2199 0.0196
0.4757 0.2187 0.0196
0.4983 0.2186 0.0196
0.5196 0.2199 0.0196
0.5395 0.2199 0.0196
0.5634 0.2199 0.0226
0.5856 0.2238 0.0235
0.6107 0.2238 0.0235
0.6326 0.2277 0.0235
0.6551 0.2291 0.0271
0.6791 0.2316 0.0275
0.6966 0.2394 0.0352
0.7190 0.2473 0.0392
0.0118 0.1795 0.0275
0.0277 0.1890 0.0234
0.0402 0.1957 0.0193
0.0678 0.2049 0.0157
0.0922 0.2168 0.0157
0.1217 0.2209 0.0151
0.1528 0.2288 0.0157
0.1815 0.2320 0.0157
0.2124 0.2359 0.0157
0.2378 0.2371 0.0157
0.2641 0.2375 0.0157
0.2881 0.2375 0.0157
0.3135 0.2399 0.0172
0.3357 0.2375 0.0172
0.3573 0.2375 0.0175
0.3773 0.2375 0.0196
0.3997 0.2380 0.0196
0.4230 0.2414 0.0196
0.4437 0.2437 0.0196
0.4667 0.2437 0.0196
0.4890 0.2453 0.0211
0.5103 0.2453 0.0211
0.5330 0.2453 0.0211
0.5529 0.2453 0.0235
0.5769 0.2453 0.0235
0.6007 0.2492 0.0235
0.6240 0.2510 0.0250
0.6486 0.2531 0.0275
0.6690 0.2555 0.0275
0.6925 0.2592 0.0311
0.7124 0.2647 0.0352
0.7324 0.2728 0.0431
0.0118 0.1994 0.0275
0.0277 0.2073 0.0234
0.0402 0.2156 0.0193
0.0717 0.2288 0.0157
0.0961 0.2368 0.0118
0.1286 0.2454 0.0118
0.1608 0.2528 0.0118
0.1895 0.2568 0.0157
0.2204 0.2608 0.0157
0.2493 0.2649 0.0157
0.2760 0.2654 0.0157
0.2999 0.2676 0.0157
0.3253 0.2693 0.0172
0.3517 0.2693 0.0196
0.3733 0.2693 0.0196
0.3933 0.2693 0.0196
0.4152 0.2693 0.0212
0.4356 0.2676 0.0212
0.4572 0.2693 0.0219
0.4787 0.2701 0.0235
0.5011 0.2733 0.0235
0.5250 0.2745 0.0252
0.5489 0.2733 0.0252
0.5699 0.2755 0.0252
0.5928 0.2772 0.0266
0.6167 0.2772 0.0275
0.6400 0.2794 0.0275
0.6645 0.2811 0.0291
0.6849 0.2833 0.0314
0.7084 0.2870 0.0330
0.7285 0.2927 0.0391
0.7500 0.3007 0.0431
0.0118 0.2171 0.0275
0.0277 0.2289 0.0234
0.0439 0.2369 0.0193
0.0721 0.2492 0.0157
0.1000 0.2607 0.0118
0.1326 0.2687 0.0118
0.1656 0.2767 0.0118
0.1957 0.2828 0.0127
0.2275 0.2877 0.0157
0.2562 0.2916 0.0157
0.2840 0.2934 0.0157
0.3079 0.2955 0.0157
0.3357 0.2970 0.0172
0.3614 0.2973 0.0196
0.3875 0.2994 0.0214
0.4075 0.3012 0.0235
0.4311 0.3012 0.0235
0.4509 0.2973 0.0235
0.4692 0.2955 0.0235
0.4907 0.2973 0.0253
0.5131 0.2980 0.0253
0.5370 0.3021 0.0275
0.5609 0.3033 0.0293
0.5848 0.3033 0.0293
0.6087 0.3051 0.0293
0.6326 0.3090 0.0314
0.6565 0.3090 0.0314
0.6804 0.3090 0.0314
0.7044 0.3108 0.0332
0.7261 0.3149 0.0353
0.7482 0.3207 0.0410
0.7682 0.3287 0.0471
0.0118 0.2391 0.0275
0.0279 0.2490 0.0234
0.0458 0.2609 0.0193
0.0736 0.2727 0.0157
0.1014 0.2846 0.0118
0.1326 0.2926 0.0118
0.1677 0.2998 0.0118
0.1996 0.3046 0.0118
0.2294 0.3107 0.0157
0.2613 0.3166 0.0157
0.2914 0.3194 0.0157
0.3159 0.3208 0.0157
0.3437 0.3233 0.0172
0.3732 0.3252 0.0196
0.3994 0.3272 0.0215
0.4213 0.3272 0.0235
0.4433 0.3292 0.0254
0.4630 0.3272 0.0275
0.4829 0.3252 0.0275
0.5027 0.3233 0.0294
0.5232 0.3258 0.0294
0.5471 0.3292 0.0314
0.5729 0.3301 0.0314
0.5968 0.3312 0.0333
0.6228 0.3342 0.0333
0.6486 0.3370 0.0353
0.6758 0.3384 0.0353
0.6983 0.3409 0.0353
0.7203 0.3409 0.0372
0.7442 0.3446 0.0389
0.7642 0.3488 0.0430
0.7842 0.3547 0.0471
0.0118 0.2649 0.0275
0.0277 0.2768 0.0235
0.0478 0.2850 0.0196
0.0740 0.2970 0.0157
0.1019 0.3085 0.0118
0.1319 0.3165 0.0118
0.1657 0.3224 0.0118
0.1957 0.3285 0.0118
0.2265 0.3345 0.0118
0.2594 0.3394 0.0157
0.2932 0.3465 0.0157
0.3179 0.3487 0.0157
0.3488 0.3527 0.0172
0.3791 0.3567 0.0196
0.4073 0.3590 0.0235
0.4312 0.3609 0.0254
0.4591 0.3610 0.0275
0.4790 0.3610 0.0295
0.4952 0.3610 0.0314
0.5151 0.3571 0.0334
0.5385 0.3571 0.0334
0.5610 0.3610 0.0353
0.5857 0.3610 0.0373
0.6128 0.3629 0.0373
0.6377 0.3660 0.0383
0.6645 0.3689 0.0392
0.6917 0.3728 0.0392
0.7163 0.3728 0.0412
0.7402 0.3747 0.0412
0.7621 0.3767 0.0428
0.7820 0.3806 0.0470
0.8040 0.3865 0.0510
0.0096 0.2867 0.0314
0.0277 0.2987 0.0235
0.0478 0.3089 0.0196
0.0721 0.3209 0.0157
0.1000 0.3325 0.0118
0.1286 0.3365 0.0118
0.1617 0.3437 0.0118
0.1896 0.3476 0.0118
0.2215 0.3543 0.0118
0.2534 0.3594 0.0147
0.2853 0.3646 0.0157
0.3171 0.3712 0.0157
0.3473 0.3766 0.0172
0.3825 0.3829 0.0196
0.4114 0.3851 0.0231
0.4390 0.3888 0.0254
0.4670 0.3890 0.0295
0.4910 0.3890 0.0314
0.5108 0.3890 0.0337
0.5270 0.3890 0.0374
0.5509 0.3890 0.0378
0.5770 0.3890 0.0413
0.6009 0.3896 0.0413
0.6248 0.3929 0.0413
0.6526 0.3938 0.0431
0.6805 0.3978 0.0453
0.7077 0.4007 0.0453
0.7322 0.4020 0.0453
0.7561 0.4047 0.0431
0.7761 0.4047 0.0431
0.7962 0.4086 0.0470
0.8161 0.4125 0.0510
0.0078 0.3088 0.0314
0.0256 0.3208 0.0235
0.0436 0.3326 0.0196
0.0655 0.3445 0.0157
0.0933 0.3541 0.0118
0.1195 0.3581 0.0118
0.1507 0.3614 0.0118
0.1771 0.3662 0.0118
0.2040 0.3692 0.0118
0.2330 0.3732 0.0118
0.2649 0.3800 0.0157
0.2968 0.3863 0.0157
0.3326 0.3943 0.0157
0.3667 0.4023 0.0190
0.4043 0.4102 0.0214
0.4344 0.4126 0.0235
0.4685 0.4167 0.0295
0.4927 0.4169 0.0314
0.5228 0.4209 0.0376
0.5404 0.4186 0.0415
0.5628 0.4172 0.0417
0.5890 0.4186 0.0454
0.6129 0.4186 0.0459
0.6384 0.4209 0.0471
0.6646 0.4217 0.0494
0.6924 0.4257 0.0494
0.7213 0.4287 0.0471
0.7458 0.4304 0.0471
0.7681 0.4304 0.0471
0.7898 0.4326 0.0471
0.8098 0.4342 0.0494
0.8281 0.4382 0.0510
0.0078 0.3327 0.0314
0.0238 0.3447 0.0274
0.0415 0.3565 0.0196
0.0596 0.3644 0.0157
0.0815 0.3758 0.0118
0.1060 0.3773 0.0118
0.1347 0.3797 0.0118
0.1586 0.3813 0.0118
0.1825 0.3852 0.0118
0.2064 0.3852 0.0118
0.2370 0.3919 0.0118
0.2728 0.3999 0.0157
0.3062 0.4078 0.0157
0.3437 0.4158 0.0157
0.3820 0.4240 0.0196
0.4219 0.4342 0.0230
0.4567 0.4386 0.0275
0.4901 0.4447 0.0314
0.5189 0.4464 0.0376
0.5508 0.4488 0.0455
0.5747 0.4488 0.0457
0.6010 0.4488 0.0495
0.6249 0.4488 0.0510
0.6503 0.4488 0.0534
0.6767 0.4494 0.0534
0.7014 0.4527 0.0534
0.7317 0.4543 0.0534
0.7562 0.4567 0.0510
0.7801 0.4582 0.0499
0.8040 0.4582 0.0471
0.8202 0.4606 0.0509
0.8401 0.4645 0.0534
0.0078 0.3566 0.0314
0.0212 0.3685 0.0274
0.0369 0.3804 0.0219
0.0510 0.3862 0.0196
0.0691 0.3933 0.0157
0.0891 0.3958 0.0157
0.1115 0.3972 0.0143
0.1337 0.3972 0.0143
0.1552 0.4011 0.0133
0.1776 0.4011 0.0129
0.2027 0.4024 0.0130
0.2386 0.4092 0.0146
0.2788 0.4197 0.0157
0.3157 0.4277 0.0157
0.3542 0.4374 0.0157
0.3954 0.4462 0.0196
0.4452 0.4601 0.0256
0.4781 0.4660 0.0310
0.5124 0.4701 0.0376
0.5443 0.4742 0.0431
0.5826 0.4782 0.0535
0.6066 0.4782 0.0536
0.6344 0.4768 0.0574
0.6583 0.4742 0.0574
0.6862 0.4768 0.0588
0.7125 0.4782 0.0588
0.7373 0.4782 0.0580
0.7657 0.4821 0.0549
0.7871 0.4821 0.0539
0.8096 0.4821 0.0510
0.8298 0.4834 0.0510
0.8471 0.4860 0.0549
0.0078 0.3805 0.0314
0.0159 0.3924 0.0275
0.0293 0.4016 0.0235
0.0412 0.4080 0.0219
0.0567 0.4131 0.0196
0.0711 0.4131 0.0183
0.0916 0.4131 0.0157
0.1075 0.4131 0.0157
0.1257 0.4131 0.0157
0.1472 0.4144 0.0157
0.1709 0.4171 0.0157
0.2027 0.4210 0.0144
0.2401 0.4277 0.0157
0.2851 0.4383 0.0157
0.3263 0.4476 0.0157
0.3694 0.4582 0.0188
0.4178 0.4701 0.0229
0.4650 0.4854 0.0296
0.5006 0.4903 0.0353
0.5361 0.4967 0.0416
0.5708 0.5007 0.0521
0.6106 0.5047 0.0614
0.6384 0.5021 0.0616
0.6663 0.5021 0.0654
0.6932 0.5021 0.0654
0.7220 0.5021 0.0654
0.7458 0.5021 0.0627
0.7697 0.5028 0.0614
0.7910 0.5021 0.0579
0.8137 0.5021 0.0549
0.8338 0.5060 0.0549
0.8510 0.5073 0.0549
0.0078 0.4016 0.0314
0.0158 0.4098 0.0275
0.0249 0.4212 0.0263
0.0357 0.4256 0.0235
0.0487 0.4319 0.0224
0.0612 0.4313 0.0217
0.0764 0.4291 0.0196
0.0903 0.4291 0.0196
0.1063 0.4291 0.0185
0.1244 0.4291 0.0157
0.1472 0.4304 0.0157
0.1776 0.4330 0.0157
0.2110 0.4384 0.0157
0.2547 0.4476 0.0157
0.3003 0.4583 0.0157
0.3442 0.4702 0.0157
0.3960 0.4841 0.0216
0.4438 0.4973 0.0269
0.4882 0.5098 0.0348
0.5245 0.5178 0.0416
0.5628 0.5246 0.0521
0.6026 0.5260 0.0614
0.6358 0.5271 0.0695
0.6636 0.5260 0.0695
0.6914 0.5260 0.0697
0.7197 0.5260 0.0706
0.7471 0.5260 0.0695
0.7682 0.5260 0.0661
0.7914 0.5232 0.0627
0.8149 0.5232 0.0616
0.8349 0.5232 0.0588
0.8521 0.5271 0.0588
0.0078 0.4215 0.0314
0.0157 0.4295 0.0303
0.0211 0.4374 0.0275
0.0318 0.4441 0.0275
0.0407 0.4490 0.0265
0.0526 0.4490 0.0235
0.0645 0.4482 0.0235
0.0764 0.4450 0.0235
0.0903 0.4450 0.0225
0.1063 0.4450 0.0196
0.1274 0.4450 0.0196
0.1537 0.4490 0.0157
0.1871 0.4515 0.0157
0.2308 0.4584 0.0157
0.2746 0.4692 0.0157
0.3203 0.4812 0.0157
0.3741 0.4962 0.0196
0.4238 0.5099 0.0257
0.4716 0.5241 0.0337
0.5155 0.5371 0.0416
0.5548 0.5446 0.0521
0.5947 0.5496 0.0614
0.6278 0.5499 0.0695
0.6597 0.5499 0.0774
0.6875 0.5470 0.0774
0.7117 0.5470 0.0774
0.7397 0.5466 0.0774
0.7642 0.5460 0.0735
0.7881 0.5460 0.0700
0.8120 0.5431 0.0659
0.8320 0.5431 0.0657
0.8510 0.5460 0.0627
0.0078 0.4413 0.0314
0.0119 0.4493 0.0314
0.0199 0.4570 0.0275
0.0279 0.4609 0.0275
0.0358 0.4649 0.0275
0.0453 0.4649 0.0275
0.0573 0.4649 0.0275
0.0685 0.4609 0.0266
0.0804 0.4609 0.0235
0.0973 0.4609 0.0235
0.1145 0.4609 0.0196
0.1406 0.4623 0.0196
0.1732 0.4664 0.0157
0.2139 0.4744 0.0157
0.2594 0.4824 0.0157
0.3063 0.4942 0.0157
0.3610 0.5090 0.0196
0.4099 0.5241 0.0257
0.4586 0.5400 0.0337
0.5031 0.5521 0.0416
0.5494 0.5640 0.0521
0.5898 0.5726 0.0641
0.6238 0.5738 0.0697
0.6547 0.5707 0.0774
0.6836 0.5668 0.0815
0.7084 0.5668 0.0824
0.7354 0.5666 0.0815
0.7563 0.5629 0.0784
0.7771 0.5629 0.0775
0.8040 0.5629 0.0736
0.8280 0.5629 0.0698
0.8480 0.5629 0.0697
0.0078 0.4604 0.0314
0.0119 0.4683 0.0314
0.0199 0.4732 0.0306
0.0247 0.4769 0.0306
0.0327 0.4809 0.0301
0.0412 0.4809 0.0275
0.0525 0.4809 0.0275
0.0604 0.4769 0.0275
0.0734 0.4769 0.0275
0.0893 0.4769 0.0235
0.1065 0.4769 0.0215
0.1304 0.4783 0.0196
0.1612 0.4824 0.0157
0.2012 0.4887 0.0157
0.2466 0.4969 0.0157
0.2945 0.5081 0.0176
0.3502 0.5241 0.0196
0.3979 0.5400 0.0235
0.4466 0.5537 0.0320
0.4944 0.5680 0.0416
0.5389 0.5806 0.0521
0.5853 0.5960 0.0641
0.6190 0.5949 0.0734
0.6479 0.5938 0.0774
0.6765 0.5907 0.0824
0.7036 0.5867 0.0894
0.7283 0.5866 0.0862
0.7521 0.5828 0.0824
0.7717 0.5789 0.0820
0.7922 0.5789 0.0816
0.8161 0.5789 0.0776
0.8360 0.5789 0.0776
0.0078 0.4805 0.0314
0.0119 0.4851 0.0314
0.0196 0.4922 0.0314
0.0239 0.4932 0.0314
0.0319 0.4961 0.0314
0.0398 0.4967 0.0314
0.0492 0.4967 0.0300
0.0597 0.4961 0.0275
0.0726 0.4961 0.0275
0.0885 0.4950 0.0235
0.1070 0.4961 0.0222
0.1330 0.4961 0.0196
0.1623 0.5001 0.0181
0.2004 0.5062 0.0157
0.2437 0.5154 0.0157
0.2938 0.5294 0.0196
0.3488 0.5433 0.0229
0.3994 0.5593 0.0257
0.4483 0.5752 0.0337
0.4938 0.5881 0.0416
0.5375 0.6006 0.0529
0.5812 0.6152 0.0641
0.6184 0.6211 0.0734
0.6470 0.6181 0.0814
0.6718 0.6140 0.0854
0.6997 0.6132 0.0894
0.7203 0.6026 0.0902
0.7409 0.6020 0.0863
0.7609 0.5987 0.0860
0.7805 0.5981 0.0857
0.8042 0.5948 0.0857
0.8248 0.5948 0.0818
0.0078 0.4970 0.0314
0.0119 0.5011 0.0314
0.0159 0.5051 0.0314
0.0239 0.5088 0.0314
0.0319 0.5127 0.0314
0.0398 0.5127 0.0314
0.0479 0.5127 0.0314
0.0597 0.5127 0.0300
0.0726 0.5127 0.0275
0.0885 0.5127 0.0235
0.1097 0.5127 0.0222
0.1375 0.5141 0.0196
0.1664 0.5181 0.0181
0.2022 0.5222 0.0157
0.2454 0.5319 0.0157
0.2956 0.5479 0.0196
0.3528 0.5638 0.0256
0.4011 0.5771 0.0275
0.4490 0.5918 0.0359
0.4968 0.6077 0.0455
0.5381 0.6206 0.0535
0.5780 0.6325 0.0649
0.6150 0.6382 0.0734
0.6470 0.6416 0.0848
0.6722 0.6386 0.0893
0.6957 0.6345 0.0933
0.7162 0.6271 0.0936
0.7328 0.6186 0.0902
0.7527 0.6151 0.0902
0.7686 0.6147 0.0897
0.7923 0.6147 0.0897
0.8162 0.6108 0.0897
0.0078 0.5129 0.0349
0.0119 0.5170 0.0349
0.0196 0.5208 0.0353
0.0239 0.5247 0.0353
