All_In_One/addons/Enrich_Colormaster/colormanagement/luts/film_response/Tetrachrome_400_VS.cube
TITLE "ImpulZ LUT 32"
LUT_3D_SIZE 8
DOMAIN_MIN 0.000000 0.000000 0.000000
DOMAIN_MAX 0.903226 0.903226 0.903226
0.0275 0.0314 0.0314
0.0873 0.0397 0.0353
0.1422 0.0510 0.0402
0.1874 0.0588 0.0471
0.2334 0.0627 0.0491
0.2770 0.0667 0.0510
0.3246 0.0775 0.0588
0.3761 0.0937 0.0702
0.0353 0.0789 0.0431
0.0956 0.0912 0.0476
0.1706 0.1108 0.0593
0.2295 0.1241 0.0672
0.2791 0.1304 0.0711
0.3193 0.1343 0.0750
0.3634 0.1422 0.0815
0.4158 0.1584 0.0937
0.0549 0.1383 0.0637
0.1201 0.1638 0.0677
0.2040 0.1834 0.0755
0.2668 0.1957 0.0839
0.3188 0.2040 0.0912
0.3629 0.2108 0.0966
0.4071 0.2179 0.1030
0.4565 0.2344 0.1172
0.0706 0.1912 0.0839
0.1599 0.2404 0.0878
0.2594 0.2723 0.1030
0.3237 0.2845 0.1128
0.3703 0.2908 0.1191
0.4173 0.3002 0.1285
0.4610 0.3065 0.1363
0.5085 0.3183 0.1501
0.0863 0.2589 0.1040
0.1918 0.3143 0.1079
0.2932 0.3502 0.1226
0.3732 0.3742 0.1408
0.4335 0.3904 0.1648
0.4758 0.3929 0.1752
0.5247 0.4052 0.1884
0.5663 0.4154 0.2001
0.1020 0.3227 0.1255
0.1789 0.3638 0.1255
0.2572 0.3868 0.1319
0.3435 0.4148 0.1451
0.4506 0.4589 0.1819
0.5291 0.4821 0.2286
0.5733 0.4899 0.2408
0.6100 0.4988 0.2457
0.1137 0.3747 0.1403
0.1534 0.3991 0.1451
0.2029 0.4119 0.1481
0.2814 0.4335 0.1505
0.4149 0.4855 0.1776
0.5326 0.5380 0.2443
0.5952 0.5520 0.2854
0.6271 0.5560 0.2888
0.1255 0.4192 0.1565
0.1609 0.4384 0.1643
0.2105 0.4551 0.1643
0.3073 0.4831 0.1682
0.4387 0.5366 0.2111
0.5494 0.5861 0.2714
0.6110 0.6070 0.3133
0.6314 0.5957 0.3133
0.0314 0.0392 0.0907
0.0755 0.0392 0.0990
0.1422 0.0510 0.0951
0.1907 0.0564 0.0907
0.2393 0.0627 0.0873
0.2913 0.0692 0.0912
0.3438 0.0745 0.0956
0.4036 0.0937 0.1152
0.0431 0.0834 0.0912
0.1040 0.1035 0.1040
0.2064 0.0990 0.0834
0.2417 0.0956 0.0784
0.2815 0.0951 0.0750
0.3237 0.0912 0.0716
0.3757 0.1016 0.0755
0.4316 0.1335 0.1026
0.0588 0.1432 0.1040
0.0799 0.1795 0.0917
0.2481 0.2197 0.1162
0.3065 0.2108 0.1113
0.3496 0.2030 0.1079
0.3850 0.1917 0.1035
0.4291 0.1952 0.1104
0.4792 0.2219 0.1350
0.0745 0.1991 0.1265
0.0946 0.2427 0.1074
0.2746 0.3115 0.1309
0.3831 0.3394 0.1609
0.4252 0.3261 0.1530
0.4586 0.3110 0.1486
0.4968 0.3050 0.1510
0.5361 0.3219 0.1758
0.0883 0.2594 0.1442
0.1084 0.3104 0.1280
0.2583 0.3756 0.1388
0.3937 0.4213 0.1711
0.5046 0.4576 0.2223
0.5443 0.4439 0.2223
0.5757 0.4356 0.2133
0.6006 0.4340 0.2282
0.1025 0.3188 0.1599
0.1181 0.3716 0.1456
0.1921 0.4040 0.1481
0.3074 0.4349 0.1589
0.4787 0.5090 0.2189
0.5938 0.5487 0.2879
0.6226 0.5345 0.2736
0.6458 0.5271 0.2737
0.1167 0.3747 0.1721
0.1265 0.4153 0.1565
0.1795 0.4437 0.1618
0.2861 0.4728 0.1697
0.4598 0.5439 0.2258
0.5895 0.5987 0.3036
0.6349 0.5962 0.3186
0.6589 0.5873 0.3164
0.1329 0.4227 0.1928
0.1575 0.4594 0.1968
0.2185 0.4993 0.2002
0.3515 0.5361 0.2106
0.5141 0.5999 0.2764
0.6209 0.6393 0.3360
0.6550 0.6432 0.3530
0.6668 0.6315 0.3452
0.0314 0.0471 0.1383
0.0637 0.0392 0.1505
0.1226 0.0471 0.1549
0.1795 0.0549 0.1510
0.2383 0.0627 0.1471
0.2952 0.0706 0.1510
0.3551 0.0755 0.1658
0.4227 0.0986 0.1938
0.0510 0.0956 0.1466
0.0711 0.0907 0.1829
0.1800 0.0917 0.2064
0.2422 0.0873 0.1628
0.2932 0.0873 0.1442
0.3433 0.0873 0.1403
0.4065 0.0981 0.1546
0.4674 0.1344 0.1875
0.0637 0.1549 0.1628
0.0990 0.1907 0.2030
0.2275 0.2158 0.2285
0.3457 0.1962 0.1711
0.3747 0.1824 0.1481
0.3988 0.1716 0.1403
0.4444 0.1706 0.1442
0.5088 0.1973 0.1738
0.0799 0.2119 0.1839
0.1040 0.2511 0.1962
0.1721 0.2952 0.1672
0.3958 0.3512 0.2168
0.4517 0.3311 0.2051
0.4860 0.3135 0.1972
0.5184 0.3017 0.1972
0.5725 0.3229 0.2264
0.1001 0.2796 0.2158
0.1162 0.3167 0.2030
0.1529 0.3491 0.1510
0.3844 0.4262 0.2143
0.5287 0.4748 0.2757
0.5699 0.4625 0.2702
0.6002 0.4492 0.2610
0.6347 0.4534 0.2817
0.1162 0.3369 0.2295
0.1270 0.3726 0.2035
0.1549 0.3957 0.1810
0.3138 0.4526 0.1947
0.5090 0.5341 0.2752
0.6233 0.5723 0.3305
0.6536 0.5605 0.3167
0.6748 0.5562 0.3244
0.1295 0.3855 0.2305
0.1418 0.4272 0.2184
0.1776 0.4541 0.2179
0.2920 0.5047 0.2134
0.4955 0.5748 0.2749
0.6287 0.6267 0.3501
0.6785 0.6315 0.3618
0.6978 0.6228 0.3614
0.1571 0.4434 0.2615
0.1811 0.4821 0.2759
0.2209 0.5189 0.2868
0.3303 0.5753 0.2565
0.5303 0.6237 0.3174
0.6443 0.6634 0.3672
0.6928 0.6712 0.3853
0.7104 0.6712 0.3892
0.0353 0.0510 0.1780
0.0622 0.0431 0.1902
0.1157 0.0446 0.1986
0.1732 0.0525 0.2015
0.2433 0.0627 0.2035
0.3031 0.0706 0.2134
0.3629 0.0799 0.2257
0.4271 0.1055 0.2575
0.0549 0.1069 0.1902
0.0598 0.0834 0.2143
0.1275 0.0716 0.2417
0.2369 0.0873 0.2511
0.2992 0.0834 0.2320
0.3546 0.0854 0.2242
0.4183 0.1055 0.2414
0.4746 0.1457 0.2768
0.0677 0.1628 0.2103
0.0878 0.1716 0.2437
0.1476 0.1839 0.3050
0.3350 0.1996 0.3379
0.3815 0.1667 0.2672
0.4144 0.1559 0.2419
0.4664 0.1669 0.2526
0.5278 0.2028 0.2872
0.0863 0.2242 0.2359
0.1196 0.2712 0.2874
0.1755 0.3021 0.3188
0.3629 0.3605 0.3629
0.4973 0.3271 0.2992
0.5459 0.2889 0.2507
0.5729 0.2703 0.2429
0.6376 0.2931 0.2735
0.1094 0.2958 0.2717
0.1452 0.3522 0.3120
0.1727 0.3556 0.2884
0.2903 0.4110 0.2633
0.5414 0.4865 0.3473
0.6154 0.4738 0.3218
0.6425 0.4541 0.3164
0.6909 0.4656 0.3415
0.1428 0.3713 0.3130
0.1718 0.4214 0.3247
0.1860 0.4159 0.2929
0.2153 0.4502 0.2321
0.5012 0.5472 0.3101
0.6429 0.5830 0.3585
0.6816 0.5762 0.3624
0.7148 0.5816 0.3871
0.1747 0.4326 0.3331
0.1948 0.4797 0.3404
0.2110 0.4860 0.3257
0.2272 0.5023 0.2797
0.4621 0.5738 0.2954
0.6350 0.6369 0.3673
0.7041 0.6507 0.3904
0.7290 0.6473 0.4057
0.2026 0.4925 0.3625
0.2223 0.5203 0.3724
0.2478 0.5384 0.3748
0.2693 0.5748 0.3399
0.4788 0.6193 0.3189
0.6400 0.6727 0.3846
0.7089 0.6913 0.4179
0.7408 0.6952 0.4340
0.0392 0.0608 0.2216
0.0637 0.0564 0.2334
0.1157 0.0510 0.2433
0.1834 0.0549 0.2545
0.2570 0.0667 0.2629
0.3222 0.0765 0.2746
0.3707 0.0854 0.2864
0.4247 0.1070 0.3075
0.0588 0.1108 0.2339
0.0554 0.0829 0.2555
0.1084 0.0711 0.2780
0.2119 0.0745 0.2982
0.3227 0.0951 0.3167
0.3702 0.0946 0.3065
0.4192 0.1055 0.3129
0.4653 0.1452 0.3355
0.0726 0.1706 0.2579
0.0839 0.1677 0.2874
0.1186 0.1599 0.3128
0.2280 0.1525 0.3702
0.3855 0.1844 0.3776
0.4105 0.1559 0.3355
0.4560 0.1629 0.3345
0.5114 0.2052 0.3615
0.0917 0.2344 0.2859
0.1118 0.2634 0.3306
0.1544 0.2723 0.3496
0.2521 0.3070 0.4218
0.4821 0.3389 0.4698
0.5375 0.2850 0.4120
0.5655 0.2723 0.3890
0.6273 0.3048 0.4126
0.1217 0.3080 0.3276
0.1752 0.3806 0.3968
0.2129 0.3924 0.4120
0.2865 0.4311 0.4507
0.5061 0.5100 0.4983
0.6050 0.4821 0.4581
0.6618 0.4562 0.4268
0.6961 0.4603 0.4369
0.1757 0.4018 0.3816
0.2449 0.4905 0.4562
0.2562 0.4900 0.4449
0.2792 0.5008 0.4317
0.4400 0.5380 0.4391
0.6408 0.6036 0.4925
0.6997 0.5992 0.4743
0.7280 0.6028 0.4866
0.2384 0.4943 0.4405
0.2816 0.5600 0.4845
0.2816 0.5522 0.4659
0.2840 0.5513 0.4361
0.3709 0.5826 0.4091
0.6193 0.6507 0.4640
0.7128 0.6649 0.4787
0.7408 0.6674 0.4994
0.2742 0.5581 0.4742
0.2864 0.5805 0.4845
0.2918 0.5791 0.4688
0.3047 0.5989 0.4587
0.3797 0.6311 0.4211
0.6008 0.6787 0.4482
0.7089 0.7036 0.4911
0.7486 0.7094 0.5053
0.0431 0.0706 0.2599
0.0711 0.0667 0.2731
0.1236 0.0549 0.2835
0.1967 0.0588 0.2992
0.2727 0.0726 0.3143
0.3384 0.0849 0.3241
0.3825 0.0966 0.3350
0.4192 0.1094 0.3472
0.0593 0.1181 0.2731
0.0515 0.0829 0.2893
0.1040 0.0740 0.3153
0.2016 0.0711 0.3340
0.3080 0.0927 0.3546
0.3899 0.1128 0.3697
0.4212 0.1142 0.3638
0.4511 0.1374 0.3677
0.0794 0.1824 0.3016
0.0760 0.1574 0.3172
0.1014 0.1417 0.3290
0.1760 0.1246 0.3707
0.3242 0.1515 0.3987
0.4281 0.1785 0.4074
0.4491 0.1619 0.3878
0.4879 0.1919 0.3977
0.0995 0.2487 0.3321
0.1089 0.2594 0.3663
0.1398 0.2531 0.3776
0.1917 0.2639 0.4272
0.3783 0.2826 0.5242
0.5237 0.2992 0.5026
0.5242 0.2584 0.4502
0.5842 0.2906 0.4675
0.1261 0.3203 0.3713
0.1673 0.3728 0.4326
0.1992 0.3767 0.4439
0.2478 0.3939 0.4802
0.4047 0.4541 0.5438
0.5953 0.4894 0.5771
0.6438 0.4444 0.5463
0.6796 0.4565 0.5400
0.1958 0.4179 0.4336
0.2748 0.5100 0.5257
0.2992 0.5288 0.5458
0.3366 0.5434 0.5591
0.4715 0.5723 0.5762
0.6154 0.6168 0.6076
0.6727 0.6076 0.5875
0.7055 0.6072 0.5826
0.2761 0.5262 0.5061
0.3246 0.5957 0.5663
0.3295 0.6079 0.5707
0.3596 0.6159 0.5709
0.4606 0.6321 0.5796
0.5900 0.6487 0.5875
0.7011 0.6840 0.6110
0.7369 0.6840 0.6036
0.3162 0.5914 0.5433
0.3284 0.6162 0.5599
0.3365 0.6286 0.5629
0.3671 0.6482 0.5699
0.4482 0.6669 0.5719
0.5731 0.6792 0.5745
0.6962 0.7158 0.6062
0.7486 0.7251 0.6076
0.0471 0.0745 0.2932
0.0741 0.0731 0.3089
0.1285 0.0588 0.3217
0.2085 0.0658 0.3418
0.2855 0.0805 0.3551
0.3462 0.0966 0.3663
0.3943 0.1089 0.3716
0.4231 0.1167 0.3756
0.0588 0.1186 0.3050
0.0515 0.0829 0.3251
0.1005 0.0770 0.3525
0.2071 0.0804 0.3801
0.3129 0.1016 0.3957
0.3785 0.1142 0.4025
0.4266 0.1260 0.4069
0.4472 0.1379 0.3991
0.0794 0.1824 0.3306
0.0716 0.1515 0.3452
0.0922 0.1314 0.3541
0.1585 0.1187 0.3948
0.3022 0.1404 0.4257
0.3982 0.1619 0.4315
0.4491 0.1667 0.4285
0.4762 0.1856 0.4247
0.1035 0.2594 0.3708
0.1079 0.2555 0.3987
0.1295 0.2375 0.4037
0.1732 0.2390 0.4342
0.3117 0.2395 0.5317
0.4601 0.2644 0.5164
0.5159 0.2634 0.4948
0.5494 0.2755 0.4901
0.1393 0.3394 0.4168
0.1653 0.3708 0.4664
0.1914 0.3689 0.4797
0.2444 0.3837 0.5127
0.3535 0.4209 0.5905
0.5542 0.4531 0.6233
0.6354 0.4405 0.6080
0.6591 0.4276 0.5910
0.2036 0.4272 0.4747
0.2560 0.4913 0.5428
0.2840 0.5022 0.5620
0.3233 0.5214 0.5891
0.4327 0.5572 0.6243
0.5704 0.5875 0.6399
0.6688 0.6071 0.6565
0.7002 0.5949 0.6443
0.2845 0.5276 0.5433
0.3260 0.5878 0.5996
0.3452 0.6149 0.6267
0.3997 0.6359 0.6492
0.5131 0.6570 0.6649
0.6184 0.6727 0.6713
0.6962 0.6962 0.6884
0.7242 0.6920 0.6766
0.3290 0.5996 0.5795
0.3442 0.6240 0.6035
0.3624 0.6516 0.6271
0.4244 0.6791 0.6477
0.5255 0.6997 0.6649
0.6224 0.7124 0.6752
0.6914 0.7242 0.6845
0.7447 0.7399 0.6998
0.0506 0.0824 0.3251
0.0755 0.0779 0.3408
0.1363 0.0667 0.3614
0.2320 0.0874 0.3929
0.3095 0.1016 0.4011
0.3551 0.1094 0.3996
0.3943 0.1137 0.4035
0.4271 0.1216 0.4074
0.0627 0.1226 0.3374
0.0673 0.1026 0.3570
0.1114 0.0976 0.3815
0.2095 0.1036 0.4148
0.3222 0.1355 0.4393
0.3756 0.1350 0.4315
0.4114 0.1339 0.4276
0.4472 0.1413 0.4276
0.0834 0.1899 0.3653
0.0908 0.1699 0.3815
0.1150 0.1592 0.3973
0.1743 0.1552 0.4479
0.3111 0.1758 0.4729
0.4002 0.1905 0.4693
0.4439 0.1866 0.4605
0.4722 0.1870 0.4526
0.1113 0.2732 0.4125
0.1232 0.2669 0.4306
0.1557 0.2612 0.4504
0.2083 0.2770 0.5001
0.3336 0.2809 0.5862
0.4716 0.2912 0.5659
0.5245 0.2892 0.5450
0.5567 0.2912 0.5332
0.1506 0.3551 0.4585
0.1733 0.3704 0.4904
0.2171 0.3828 0.5190
0.2898 0.4237 0.5882
0.3891 0.4482 0.6444
0.5451 0.4565 0.6604
0.6204 0.4511 0.6483
0.6604 0.4443 0.6365
0.2125 0.4389 0.5109
0.2473 0.4673 0.5507
0.2865 0.4906 0.5806
0.3539 0.5381 0.6415
0.4683 0.5750 0.6776
0.5755 0.5915 0.6806
0.6565 0.5994 0.6854
0.7002 0.5980 0.6845
0.2806 0.5237 0.5668
0.3094 0.5520 0.5987
0.3384 0.5830 0.6325
0.4063 0.6193 0.6717
0.5124 0.6473 0.6957
0.6116 0.6674 0.7046
0.6766 0.6806 0.7085
0.7242 0.6920 0.7163
0.3251 0.5878 0.5996
0.3456 0.6197 0.6315
0.3742 0.6516 0.6634
0.4469 0.6835 0.6952
0.5525 0.7090 0.7172
0.6478 0.7251 0.7251
0.7116 0.7399 0.7365
0.7486 0.7486 0.7447
