All_In_One/addons/Enrich_Colormaster/colormanagement/luts/film_response/Tetrachrome_400_VS.cube
TITLE "ImpulZ LUT 32"
LUT_3D_SIZE 32
0.0275 0.0314 0.0314
0.0394 0.0353 0.0353
0.0515 0.0392 0.0392
0.0713 0.0392 0.0353
0.0873 0.0397 0.0353
0.1032 0.0431 0.0392
0.1184 0.0471 0.0392
0.1303 0.0471 0.0392
0.1422 0.0510 0.0402
0.1541 0.0521 0.0431
0.1660 0.0549 0.0431
0.1779 0.0563 0.0431
0.1874 0.0588 0.0471
0.1994 0.0588 0.0471
0.2096 0.0588 0.0471
0.2215 0.0607 0.0471
0.2334 0.0627 0.0491
0.2453 0.0627 0.0510
0.2555 0.0650 0.0510
0.2652 0.0667 0.0510
0.2770 0.0667 0.0510
0.2889 0.0693 0.0549
0.2997 0.0706 0.0549
0.3117 0.0745 0.0549
0.3246 0.0775 0.0588
0.3365 0.0816 0.0588
0.3516 0.0857 0.0627
0.3642 0.0897 0.0662
0.3761 0.0937 0.0702
0.3917 0.0980 0.0742
0.4036 0.1097 0.0823
0.4196 0.1216 0.0902
0.0314 0.0393 0.0353
0.0393 0.0394 0.0353
0.0515 0.0434 0.0392
0.0713 0.0472 0.0389
0.0877 0.0477 0.0358
0.1071 0.0551 0.0398
0.1231 0.0591 0.0431
0.1383 0.0630 0.0432
0.1501 0.0669 0.0471
0.1622 0.0679 0.0472
0.1740 0.0708 0.0472
0.1858 0.0708 0.0510
0.1977 0.0722 0.0511
0.2097 0.0748 0.0511
0.2215 0.0748 0.0511
0.2334 0.0766 0.0549
0.2453 0.0786 0.0550
0.2554 0.0808 0.0550
0.2653 0.0826 0.0550
0.2770 0.0826 0.0588
0.2876 0.0826 0.0589
0.2970 0.0853 0.0589
0.3089 0.0865 0.0589
0.3208 0.0904 0.0628
0.3356 0.0935 0.0628
0.3476 0.0943 0.0659
0.3598 0.1016 0.0700
0.3756 0.1056 0.0707
0.3876 0.1097 0.0746
0.3996 0.1140 0.0785
0.4119 0.1255 0.0900
0.4276 0.1375 0.0981
0.0314 0.0512 0.0392
0.0394 0.0515 0.0392
0.0478 0.0515 0.0392
0.0678 0.0517 0.0392
0.0875 0.0559 0.0394
0.1078 0.0606 0.0434
0.1270 0.0679 0.0471
0.1432 0.0759 0.0473
0.1581 0.0799 0.0512
0.1711 0.0829 0.0512
0.1832 0.0868 0.0549
0.1952 0.0868 0.0551
0.2072 0.0868 0.0551
0.2192 0.0884 0.0551
0.2313 0.0907 0.0588
0.2433 0.0926 0.0591
0.2553 0.0946 0.0591
0.2673 0.0985 0.0627
0.2773 0.0985 0.0630
0.2853 0.0985 0.0630
0.2969 0.0985 0.0630
0.3075 0.1012 0.0654
0.3196 0.1025 0.0669
0.3315 0.1064 0.0669
0.3436 0.1094 0.0706
0.3564 0.1106 0.0708
0.3715 0.1175 0.0747
0.3835 0.1216 0.0781
0.3960 0.1256 0.0823
0.4081 0.1297 0.0863
0.4235 0.1414 0.0942
0.4355 0.1534 0.1023
0.0353 0.0635 0.0392
0.0432 0.0635 0.0392
0.0517 0.0673 0.0396
0.0717 0.0713 0.0431
0.0916 0.0719 0.0435
0.1117 0.0798 0.0475
0.1313 0.0839 0.0510
0.1472 0.0909 0.0514
0.1632 0.0959 0.0553
0.1791 0.0999 0.0560
0.1938 0.1027 0.0592
0.2060 0.1066 0.0592
0.2191 0.1066 0.0603
0.2311 0.1070 0.0631
0.2431 0.1084 0.0631
0.2551 0.1105 0.0646
0.2672 0.1126 0.0671
0.2774 0.1145 0.0671
0.2889 0.1148 0.0671
0.2972 0.1183 0.0706
0.3088 0.1183 0.0710
0.3171 0.1183 0.0710
0.3290 0.1187 0.0710
0.3409 0.1223 0.0745
0.3555 0.1262 0.0749
0.3675 0.1294 0.0776
0.3799 0.1334 0.0818
0.3955 0.1375 0.0828
0.4074 0.1419 0.0867
0.4195 0.1462 0.0906
0.4315 0.1575 0.1017
0.4435 0.1694 0.1102
0.0353 0.0789 0.0431
0.0437 0.0794 0.0431
0.0520 0.0799 0.0434
0.0722 0.0839 0.0436
0.0956 0.0912 0.0476
0.1156 0.0957 0.0515
0.1353 0.1030 0.0554
0.1513 0.1069 0.0558
0.1706 0.1108 0.0593
0.1871 0.1158 0.0599
0.2018 0.1186 0.0632
0.2151 0.1226 0.0641
0.2295 0.1241 0.0672
0.2430 0.1265 0.0672
0.2550 0.1270 0.0685
0.2670 0.1304 0.0711
0.2791 0.1304 0.0711
0.2894 0.1309 0.0727
0.3008 0.1343 0.0745
0.3088 0.1343 0.0750
0.3193 0.1343 0.0750
0.3286 0.1348 0.0750
0.3394 0.1383 0.0784
0.3514 0.1388 0.0789
0.3634 0.1422 0.0815
0.3767 0.1453 0.0829
0.3914 0.1494 0.0862
0.4034 0.1539 0.0897
0.4158 0.1584 0.0937
0.4282 0.1654 0.0983
0.4401 0.1734 0.1063
0.4554 0.1853 0.1142
0.0398 0.0914 0.0477
0.0517 0.0960 0.0477
0.0602 0.0999 0.0477
0.0802 0.1039 0.0516
0.1001 0.1078 0.0516
0.1201 0.1117 0.0555
0.1402 0.1195 0.0594
0.1593 0.1237 0.0597
0.1758 0.1274 0.0633
0.1911 0.1318 0.0639
0.2071 0.1352 0.0673
0.2230 0.1386 0.0681
0.2381 0.1400 0.0712
0.2510 0.1431 0.0712
0.2630 0.1442 0.0745
0.2777 0.1470 0.0751
0.2896 0.1484 0.0751
0.3008 0.1509 0.0784
0.3094 0.1509 0.0790
0.3174 0.1509 0.0790
0.3293 0.1509 0.0790
0.3393 0.1542 0.0824
0.3513 0.1548 0.0830
0.3633 0.1588 0.0830
0.3753 0.1612 0.0869
0.3873 0.1627 0.0869
0.4000 0.1666 0.0908
0.4153 0.1733 0.0947
0.4274 0.1774 0.0986
0.4393 0.1820 0.1026
0.4514 0.1900 0.1103
0.4633 0.2013 0.1222
0.0439 0.1074 0.0517
0.0558 0.1152 0.0549
0.0679 0.1194 0.0551
0.0878 0.1235 0.0556
0.1082 0.1275 0.0593
0.1281 0.1315 0.0596
0.1481 0.1356 0.0635
0.1672 0.1427 0.0667
0.1871 0.1474 0.0674
0.1999 0.1505 0.0678
0.2151 0.1544 0.0714
0.2310 0.1552 0.0720
0.2461 0.1584 0.0752
0.2589 0.1623 0.0761
0.2739 0.1641 0.0792
0.2869 0.1662 0.0792
0.3008 0.1682 0.0824
0.3109 0.1701 0.0831
0.3207 0.1701 0.0831
0.3294 0.1701 0.0831
0.3391 0.1701 0.0849
0.3493 0.1728 0.0871
0.3612 0.1748 0.0871
0.3730 0.1780 0.0902
0.3872 0.1810 0.0909
0.3992 0.1851 0.0949
0.4120 0.1891 0.0974
0.4272 0.1932 0.1015
0.4364 0.1972 0.1055
0.4483 0.2013 0.1095
0.4602 0.2092 0.1182
0.4721 0.2211 0.1263
0.0480 0.1234 0.0588
0.0630 0.1312 0.0597
0.0759 0.1353 0.0597
0.0922 0.1399 0.0597
0.1122 0.1474 0.0636
0.1361 0.1514 0.0673
0.1562 0.1554 0.0676
0.1760 0.1595 0.0715
0.1951 0.1636 0.0715
0.2110 0.1676 0.0745
0.2269 0.1716 0.0754
0.2424 0.1752 0.0793
0.2549 0.1783 0.0793
0.2701 0.1791 0.0824
0.2828 0.1821 0.0833
0.2949 0.1830 0.0843
0.3097 0.1861 0.0872
0.3216 0.1882 0.0872
0.3326 0.1900 0.0886
0.3414 0.1900 0.0911
0.3510 0.1909 0.0911
0.3613 0.1909 0.0911
0.3723 0.1940 0.0941
0.3832 0.1948 0.0950
0.3961 0.1987 0.0971
0.4088 0.2018 0.0989
0.4231 0.2065 0.1029
0.4352 0.2105 0.1068
0.4472 0.2144 0.1103
0.4592 0.2211 0.1146
0.4712 0.2291 0.1223
0.4833 0.2370 0.1333
0.0549 0.1383 0.0637
0.0679 0.1433 0.0637
0.0802 0.1513 0.0637
0.0998 0.1593 0.0671
0.1201 0.1638 0.0677
0.1441 0.1713 0.0712
0.1680 0.1753 0.0716
0.1842 0.1794 0.0755
0.2040 0.1834 0.0755
0.2200 0.1873 0.0794
0.2359 0.1912 0.0797
0.2519 0.1952 0.0834
0.2668 0.1957 0.0839
0.2798 0.1991 0.0873
0.2940 0.2009 0.0873
0.3059 0.2030 0.0912
0.3188 0.2040 0.0912
0.3308 0.2069 0.0923
0.3428 0.2082 0.0951
0.3534 0.2108 0.0951
0.3629 0.2108 0.0966
0.3733 0.2108 0.0990
0.3830 0.2126 0.0990
0.3951 0.2148 0.1010
0.4071 0.2179 0.1030
0.4191 0.2209 0.1061
0.4321 0.2249 0.1092
0.4471 0.2290 0.1108
0.4565 0.2344 0.1172
0.4685 0.2383 0.1213
0.4803 0.2460 0.1303
0.4922 0.2569 0.1383
0.0588 0.1513 0.0678
0.0748 0.1593 0.0706
0.0882 0.1672 0.0706
0.1082 0.1752 0.0717
0.1281 0.1832 0.0717
0.1527 0.1911 0.0756
0.1763 0.1956 0.0792
0.1962 0.1995 0.0795
0.2161 0.2034 0.0834
0.2348 0.2073 0.0835
0.2506 0.2112 0.0874
0.2639 0.2152 0.0888
0.2787 0.2191 0.0913
0.2918 0.2196 0.0918
0.3066 0.2230 0.0952
0.3186 0.2269 0.0952
0.3337 0.2269 0.0992
0.3456 0.2291 0.0992
0.3547 0.2309 0.0992
0.3655 0.2309 0.1031
0.3748 0.2323 0.1031
0.3868 0.2348 0.1070
0.3972 0.2348 0.1070
0.4091 0.2365 0.1070
0.4201 0.2387 0.1109
0.4321 0.2426 0.1109
0.4441 0.2448 0.1148
0.4567 0.2488 0.1182
0.4686 0.2529 0.1227
0.4793 0.2583 0.1266
0.4912 0.2687 0.1383
0.5031 0.2768 0.1462
0.0627 0.1660 0.0745
0.0788 0.1752 0.0745
0.0961 0.1834 0.0747
0.1170 0.1924 0.0757
0.1366 0.2004 0.0789
0.1619 0.2083 0.0797
0.1891 0.2163 0.0836
0.2091 0.2204 0.0876
0.2280 0.2244 0.0876
0.2479 0.2284 0.0914
0.2639 0.2325 0.0927
0.2786 0.2353 0.0954
0.2919 0.2391 0.0993
0.3061 0.2395 0.0993
0.3185 0.2435 0.0998
0.3305 0.2469 0.1033
0.3457 0.2509 0.1053
0.3576 0.2509 0.1071
0.3695 0.2509 0.1071
0.3775 0.2509 0.1084
0.3894 0.2548 0.1111
0.4013 0.2548 0.1111
0.4108 0.2587 0.1149
0.4211 0.2587 0.1149
0.4330 0.2617 0.1180
0.4449 0.2626 0.1189
0.4568 0.2665 0.1229
0.4687 0.2699 0.1263
0.4806 0.2740 0.1303
0.4922 0.2783 0.1343
0.5030 0.2860 0.1461
0.5149 0.2966 0.1542
0.0667 0.1793 0.0784
0.0840 0.1899 0.0784
0.1002 0.1991 0.0786
0.1270 0.2110 0.0824
0.1485 0.2204 0.0838
0.1739 0.2315 0.0869
0.2011 0.2388 0.0909
0.2242 0.2443 0.0925
0.2440 0.2483 0.0955
0.2636 0.2524 0.0994
0.2798 0.2551 0.0994
0.2944 0.2591 0.1034
0.3064 0.2630 0.1034
0.3184 0.2630 0.1073
0.3318 0.2634 0.1073
0.3424 0.2669 0.1078
0.3577 0.2708 0.1112
0.3696 0.2716 0.1151
0.3815 0.2748 0.1151
0.3934 0.2748 0.1190
0.4025 0.2748 0.1190
0.4133 0.2787 0.1190
0.4252 0.2787 0.1230
0.4360 0.2802 0.1230
0.4481 0.2826 0.1269
0.4587 0.2865 0.1300
0.4721 0.2898 0.1322
0.4841 0.2925 0.1347
0.4926 0.2965 0.1387
0.5045 0.3005 0.1440
0.5164 0.3085 0.1542
0.5283 0.3179 0.1622
0.0706 0.1912 0.0839
0.0880 0.2031 0.0839
0.1045 0.2153 0.0839
0.1324 0.2273 0.0867
0.1599 0.2404 0.0878
0.1859 0.2514 0.0917
0.2156 0.2602 0.0956
0.2371 0.2666 0.0995
0.2594 0.2723 0.1030
0.2759 0.2763 0.1046
0.2943 0.2791 0.1074
0.3078 0.2829 0.1113
0.3237 0.2845 0.1128
0.3356 0.2869 0.1129
0.3475 0.2869 0.1152
0.3578 0.2888 0.1167
0.3703 0.2908 0.1191
0.3823 0.2948 0.1213
0.3935 0.2948 0.1231
0.4054 0.2986 0.1270
0.4173 0.3002 0.1285
0.4292 0.3026 0.1296
0.4400 0.3026 0.1324
0.4506 0.3041 0.1324
0.4610 0.3065 0.1363
0.4728 0.3097 0.1403
0.4865 0.3137 0.1421
0.4966 0.3144 0.1461
0.5085 0.3183 0.1501
0.5201 0.3221 0.1542
0.5284 0.3299 0.1637
0.5403 0.3379 0.1740
0.0745 0.2072 0.0879
0.0921 0.2191 0.0879
0.1108 0.2313 0.0879
0.1427 0.2472 0.0906
0.1695 0.2592 0.0923
0.1980 0.2712 0.0964
0.2274 0.2802 0.1004
0.2490 0.2882 0.1036
0.2714 0.2951 0.1075
0.2913 0.3002 0.1114
0.3078 0.3029 0.1153
0.3237 0.3069 0.1167
0.3380 0.3084 0.1208
0.3517 0.3108 0.1249
0.3637 0.3126 0.1250
0.3757 0.3147 0.1288
0.3874 0.3147 0.1291
0.3976 0.3153 0.1310
0.4095 0.3186 0.1333
0.4199 0.3210 0.1350
0.4319 0.3234 0.1389
0.4452 0.3265 0.1428
0.4559 0.3282 0.1445
0.4679 0.3304 0.1467
0.4799 0.3321 0.1484
0.4904 0.3343 0.1523
0.5007 0.3376 0.1539
0.5126 0.3382 0.1580
0.5241 0.3422 0.1621
0.5324 0.3461 0.1661
0.5443 0.3538 0.1740
0.5546 0.3618 0.1837
0.0784 0.2232 0.0920
0.0962 0.2352 0.0920
0.1165 0.2472 0.0941
0.1484 0.2631 0.0959
0.1798 0.2786 0.0985
0.2082 0.2883 0.1026
0.2354 0.3002 0.1066
0.2593 0.3073 0.1107
0.2832 0.3143 0.1147
0.3032 0.3223 0.1187
0.3219 0.3264 0.1229
0.3357 0.3304 0.1234
0.3517 0.3323 0.1273
0.3659 0.3347 0.1312
0.3796 0.3386 0.1369
0.3916 0.3386 0.1391
0.4056 0.3426 0.1408
0.4135 0.3404 0.1430
0.4220 0.3426 0.1447
0.4334 0.3426 0.1453
0.4461 0.3465 0.1494
0.4598 0.3504 0.1534
0.4718 0.3514 0.1565
0.4839 0.3543 0.1587
0.4941 0.3573 0.1617
0.5061 0.3582 0.1643
0.5166 0.3622 0.1682
0.5285 0.3622 0.1682
0.5365 0.3661 0.1722
0.5484 0.3700 0.1780
0.5563 0.3759 0.1859
0.5682 0.3818 0.1940
0.0824 0.2391 0.0999
0.1042 0.2529 0.0999
0.1245 0.2650 0.0999
0.1563 0.2791 0.0999
0.1843 0.2950 0.1025
0.2129 0.3070 0.1065
0.2434 0.3183 0.1106
0.2673 0.3263 0.1146
0.2912 0.3342 0.1186
0.3112 0.3401 0.1235
0.3299 0.3462 0.1274
0.3473 0.3503 0.1313
0.3633 0.3543 0.1348
0.3796 0.3583 0.1408
0.3938 0.3586 0.1448
0.4057 0.3626 0.1489
0.4176 0.3626 0.1509
0.4295 0.3643 0.1531
0.4374 0.3626 0.1567
0.4493 0.3664 0.1572
0.4598 0.3671 0.1607
0.4731 0.3704 0.1646
0.4850 0.3743 0.1685
0.4969 0.3753 0.1705
0.5088 0.3794 0.1735
0.5207 0.3821 0.1776
0.5326 0.3861 0.1803
0.5421 0.3880 0.1842
0.5524 0.3900 0.1858
0.5604 0.3937 0.1899
0.5704 0.3978 0.1960
0.5803 0.4057 0.2058
0.0863 0.2589 0.1040
0.1083 0.2710 0.1040
0.1322 0.2847 0.1040
0.1623 0.2989 0.1063
0.1918 0.3143 0.1079
0.2182 0.3229 0.1104
0.2493 0.3342 0.1144
0.2693 0.3422 0.1185
0.2932 0.3502 0.1226
0.3171 0.3581 0.1266
0.3371 0.3661 0.1314
0.3557 0.3701 0.1353
0.3732 0.3742 0.1408
0.3896 0.3786 0.1471
0.4058 0.3825 0.1528
0.4215 0.3865 0.1568
0.4335 0.3904 0.1648
0.4454 0.3904 0.1650
0.4536 0.3904 0.1687
0.4653 0.3904 0.1727
0.4758 0.3929 0.1752
0.4891 0.3949 0.1792
0.5009 0.3982 0.1813
0.5128 0.4021 0.1844
0.5247 0.4052 0.1884
0.5366 0.4092 0.1923
0.5485 0.4112 0.1962
0.5579 0.4139 0.1976
0.5663 0.4154 0.2001
0.5763 0.4178 0.2020
0.5843 0.4218 0.2097
0.5942 0.4276 0.2177
0.0902 0.2749 0.1119
0.1141 0.2869 0.1098
0.1362 0.3028 0.1098
0.1662 0.3148 0.1119
0.1958 0.3303 0.1119
0.2204 0.3383 0.1158
0.2493 0.3480 0.1184
0.2733 0.3560 0.1225
0.2932 0.3639 0.1265
0.3171 0.3719 0.1305
0.3371 0.3781 0.1346
0.3571 0.3861 0.1394
0.3771 0.3923 0.1448
0.3976 0.3981 0.1528
0.4175 0.4025 0.1587
0.4297 0.4065 0.1648
0.4455 0.4104 0.1728
0.4614 0.4143 0.1768
0.4693 0.4143 0.1809
0.4797 0.4143 0.1847
0.4896 0.4168 0.1886
0.5016 0.4182 0.1925
0.5136 0.4222 0.1965
0.5256 0.4229 0.1994
0.5377 0.4269 0.2034
0.5518 0.4310 0.2075
0.5617 0.4339 0.2082
0.5724 0.4378 0.2121
0.5804 0.4378 0.2121
0.5884 0.4415 0.2139
0.5964 0.4434 0.2200
0.6043 0.4474 0.2257
0.0941 0.2908 0.1160
0.1163 0.3028 0.1160
0.1380 0.3185 0.1160
0.1639 0.3285 0.1160
0.1914 0.3423 0.1160
0.2160 0.3503 0.1182
0.2431 0.3599 0.1216
0.2648 0.3678 0.1239
0.2860 0.3719 0.1265
0.3075 0.3799 0.1305
0.3286 0.3879 0.1346
0.3495 0.3958 0.1412
0.3725 0.4038 0.1466
0.3948 0.4117 0.1546
0.4182 0.4197 0.1626
0.4352 0.4242 0.1705
0.4548 0.4301 0.1785
0.4672 0.4320 0.1848
0.4853 0.4382 0.1928
0.4932 0.4382 0.1967
0.5051 0.4382 0.2009
0.5170 0.4421 0.2049
0.5289 0.4426 0.2090
0.5375 0.4461 0.2124
0.5495 0.4499 0.2163
0.5615 0.4539 0.2202
0.5736 0.4549 0.2212
0.5844 0.4578 0.2242
0.5901 0.4594 0.2242
0.5981 0.4618 0.2258
0.6060 0.4634 0.2296
0.6141 0.4673 0.2337
0.0980 0.3068 0.1200
0.1203 0.3188 0.1200
0.1419 0.3323 0.1200
0.1619 0.3425 0.1200
0.1873 0.3543 0.1200
0.2097 0.3623 0.1222
0.2344 0.3695 0.1240
0.2543 0.3758 0.1264
0.2741 0.3799 0.1294
0.2916 0.3839 0.1305
0.3127 0.3919 0.1346
0.3366 0.4014 0.1412
0.3605 0.4117 0.1466
0.3844 0.4197 0.1529
0.4068 0.4277 0.1619
0.4307 0.4396 0.1705
0.4531 0.4461 0.1805
0.4731 0.4501 0.1904
0.4893 0.4543 0.2006
0.5052 0.4621 0.2111
0.5173 0.4621 0.2152
0.5293 0.4648 0.2205
0.5409 0.4660 0.2244
0.5528 0.4665 0.2249
0.5614 0.4699 0.2283
0.5734 0.4739 0.2323
0.5854 0.4747 0.2338
0.5941 0.4788 0.2362
0.6020 0.4793 0.2362
0.6100 0.4817 0.2362
0.6166 0.4856 0.2401
0.6220 0.4872 0.2440
0.1020 0.3227 0.1255
0.1180 0.3322 0.1255
0.1392 0.3440 0.1241
0.1568 0.3545 0.1255
0.1789 0.3638 0.1255
0.1975 0.3699 0.1261
0.2200 0.3758 0.1280
0.2382 0.3813 0.1294
0.2572 0.3868 0.1319
0.2742 0.3908 0.1333
0.2942 0.3960 0.1359
0.3182 0.4053 0.1387
0.3435 0.4148 0.1451
0.3685 0.4238 0.1506
0.3949 0.4349 0.1587
0.4202 0.4436 0.1680
0.4506 0.4589 0.1819
0.4710 0.4660 0.1929
0.4908 0.4715 0.2045
0.5092 0.4781 0.2166
0.5291 0.4821 0.2286
0.5412 0.4860 0.2325
0.5530 0.4863 0.2364
0.5623 0.4874 0.2403
0.5733 0.4899 0.2408
0.5847 0.4938 0.2449
0.5934 0.4946 0.2457
0.6020 0.4978 0.2457
0.6100 0.4988 0.2457
0.6180 0.4992 0.2457
0.6260 0.5030 0.2495
0.6300 0.5031 0.2535
0.1059 0.3347 0.1294
0.1204 0.3466 0.1294
0.1351 0.3559 0.1294
0.1510 0.3638 0.1298
0.1682 0.3739 0.1320
0.1848 0.3778 0.1320
0.2040 0.3830 0.1320
0.2200 0.3869 0.1333
0.2359 0.3909 0.1343
0.2531 0.3948 0.1360
0.2742 0.4000 0.1373
0.2969 0.4079 0.1399
0.3236 0.4172 0.1440
0.3526 0.4291 0.1506
0.3804 0.4397 0.1587
0.4082 0.4509 0.1666
0.4387 0.4635 0.1805
0.4700 0.4776 0.1938
0.4892 0.4860 0.2062
0.5104 0.4916 0.2181
0.5291 0.4981 0.2325
0.5491 0.5033 0.2445
0.5612 0.5060 0.2484
0.5702 0.5073 0.2524
0.5822 0.5099 0.2563
0.5941 0.5112 0.2568
0.6020 0.5138 0.2575
0.6100 0.5146 0.2575
0.6180 0.5151 0.2575
0.6260 0.5151 0.2563
0.6301 0.5189 0.2575
0.6379 0.5191 0.2614
0.1087 0.3506 0.1322
0.1190 0.3586 0.1333
0.1335 0.3677 0.1335
0.1470 0.3757 0.1361
0.1624 0.3832 0.1361
0.1756 0.3871 0.1361
0.1941 0.3910 0.1373
0.2059 0.3931 0.1382
0.2200 0.3960 0.1401
0.2387 0.4000 0.1401
0.2570 0.4052 0.1401
0.2810 0.4120 0.1412
0.3064 0.4200 0.1440
0.3383 0.4319 0.1506
0.3672 0.4438 0.1547
0.3951 0.4556 0.1638
0.4288 0.4707 0.1766
0.4607 0.4855 0.1925
0.4887 0.4976 0.2085
0.5092 0.5060 0.2209
0.5303 0.5139 0.2364
0.5492 0.5192 0.2486
0.5663 0.5232 0.2604
0.5782 0.5232 0.2616
0.5864 0.5235 0.2647
0.5985 0.5271 0.2687
0.6100 0.5283 0.2695
0.6152 0.5310 0.2695
0.6231 0.5310 0.2655
0.6300 0.5310 0.2655
0.6352 0.5310 0.2655
0.6420 0.5350 0.2695
0.1098 0.3627 0.1362
0.1217 0.3706 0.1373
0.1335 0.3783 0.1375
0.1455 0.3837 0.1402
0.1549 0.3911 0.1412
0.1699 0.3951 0.1418
0.1839 0.3990 0.1441
0.1950 0.3999 0.1441
0.2080 0.4029 0.1441
0.2239 0.4068 0.1441
0.2427 0.4120 0.1441
0.2650 0.4171 0.1451
0.2904 0.4266 0.1466
0.3223 0.4359 0.1506
0.3542 0.4478 0.1547
0.3851 0.4626 0.1627
0.4200 0.4776 0.1766
0.4527 0.4913 0.1925
0.4807 0.5055 0.2085
0.5087 0.5175 0.2244
0.5291 0.5260 0.2403
0.5531 0.5340 0.2553
0.5665 0.5380 0.2645
0.5823 0.5391 0.2725
0.5913 0.5391 0.2764
0.6024 0.5394 0.2774
0.6112 0.5431 0.2804
0.6191 0.5431 0.2804
0.6271 0.5431 0.2774
0.6343 0.5438 0.2774
0.6420 0.5470 0.2774
0.6471 0.5470 0.2774
0.1137 0.3747 0.1403
0.1218 0.3796 0.1412
0.1335 0.3876 0.1415
0.1419 0.3917 0.1442
0.1534 0.3991 0.1451
0.1659 0.4030 0.1457
0.1789 0.4069 0.1481
0.1900 0.4078 0.1481
0.2029 0.4119 0.1481
0.2188 0.4148 0.1481
0.2360 0.4200 0.1481
0.2577 0.4240 0.1481
0.2814 0.4335 0.1505
0.3134 0.4439 0.1529
0.3470 0.4558 0.1587
0.3782 0.4696 0.1666
0.4149 0.4855 0.1776
0.4478 0.5015 0.1925
0.4775 0.5134 0.2085
0.5052 0.5261 0.2275
0.5326 0.5380 0.2443
0.5535 0.5469 0.2602
0.5702 0.5511 0.2697
0.5824 0.5511 0.2774
0.5952 0.5520 0.2854
0.6062 0.5551 0.2884
0.6144 0.5551 0.2863
0.6230 0.5555 0.2893
0.6271 0.5560 0.2888
0.6350 0.5560 0.2854
0.6430 0.5560 0.2854
0.6501 0.5590 0.2854
0.1176 0.3867 0.1443
0.1256 0.3915 0.1451
0.1335 0.3992 0.1453
0.1447 0.4031 0.1482
0.1534 0.4076 0.1490
0.1653 0.4116 0.1496
0.1772 0.4149 0.1521
0.1859 0.4181 0.1521
0.1989 0.4199 0.1521
0.2148 0.4239 0.1521
0.2339 0.4280 0.1521
0.2538 0.4345 0.1521
0.2774 0.4415 0.1529
0.3093 0.4519 0.1561
0.3411 0.4638 0.1618
0.3749 0.4776 0.1705
0.4120 0.4935 0.1817
0.4439 0.5094 0.1965
0.4735 0.5223 0.2124
0.5037 0.5374 0.2283
0.5291 0.5494 0.2474
0.5570 0.5614 0.2668
0.5742 0.5639 0.2765
0.5862 0.5668 0.2845
0.5982 0.5671 0.2894
0.6070 0.5671 0.2965
0.6182 0.5671 0.2972
0.6230 0.5671 0.2933
0.6310 0.5671 0.2937
0.6350 0.5671 0.2933
0.6430 0.5677 0.2965
0.6510 0.5678 0.2972
0.1210 0.3987 0.1484
0.1289 0.4028 0.1490
0.1375 0.4074 0.1523
0.1455 0.4144 0.1523
0.1539 0.4183 0.1529
0.1653 0.4222 0.1535
0.1772 0.4262 0.1563
0.1885 0.4277 0.1563
0.1991 0.4311 0.1563
0.2173 0.4358 0.1563
0.2385 0.4398 0.1563
0.2584 0.4472 0.1563
0.2823 0.4551 0.1563
0.3118 0.4631 0.1602
0.3437 0.4768 0.1658
0.3794 0.4908 0.1777
0.4153 0.5048 0.1896
0.4472 0.5207 0.2036
0.4791 0.5366 0.2196
0.5070 0.5486 0.2355
0.5325 0.5606 0.2515
0.5596 0.5733 0.2707
0.5781 0.5791 0.2845
0.5905 0.5791 0.2925
0.6021 0.5791 0.2967
0.6104 0.5823 0.3014
0.6190 0.5791 0.3020
0.6270 0.5791 0.3014
0.6310 0.5758 0.3014
0.6386 0.5758 0.3014
0.6430 0.5791 0.3053
0.6510 0.5791 0.3053
0.1216 0.4073 0.1524
0.1295 0.4147 0.1529
0.1378 0.4191 0.1564
0.1489 0.4230 0.1569
0.1574 0.4270 0.1569
0.1659 0.4315 0.1603
0.1772 0.4355 0.1603
0.1891 0.4387 0.1603
0.2020 0.4421 0.1603
0.2214 0.4477 0.1603
0.2391 0.4517 0.1603
0.2630 0.4597 0.1608
0.2903 0.4672 0.1623
0.3181 0.4756 0.1642
0.3483 0.4888 0.1698
0.3836 0.5029 0.1842
0.4233 0.5207 0.1976
0.4551 0.5332 0.2095
0.4847 0.5486 0.2259
0.5126 0.5612 0.2435
0.5404 0.5741 0.2594
0.5609 0.5825 0.2754
0.5815 0.5905 0.2886
0.5940 0.5946 0.2999
0.6064 0.5951 0.3054
0.6144 0.5951 0.3093
0.6229 0.5918 0.3093
0.6270 0.5877 0.3093
0.6310 0.5877 0.3093
0.6389 0.5877 0.3093
0.6430 0.5877 0.3131
0.6510 0.5877 0.3132
0.1255 0.4192 0.1565
0.1334 0.4233 0.1570
0.1417 0.4274 0.1604
0.1529 0.4314 0.1608
