All_In_One/addons/Enrich_Colormaster/colormanagement/luts/film_response/Tetrachrome_400_FC.cube
TITLE "ImpulZ LUT 32"
LUT_3D_SIZE 5
DOMAIN_MIN 0.000000 0.000000 0.000000
DOMAIN_MAX 0.903226 0.903226 0.903226
0.0235 0.0235 0.0235
0.1438 0.0314 0.0196
0.2820 0.0314 0.0196
0.4367 0.0353 0.0196
0.6031 0.0471 0.0231
0.0157 0.1068 0.0235
0.1478 0.1194 0.0157
0.3112 0.1312 0.0196
0.4598 0.1312 0.0196
0.6224 0.1465 0.0235
0.0118 0.2171 0.0275
0.1957 0.2828 0.0127
0.3875 0.2994 0.0214
0.5370 0.3021 0.0275
0.7044 0.3108 0.0332
0.0078 0.3805 0.0314
0.1075 0.4131 0.0157
0.3263 0.4476 0.0157
0.6106 0.5047 0.0614
0.7910 0.5021 0.0579
0.0078 0.5129 0.0349
0.0632 0.5286 0.0279
0.2662 0.5553 0.0175
0.5894 0.6525 0.0689
0.7443 0.6310 0.0902
0.0187 0.0353 0.1713
0.1155 0.0275 0.1713
0.2641 0.0314 0.1264
0.4655 0.0314 0.1155
0.6734 0.0431 0.1435
0.0157 0.1155 0.1281
0.1517 0.1368 0.1486
0.3670 0.1146 0.0833
0.5322 0.0920 0.0606
0.7017 0.1112 0.0834
0.0118 0.2328 0.1321
0.0697 0.2955 0.0667
0.4725 0.3805 0.1125
0.6573 0.3335 0.0802
0.8111 0.3297 0.1048
0.0118 0.3805 0.1176
0.0305 0.4668 0.0597
0.3168 0.5225 0.0488
0.7527 0.6128 0.1312
0.8907 0.5801 0.1182
0.0166 0.5217 0.1230
0.0637 0.5887 0.1305
0.3563 0.6668 0.0930
0.7418 0.7534 0.1579
0.8693 0.7422 0.1614
0.0157 0.0392 0.3386
0.0959 0.0275 0.3504
0.2676 0.0275 0.3112
0.4921 0.0314 0.2973
0.6716 0.0467 0.3265
0.0157 0.1234 0.2759
0.0667 0.1077 0.3465
0.3766 0.1046 0.3778
0.5784 0.0693 0.3021
0.7251 0.1129 0.3234
0.0157 0.2524 0.2855
0.0763 0.3169 0.3539
0.4049 0.4067 0.4010
0.6682 0.3274 0.2855
0.8259 0.3228 0.2940
0.0397 0.4438 0.3352
0.0828 0.5183 0.3282
0.2306 0.5086 0.2555
0.7684 0.6438 0.3178
0.9094 0.6421 0.3498
0.0720 0.6067 0.3653
0.0999 0.6379 0.3505
0.2312 0.6534 0.3022
0.7240 0.7849 0.3214
0.9133 0.8167 0.3649
0.0157 0.0510 0.5335
0.1006 0.0314 0.5452
0.3038 0.0275 0.5217
0.5295 0.0392 0.4864
0.6506 0.0467 0.4903
0.0157 0.1333 0.4563
0.0401 0.0854 0.5657
0.2685 0.0615 0.5962
0.5953 0.0833 0.5482
0.6859 0.0925 0.5033
0.0157 0.2759 0.4616
0.0471 0.2903 0.5461
0.2049 0.2981 0.5400
0.6486 0.3265 0.6010
0.7740 0.2970 0.5453
0.0759 0.4839 0.5204
0.1691 0.6015 0.6359
0.3475 0.6111 0.6316
0.6878 0.6878 0.6604
0.8859 0.6639 0.6129
0.1438 0.6851 0.5814
0.1883 0.7360 0.6044
0.3437 0.7671 0.6229
0.5977 0.8111 0.5920
0.9064 0.8611 0.6208
0.0192 0.0549 0.7086
0.1046 0.0379 0.7208
0.3439 0.0467 0.6737
0.5269 0.0471 0.6201
0.6502 0.0510 0.5996
0.0157 0.1360 0.6176
0.0515 0.1030 0.7006
0.2472 0.0885 0.7207
0.5369 0.0964 0.6549
0.6745 0.0877 0.6222
0.0196 0.3051 0.6285
0.0646 0.2965 0.6838
0.2223 0.3189 0.7175
0.5868 0.3102 0.7418
0.7610 0.2919 0.6987
0.0732 0.4942 0.6673
0.1475 0.5361 0.7356
0.3503 0.6056 0.7955
0.6309 0.6482 0.8420
0.8659 0.6508 0.8255
0.1373 0.6737 0.7129
0.2172 0.7456 0.7805
0.4277 0.8184 0.8423
0.6922 0.8725 0.8659
0.8933 0.8933 0.8737
