All_In_One/addons/Enrich_Colormaster/colormanagement/luts/film_response/Tetrachrome_400_FC.cube
TITLE "ImpulZ LUT 32"
LUT_3D_SIZE 8
DOMAIN_MIN 0.000000 0.000000 0.000000
DOMAIN_MAX 0.903226 0.903226 0.903226
0.0235 0.0235 0.0235
0.0834 0.0314 0.0235
0.1628 0.0314 0.0196
0.2399 0.0314 0.0196
0.3256 0.0314 0.0196
0.4154 0.0353 0.0196
0.5102 0.0392 0.0196
0.6031 0.0471 0.0231
0.0157 0.0637 0.0270
0.0760 0.0677 0.0196
0.1638 0.0760 0.0196
0.2555 0.0834 0.0196
0.3457 0.0834 0.0196
0.4252 0.0834 0.0196
0.5149 0.0873 0.0221
0.6076 0.0981 0.0235
0.0157 0.1196 0.0235
0.0726 0.1353 0.0157
0.1765 0.1403 0.0157
0.2683 0.1471 0.0157
0.3639 0.1481 0.0196
0.4478 0.1520 0.0196
0.5317 0.1520 0.0196
0.6274 0.1638 0.0235
0.0118 0.1795 0.0275
0.0922 0.2168 0.0157
0.2124 0.2359 0.0157
0.3135 0.2399 0.0172
0.3997 0.2380 0.0196
0.4890 0.2453 0.0211
0.5769 0.2453 0.0235
0.6690 0.2555 0.0275
0.0118 0.2649 0.0275
0.1019 0.3085 0.0118
0.2265 0.3345 0.0118
0.3488 0.3527 0.0172
0.4591 0.3610 0.0275
0.5385 0.3571 0.0334
0.6377 0.3660 0.0383
0.7402 0.3747 0.0412
0.0078 0.3566 0.0314
0.0691 0.3933 0.0157
0.1552 0.4011 0.0133
0.2788 0.4197 0.0157
0.4452 0.4601 0.0256
0.5826 0.4782 0.0535
0.6862 0.4768 0.0588
0.7871 0.4821 0.0539
0.0078 0.4413 0.0314
0.0358 0.4649 0.0275
0.0804 0.4609 0.0235
0.1732 0.4664 0.0157
0.3610 0.5090 0.0196
0.5494 0.5640 0.0521
0.6836 0.5668 0.0815
0.7771 0.5629 0.0775
0.0078 0.5129 0.0349
0.0319 0.5256 0.0353
0.0762 0.5286 0.0275
0.1833 0.5380 0.0196
0.3718 0.5872 0.0295
0.5531 0.6445 0.0609
0.6762 0.6585 0.0937
0.7443 0.6310 0.0902
0.0196 0.0314 0.1030
0.0716 0.0275 0.1069
0.1549 0.0309 0.0868
0.2344 0.0314 0.0706
0.3276 0.0314 0.0598
0.4316 0.0353 0.0598
0.5469 0.0353 0.0603
0.6512 0.0431 0.0717
0.0191 0.0677 0.0755
0.0760 0.0755 0.0760
0.1952 0.0677 0.0520
0.2874 0.0598 0.0397
0.3830 0.0554 0.0319
0.4826 0.0495 0.0280
0.5861 0.0520 0.0280
0.6633 0.0742 0.0432
0.0157 0.1236 0.0677
0.0436 0.1476 0.0549
0.2202 0.1726 0.0486
0.3311 0.1559 0.0363
0.4272 0.1442 0.0324
0.5111 0.1285 0.0280
0.6028 0.1285 0.0310
0.6802 0.1478 0.0477
0.0118 0.1834 0.0716
0.0270 0.2320 0.0397
0.2129 0.2816 0.0314
0.3895 0.3007 0.0441
0.4836 0.2743 0.0373
0.5695 0.2507 0.0334
0.6547 0.2414 0.0334
0.7323 0.2533 0.0516
0.0118 0.2610 0.0716
0.0162 0.3360 0.0358
0.1631 0.3815 0.0201
0.3579 0.4173 0.0314
0.5479 0.4439 0.0618
0.6479 0.4159 0.0588
0.7445 0.3992 0.0476
0.8161 0.3934 0.0594
0.0078 0.3487 0.0672
0.0097 0.4369 0.0353
0.0735 0.4526 0.0280
0.2088 0.4620 0.0201
0.4645 0.5307 0.0422
0.6792 0.5610 0.0912
0.7827 0.5297 0.0706
0.8614 0.5184 0.0673
0.0078 0.4335 0.0632
0.0078 0.5124 0.0358
0.0496 0.5242 0.0319
0.1631 0.5302 0.0240
0.4076 0.5935 0.0398
0.6324 0.6532 0.0859
0.7496 0.6345 0.0985
0.8434 0.6070 0.0907
0.0078 0.5134 0.0677
0.0241 0.5609 0.0630
0.0851 0.5815 0.0655
0.2257 0.6096 0.0428
0.4727 0.6749 0.0710
0.6618 0.7252 0.1085
0.7610 0.7182 0.1191
0.8117 0.6904 0.1104
0.0157 0.0353 0.1912
0.0559 0.0270 0.2108
0.1275 0.0275 0.1902
0.2124 0.0275 0.1633
0.3179 0.0314 0.1403
0.4376 0.0314 0.1363
0.5612 0.0314 0.1433
0.6737 0.0441 0.1674
0.0196 0.0755 0.1584
0.0441 0.0667 0.1996
0.1721 0.0593 0.2187
0.2879 0.0510 0.1505
0.3992 0.0476 0.1172
0.5185 0.0436 0.1084
0.6401 0.0476 0.1133
0.7172 0.0712 0.1375
0.0157 0.1285 0.1471
0.0441 0.1559 0.1795
0.1795 0.1648 0.1805
0.3282 0.1491 0.1241
0.4277 0.1275 0.0912
0.5184 0.1128 0.0789
0.6190 0.1050 0.0765
0.7110 0.1267 0.1003
0.0118 0.1928 0.1447
0.0280 0.2354 0.1408
0.1196 0.2560 0.1157
0.3738 0.3091 0.1452
0.5003 0.2777 0.1045
0.5925 0.2521 0.0898
0.6843 0.2311 0.0859
0.7773 0.2539 0.1175
0.0118 0.2816 0.1559
0.0201 0.3326 0.1226
0.0716 0.3472 0.0706
0.3349 0.4189 0.0907
0.5630 0.4601 0.1403
0.6809 0.4361 0.1162
0.7818 0.4120 0.1000
0.8568 0.4143 0.1284
0.0118 0.3668 0.1466
0.0128 0.4277 0.0990
0.0451 0.4419 0.0687
0.2114 0.4826 0.0530
0.4998 0.5552 0.1036
0.7248 0.5890 0.1471
0.8376 0.5649 0.1128
0.8937 0.5559 0.1323
0.0128 0.4434 0.1256
0.0128 0.5135 0.0963
0.0451 0.5326 0.0884
0.1661 0.5620 0.0663
0.4516 0.6309 0.0845
0.6936 0.6870 0.1496
0.8336 0.6865 0.1481
0.8956 0.6630 0.1519
0.0206 0.5257 0.1438
0.0364 0.5767 0.1475
0.0797 0.5977 0.1554
0.2271 0.6405 0.1247
0.4918 0.7095 0.1259
0.7067 0.7561 0.1695
0.8267 0.7650 0.1896
0.8869 0.7581 0.1833
0.0157 0.0392 0.2829
0.0515 0.0275 0.2992
0.1167 0.0235 0.2913
0.2046 0.0275 0.2634
0.3272 0.0275 0.2414
0.4522 0.0314 0.2375
0.5690 0.0314 0.2444
0.6757 0.0467 0.2708
0.0196 0.0829 0.2393
0.0319 0.0598 0.3115
0.1167 0.0441 0.3433
0.2850 0.0466 0.3159
0.4209 0.0397 0.2644
0.5400 0.0378 0.2385
0.6527 0.0467 0.2453
0.7202 0.0751 0.2684
0.0157 0.1353 0.2242
0.0319 0.1403 0.2806
0.1045 0.1398 0.2986
0.3193 0.1486 0.3237
0.4434 0.1118 0.2443
0.5424 0.0966 0.2134
0.6517 0.0986 0.2175
0.7370 0.1278 0.2484
0.0157 0.2046 0.2320
0.0319 0.2531 0.2884
0.1084 0.2644 0.2918
0.3189 0.3189 0.3213
0.5032 0.2811 0.2497
0.5954 0.2340 0.1909
0.6843 0.2100 0.1801
0.7838 0.2354 0.2123
0.0157 0.2978 0.2458
0.0334 0.3694 0.2811
0.0770 0.3493 0.2301
0.2335 0.3875 0.2060
0.5518 0.4724 0.2840
0.6960 0.4517 0.2321
0.7936 0.4224 0.2135
0.8757 0.4359 0.2555
0.0250 0.4013 0.2688
0.0383 0.4694 0.2586
0.0652 0.4488 0.2081
0.1438 0.4512 0.1591
0.4817 0.5562 0.2076
0.7303 0.5998 0.2443
0.8444 0.5881 0.2297
0.9045 0.5932 0.2692
0.0359 0.4905 0.2655
0.0461 0.5581 0.2517
0.0663 0.5518 0.2229
0.1277 0.5353 0.1871
0.4069 0.6200 0.1503
0.6976 0.6940 0.2361
0.8531 0.7126 0.2474
0.9075 0.7008 0.2755
0.0486 0.5744 0.2817
0.0604 0.6125 0.2798
0.0923 0.6188 0.2759
0.1700 0.6298 0.2548
0.4202 0.6920 0.1824
0.6907 0.7670 0.2539
0.8448 0.7960 0.2931
0.9070 0.8007 0.3093
0.0157 0.0431 0.3982
0.0481 0.0368 0.3987
0.1149 0.0275 0.4071
0.2159 0.0275 0.3870
0.3493 0.0275 0.3668
0.4768 0.0314 0.3629
0.5767 0.0344 0.3660
0.6635 0.0467 0.3825
0.0196 0.0849 0.3467
0.0240 0.0593 0.4502
0.0951 0.0431 0.4669
0.2497 0.0358 0.4654
0.4532 0.0441 0.4374
0.5610 0.0397 0.4056
0.6507 0.0462 0.3933
0.7020 0.0707 0.3943
0.0157 0.1413 0.3276
0.0270 0.1358 0.4061
0.0716 0.1206 0.3982
0.2016 0.1040 0.4586
0.4512 0.1196 0.4356
0.5566 0.0893 0.3909
0.6463 0.0893 0.3777
0.7172 0.1238 0.3861
0.0157 0.2129 0.3316
0.0240 0.2432 0.4037
0.0726 0.2375 0.3963
0.2006 0.2615 0.4189
0.4841 0.2929 0.4679
0.5920 0.2277 0.4013
0.6783 0.2071 0.3743
0.7739 0.2427 0.3935
0.0196 0.3100 0.3493
0.0516 0.3929 0.4376
0.1002 0.3905 0.4297
0.2233 0.4111 0.4371
0.4925 0.5003 0.4807
0.6684 0.4606 0.4248
0.7836 0.4258 0.3837
0.8601 0.4306 0.3937
0.0477 0.4278 0.3871
0.0968 0.5381 0.4597
0.1262 0.5211 0.4293
0.1978 0.5077 0.4024
0.3929 0.5465 0.3954
0.7112 0.6317 0.4405
0.8444 0.6200 0.4130
0.9055 0.6201 0.4295
0.0855 0.5484 0.4268
0.1113 0.6415 0.4659
0.1256 0.6209 0.4316
0.1733 0.5925 0.3925
0.3112 0.6121 0.3581
0.6519 0.7151 0.3958
0.8541 0.7406 0.4004
0.9133 0.7366 0.4269
0.1021 0.6425 0.4473
0.1099 0.6786 0.4512
0.1312 0.6654 0.4273
0.1886 0.6636 0.4112
0.3130 0.6912 0.3662
0.6167 0.7750 0.3713
0.8340 0.8179 0.4104
0.9168 0.8287 0.4234
0.0157 0.0510 0.5056
0.0481 0.0431 0.5008
0.1216 0.0275 0.5174
0.2361 0.0275 0.5041
0.3714 0.0295 0.4860
0.5003 0.0353 0.4664
0.5855 0.0392 0.4664
0.6516 0.0431 0.4717
0.0196 0.0873 0.4502
0.0201 0.0593 0.5782
0.0849 0.0466 0.5831
0.2316 0.0329 0.5830
0.4258 0.0397 0.5507
0.5742 0.0515 0.5291
0.6453 0.0476 0.5104
0.6824 0.0628 0.4864
0.0157 0.1510 0.4311
0.0201 0.1241 0.5155
0.0544 0.1040 0.5140
0.1525 0.0814 0.5561
0.3806 0.0917 0.5546
0.5683 0.1024 0.5252
0.6413 0.0844 0.5007
0.6912 0.1095 0.4825
0.0157 0.2281 0.4311
0.0201 0.2369 0.5126
0.0569 0.2179 0.5032
0.1306 0.2144 0.4944
0.3641 0.2272 0.5782
0.5861 0.2344 0.5493
0.6527 0.1815 0.5032
0.7385 0.2176 0.5018
0.0216 0.3218 0.4488
0.0417 0.3827 0.5356
0.0820 0.3733 0.5288
0.1645 0.3719 0.5209
0.3675 0.4326 0.5719
0.6532 0.4665 0.6155
0.7586 0.4101 0.5635
0.8381 0.4203 0.5485
0.0585 0.4440 0.4846
0.1172 0.5543 0.5935
0.1689 0.5577 0.5930
0.2568 0.5593 0.5852
0.4283 0.5912 0.6008
0.6479 0.6518 0.6244
0.8043 0.6278 0.5847
0.8855 0.6201 0.5721
0.1167 0.5803 0.5361
0.1495 0.6836 0.6076
0.1888 0.6856 0.5992
0.2669 0.6764 0.5891
0.4024 0.6941 0.5886
0.5758 0.7234 0.5724
0.8222 0.7724 0.5964
0.9065 0.7655 0.5843
0.1412 0.6813 0.5615
0.1535 0.7241 0.5771
0.1910 0.7251 0.5723
0.2663 0.7381 0.5773
0.3797 0.7618 0.5731
0.5389 0.7883 0.5442
0.7881 0.8480 0.5765
0.9133 0.8567 0.5760
0.0157 0.0549 0.6130
0.0481 0.0466 0.6057
0.1256 0.0314 0.6248
0.2483 0.0290 0.6076
0.3885 0.0344 0.5757
0.5047 0.0392 0.5556
0.5904 0.0471 0.5433
0.6506 0.0471 0.5364
0.0157 0.0873 0.5498
0.0196 0.0588 0.6949
0.0804 0.0466 0.6959
0.2351 0.0397 0.6913
0.4214 0.0467 0.6398
0.5536 0.0510 0.6119
0.6453 0.0549 0.5957
0.6780 0.0628 0.5555
0.0157 0.1481 0.5189
0.0187 0.1162 0.6204
0.0451 0.0932 0.6345
0.1340 0.0765 0.6620
0.3523 0.0795 0.6472
0.5316 0.0883 0.6129
0.6403 0.0873 0.5913
0.6794 0.1007 0.5555
0.0157 0.2375 0.5282
0.0201 0.2306 0.6135
0.0491 0.2007 0.6105
0.1041 0.1919 0.5871
0.2877 0.1821 0.6513
0.5191 0.1928 0.6301
0.6483 0.1810 0.5973
0.7120 0.1946 0.5777
0.0235 0.3433 0.5444
0.0378 0.3806 0.6313
0.0688 0.3639 0.6316
0.1474 0.3606 0.6196
0.3015 0.3935 0.6603
0.5828 0.4224 0.7165
0.7454 0.3984 0.6867
0.8089 0.3822 0.6485
0.0599 0.4532 0.5763
0.0937 0.5312 0.6705
0.1384 0.5312 0.6743
0.2254 0.5318 0.6667
0.3819 0.5676 0.6986
0.5715 0.6074 0.7371
0.7895 0.6209 0.7424
0.8702 0.6000 0.7131
0.1207 0.5808 0.6169
0.1417 0.6693 0.7071
0.2030 0.6914 0.7228
0.3111 0.7047 0.7361
0.4641 0.7358 0.7525
0.6196 0.7637 0.7564
0.7973 0.7965 0.7651
0.8855 0.7765 0.7328
0.1490 0.6930 0.6444
0.1653 0.7334 0.6766
0.2289 0.7570 0.6928
0.3338 0.7900 0.7165
0.4723 0.8278 0.7361
0.6084 0.8493 0.7371
0.7516 0.8645 0.7289
0.8942 0.8807 0.7525
0.0192 0.0549 0.7086
0.0481 0.0505 0.6983
0.1295 0.0353 0.7234
0.2724 0.0427 0.6938
0.4120 0.0471 0.6482
0.5066 0.0471 0.6242
0.5859 0.0506 0.6119
0.6502 0.0510 0.5996
0.0157 0.0912 0.6488
0.0280 0.0707 0.7332
0.0804 0.0623 0.7303
0.2179 0.0560 0.7436
0.4041 0.0712 0.6902
0.5192 0.0668 0.6520
0.6020 0.0628 0.6392
0.6745 0.0632 0.6231
0.0157 0.1559 0.6145
0.0280 0.1321 0.6814
0.0594 0.1164 0.6857
0.1346 0.1066 0.7004
0.3366 0.1095 0.7049
0.5046 0.1125 0.6648
0.5996 0.1042 0.6427
0.6755 0.1007 0.6231
0.0192 0.2531 0.6224
0.0315 0.2395 0.6682
0.0689 0.2225 0.6760
0.1377 0.2315 0.6822
0.3066 0.2272 0.7313
0.5212 0.2236 0.7095
0.6332 0.2128 0.6788
0.7210 0.2103 0.6611
0.0295 0.3626 0.6341
0.0458 0.3728 0.6840
0.0965 0.3716 0.7007
0.2023 0.4042 0.7333
0.3457 0.4263 0.7732
0.5694 0.4262 0.7994
0.7117 0.4110 0.7744
0.8092 0.3989 0.7480
0.0613 0.4664 0.6567
0.0914 0.4968 0.7124
0.1485 0.5076 0.7300
0.2625 0.5500 0.7656
0.4229 0.5918 0.8166
0.5841 0.6094 0.8381
0.7494 0.6123 0.8336
0.8619 0.6045 0.8174
0.1089 0.5738 0.6891
0.1370 0.6100 0.7374
0.2053 0.6311 0.7609
0.3196 0.6724 0.7960
0.4669 0.7161 0.8326
0.6153 0.7480 0.8502
0.7564 0.7612 0.8572
0.8776 0.7729 0.8532
0.1373 0.6737 0.7129
0.1649 0.7217 0.7570
0.2411 0.7536 0.7885
0.3578 0.7968 0.8247
0.5089 0.8405 0.8565
0.6590 0.8685 0.8659
0.7922 0.8855 0.8728
0.8933 0.8933 0.8737
