All_In_One/addons/Enrich_Colormaster/colormanagement/luts/film_response/Thriller.cube
#Created by: Denver Riddle
#Copyright: (C) Copyright Color Grading Central LLC
#LUT Size
LUT_3D_SIZE 5
0.0184634 0.044358 0.0542611
0.090547 0.0675212 0.0598154
0.356115 0.0895247 0.0737469
0.64419 0.104753 0.135943
0.861692 0.13846 0.177096
0.0167849 0.173327 0.0479591
0.0978561 0.182727 0.0558938
0.459174 0.193927 0.0662394
0.769207 0.24181 0.111208
0.899977 0.30338 0.122026
0.0163272 0.377386 0.0487221
0.126207 0.427756 0.0372778
0.563119 0.429999 0.0327001
0.855009 0.429999 0.0300298
0.906355 0.494469 0.0321355
0.0392309 0.569253 0.0738231
0.21384 0.60766 0.0882429
0.577371 0.697704 0.0428931
0.807568 0.720867 0.0419928
0.878843 0.646387 0.0375372
0.0291447 0.857725 0.0500649
0.149218 0.88072 0.0514992
0.518578 0.901076 0.047837
0.745892 0.910414 0.0458686
0.820127 0.909911 0.0451362
0.0179599 0.0848554 0.169741
0.107713 0.0889143 0.17908
0.39057 0.086305 0.162036
0.650706 0.109529 0.207355
0.849104 0.141283 0.245014
0.0167849 0.177295 0.18938
0.0895705 0.204532 0.222919
0.464042 0.19556 0.192386
0.749844 0.216327 0.206897
0.883757 0.272984 0.219547
0.0169375 0.393805 0.183764
0.0867933 0.454765 0.14107
0.553841 0.468193 0.116686
0.844221 0.458167 0.09337
0.89781 0.521401 0.0914015
0.0236362 0.523003 0.259144
0.159014 0.616846 0.196643
0.561212 0.708141 0.146456
0.800763 0.721675 0.102266
0.873213 0.655055 0.0941634
0.0292363 0.866255 0.0977951
0.10724 0.887266 0.0963607
0.499916 0.909102 0.0919814
0.742428 0.918257 0.0947738
0.81619 0.918517 0.103365
0.0165255 0.166629 0.36199
0.0738384 0.158099 0.355581
0.459617 0.161929 0.327413
0.718212 0.166064 0.342489
0.842069 0.206912 0.369635
0.016144 0.230213 0.365057
0.0590677 0.270146 0.419348
0.512001 0.269718 0.383169
0.75964 0.288258 0.409857
0.830961 0.347936 0.477562
0.0165713 0.432395 0.461616
0.0488289 0.492103 0.517189
0.434653 0.535637 0.559701
0.733516 0.560037 0.577539
0.833341 0.560342 0.55407
0.0233463 0.722148 0.637476
0.0536507 0.714961 0.612238
0.451682 0.704051 0.507851
0.747982 0.753155 0.475227
0.834684 0.724315 0.471702
0.0274052 0.904005 0.528618
0.0493324 0.90396 0.47628
0.365957 0.967147 0.331716
0.711742 0.934539 0.455924
0.800793 0.927153 0.455619
0.0159762 0.2262 0.503517
0.0621195 0.218509 0.487709
0.397024 0.234974 0.464225
0.732677 0.232578 0.451637
0.80824 0.274281 0.52549
0.0164797 0.294423 0.515908
0.0492256 0.322377 0.55993
0.441764 0.342489 0.539696
0.74052 0.370626 0.593652
0.79675 0.427008 0.670741
0.0170138 0.4542 0.599573
0.0493019 0.510094 0.670878
0.350912 0.547921 0.751659
0.729885 0.568597 0.747219
0.793271 0.610788 0.766781
0.0230716 0.679698 0.762783
0.0530556 0.710262 0.787839
0.28336 0.74432 0.818204
0.711528 0.777493 0.80885
0.795224 0.7776 0.797559
0.0264744 0.89453 0.863172
0.0486152 0.923873 0.871183
0.0979324 0.934997 0.761654
0.667842 0.960876 0.691783
0.798703 0.947097 0.73698
0.0155032 0.300465 0.665949
0.0443732 0.293416 0.643351
0.348287 0.294621 0.630808
0.669169 0.330297 0.684901
0.79202 0.374334 0.814267
0.0173037 0.374258 0.699413
0.0489815 0.397879 0.743358
0.335958 0.373281 0.753033
0.732082 0.414618 0.833265
0.797559 0.473426 0.914366
0.0178836 0.520806 0.780774
0.049836 0.566339 0.841123
0.251423 0.579355 0.902037
0.672709 0.571176 0.936233
0.797711 0.610071 0.971267
0.0229191 0.687953 0.898238
0.0523537 0.712932 0.925353
0.21709 0.716045 0.935409
0.660182 0.758541 0.967025
0.796735 0.758175 0.984817
0.0260624 0.84152 0.97528
0.0475929 0.857191 0.984634
0.0865187 0.878141 0.990478
0.591623 0.915557 0.998581
0.79704 0.96347 0.998383
