All_In_One/addons/Enrich_Colormaster/colormanagement/luts/film_response/Thriller.cube
#Created by: Denver Riddle
#Copyright: (C) Copyright Color Grading Central LLC
#LUT Size
LUT_3D_SIZE 9
0.0184634 0.044358 0.0542611
0.0393378 0.0528725 0.0578164
0.090547 0.0675212 0.0598154
0.201068 0.0768444 0.0582132
0.356115 0.0895247 0.0737469
0.514824 0.0959029 0.106844
0.64419 0.104753 0.135943
0.765835 0.117998 0.160052
0.861692 0.13846 0.177096
0.0184787 0.0952621 0.0545205
0.0377966 0.0991531 0.0588235
0.0911116 0.103731 0.0561074
0.21709 0.106081 0.0564279
0.381872 0.118227 0.0809491
0.548592 0.130159 0.115053
0.689158 0.146395 0.141634
0.808911 0.166461 0.163394
0.880293 0.192279 0.177508
0.0167849 0.173327 0.0479591
0.0340429 0.190509 0.0416266
0.0978561 0.182727 0.0558938
0.261784 0.177157 0.0341955
0.459174 0.193927 0.0662394
0.629908 0.214801 0.0940719
0.769207 0.24181 0.111208
0.862791 0.274968 0.119112
0.899977 0.30338 0.122026
0.0156405 0.274022 0.0430304
0.030808 0.296361 0.0325475
0.105074 0.306371 0.0508736
0.271778 0.29218 0.0474708
0.538094 0.274052 0.0486458
0.721233 0.29897 0.0753338
0.829999 0.330785 0.0819257
0.890547 0.373404 0.0734417
0.910643 0.40737 0.0605325
0.0163272 0.377386 0.0487221
0.0346532 0.400412 0.032166
0.126207 0.427756 0.0372778
0.317082 0.448402 0.0352331
0.563119 0.429999 0.0327001
0.755886 0.410559 0.0265049
0.855009 0.429999 0.0300298
0.897673 0.467369 0.0307317
0.906355 0.494469 0.0321355
0.0191196 0.487388 0.0418097
0.0581064 0.509987 0.0366064
0.166827 0.526665 0.0560159
0.351644 0.557137 0.0425574
0.555444 0.604379 0.0393072
0.74081 0.590448 0.038407
0.845655 0.563943 0.0298772
0.887678 0.557427 0.0273289
0.896315 0.564401 0.0297551
0.0392309 0.569253 0.0738231
0.0882429 0.590295 0.0748302
0.21384 0.60766 0.0882429
0.395422 0.645823 0.0540475
0.577371 0.697704 0.0428931
0.70692 0.736004 0.0421302
0.807568 0.720867 0.0419928
0.862821 0.675639 0.0421607
0.878843 0.646387 0.0375372
0.0413519 0.699702 0.0491035
0.0941482 0.717754 0.0476234
0.207233 0.733639 0.0466468
0.3944 0.777127 0.0446632
0.559197 0.798932 0.0441596
0.692882 0.816205 0.0438697
0.769253 0.83714 0.0434424
0.826078 0.824506 0.043473
0.849409 0.770092 0.0442054
0.0291447 0.857725 0.0500649
0.0439307 0.86595 0.0509499
0.149218 0.88072 0.0514992
0.334127 0.892592 0.0499123
0.518578 0.901076 0.047837
0.652781 0.905913 0.0467079
0.745892 0.910414 0.0458686
0.798154 0.926497 0.0451972
0.820127 0.909911 0.0451362
0.0183566 0.057557 0.0978714
0.0434424 0.0600748 0.105913
0.0936141 0.065156 0.101045
0.196841 0.0698863 0.0906233
0.350378 0.0839399 0.106783
0.508888 0.0937057 0.138369
0.636301 0.103731 0.168353
0.75967 0.11841 0.191196
0.855924 0.138399 0.209277
0.0184024 0.0954147 0.107256
0.0388495 0.0983902 0.111162
0.0906539 0.111574 0.109483
0.218128 0.119875 0.0908675
0.387823 0.127245 0.104784
0.5523 0.133562 0.144411
0.689677 0.147173 0.174136
0.806622 0.166827 0.195926
0.874723 0.191699 0.208957
0.0169528 0.177188 0.0915084
0.0325628 0.194491 0.0968338
0.0998245 0.191165 0.105867
0.263249 0.186633 0.0721447
0.458305 0.202457 0.0888533
0.628946 0.220325 0.120424
0.762097 0.243244 0.139391
0.854337 0.269902 0.15227
0.89424 0.295384 0.160021
0.0162509 0.277653 0.0740673
0.03093 0.297963 0.0790112
0.104662 0.318059 0.0851148
0.284474 0.303441 0.0831769
0.557321 0.283619 0.0765087
0.722744 0.308797 0.0975814
0.827024 0.341253 0.101411
0.887282 0.384985 0.0900587
0.907668 0.418738 0.0744182
0.0168765 0.380056 0.0852216
0.0321508 0.40589 0.0717632
0.123369 0.436377 0.0735637
0.324224 0.458228 0.0629129
0.572168 0.443534 0.0602884
0.762737 0.423346 0.0536355
0.856336 0.441138 0.0575113
0.894133 0.478874 0.0577554
0.902983 0.504387 0.0572366
0.0195163 0.481865 0.0975509
0.0504311 0.516152 0.0728466
0.159457 0.532113 0.0939345
0.354147 0.564462 0.0930648
0.557702 0.612131 0.0659342
0.739178 0.599603 0.0653697
0.843305 0.572351 0.0572518
0.885267 0.564141 0.0537728
0.893553 0.570565 0.0531167
0.0340124 0.569818 0.133516
0.080354 0.5897 0.118257
0.202396 0.608499 0.125078
0.390509 0.648539 0.111711
0.576699 0.704921 0.0690471
0.703731 0.737408 0.0681926
0.804822 0.722728 0.0677195
0.86067 0.679744 0.0681773
0.876661 0.649927 0.0606394
0.0267948 0.701015 0.112749
0.0780346 0.737224 0.0739605
0.195727 0.739162 0.0724193
0.383902 0.76849 0.0698558
0.556939 0.803861 0.0683909
0.690715 0.817975 0.0678111
0.766201 0.835492 0.0676738
0.824704 0.823514 0.0674907
0.847486 0.7729 0.0661936
0.0292668 0.86569 0.0674449
0.0387121 0.870176 0.0672618
0.142535 0.879774 0.0669261
0.325277 0.893751 0.0645609
0.514031 0.903868 0.0623178
0.652293 0.909178 0.0624552
0.74522 0.912947 0.0636149
0.797162 0.927275 0.0647135
0.818753 0.913664 0.064683
0.0179599 0.0848554 0.169741
0.0383764 0.0839704 0.169833
0.107713 0.0889143 0.17908
0.221592 0.088838 0.163088
0.39057 0.086305 0.162036
0.527108 0.0971237 0.183215
0.650706 0.109529 0.207355
0.763516 0.123445 0.228397
0.849104 0.141283 0.245014
0.0179904 0.111864 0.17116
0.0373846 0.122606 0.183429
0.108492 0.126818 0.192554
0.240406 0.124453 0.175006
0.434607 0.121767 0.17612
0.576364 0.135058 0.195117
0.702144 0.150423 0.219074
0.804288 0.167407 0.239765
0.864866 0.187106 0.254047
0.0167849 0.177295 0.18938
0.0314031 0.192569 0.203113
0.0895705 0.204532 0.222919
0.242771 0.216571 0.204318
0.464042 0.19556 0.192386
0.631846 0.196292 0.193927
0.749844 0.216327 0.206897
0.841047 0.24416 0.216831
0.883757 0.272984 0.219547
0.0163272 0.307607 0.196567
0.0310063 0.313176 0.189181
0.066392 0.345098 0.172137
0.270771 0.329915 0.187747
0.534676 0.306554 0.135424
0.705119 0.329976 0.130846
0.808576 0.361593 0.138293
0.874632 0.400504 0.128206
0.900389 0.433661 0.12546
0.0169375 0.393805 0.183764
0.0315251 0.395575 0.17499
0.0867933 0.454765 0.14107
0.307881 0.472465 0.175158
0.553841 0.468193 0.116686
0.750195 0.441733 0.0903944
0.844221 0.458167 0.09337
0.88484 0.495521 0.0934615
0.89781 0.521401 0.0914015
0.0193332 0.464302 0.209628
0.0339208 0.472953 0.202564
0.121523 0.545632 0.162982
0.333486 0.569436 0.198535
0.554437 0.62414 0.106004
0.729885 0.611658 0.100374
0.83444 0.577157 0.09337
0.880385 0.569772 0.0886854
0.888334 0.586023 0.0867781
0.0236362 0.523003 0.259144
0.0414435 0.549355 0.241413
0.159014 0.616846 0.196643
0.365972 0.644343 0.209323
0.561212 0.708141 0.146456
0.697292 0.739284 0.102861
0.800763 0.721675 0.102266
0.857603 0.677913 0.101747
0.873213 0.655055 0.0941634
0.0260319 0.665003 0.237949
0.0391852 0.696727 0.215549
0.135439 0.791684 0.122316
0.361975 0.776303 0.138064
0.542504 0.803265 0.126482
0.682567 0.819821 0.104829
0.761181 0.832975 0.101259
0.823026 0.821012 0.101167
0.84506 0.774701 0.0991531
0.0292363 0.866255 0.0977951
0.0373541 0.875013 0.0971847
0.10724 0.887266 0.0963607
0.30457 0.894774 0.0941939
0.499916 0.909102 0.0919814
0.64535 0.915892 0.0925917
0.742428 0.918257 0.0947738
0.794827 0.928634 0.0972457
0.81619 0.918517 0.103365
0.0172732 0.124102 0.265217
0.0349584 0.122408 0.26302
0.0827955 0.122316 0.275334
0.247868 0.128588 0.260639
0.428046 0.123049 0.253117
0.58999 0.12604 0.263996
0.708202 0.134478 0.277348
0.797848 0.143389 0.284459
0.854154 0.158373 0.281971
0.0173495 0.151293 0.269017
0.0319219 0.157488 0.276829
0.0827192 0.158816 0.286748
0.267918 0.166979 0.274556
0.46482 0.161379 0.270329
0.633005 0.1682 0.285084
0.747036 0.183703 0.303761
0.823331 0.198566 0.315099
0.860044 0.218326 0.32079
0.0164034 0.194232 0.272221
0.0305943 0.213855 0.293492
0.0694285 0.234806 0.32401
0.277028 0.239658 0.31606
0.488685 0.231373 0.308965
0.652964 0.234516 0.318746
0.76109 0.247089 0.332494
0.832563 0.261128 0.340887
0.858595 0.285389 0.35227
0.016144 0.298344 0.314961
0.0308232 0.32459 0.337865
0.0486152 0.352911 0.367422
0.217914 0.366735 0.388571
0.455756 0.367041 0.376761
0.637964 0.365789 0.377859
0.757702 0.374228 0.381216
0.833249 0.392569 0.38201
0.861814 0.414664 0.381369
0.0169375 0.463279 0.382284
0.0315099 0.486793 0.396048
0.0489204 0.479515 0.369924
0.201755 0.498405 0.322988
0.496849 0.509285 0.331319
0.698283 0.486198 0.326665
0.794812 0.514061 0.336416
0.847654 0.542657 0.337896
0.869154 0.561532 0.327474
0.0192111 0.569192 0.412131
0.0336919 0.560388 0.395499
0.0534981 0.542565 0.364813
0.254078 0.590936 0.317006
0.518044 0.635325 0.32369
0.694377 0.632563 0.286473
0.805997 0.598367 0.2804
0.855924 0.601541 0.262257
0.869612 0.61973 0.255558
0.02327 0.627192 0.436774
0.0370489 0.609888 0.416068
0.0652628 0.59733 0.384131
0.294789 0.659846 0.324163
0.52105 0.701442 0.342306
0.677668 0.74728 0.299031
0.783261 0.730648 0.230549
0.845487 0.684367 0.218662
0.860334 0.676875 0.227008
0.0253147 0.732876 0.420752
0.0382849 0.730556 0.399008
0.0540627 0.71989 0.343511
0.268681 0.805371 0.263386
0.506523 0.801389 0.302586
0.657526 0.823102 0.313832
0.748211 0.838087 0.287221
0.818814 0.81883 0.14696
0.833783 0.776822 0.267277
0.0282292 0.875868 0.318364
0.036286 0.876341 0.283925
0.0504616 0.88542 0.20734
0.216831 0.943465 0.138857
0.468452 0.935866 0.164797
0.624704 0.925841 0.239826
0.728817 0.926665 0.268437
0.785809 0.933776 0.292378
0.806821 0.923079 0.291554
0.0165255 0.166629 0.36199
0.0293126 0.16466 0.358846
0.0738384 0.158099 0.355581
0.217929 0.166949 0.360998
0.459617 0.161929 0.327413
0.613809 0.156207 0.329397
0.718212 0.166064 0.342489
0.795956 0.183291 0.356634
0.842069 0.206912 0.369635
0.0167239 0.1935 0.366964
0.0299535 0.198352 0.372732
0.0742199 0.195987 0.371359
0.234821 0.205997 0.376379
0.496315 0.200992 0.342519
0.654734 0.200961 0.350164
0.752514 0.217243 0.3673
0.816999 0.240955 0.385321
0.837537 0.277317 0.426108
0.016144 0.230213 0.365057
0.0304417 0.245701 0.383413
0.0590677 0.270146 0.419348
0.225345 0.262913 0.429679
0.512001 0.269718 0.383169
0.664897 0.26952 0.39057
0.75964 0.288258 0.409857
0.815778 0.312291 0.438605
0.830961 0.347936 0.477562
0.0160525 0.308644 0.397528
0.0307012 0.335561 0.426596
0.0482948 0.363882 0.462531
0.170703 0.38265 0.498436
0.473121 0.385931 0.462715
0.638361 0.389838 0.472221
0.741558 0.404074 0.495354
0.807477 0.409979 0.501091
0.828855 0.433753 0.519402
0.0165713 0.432395 0.461616
0.03122 0.460212 0.486427
0.0488289 0.492103 0.517189
0.126192 0.52488 0.556725
0.434653 0.535637 0.559701
0.614115 0.549996 0.567941
0.733516 0.560037 0.577539
0.804074 0.56173 0.570214
0.833341 0.560342 0.55407
0.0192111 0.58526 0.544503
0.033753 0.612833 0.563272
0.0512703 0.644465 0.587655
0.0883955 0.641947 0.575113
0.430228 0.638605 0.531441
0.642741 0.662882 0.515846
0.758343 0.648386 0.530251
0.814374 0.66421 0.529244
0.839002 0.673899 0.513848
0.0233463 0.722148 0.637476
0.0370184 0.735531 0.647669
0.0536507 0.714961 0.612238
0.123568 0.674922 0.544503
0.451682 0.704051 0.507851
0.645212 0.748882 0.511162
0.747982 0.753155 0.475227
0.817533 0.714946 0.477958
0.834684 0.724315 0.471702
0.0250401 0.817655 0.665965
0.0378271 0.80798 0.624247
0.0531472 0.788205 0.56022
0.0931563 0.792081 0.493111
0.427466 0.820706 0.44152
0.625162 0.821851 0.487922
0.734005 0.844602 0.490852
0.796872 0.831083 0.409949
0.818006 0.794293 0.470436
0.0274052 0.904005 0.528618
0.0352483 0.903304 0.507439
0.0493324 0.90396 0.47628
0.0677653 0.906462 0.386328
0.365957 0.967147 0.331716
0.588708 0.944823 0.399832
0.711742 0.934539 0.455924
0.779919 0.940383 0.475731
0.800793 0.927153 0.455619
0.016083 0.200046 0.440848
0.0289311 0.198245 0.437552
0.0674144 0.190982 0.428107
0.18378 0.187869 0.441459
0.415244 0.203845 0.402182
0.636851 0.192935 0.377005
0.738567 0.201877 0.386023
0.794919 0.211627 0.402869
0.824231 0.24097 0.44921
0.0164187 0.227298 0.447089
0.0297551 0.231998 0.451911
0.0681926 0.228168 0.444038
0.197269 0.225635 0.458579
0.45069 0.243839 0.417014
0.675547 0.239857 0.397406
0.759472 0.255604 0.428565
0.803357 0.270573 0.457374
0.815274 0.317632 0.520409
0.0162051 0.265446 0.448539
0.0305486 0.27863 0.464988
0.0488136 0.297322 0.494545
0.174594 0.292821 0.500862
0.458778 0.314015 0.466773
0.672267 0.308553 0.460319
0.750805 0.328237 0.495781
0.795239 0.35317 0.532235
0.806546 0.400122 0.58941
0.0162203 0.336767 0.476295
0.0308843 0.362921 0.506539
0.0484627 0.385489 0.538079
0.148241 0.403464 0.581613
0.43859 0.402502 0.557916
0.640009 0.41944 0.559152
0.728206 0.439109 0.585412
0.782971 0.462272 0.617975
0.800702 0.4963 0.653544
0.0166629 0.432212 0.529915
0.031281 0.462608 0.56347
0.0489052 0.493919 0.602457
0.123629 0.517891 0.640848
0.383612 0.535012 0.671519
0.623026 0.55227 0.656184
0.715434 0.572976 0.669291
0.776333 0.579309 0.676875
0.802274 0.586053 0.677241
0.0191348 0.566064 0.618326
0.0336309 0.591424 0.641199
0.0510262 0.616648 0.667018
0.0763714 0.643046 0.698878
0.344213 0.663859 0.720317
0.60911 0.6748 0.705287
0.711086 0.685298 0.709209
0.777844 0.685008 0.707454
0.810376 0.678508 0.690776
0.0229801 0.689723 0.705058
0.0366064 0.709728 0.717601
0.0532235 0.731807 0.729427
0.0724193 0.756634 0.743008
0.299367 0.751522 0.72018
0.606806 0.746715 0.683131
0.727443 0.771389 0.669047
0.786679 0.764385 0.680507
0.810651 0.774945 0.67332
0.0244755 0.807248 0.770275
0.0373388 0.825284 0.777859
0.0529793 0.840513 0.783963
0.0716716 0.830518 0.731823
0.260975 0.824781 0.647715
0.581704 0.833982 0.618891
0.718975 0.844739 0.652064
0.782849 0.846189 0.60058
0.802319 0.825055 0.638132
0.0270085 0.928389 0.784298
0.0347448 0.928878 0.758495
0.0487373 0.928573 0.704921
0.0668498 0.922255 0.623255
0.154391 0.965118 0.526787
0.533883 0.958618 0.525872
0.69633 0.946746 0.582727
0.77615 0.945296 0.625162
0.798886 0.93547 0.605951
0.0159762 0.2262 0.503517
0.0288701 0.225055 0.499763
0.0621195 0.218509 0.487709
0.159365 0.217212 0.492805
0.397024 0.234974 0.464225
0.60531 0.225849 0.431571
0.732677 0.232578 0.451637
0.784253 0.248798 0.487907
0.80824 0.274281 0.52549
0.0164492 0.255253 0.511498
0.0299229 0.259922 0.516396
0.0619974 0.256306 0.50605
0.171771 0.256489 0.511772
0.433997 0.279164 0.483299
0.63679 0.275746 0.474586
0.747311 0.29305 0.513527
0.786908 0.322896 0.565835
0.800305 0.356588 0.60766
0.0164797 0.294423 0.515908
0.0309606 0.307012 0.532677
0.0492256 0.322377 0.55993
0.158816 0.320119 0.556023
0.441764 0.342489 0.539696
0.630045 0.352056 0.552575
0.74052 0.370626 0.593652
0.783337 0.39263 0.632975
0.79675 0.427008 0.670741
0.0166171 0.363394 0.543648
0.031281 0.389715 0.57641
0.0488746 0.405676 0.601694
0.125353 0.42118 0.6477
0.402289 0.408225 0.652811
0.621363 0.436591 0.64625
0.735241 0.458305 0.676234
0.778805 0.482322 0.697871
0.79469 0.515404 0.730343
0.0170138 0.4542 0.599573
0.0316777 0.483406 0.635294
0.0493019 0.510094 0.670878
0.104753 0.530053 0.705211
0.350912 0.547921 0.751659
0.6056 0.546288 0.748913
0.729885 0.568597 0.747219
0.773449 0.590463 0.749355
0.793271 0.610788 0.766781
0.01944 0.566873 0.68336
0.033875 0.59707 0.716426
0.051194 0.618997 0.742092
0.0767529 0.631098 0.762249
0.331212 0.644068 0.781262
0.579858 0.667506 0.7888
0.717189 0.679637 0.785473
0.768261 0.690532 0.785901
0.792706 0.692805 0.781476
0.0230716 0.679698 0.762783
0.0365606 0.695567 0.775876
0.0530556 0.710262 0.787839
0.0722515 0.72604 0.803128
0.28336 0.74432 0.818204
0.552331 0.763912 0.819425
0.711528 0.777493 0.80885
0.770291 0.782193 0.809628
0.795224 0.7776 0.797559
0.0242466 0.780011 0.824491
0.0370489 0.794308 0.831083
0.0526284 0.810361 0.836286
0.0713512 0.83006 0.840101
0.173465 0.849165 0.839811
0.476448 0.848844 0.791196
0.702647 0.851469 0.775738
0.778546 0.858183 0.761715
0.798291 0.855985 0.779156
0.0264744 0.89453 0.863172
0.0344091 0.904707 0.865934
0.0486152 0.923873 0.871183
0.0670634 0.937484 0.843488
0.0979324 0.934997 0.761654
0.389776 0.962798 0.672221
0.667842 0.960876 0.691783
0.772122 0.951293 0.744671
0.798703 0.947097 0.73698
0.0158846 0.256947 0.571206
0.028809 0.255604 0.567056
0.0536812 0.24918 0.553094
0.145602 0.241978 0.541314
0.380926 0.266697 0.527947
0.567971 0.265568 0.519066
0.697627 0.277134 0.548302
0.769772 0.300435 0.598535
0.793027 0.331258 0.649989
0.0165408 0.286671 0.581643
0.0300908 0.291752 0.587747
0.0530709 0.288975 0.575326
0.156603 0.283452 0.563699
0.418158 0.314031 0.55819
0.600458 0.325277 0.580346
0.719478 0.34168 0.622827
0.779782 0.364065 0.684108
0.793423 0.40058 0.734417
0.016907 0.327108 0.59115
0.0314641 0.339818 0.609766
0.0491493 0.353964 0.63711
0.145922 0.35169 0.624262
0.432288 0.354513 0.643336
0.615518 0.380667 0.656428
0.729885 0.398032 0.695735
0.784909 0.417548 0.755566
0.794858 0.458427 0.793667
0.0171054 0.393515 0.618555
0.031754 0.418524 0.652506
0.0493324 0.429343 0.673396
0.100832 0.44242 0.717571
0.33167 0.423575 0.731273
0.609384 0.443503 0.763134
0.731304 0.466468 0.776089
0.785504 0.488823 0.8168
0.795392 0.529931 0.827497
0.0174716 0.48188 0.678386
0.0321202 0.51162 0.716655
0.0496986 0.534905 0.748425
0.0759747 0.54493 0.769711
0.303517 0.559915 0.821515
0.544305 0.547738 0.823468
0.721782 0.564767 0.846235
0.783032 0.580285 0.8533
0.794568 0.614603 0.843656
0.0198062 0.582498 0.755505
0.0341344 0.609751 0.787137
0.0513161 0.627192 0.808301
0.0716564 0.635233 0.822416
0.286412 0.644556 0.841703
0.534951 0.665141 0.866361
0.700526 0.668421 0.866377
0.777234 0.675074 0.868421
0.793759 0.695796 0.859388
0.0231022 0.679667 0.829557
0.0364691 0.698634 0.848249
0.0528878 0.709224 0.858564
0.0719005 0.711925 0.86273
0.265644 0.716609 0.869291
0.519753 0.738994 0.880354
0.694408 0.767361 0.883482
0.772625 0.772503 0.887388
0.79379 0.77818 0.882292
0.024094 0.767727 0.878187
0.03682 0.779019 0.885344
0.0523384 0.788571 0.889204
0.0709697 0.798505 0.894133
0.180179 0.810987 0.90045
0.465339 0.82916 0.906004
0.673381 0.848936 0.907668
0.770947 0.865827 0.903197
0.796338 0.868376 0.902647
0.0261692 0.861219 0.917021
0.0339666 0.869078 0.919615
0.0482185 0.88484 0.925399
0.0666819 0.903456 0.927199
0.0870985 0.926116 0.92784
0.333501 0.942443 0.911467
0.581018 0.961486 0.860105
0.7664 0.964675 0.862287
0.798321 0.958312 0.870466
0.0155032 0.300465 0.665949
0.0284123 0.299886 0.661051
0.0443732 0.293416 0.643351
0.129396 0.283192 0.618814
0.348287 0.294621 0.630808
0.540246 0.31725 0.650233
0.669169 0.330297 0.684901
0.758038 0.344091 0.73637
0.79202 0.374334 0.814267
0.0164187 0.331807 0.680079
0.030045 0.337179 0.686915
0.0469215 0.334829 0.671611
0.140764 0.327855 0.646815
0.379675 0.334966 0.688685
0.595743 0.360647 0.720043
0.714519 0.376745 0.763622
0.779324 0.389563 0.816754
0.795621 0.42649 0.874464
0.0173037 0.374258 0.699413
0.0318456 0.385214 0.71751
0.0489815 0.397879 0.743358
0.129534 0.394568 0.727535
0.335958 0.373281 0.753033
0.611139 0.396597 0.810651
0.732082 0.414618 0.833265
0.785611 0.431998 0.875853
0.797559 0.473426 0.914366
0.0175479 0.430762 0.716747
0.032105 0.45481 0.750683
0.0495155 0.461234 0.766598
0.0775464 0.477653 0.81239
0.278325 0.466072 0.834714
0.527337 0.457542 0.86595
0.713924 0.481209 0.908141
0.784268 0.497169 0.930983
0.798138 0.538125 0.950393
0.0178836 0.520806 0.780774
0.0324407 0.548379 0.815518
0.049836 0.566339 0.841123
0.0700694 0.565835 0.849515
0.251423 0.579355 0.902037
0.477058 0.557488 0.916426
0.672709 0.571176 0.936233
0.776699 0.584604 0.963424
0.797711 0.610071 0.971267
0.0200351 0.610636 0.846464
0.034226 0.633219 0.8719
0.0510414 0.647196 0.889403
0.070573 0.65182 0.899474
0.233677 0.650996 0.911223
0.476997 0.668223 0.949386
0.652766 0.663188 0.942
0.766934 0.669596 0.969497
0.79704 0.680812 0.978103
0.0229191 0.687953 0.898238
0.0361791 0.703975 0.915312
0.0523537 0.712932 0.925353
0.0712749 0.71429 0.929732
0.21709 0.716045 0.935409
0.462684 0.730312 0.950149
0.660182 0.758541 0.967025
0.761654 0.760281 0.97081
0.796735 0.758175 0.984817
0.0236667 0.758984 0.937987
0.0363317 0.77261 0.949554
0.0516365 0.780865 0.957198
0.0702068 0.781659 0.959075
0.169482 0.782422 0.959838
0.435767 0.796109 0.967727
0.644511 0.824277 0.978088
0.765469 0.858351 0.982605
0.796216 0.85658 0.994492
0.0260624 0.84152 0.97528
0.0334478 0.84773 0.979065
0.0475929 0.857191 0.984634
0.0660258 0.867185 0.987823
0.0865187 0.878141 0.990478
0.339529 0.894057 0.995438
0.591623 0.915557 0.998581
0.754162 0.940169 0.999084
0.79704 0.96347 0.998383
