All_In_One/addons/Enrich_Colormaster/colormanagement/luts/film_response/Thriller.cube
#Created by: Denver Riddle
#Copyright: (C) Copyright Color Grading Central LLC
#LUT Size
LUT_3D_SIZE 33
0.0184634 0.044358 0.0542611
0.0214542 0.0457771 0.0551919
0.0249332 0.0478523 0.0561685
0.0314183 0.0502327 0.0570077
0.0393378 0.0528725 0.0578164
0.0486 0.0554208 0.0584878
0.0592508 0.059205 0.0590829
0.073518 0.0630045 0.0597086
0.090547 0.0675212 0.0598154
0.111315 0.0709087 0.0592813
0.136599 0.0736095 0.0587778
0.167056 0.0753033 0.05832
0.201068 0.0768444 0.0582132
0.238697 0.0786297 0.0592966
0.274098 0.0833906 0.0614481
0.313695 0.0873121 0.0664073
0.356115 0.0895247 0.0737469
0.398795 0.090898 0.0820172
0.439994 0.0924392 0.0905013
0.478492 0.0941176 0.0987259
0.514824 0.0959029 0.106844
0.548898 0.0977646 0.114733
0.581415 0.100023 0.122087
0.613062 0.102266 0.129107
0.64419 0.104753 0.135943
0.674662 0.107347 0.142672
0.704982 0.110384 0.14902
0.735409 0.114031 0.154665
0.765835 0.117998 0.160052
0.795102 0.122438 0.165209
0.821591 0.127169 0.169772
0.84387 0.132692 0.173968
0.861692 0.13846 0.177096
0.0185092 0.0550546 0.0542916
0.021561 0.0554055 0.0555581
0.0250553 0.0562905 0.0559854
0.0315862 0.0583352 0.0570535
0.0393378 0.0607462 0.0580911
0.0487526 0.0626841 0.0586557
0.0594034 0.0652476 0.0591592
0.0736248 0.0681621 0.0590372
0.0910353 0.0717784 0.0590829
0.111818 0.0761273 0.0586252
0.137407 0.0794995 0.0579843
0.167987 0.0813764 0.0575723
0.202502 0.082826 0.0576333
0.240635 0.084947 0.0588693
0.276143 0.0898146 0.0612345
0.316182 0.0937362 0.0665599
0.359136 0.0959487 0.0741894
0.40235 0.0973983 0.0827649
0.444053 0.0990616 0.0914778
0.483207 0.101045 0.100069
0.519692 0.102968 0.108431
0.554223 0.104845 0.116579
0.58735 0.107362 0.124071
0.619501 0.109804 0.131182
0.651194 0.112505 0.138323
0.682307 0.115389 0.14519
0.713085 0.118822 0.151415
0.743709 0.122805 0.157
0.773831 0.127031 0.162448
0.802274 0.131716 0.16762
0.828046 0.136812 0.172427
0.849317 0.142641 0.176562
0.86569 0.148455 0.179751
0.018555 0.0673075 0.0545815
0.0216373 0.0674601 0.0562295
0.0248875 0.0675517 0.0570993
0.0321508 0.0672007 0.0563821
0.0396735 0.0698405 0.057145
0.0492256 0.0724804 0.0576638
0.0597238 0.0758068 0.0591287
0.0723278 0.0783246 0.0593881
0.0907912 0.0799573 0.0588388
0.112688 0.0822003 0.057908
0.138994 0.0848402 0.0574807
0.170077 0.0877089 0.0570077
0.205432 0.0893568 0.0573434
0.243397 0.091783 0.058854
0.279042 0.0962997 0.0618143
0.319753 0.0995499 0.068101
0.362875 0.101778 0.0761578
0.406989 0.103899 0.0847334
0.449729 0.10602 0.093492
0.489067 0.108217 0.102022
0.52604 0.110445 0.110521
0.561273 0.112642 0.118975
0.595224 0.11548 0.126497
0.628443 0.118318 0.133791
0.660487 0.121386 0.140795
0.692195 0.124865 0.147265
0.723369 0.128786 0.15314
0.754009 0.133135 0.158694
0.783948 0.137819 0.164157
0.811704 0.142992 0.16936
0.836179 0.148516 0.173938
0.856168 0.154589 0.177584
0.870604 0.161212 0.180621
0.018555 0.0804761 0.0547341
0.0216373 0.0806439 0.0563058
0.0252995 0.0812085 0.0577707
0.0313878 0.0813153 0.0583047
0.0398108 0.0809033 0.0554513
0.0507515 0.08159 0.055436
0.0611582 0.0850538 0.0573739
0.0733806 0.0893416 0.0581826
0.0892958 0.0925917 0.0587167
0.113344 0.093019 0.0572824
0.141726 0.0935988 0.0564431
0.17435 0.0946365 0.056733
0.210575 0.0961929 0.0575875
0.247486 0.0985733 0.0598917
0.284291 0.102571 0.0640879
0.325917 0.10573 0.0710002
0.370657 0.108415 0.079118
0.415167 0.111147 0.0876936
0.457984 0.11371 0.0963912
0.497917 0.116426 0.104845
0.535515 0.119097 0.113207
0.571511 0.121828 0.121355
0.606455 0.125231 0.128878
0.640238 0.128557 0.135836
0.673152 0.132403 0.142107
0.705425 0.136568 0.148043
0.736706 0.140917 0.15375
0.766796 0.145541 0.159304
0.79585 0.150729 0.164752
0.822232 0.156252 0.16968
0.845273 0.162188 0.174044
0.863249 0.168841 0.177493
0.875898 0.175875 0.180331
0.0184787 0.0952621 0.0545205
0.021561 0.095552 0.0559396
0.0249638 0.098146 0.0573739
0.0309911 0.0987564 0.0588388
0.0377966 0.0991531 0.0588235
0.0505531 0.0952621 0.0547341
0.0630655 0.0947585 0.0546426
0.0758679 0.0989242 0.0556497
0.0911116 0.103731 0.0561074
0.113603 0.10724 0.0560311
0.14406 0.107744 0.0543221
0.179309 0.106554 0.0543069
0.21709 0.106081 0.0564279
0.255116 0.108507 0.0596323
0.293523 0.112261 0.0646982
0.336812 0.115404 0.0726177
0.381872 0.118227 0.0809491
0.427115 0.121141 0.0894789
0.470329 0.124117 0.0982223
0.510582 0.127031 0.106859
0.548592 0.130159 0.115053
0.585626 0.133913 0.122698
0.621271 0.137758 0.129412
0.655909 0.142 0.135729
0.689158 0.146395 0.141634
0.72137 0.150912 0.147433
0.752682 0.155779 0.153094
0.78175 0.160861 0.158373
0.808911 0.166461 0.163394
0.833417 0.172412 0.167895
0.85481 0.178744 0.172076
0.870253 0.185748 0.175326
0.880293 0.192279 0.177508
0.018265 0.112078 0.0540475
0.0213931 0.112764 0.0549325
0.0246891 0.116732 0.0554665
0.0300755 0.11899 0.055848
0.0377813 0.118654 0.0571145
0.0473487 0.116793 0.0572213
0.0629282 0.111406 0.0546426
0.0780499 0.11075 0.0533913
0.0950484 0.114992 0.0523842
0.117525 0.119432 0.0520027
0.147936 0.123354 0.0508736
0.184161 0.124514 0.0493782
0.224872 0.124743 0.0501106
0.266804 0.126452 0.0539712
0.306569 0.129274 0.0603037
0.351247 0.131487 0.0694438
0.397391 0.133654 0.0789044
0.443381 0.136385 0.0881819
0.487098 0.139406 0.0972305
0.528237 0.142687 0.105867
0.566873 0.146288 0.113664
0.604318 0.150515 0.120653
0.640497 0.154864 0.127092
0.674968 0.159335 0.13312
0.708125 0.164126 0.138888
0.740185 0.169329 0.144411
0.770184 0.17464 0.149569
0.798047 0.180301 0.154406
0.823209 0.186313 0.158968
0.845487 0.192599 0.163119
0.864027 0.199176 0.166964
0.87747 0.206668 0.169986
0.88481 0.211948 0.171557
0.0178836 0.130587 0.0527504
0.0211795 0.131746 0.0531777
0.0244297 0.136706 0.0523079
0.0292363 0.140795 0.0512398
0.0370336 0.1402 0.0525216
0.0470741 0.139223 0.0553902
0.059968 0.136446 0.0577249
0.0785687 0.130053 0.0524605
0.097734 0.128618 0.0501869
0.122393 0.132753 0.0480964
0.155825 0.136263 0.0458076
0.194507 0.13991 0.0424659
0.23537 0.143709 0.0424353
0.279362 0.147021 0.045716
0.320745 0.150698 0.0514534
0.36759 0.15375 0.0610208
0.415442 0.155749 0.0716106
0.462593 0.157855 0.0820935
0.506828 0.160388 0.0920119
0.54789 0.163424 0.100923
0.587076 0.167208 0.108614
0.624964 0.171557 0.115419
0.661372 0.176272 0.121706
0.696239 0.181613 0.127169
0.729686 0.187442 0.132372
0.760571 0.193164 0.137255
0.789075 0.198962 0.141878
0.814847 0.205127 0.146258
0.837766 0.211475 0.150317
0.857816 0.218143 0.154101
0.873549 0.224811 0.157641
0.884184 0.231922 0.160266
0.889754 0.236255 0.161746
0.0173648 0.150927 0.0504921
0.020737 0.152743 0.0505074
0.0240635 0.158495 0.0487678
0.0281224 0.164004 0.0461433
0.0357366 0.164065 0.0470893
0.0467842 0.164019 0.0500343
0.0608377 0.162112 0.057084
0.0762798 0.157687 0.0588998
0.0984665 0.150774 0.0505837
0.124208 0.148852 0.0467994
0.162539 0.151705 0.0417487
0.206867 0.155276 0.0367742
0.250278 0.159625 0.0371862
0.29279 0.164736 0.0408179
0.337957 0.169116 0.0476387
0.385382 0.173114 0.0558785
0.433921 0.176715 0.065568
0.481758 0.179782 0.0757153
0.526192 0.18294 0.0853895
0.568032 0.18703 0.0935988
0.608087 0.191913 0.100404
0.646845 0.197162 0.106477
0.683925 0.203098 0.11194
0.718273 0.209033 0.116869
0.75053 0.21532 0.121538
0.780179 0.221653 0.125795
0.806958 0.228305 0.129534
0.830564 0.235325 0.132876
0.851499 0.242573 0.136034
0.868894 0.249516 0.139162
0.881895 0.256092 0.142351
0.890639 0.26276 0.144976
0.895171 0.266789 0.146242
0.0167849 0.173327 0.0479591
0.0202335 0.175906 0.0477455
0.023621 0.181537 0.0456703
0.0270848 0.188037 0.0420996
0.0340429 0.190509 0.0416266
0.0455024 0.191272 0.044831
0.0605173 0.189975 0.0517586
0.0766613 0.185595 0.0630961
0.0978561 0.182727 0.0558938
0.124681 0.174075 0.0493935
0.16347 0.171115 0.0420233
0.214069 0.172824 0.0337072
0.261784 0.177157 0.0341955
0.310491 0.181613 0.0396887
0.360739 0.186007 0.0474708
0.41033 0.190036 0.0565652
0.459174 0.193927 0.0662394
0.505348 0.197757 0.0751049
0.548699 0.202792 0.082536
0.58999 0.208682 0.0886244
0.629908 0.214801 0.0940719
0.668742 0.221286 0.0991989
0.704662 0.228 0.103441
0.738094 0.234821 0.107454
0.769207 0.24181 0.111208
0.797528 0.249317 0.114229
0.822263 0.257343 0.116396
0.843992 0.266117 0.117968
0.862791 0.274968 0.119112
0.878187 0.283986 0.119997
0.889311 0.292424 0.121157
0.89662 0.299992 0.121889
0.899977 0.30338 0.122026
0.0162661 0.197894 0.0455177
0.0196841 0.200259 0.0457465
0.0231785 0.205509 0.0441596
0.0267185 0.212406 0.0408179
0.031754 0.218738 0.0369268
0.0433356 0.220127 0.039704
0.0589914 0.220554 0.0454108
0.0776074 0.215656 0.0579232
0.0975967 0.211963 0.0670939
0.126513 0.20853 0.0509041
0.162173 0.199527 0.0460059
0.21413 0.19411 0.0360113
0.269078 0.195697 0.0319829
0.327047 0.199344 0.0379644
0.383429 0.203357 0.047364
0.43592 0.207172 0.0571756
0.48542 0.211749 0.0662699
0.532845 0.216709 0.0748608
0.576471 0.222538 0.0814527
0.617548 0.228809 0.0868238
0.656992 0.235218 0.091783
0.693751 0.241642 0.0962081
0.728222 0.248569 0.100084
0.759106 0.255894 0.102922
0.787518 0.263584 0.105364
0.813184 0.272038 0.107012
0.835859 0.281315 0.10779
0.855299 0.291035 0.107774
0.871931 0.301488 0.106859
0.885222 0.312581 0.105364
0.895064 0.324208 0.102892
0.901183 0.333455 0.100649
0.903532 0.335058 0.100954
0.0157778 0.222904 0.0442664
0.0193332 0.225238 0.0449378
0.0229038 0.230503 0.0433356
0.0264744 0.23711 0.040177
0.0305791 0.245441 0.0341802
0.0414893 0.250263 0.0339361
0.0576333 0.251911 0.0390478
0.0775616 0.247471 0.0513771
0.100084 0.241016 0.0659037
0.129396 0.243732 0.0605936
0.163973 0.235142 0.0518502
0.211093 0.22533 0.0421454
0.271687 0.218738 0.0332036
0.334661 0.21857 0.0336309
0.396826 0.221378 0.0437781
0.456947 0.226047 0.0549325
0.510903 0.231205 0.0647288
0.558694 0.237049 0.0723125
0.602655 0.243351 0.078233
0.643519 0.249928 0.0832532
0.681056 0.256306 0.087602
0.715969 0.26273 0.091371
0.748302 0.269673 0.0946822
0.777569 0.277241 0.0973068
0.803876 0.285359 0.0990463
0.827008 0.294224 0.0998093
0.847181 0.303655 0.099794
0.864759 0.313756 0.0991226
0.879499 0.32491 0.0973373
0.89099 0.337118 0.0944381
0.899397 0.350286 0.0899825
0.904418 0.359014 0.0868086
0.906203 0.359625 0.0875563
0.0155795 0.248234 0.0436713
0.0192111 0.250553 0.0445716
0.0228275 0.255512 0.0429847
0.0264591 0.262058 0.0398566
0.030518 0.270863 0.0333715
0.0413825 0.277058 0.0320592
0.0569924 0.28278 0.0331121
0.0777752 0.278813 0.0448157
0.10248 0.271794 0.0606394
0.135302 0.271122 0.058854
0.172564 0.273625 0.0501717
0.21091 0.259907 0.0541543
0.272694 0.249973 0.0408637
0.3393 0.242481 0.0312963
0.405844 0.242802 0.036286
0.468345 0.246372 0.0473945
0.52575 0.251118 0.0583963
0.578363 0.257557 0.0670329
0.625238 0.264195 0.0734112
0.666163 0.270573 0.0784924
0.702937 0.27718 0.0826276
0.736721 0.284123 0.085893
0.766766 0.291371 0.088304
0.79382 0.299596 0.0898756
0.817609 0.308049 0.0907912
0.838605 0.317082 0.090959
0.857008 0.32668 0.0904555
0.872755 0.337148 0.0889754
0.885512 0.348898 0.0861524
0.895384 0.361837 0.0820935
0.902922 0.375448 0.0768444
0.907073 0.382773 0.0741588
0.908675 0.383261 0.074815
0.0156405 0.274022 0.0430304
0.0192874 0.276509 0.0438849
0.0229191 0.280568 0.043122
0.026566 0.287297 0.0395819
0.030808 0.296361 0.0325475
0.0423438 0.302373 0.0321355
0.0580758 0.308324 0.0327459
0.0785077 0.312215 0.0364691
0.105074 0.306371 0.0508736
0.136187 0.301228 0.0627909
0.18175 0.307134 0.0419165
0.22327 0.309773 0.0460517
0.271778 0.29218 0.0474708
0.342824 0.279637 0.0342107
0.414282 0.272358 0.0293126
0.479469 0.271229 0.0366674
0.538094 0.274052 0.0486458
0.591028 0.279072 0.0582437
0.639139 0.285344 0.0653544
0.682643 0.292088 0.0709239
0.721233 0.29897 0.0753338
0.755169 0.306157 0.078645
0.784268 0.313893 0.0808881
0.808667 0.32221 0.081651
0.829999 0.330785 0.0819257
0.848905 0.340047 0.0814374
0.865629 0.350286 0.0798962
0.879408 0.361227 0.0772717
0.890547 0.373404 0.0734417
0.898924 0.386465 0.0686198
0.905577 0.400504 0.0626841
0.90901 0.406806 0.0598917
0.910643 0.40737 0.0605325
0.0157626 0.30132 0.0418402
0.0194247 0.30367 0.042771
0.0230869 0.306508 0.0431525
0.0267338 0.312459 0.0402075
0.0310216 0.321675 0.0326543
0.0428016 0.327459 0.0322728
0.059205 0.3337 0.0328679
0.0810101 0.340246 0.0335088
0.108415 0.33962 0.0424811
0.140963 0.333928 0.0575265
0.186328 0.33994 0.0447852
0.231937 0.343359 0.0358892
0.279744 0.344961 0.0442664
0.344259 0.322972 0.0367437
0.420645 0.311162 0.030869
0.490455 0.304006 0.0280156
0.549661 0.301656 0.0352483
0.603037 0.304585 0.0448615
0.651225 0.309285 0.0533913
0.69427 0.314656 0.0602426
0.733028 0.321431 0.0650797
0.766613 0.329107 0.0681773
0.795651 0.336812 0.0704967
0.819959 0.345327 0.0712444
0.840604 0.354299 0.0711528
0.858061 0.363729 0.070222
0.872862 0.374121 0.0681315
0.884794 0.385092 0.0649882
0.894118 0.397253 0.0605173
0.901488 0.410819 0.0546426
0.907332 0.425422 0.047303
0.90988 0.431159 0.0426337
0.911452 0.431586 0.0441444
0.0159152 0.327779 0.0418402
0.0196078 0.33019 0.0428626
0.02327 0.333303 0.043122
0.0269169 0.337407 0.0410925
0.0312047 0.346654 0.0336156
0.0433204 0.352865 0.0323186
0.0624704 0.359457 0.0328527
0.0848096 0.367056 0.0333104
0.113085 0.37116 0.0383459
0.14757 0.366171 0.0532235
0.190036 0.369192 0.053315
0.24445 0.377539 0.0351568
0.292485 0.383047 0.0358892
0.347921 0.378897 0.0359655
0.424994 0.357015 0.0344091
0.496773 0.344884 0.0289006
0.558053 0.338476 0.0272984
0.613153 0.335531 0.0301518
0.662181 0.33698 0.0372015
0.705516 0.341512 0.0445563
0.743267 0.347219 0.050248
0.775814 0.353292 0.0548409
0.803693 0.360037 0.0578622
0.827085 0.368429 0.0586404
0.847211 0.377722 0.0583505
0.864454 0.387869 0.0571145
0.87837 0.398291 0.0547951
0.88896 0.409308 0.0513008
0.896803 0.421286 0.0467994
0.903136 0.434272 0.041062
0.907088 0.448447 0.0358892
0.908705 0.45388 0.0353857
0.910353 0.454047 0.0367742
0.0161135 0.353399 0.0437781
0.019791 0.355886 0.0450446
0.0234226 0.358495 0.0454566
0.027039 0.36257 0.0434577
0.031632 0.372793 0.0339361
0.0471199 0.379431 0.0323033
0.0667582 0.386313 0.032929
0.0895857 0.394614 0.0334325
0.119081 0.40058 0.0370794
0.155505 0.39704 0.0506905
0.196307 0.398062 0.0585641
0.251423 0.409567 0.0353704
0.306081 0.415885 0.0348058
0.36289 0.424216 0.0355535
0.422889 0.413443 0.0363775
0.498878 0.391455 0.0329747
0.563836 0.380987 0.0278477
0.620737 0.375128 0.026154
0.670802 0.372442 0.0271
0.713787 0.372412 0.0291752
0.751431 0.37525 0.0322576
0.783963 0.380804 0.0364385
0.810971 0.387427 0.0394751
0.833066 0.394568 0.0419318
0.852171 0.402472 0.0432441
0.868299 0.41146 0.0429999
0.881239 0.421759 0.0407721
0.891112 0.433051 0.0369879
0.898283 0.445075 0.0337224
0.903243 0.458167 0.0329442
0.905364 0.471519 0.0321508
0.906752 0.475456 0.0325322
0.908431 0.475319 0.0338598
0.0163272 0.377386 0.0487221
0.0199588 0.379477 0.0497749
0.0235599 0.382498 0.0488441
0.0274052 0.390036 0.0420539
0.0346532 0.400412 0.032166
0.0524147 0.4065 0.032578
0.071809 0.413489 0.0331579
0.0953689 0.42179 0.0336919
0.126207 0.427756 0.0372778
0.164065 0.425803 0.049485
0.205509 0.426551 0.0581064
0.258152 0.438346 0.0401465
0.317082 0.448402 0.0352331
0.370535 0.45481 0.0356603
0.432609 0.463111 0.0361486
0.491783 0.449317 0.036408
0.563119 0.429999 0.0327001
0.624811 0.41944 0.0275883
0.6757 0.414252 0.0255283
0.718761 0.411612 0.0255436
0.755886 0.410559 0.0265049
0.787945 0.411353 0.027924
0.814557 0.415961 0.0289769
0.836408 0.422736 0.0295872
0.855009 0.429999 0.0300298
0.870314 0.437751 0.030396
0.882231 0.445899 0.0307317
0.891188 0.455421 0.0309148
0.897673 0.467369 0.0307317
0.901808 0.480476 0.0303655
0.903288 0.491966 0.0300755
0.904662 0.494697 0.0309148
0.906355 0.494469 0.0321355
0.0166171 0.401312 0.0504005
0.020264 0.404013 0.0505989
0.0239567 0.410117 0.046067
0.028748 0.41944 0.0365911
0.0408026 0.427054 0.0323339
0.0581216 0.433021 0.0330663
0.077821 0.440208 0.0336461
0.102266 0.448341 0.0343023
0.134615 0.453605 0.0386358
0.173861 0.452811 0.0493782
0.216114 0.454429 0.0563058
0.265629 0.464683 0.0469368
0.325231 0.478599 0.0356146
0.383978 0.486427 0.0359808
0.436927 0.495216 0.0363928
0.495277 0.502403 0.0367285
0.552407 0.487892 0.0366674
0.619776 0.469886 0.033402
0.676387 0.459831 0.0284886
0.72137 0.455146 0.025803
0.75848 0.452354 0.0252842
0.790173 0.451438 0.0256046
0.815824 0.45127 0.026215
0.837018 0.453101 0.0269474
0.854902 0.457847 0.0275883
0.869612 0.464698 0.0280613
0.881056 0.47248 0.0284123
0.889632 0.480522 0.0286412
0.895994 0.489296 0.0287327
0.899886 0.500114 0.0287022
0.901122 0.510399 0.0289921
0.90248 0.512657 0.0298619
0.904219 0.512123 0.0309606
0.0172122 0.42945 0.0465858
0.0208438 0.433036 0.0455177
0.0251316 0.439994 0.0392615
0.0336309 0.447822 0.0333104
0.0480049 0.453117 0.0332647
0.0649882 0.459251 0.0339666
0.0848859 0.466804 0.0345312
0.110506 0.474678 0.0357671
0.145113 0.478508 0.0422522
0.184756 0.478965 0.0513313
0.226993 0.481102 0.0570382
0.275181 0.491142 0.0509346
0.332341 0.505867 0.0363012
0.393164 0.517586 0.0365606
0.446616 0.525689 0.0372015
0.497368 0.537728 0.0372778
0.551461 0.541344 0.0375525
0.608392 0.527031 0.0372778
0.667918 0.511498 0.0347906
0.717937 0.501595 0.0311131
0.757397 0.496422 0.0281376
0.789502 0.493828 0.026276
0.815366 0.491936 0.0257877
0.836179 0.49044 0.0259403
0.853651 0.489998 0.0263066
0.868132 0.492088 0.0267643
0.879347 0.497597 0.0271153
0.887495 0.504738 0.0273747
0.893736 0.512032 0.0275425
0.897505 0.52047 0.0276493
0.898711 0.528099 0.0283818
0.90013 0.529793 0.0292668
0.90193 0.529091 0.0301976
0.0180514 0.45861 0.0417334
0.0218204 0.463157 0.039704
0.0276799 0.469673 0.034638
0.0391546 0.475319 0.0337987
0.053666 0.481025 0.0346532
0.0706798 0.487892 0.0352789
0.0915847 0.495216 0.0364385
0.119738 0.500832 0.0408026
0.155581 0.502953 0.0485084
0.195911 0.504448 0.0558175
0.238895 0.507469 0.0595865
0.286717 0.517617 0.0528725
0.340764 0.531624 0.0383001
0.400839 0.546654 0.0375677
0.456641 0.556466 0.0381933
0.502052 0.565225 0.0382696
0.554131 0.578912 0.0382544
0.604349 0.578973 0.0383612
0.65658 0.565469 0.0384222
0.70837 0.552438 0.0366522
0.752148 0.542443 0.0337682
0.785168 0.535454 0.0309911
0.811704 0.532097 0.0286564
0.833066 0.528969 0.0271916
0.851026 0.526741 0.0265507
0.865522 0.524865 0.0265507
0.876722 0.525185 0.0267185
0.884962 0.528374 0.0269474
0.89099 0.534752 0.0271305
0.894621 0.541772 0.0272984
0.895872 0.54696 0.0281987
0.897612 0.546395 0.0290379
0.899489 0.545159 0.0297551
0.0191196 0.487388 0.0418097
0.0230869 0.492393 0.0387579
0.0304417 0.498558 0.0348516
0.0430762 0.503807 0.0356298
0.0581064 0.509987 0.0366064
0.0761578 0.51632 0.0381933
0.0993973 0.521691 0.0421454
0.129488 0.524544 0.0487831
0.166827 0.526665 0.0560159
0.208209 0.528969 0.0616922
0.251911 0.533486 0.0631266
0.299626 0.543633 0.0552377
0.351644 0.557137 0.0425574
0.408865 0.572839 0.0387732
0.464149 0.584955 0.0392157
0.512154 0.593561 0.0393988
0.555444 0.604379 0.0393072
0.606027 0.617746 0.0392615
0.648768 0.614359 0.0389868
0.696391 0.603174 0.039353
0.74081 0.590448 0.038407
0.777386 0.578882 0.0361486
0.80557 0.572061 0.0339513
0.82739 0.567956 0.031693
0.845655 0.563943 0.0298772
0.860777 0.560082 0.0285344
0.872679 0.556481 0.0276036
0.881437 0.554543 0.0272831
0.887678 0.557427 0.0273289
0.891218 0.5635 0.027512
0.892393 0.567544 0.0284428
0.894331 0.565972 0.0291905
0.896315 0.564401 0.0297551
0.0209812 0.514015 0.0450752
0.0261692 0.518074 0.0426642
0.0353246 0.52311 0.0410468
0.0485237 0.528389 0.0420233
0.0642557 0.534844 0.0431678
0.0835889 0.540413 0.045716
0.108446 0.543679 0.0513313
0.140475 0.546136 0.0581216
0.178882 0.549111 0.06392
0.221103 0.552422 0.0679942
0.265629 0.558129 0.0674449
0.312932 0.568215 0.0587472
0.3635 0.581567 0.0466011
0.41735 0.596887 0.0400549
0.471046 0.610697 0.0402075
0.520836 0.620752 0.0404822
0.560739 0.627756 0.0403754
0.605066 0.641718 0.0402075
0.648264 0.652461 0.0400549
0.686259 0.649805 0.0398413
0.725933 0.638911 0.0397345
0.765652 0.625147 0.0394141
0.797192 0.61384 0.0391394
0.819821 0.606729 0.0374456
0.838453 0.600855 0.0354162
0.85417 0.595621 0.0330358
0.866941 0.590448 0.0305638
0.876387 0.585412 0.0291905
0.88368 0.581369 0.0284428
0.887495 0.584161 0.0284123
0.888563 0.587976 0.0293278
0.890608 0.586038 0.0299229
0.892668 0.584161 0.0303807
0.0253452 0.535943 0.0518196
0.0322118 0.538582 0.051194
0.0428168 0.542626 0.0517281
0.0563821 0.548089 0.0530709
0.072343 0.554742 0.0538949
0.0921492 0.560006 0.0563363
0.118349 0.563256 0.0617685
0.151843 0.566354 0.0676127
0.191302 0.570214 0.0721447
0.234455 0.574655 0.0748608
0.278721 0.580896 0.0726635
0.325368 0.590875 0.0622568
0.374731 0.604181 0.0483558
0.425116 0.618708 0.0412451
0.477012 0.633814 0.0412451
0.526116 0.645045 0.0414893
0.57232 0.654002 0.0413367
0.605035 0.660151 0.0410925
0.646342 0.675898 0.0409247
0.683284 0.68545 0.0408484
0.716579 0.684215 0.0407416
0.748791 0.673548 0.0404822
0.784833 0.659098 0.0398871
0.811505 0.647135 0.0404822
0.831159 0.637949 0.0404364
0.846372 0.630823 0.0391394
0.859434 0.624674 0.0365301
0.869551 0.618433 0.0340429
0.877653 0.611994 0.0317235
0.88278 0.608026 0.0301061
0.884382 0.608484 0.030808
0.886564 0.606027 0.031281
0.888655 0.604303 0.0316167
0.0321355 0.553094 0.0626383
0.0398871 0.556161 0.0625772
0.0510109 0.560586 0.0635233
0.0644083 0.566262 0.0643626
0.0804303 0.573175 0.064622
0.100999 0.578317 0.0670176
0.128191 0.581521 0.0717937
0.163088 0.585199 0.0767224
0.203128 0.589685 0.0803082
0.246174 0.594781 0.0818189
0.290806 0.601633 0.0785534
0.337484 0.612222 0.0666819
0.385229 0.625299 0.0509194
0.433143 0.639139 0.0424201
0.482307 0.653941 0.0421912
0.530388 0.666621 0.0423133
0.575647 0.676478 0.0422217
0.614771 0.68452 0.0419471
0.646143 0.693339 0.0416571
0.680125 0.706401 0.0416114
0.711666 0.714839 0.0415808
0.740154 0.714992 0.0415045
0.767681 0.704921 0.0413062
0.797238 0.690913 0.0412604
0.821546 0.678264 0.0414435
0.839429 0.667994 0.0415198
0.851972 0.659129 0.0412757
0.861921 0.651118 0.0400092
0.870527 0.643229 0.0370184
0.876371 0.635752 0.0341802
0.879316 0.630869 0.0336614
0.882002 0.626612 0.0336156
0.88426 0.624521 0.0336004
0.0392309 0.569253 0.0738231
0.0478676 0.572839 0.0744335
0.0589914 0.577401 0.0752117
0.0722057 0.583261 0.0754101
0.0882429 0.590295 0.0748302
0.109712 0.594812 0.0773938
0.138231 0.59826 0.0816968
0.173449 0.602594 0.0856336
0.21384 0.60766 0.0882429
0.257145 0.613703 0.088777
0.301671 0.62118 0.0845655
0.347784 0.631983 0.0717937
0.395422 0.645823 0.0540475
0.440696 0.659266 0.0435492
0.485924 0.67306 0.0430304
0.532631 0.686763 0.0429389
0.577371 0.697704 0.0428931
0.618677 0.707118 0.0426795
0.649943 0.714488 0.0423896
0.678614 0.724498 0.0422217
0.70692 0.736004 0.0421302
0.73402 0.745327 0.0421454
0.757366 0.744533 0.0420386
0.782437 0.733974 0.0419165
0.807568 0.720867 0.0419928
0.829343 0.707347 0.0423743
0.844434 0.695415 0.0430152
0.854444 0.685206 0.0434424
0.862821 0.675639 0.0421607
0.868559 0.666621 0.0399176
0.872892 0.656733 0.0382544
0.876738 0.647944 0.0374609
0.878843 0.646387 0.0375372
0.0467689 0.58471 0.0853132
0.055436 0.588022 0.0861524
0.0665293 0.59295 0.0865949
0.0796063 0.599832 0.0856794
0.0954452 0.608316 0.0834058
0.116991 0.614786 0.0839857
0.145174 0.620615 0.0854505
0.179522 0.628138 0.0852979
0.219669 0.636805 0.0834363
0.263081 0.644907 0.079408
0.307713 0.652323 0.0721904
0.35378 0.661753 0.0613413
0.400519 0.674235 0.0500191
0.444999 0.685985 0.0442054
0.487373 0.697093 0.0436713
0.531075 0.708568 0.0433509
0.57525 0.719432 0.0433661
0.617075 0.729397 0.0432136
0.652201 0.737484 0.0429694
0.678965 0.744198 0.04271
0.703365 0.753246 0.0425574
0.728603 0.765438 0.0425422
0.751568 0.774227 0.0425574
0.77116 0.771664 0.0424964
0.792782 0.762173 0.0423896
0.815671 0.748394 0.0422827
0.834867 0.734203 0.0425116
0.846891 0.721462 0.0436713
0.855146 0.709804 0.0449989
0.860334 0.698695 0.0451057
0.865003 0.687297 0.044007
0.869383 0.677272 0.0423285
0.871885 0.674189 0.0421302
