All_In_One/addons/Enrich_Colormaster/colormanagement/luts/film_response/warm_hunny.cube
TITLE "Generate by Resolve"
LUT_3D_SIZE 33
0.0488441 0.0472419 0.0831311
0.0635233 0.0480201 0.0876631
0.0784924 0.048661 0.0919509
0.0960861 0.0485237 0.0956893
0.116548 0.0475166 0.0988022
0.139376 0.0457618 0.10135
0.164233 0.0433509 0.10341
0.190753 0.0403143 0.104997
0.218357 0.0367285 0.106111
0.24535 0.032578 0.106447
0.276112 0.0283665 0.107561
0.308843 0.0238651 0.108736
0.34342 0.0190127 0.109819
0.379721 0.0137331 0.110689
0.417502 0.00802625 0.111254
0.456397 0.00198367 0.111482
0.497246 0 0.111406
0.540078 0 0.110964
0.585306 0 0.110231
0.631724 0 0.108934
0.679835 0 0.107286
0.729793 0 0.105287
0.782254 0 0.103044
0.835752 0 0.100343
0.891051 0 0.0973068
0.94847 0 0.0939651
1 0 0.0903334
1 0 0.0863813
1 0 0.0821088
1 0 0.0775311
1 0 0.072694
1 0 0.0675822
1 0 0.0621805
0.0510262 0.0637369 0.098558
0.0679332 0.0637369 0.101717
0.0845197 0.0637522 0.104692
0.103899 0.0628824 0.106996
0.126223 0.0610208 0.108583
0.150439 0.0582742 0.109453
0.176257 0.0547646 0.109682
0.20557 0.0511635 0.110338
0.237201 0.0471504 0.110842
0.270771 0.04271 0.111147
0.30576 0.0379034 0.111254
0.341527 0.0328222 0.111116
0.378668 0.0273442 0.11078
0.417227 0.0215 0.110246
0.457145 0.0152743 0.109499
0.498512 0.00863661 0.108431
0.541451 0.00154116 0.107042
0.586053 0 0.105348
0.632746 0 0.103258
0.681453 0 0.100755
0.731655 0 0.0979934
0.78381 0 0.0948653
0.837873 0 0.0914168
0.893889 0 0.0876478
0.951782 0 0.0835737
1 0 0.0791943
1 0 0.0745098
1 0 0.0695811
1 0 0.0643626
1 0 0.058854
1 0 0.0531167
1 0 0.0471504
1 0 0.0409094
0.0492256 0.0807355 0.110201
0.0681468 0.0797894 0.111833
0.0857099 0.0785687 0.112947
0.106584 0.0768749 0.113893
0.131395 0.0746929 0.114809
0.159548 0.0718242 0.115312
0.190448 0.0683146 0.115373
0.223636 0.0641337 0.114931
0.258427 0.0594034 0.113985
0.294911 0.0542153 0.112795
0.332677 0.0487068 0.111437
0.371359 0.0429236 0.109957
0.411017 0.0368353 0.108293
0.45182 0.0304417 0.106447
0.493889 0.0237125 0.104433
0.537453 0.0165866 0.102159
0.582467 0.00907912 0.0996567
0.629282 0.00111391 0.0968032
0.677928 0 0.0936294
0.728939 0 0.0900282
0.781506 0 0.0862287
0.835904 0 0.082063
0.891783 0 0.0775616
0.950454 0 0.0728466
1 0 0.0678111
1 0 0.0625315
1 0 0.0569772
1 0 0.0512093
1 0 0.0451972
1 0 0.038941
1 0 0.0325017
1 0 0.0258946
1 0 0.0191348
0.0408789 0.0981918 0.11693
0.0621195 0.0971542 0.117983
0.0826276 0.0964828 0.119081
0.106508 0.0949264 0.119585
0.134356 0.0922408 0.119234
0.165209 0.0886854 0.118212
0.198886 0.0843977 0.116655
0.234974 0.0794537 0.114626
0.273014 0.0739605 0.1122
0.312261 0.0680858 0.109545
0.352712 0.0619059 0.106737
0.393973 0.0555123 0.103868
0.436133 0.0488899 0.100923
0.479332 0.0419928 0.0978408
0.523568 0.0348363 0.0946517
0.569299 0.0273136 0.0912337
0.616526 0.0194553 0.0876326
0.665629 0.0111543 0.0837415
0.716472 0.00241093 0.0795453
0.76968 0 0.0749523
0.82472 0 0.070161
0.881819 0 0.0650797
0.940673 0 0.0597086
1 0 0.0540932
1 0 0.0482643
1 0 0.0421912
1 0 0.035874
1 0 0.0293889
1 0 0.0227359
1 0 0.0158846
1 0 0.00892653
1 0 0.0019379
1 0 0
0.0271153 0.120516 0.122148
0.0510262 0.118975 0.121828
0.0739147 0.117723 0.121416
0.0998703 0.115663 0.1205
0.130159 0.112413 0.11873
0.163928 0.108171 0.116197
0.200443 0.103166 0.113115
0.239399 0.0975204 0.109545
0.280308 0.0913558 0.105653
0.322652 0.0848096 0.101518
0.366003 0.0780041 0.0973068
0.409979 0.071046 0.09308
0.454582 0.0639658 0.0889143
0.500298 0.0566567 0.0846571
0.547097 0.0491035 0.0803082
0.595026 0.0412757 0.0758373
0.644678 0.0330968 0.0711833
0.696101 0.0245975 0.0663462
0.749523 0.01561 0.0611887
0.804669 0.00616464 0.0556802
0.862425 0 0.0499886
0.92192 0 0.0440375
0.983536 0 0.0378729
1 0 0.0314794
1 0 0.0249485
1 0 0.018265
1 0 0.0113832
1 0 0.00440986
1 0 0
1 0 0
1 0 0
1 0 0
1 0 0
0.00704967 0.145312 0.122591
0.0334325 0.143191 0.120821
0.0584573 0.141466 0.119005
0.0866255 0.138872 0.11664
0.119478 0.135012 0.113405
0.15581 0.13022 0.109499
0.195178 0.124605 0.104967
0.237201 0.118288 0.0999313
0.28098 0.111452 0.0945602
0.326482 0.104356 0.0890822
0.37261 0.0969863 0.0835279
0.419364 0.0895094 0.0780194
0.466773 0.0819715 0.0726024
0.515084 0.074342 0.0672465
0.564492 0.0665293 0.0618753
0.615091 0.0584421 0.0563821
0.667033 0.0501259 0.0508125
0.721096 0.041474 0.0450752
0.777081 0.0324712 0.0391394
0.835187 0.0229801 0.0328527
0.89546 0.0131533 0.0263981
0.95819 0.00303655 0.0198062
1 0 0.0130312
1 0 0.00610361
1 0 0
1 0 0
1 0 0
1 0 0
1 0 0
1 0 0
1 0 0
1 0 0
1 0 0
0 0.172305 0.118151
0.00958267 0.169619 0.114946
0.0367132 0.167483 0.111788
0.0672618 0.164416 0.108064
0.10248 0.160082 0.103517
0.141421 0.154772 0.0982528
0.183612 0.148653 0.0924086
0.228504 0.141863 0.0860761
0.275456 0.134524 0.079408
0.32398 0.126879 0.0725872
0.373571 0.119066 0.0657816
0.423697 0.111223 0.0590982
0.474022 0.103365 0.0525826
0.525154 0.0954757 0.0461891
0.577493 0.0874952 0.0398413
0.630793 0.0793622 0.0335241
0.685206 0.0709087 0.0270695
0.741833 0.0623484 0.0206149
0.80061 0.0534218 0.0139773
0.861402 0.0441749 0.00717174
0.924453 0.0345769 0.000167849
0.990051 0.0248264 0
1 0.0148775 0
1 0.00469978 0
1 0 0
1 0 0
1 0 0
1 0 0
1 0 0
1 0 0
1 0 0
1 0 0
1 0 0
0 0.201938 0.1093
0 0.198734 0.104738
0.0090486 0.196246 0.100313
0.0420996 0.192782 0.0953078
0.0795911 0.188144 0.0895857
0.121324 0.182391 0.0830549
0.1664 0.175845 0.0759594
0.214359 0.168643 0.0683909
0.264424 0.160815 0.0604562
0.316197 0.152728 0.0523995
0.369177 0.144564 0.044419
0.422568 0.136477 0.0366674
0.476219 0.128405 0.0291295
0.530434 0.120363 0.0217899
0.585641 0.112444 0.0146792
0.642161 0.104402 0.00762951
0.699641 0.0962081 0.000640879
0.759152 0.0878767 0
0.820874 0.0794995 0
0.88481 0.0707713 0
0.950179 0.0615854 0
1 0.0526284 0
1 0.043595 0
1 0.0344396 0
1 0.0252384 0
1 0.0161288 0
1 0.00712596 0
1 0 0
1 0 0
1 0 0
1 0 0
1 0 0
1 0 0
0 0.234089 0.0961318
0 0.230503 0.0903334
0 0.227756 0.0847334
0.01149 0.223972 0.0784924
0.0513008 0.219165 0.0717174
0.0956436 0.213184 0.0640879
0.143679 0.206332 0.055848
0.194812 0.198886 0.0471656
0.248432 0.190921 0.0381781
0.303731 0.182574 0.0290379
0.360067 0.174228 0.0200504
0.417334 0.166003 0.0112917
0.47454 0.15787 0.00289921
0.531762 0.149828 0
0.590234 0.142107 0
0.650004 0.134508 0
0.710597 0.126833 0
0.772671 0.119097 0
0.836774 0.111421 0
0.902678 0.103655 0
0.970336 0.0955062 0
1 0.08748 0
1 0.0794232 0
1 0.0711986 0
1 0.0631876 0
1 0.0554208 0
1 0.0479133 0
1 0.0406348 0
1 0.0337377 0
1 0.0273747 0
1 0.0215152 0
1 0.0158389 0
1 0.0107576 0
0 0.269474 0.0791333
0 0.265675 0.0722057
0 0.262776 0.0655375
0 0.258854 0.0582284
0.0179751 0.253895 0.0504005
0.0648814 0.24773 0.041825
0.116045 0.240726 0.0325628
0.170428 0.233188 0.0229343
0.227543 0.225223 0.0130312
0.286458 0.216861 0.0030518
0.346792 0.208438 0
0.40798 0.20032 0
0.469184 0.192554 0
0.530114 0.184985 0
0.591821 0.177707 0
0.654322 0.170779 0
0.71725 0.163668 0
0.781079 0.156741 0
0.846189 0.149798 0
0.912291 0.142855 0
0.979446 0.135698 0
1 0.128588 0
1 0.121675 0
1 0.114916 0
1 0.108171 0
1 0.101854 0
1 0.0959793 0
1 0.0905318 0
1 0.0854505 0
1 0.0806134 0
1 0.0758831 0
1 0.0711986 0
1 0.0666361 0
0 0.308141 0.0585184
0 0.304295 0.0505989
0 0.301457 0.0429999
0 0.297536 0.0347906
0 0.292638 0.0260624
0.0298619 0.286824 0.0168002
0.0840162 0.279973 0.0068513
0.141924 0.272541 0
0.202914 0.264775 0
0.265843 0.256489 0
0.330159 0.248264 0
0.395209 0.240436 0
0.460029 0.233127 0
0.524468 0.226047 0
0.588678 0.219242 0
0.652811 0.212787 0
0.717128 0.206455 0
0.781537 0.200137 0
0.846326 0.193973 0
0.911803 0.187778 0
0.97789 0.181704 0
1 0.175708 0
1 0.170062 0
1 0.164736 0
1 0.159655 0
1 0.154849 0
1 0.150072 0
1 0.145403 0
1 0.140917 0
1 0.136614 0
1 0.132433 0
1 0.128283 0
1 0.124239 0
0 0.351095 0.0349126
0 0.347234 0.0261082
0 0.344594 0.017792
0 0.340856 0.00888075
0 0.33611 0
0 0.330861 0
0.0488441 0.324422 0
0.11043 0.317281 0
0.175326 0.30985 0
0.242451 0.302113 0
0.310689 0.294179 0
0.379202 0.286427 0
0.446647 0.278981 0
0.513359 0.272114 0
0.578973 0.265675 0
0.644327 0.259632 0
0.709072 0.253956 0
0.773587 0.248386 0
0.837812 0.243153 0
0.902312 0.238117 0
0.966354 0.232975 0
1 0.228107 0
1 0.223682 0
1 0.219303 0
1 0.214939 0
1 0.210697 0
1 0.206622 0
1 0.202441 0
1 0.198352 0
1 0.194522 0
1 0.190814 0
1 0.187106 0
1 0.183459 0
0 0.398535 0.00886549
0 0.395193 0
0 0.39324 0
0 0.389914 0
0 0.385443 0
0 0.380331 0
0.011841 0.374334 0
0.0771649 0.367391 0
0.145647 0.359899 0
0.216205 0.352071 0
0.287617 0.34406 0
0.358694 0.336355 0
0.429068 0.329137 0
0.497566 0.322347 0
0.564263 0.316152 0
0.630182 0.310613 0
0.694911 0.305623 0
0.758801 0.300908 0
0.822156 0.296513 0
0.88574 0.292409 0
0.950057 0.288289 0
1 0.283787 0
1 0.279866 0
1 0.276036 0
1 0.272221 0
1 0.268467 0
1 0.264866 0
1 0.261326 0
1 0.257527 0
1 0.254032 0
1 0.25066 0
1 0.247288 0
1 0.243931 0
0 0.451392 0
0 0.448325 0
0 0.446845 0
0 0.443854 0
0 0.439384 0
0 0.434241 0
0 0.428061 0
0.0433814 0.420706 0
0.115084 0.413031 0
0.188647 0.405097 0
0.262791 0.397055 0
0.336294 0.389334 0
0.408682 0.382193 0
0.478553 0.375875 0
0.546334 0.370123 0
0.612421 0.365042 0
0.677424 0.360449 0
0.741726 0.356374 0
0.805905 0.352483 0
0.870054 0.348913 0
0.934737 0.345388 0
1 0.341741 0
1 0.338231 0
1 0.334585 0
1 0.331212 0
1 0.327886 0
1 0.324651 0
1 0.321447 0
1 0.318242 0
1 0.314916 0
1 0.311559 0
1 0.308385 0
1 0.30518 0
0 0.508934 0
0 0.505577 0
0 0.503761 0
0 0.500389 0
0 0.495491 0
0 0.489891 0
0 0.483574 0
0.011841 0.47628 0
0.0863813 0.468437 0
0.16231 0.460136 0
0.238483 0.452155 0
0.314076 0.44445 0
0.38793 0.437537 0
0.459159 0.43154 0
0.528176 0.426246 0
0.595285 0.421698 0
0.661311 0.417563 0
0.726223 0.413794 0
0.791058 0.410391 0
0.855695 0.407279 0
0.920699 0.404242 0
0.986542 0.401053 0
1 0.397955 0
1 0.394766 0
1 0.391577 0
1 0.388556 0
1 0.38555 0
1 0.382544 0
1 0.379522 0
1 0.376455 0
1 0.373037 0
1 0.36994 0
1 0.3673 0
0 0.56846 0
0 0.564416 0
0 0.561852 0
0 0.557885 0
0 0.552468 0
0 0.546304 0
0 0.539788 0
0 0.532341 0
0.0617533 0.524483 0
0.139467 0.516686 0
0.216617 0.508827 0
0.293339 0.501503 0
0.36849 0.494926 0
0.441093 0.489265 0
0.511315 0.484337 0
0.579416 0.480156 0
0.646403 0.476509 0
0.712001 0.473075 0
0.777234 0.469978 0
0.84242 0.46717 0
0.907729 0.464485 0
0.973602 0.461707 0
1 0.458839 0
1 0.456031 0
1 0.452873 0
1 0.450004 0
1 0.447105 0
1 0.44416 0
1 0.441321 0
1 0.439185 0
1 0.437736 0
1 0.436637 0
1 0.436362 0
0 0.627604 0
0 0.622766 0
0 0.61973 0
0 0.615213 0
0 0.609033 0
0 0.60267 0
0 0.596323 0
0 0.589441 0
0.0397498 0.582177 0
0.118105 0.574884 0
0.196414 0.567758 0
0.273915 0.560555 0
0.350164 0.554269 0
0.424048 0.548852 0
0.495491 0.544152 0
0.564569 0.540215 0
0.632349 0.536812 0
0.698802 0.533852 0
0.764187 0.530816 0
0.829816 0.528222 0
0.895338 0.52575 0
0.961273 0.523186 0
1 0.520378 0
1 0.517723 0
1 0.514839 0
1 0.512139 0
1 0.510536 0
1 0.509636 0
1 0.50901 0
1 0.509392 0
1 0.511101 0
1 0.513039 0
1 0.516655 0
0 0.685237 0
0 0.679667 0
0 0.676371 0
0 0.672114 0
0 0.666712 0
0 0.660777 0
0 0.654719 0
0 0.648493 0
0.0192264 0.641794 0
0.0978103 0.635004 0
0.177096 0.628199 0
0.255833 0.621592 0
0.333013 0.615442 0
0.407889 0.609903 0
0.480369 0.605356 0
0.550378 0.601526 0
0.618677 0.598276 0
0.685817 0.595392 0
0.751827 0.592676 0
0.817517 0.58999 0
0.88307 0.587533 0
0.949035 0.585092 0
1 0.583062 0
1 0.581994 0
1 0.581384 0
1 0.580789 0
1 0.581857 0
1 0.584039 0
1 0.58677 0
1 0.590387 0
1 0.595102 0
1 0.60087 0
1 0.608438 0
0 0.742382 0
0 0.737377 0
0 0.734615 0
0 0.730907 0
0 0.72604 0
0 0.720699 0
0 0.714946 0
0 0.709209 0
0 0.702983 0
0.0788586 0.696574 0
0.158679 0.690044 0
0.238163 0.68365 0
0.316136 0.677745 0
0.392065 0.672099 0
0.465553 0.667491 0
0.536416 0.663645 0
0.605264 0.660349 0
0.672862 0.657404 0
0.739483 0.654994 0
0.806287 0.653483 0
0.873732 0.652628 0
0.941833 0.652399 0
1 0.652811 0
1 0.654582 0
1 0.65713 0
1 0.65951 0
1 0.662699 0
1 0.666697 0
1 0.671839 0
1 0.677302 0
1 0.682414 0.0231479
1 0.687831 0.059968
1 0.694972 0.101503
0 0.801495 0
0 0.796994 0
0 0.79469 0
0 0.79144 0
0 0.787015 0
0 0.782071 0
0 0.776837 0
0 0.771252 0
0 0.765438 0
0.0605325 0.759258 0
0.140734 0.752895 0
0.220783 0.746593 0
0.299474 0.740658 0
0.376516 0.735134 0
0.450507 0.730144 0
0.522667 0.726543 0
0.593454 0.724544 0
0.663554 0.723598 0
0.732692 0.723323 0
0.802335 0.724437 0
0.872709 0.726406 0
0.943526 0.729244 0
1 0.731853 0
1 0.734371 0
1 0.737362 0
1 0.740566 0
1 0.74345 0
1 0.746227 0.0311437
1 0.749996 0.0712139
1 0.75433 0.113329
1 0.758633 0.154803
1 0.763394 0.196551
1 0.769741 0.241703
0 0.862608 0
0 0.858228 0
0 0.856306 0
0 0.853391 0
0 0.849287 0
0 0.844633 0
0 0.839628 0
0 0.83447 0
0 0.828611 0
0.0425116 0.822614 0
0.122866 0.816266 0
0.203387 0.81001 0
0.283406 0.804761 0
0.362936 0.800855 0
0.439841 0.797726 0
0.515129 0.796231 0
0.589242 0.796811 0
0.662913 0.798856 0
0.73518 0.801083 0
0.805493 0.802915 0
0.872938 0.804105 0
0.937163 0.805798 0
0.996887 0.807233 0
1 0.807706 0.00337224
1 0.808286 0.0410773
1 0.809461 0.0822766
1 0.810681 0.123735
1 0.812268 0.165637
1 0.814893 0.21004
1 0.818448 0.255879
1 0.822583 0.301335
1 0.827466 0.346716
1 0.833799 0.394522
0 0.924773 0
0 0.920958 0
0 0.919127 0
0 0.916335 0
0 0.912428 0
0 0.907912 0
0 0.902983 0
0 0.897856 0
0 0.892424 0
0.025803 0.887602 0
0.108186 0.883253 0
0.19115 0.879133 0
0.274144 0.876219 0
0.357275 0.875044 0
0.438407 0.874815 0
0.518151 0.874464 0
0.595346 0.874006 0
0.66981 0.873335 0
0.74049 0.872724 0
0.805905 0.871489 0
0.865583 0.869352 0.0110933
0.920333 0.867582 0.0503548
0.970153 0.86627 0.0931258
1 0.86482 0.135393
1 0.863813 0.178302
1 0.863737 0.223636
1 0.864225 0.26865
1 0.865614 0.314534
1 0.868162 0.362219
1 0.871717 0.410529
1 0.876036 0.457954
1 0.881132 0.50454
1 0.887572 0.552712
0 0.9879 0
0 0.984344 0
0 0.982788 0
0 0.979812 0
0 0.975998 0
0 0.972076 0
0 0.968704 0
0 0.965576 0
0 0.962676 0
0.0165408 0.960357 0
0.10193 0.95906 0
0.18938 0.957366 0
0.278828 0.954208 0
0.368444 0.949889 0
0.45568 0.94519 0
0.538415 0.940124 0
0.614481 0.934905 0
0.684077 0.929549 0.0205539
0.748165 0.924819 0.0616922
0.806134 0.920424 0.104662
0.857816 0.916152 0.146471
0.904448 0.912535 0.190143
0.946136 0.90985 0.236667
0.982803 0.907729 0.282872
1 0.906447 0.32961
1 0.906249 0.377859
1 0.906844 0.425101
1 0.908461 0.472755
1 0.911238 0.521248
1 0.915038 0.569497
1 0.919615 0.616297
1 0.924926 0.661326
1 0.931365 0.706844
0 1 0
0 1 0
0 1 0
0 1 0
0 1 0
0 1 0
0 1 0
0 1 0
0 1 0
0.0278782 1 0
0.123964 1 0
0.222614 1 0
0.319112 1 0
0.409995 1 0
0.494774 0.991653 0.0356451
0.572763 0.982162 0.0749065
0.642924 0.973602 0.116564
0.705684 0.96582 0.158724
0.762509 0.959121 0.204074
0.81323 0.953384 0.250751
0.857923 0.948455 0.29659
0.89749 0.944518 0.343633
0.932204 0.94168 0.392767
0.96199 0.939727 0.441077
0.987076 0.93875 0.489235
1 0.938888 0.537804
1 0.939956 0.584894
1 0.942061 0.631601
1 0.945235 0.678157
1 0.949264 0.722423
1 0.953872 0.764538
1 0.959014 0.803891
1 0.964935 0.842161
0 1 0
0 1 0
0 1 0
0 1 0
0 1 0
0 1 0
0 1 0
0 1 0
0 1 0
0.0950179 1 0
0.194003 1 0.0194095
0.291798 1 0.0558785
0.38471 1 0.0953841
0.470008 1 0.134844
0.547997 1 0.176211
0.618723 1 0.219486
0.681956 0.995911 0.26508
0.737972 0.987503 0.311284
0.787915 0.980468 0.359777
0.8318 0.97467 0.40882
0.869703 0.970001 0.456519
0.902708 0.966461 0.504616
0.931029 0.964126 0.553841
0.954665 0.962814 0.601572
0.97409 0.962539 0.648402
0.989197 0.963348 0.694255
1 0.965042 0.737133
1 0.967544 0.778653
1 0.970932 0.818799
1 0.974868 0.855589
1 0.979019 0.887953
1 0.983444 0.917174
1 0.988464 0.945495
0 1 0
0 1 0
0 1 0
0 1 0
0 1 0
0 1 0
0 1 0.00602731
0 1 0.0400092
0.097612 1 0.0783398
0.19704 1 0.117952
0.290593 1 0.15581
0.381369 1 0.197391
0.46656 1 0.241184
0.544289 1 0.285084
0.614801 1 0.330556
0.677852 1 0.376883
0.733684 1 0.424872
0.782391 0.998657 0.472755
0.825208 0.992203 0.521935
0.862165 0.987152 0.570748
0.8934 0.983368 0.617472
0.920073 0.980804 0.664042
0.942367 0.979446 0.709819
0.960357 0.97908 0.752773
0.974624 0.979644 0.793896
0.985412 0.981094 0.832563
0.993118 0.9832 0.867567
0.99823 0.985809 0.898909
1 0.989044 0.928542
1 0.992752 0.955947
1 0.996735 0.980575
1 1 0.996963
1 1 1
0 1 0
0 1 0
0 1 0
0 1 0.024094
0 1 0.0588235
0 1 0.0982223
0.024506 1 0.13753
0.126513 1 0.177386
0.225605 1 0.220279
0.318395 1 0.26424
0.404379 1 0.306569
0.487007 1 0.352148
0.563485 1 0.399039
0.632395 1 0.445502
0.694133 1 0.492683
0.74847 1 0.53962
0.796094 1 0.58735
0.836973 1 0.634256
0.872236 0.997299 0.681224
0.901732 0.993713 0.725765
0.925948 0.991257 0.767285
0.946273 0.989975 0.807996
0.962646 0.989731 0.846281
0.975158 0.99028 0.879927
0.984695 0.991531 0.910613
0.99173 0.993423 0.938949
0.996612 0.995941 0.965423
0.999619 0.998901 0.989487
1 1 0.998718
1 1 1
1 1 1
1 1 1
1 1 1
0 1 0.0392309
0 1 0.076997
0 1 0.117586
0 1 0.157336
0 1 0.197162
0.0828565 1 0.240757
0.183993 1 0.284398
0.279606 1 0.328634
0.370977 1 0.375021
