All_In_One/addons/Enrich_Colormaster/colormanagement/luts/film_response/warm_hunny.cube
TITLE "Generate by Resolve"
LUT_3D_SIZE 5
0.0488441 0.0472419 0.0831311
0.218357 0.0367285 0.106111
0.497246 0 0.111406
0.891051 0 0.0973068
1 0 0.0621805
0 0.234089 0.0961318
0.248432 0.190921 0.0381781
0.710597 0.126833 0
1 0.0631876 0
1 0.0107576 0
0 0.627604 0
0.0397498 0.582177 0
0.632349 0.536812 0
1 0.514839 0
1 0.516655 0
0 1 0
0 1 0
0.681956 0.995911 0.26508
0.97409 0.962539 0.648402
1 0.988464 0.945495
0.677256 1 0.785122
0.999969 1 1
1 1 1
1 1 1
1 1 1
0.0538949 0.0525673 0.139086
0.234653 0.0348058 0.177569
0.535714 0 0.20296
0.94345 0 0.207431
1 0 0.192416
0 0.24036 0.215961
0.251514 0.193027 0.177523
0.736614 0.127474 0.134371
1 0.0673228 0.10605
1 0.0225834 0.0955978
0 0.640192 0.103212
0.0509651 0.595789 0.0744335
0.648264 0.551888 0.0564431
1 0.532998 0.0662089
1 0.554482 0.142077
0 1 0.082536
0.0859083 1 0.209979
0.730587 0.990127 0.478309
0.978042 0.96997 0.789151
1 1 0.997406
0.811322 1 0.890379
1 1 1
1 1 1
1 1 1
1 1 1
0.0534066 0.052842 0.247562
0.248295 0.0273747 0.327077
0.563836 0 0.392126
0.983658 0 0.430457
1 0 0.445411
0 0.236606 0.46186
0.243458 0.185046 0.460609
0.749737 0.117739 0.447318
1 0.0626383 0.430213
1 0.0252079 0.410574
0 0.641672 0.425544
0.0522164 0.600473 0.392309
0.655924 0.558221 0.363485
1 0.546548 0.367315
1 0.590051 0.449317
0 1 0.38204
0.181491 1 0.494331
0.775769 0.983444 0.677791
0.983032 0.977844 0.894316
1 1 1
0.912077 1 0.958251
1 1 1
1 1 1
1 1 1
1 1 1
0.0493629 0.0500496 0.383627
0.257801 0.016968 0.516442
0.586923 0 0.630701
1 0 0.719234
1 0 0.785519
0 0.228656 0.772061
0.230015 0.172488 0.822705
0.754177 0.102647 0.851179
1 0.053315 0.849073
1 0.019791 0.831861
0 0.635752 0.846693
0.0454261 0.597604 0.81622
0.654276 0.555352 0.786587
1 0.555474 0.800748
1 0.617807 0.821332
0 1 0.811246
0.270298 1 0.81883
0.816693 0.976135 0.870802
0.98819 0.985245 0.96524
1 1 1
0.989685 1 0.997253
1 1 1
1 1 1
1 1 1
1 1 1
0.0424811 0.0448157 0.540917
0.264775 0.0040589 0.739147
0.608057 0 0.902617
1 0 1
1 0 1
0 0.218585 1
0.21503 0.15877 1
0.755245 0.0876783 1
1 0.0452888 1
1 0.0142214 1
0 0.629938 1
0.0378729 0.594186 1
0.652781 0.55259 1
1 0.56846 1
1 0.646616 1
0 1 1
0.362371 1 1
0.857847 0.973663 0.994522
0.995254 0.994217 0.996429
1 1 1
1 1 1
1 1 1
1 1 1
1 1 1
1 1 1
