All_In_One/addons/Enrich_Colormaster/colormanagement/luts/film_response/warm_hunny_709.cube
TITLE "Generate by Resolve"
LUT_3D_SIZE 5
0.0833143 0.0767987 0.125093
0.229145 0.0713512 0.138949
0.42005 0.0516213 0.136873
0.635081 0.0255589 0.12726
0.887572 0 0.110674
0.0347906 0.218509 0.127977
0.259174 0.198123 0.0942855
0.521584 0.176699 0.0598764
0.795605 0.16434 0.0365911
1 0.158816 0.0252384
0 0.455848 0.0393225
0.226825 0.441764 0.0137789
0.538811 0.436576 0.00856031
0.815335 0.446143 0.0181277
1 0.460746 0.0327306
0 0.75404 0.032166
0.240024 0.748821 0.0269474
0.566201 0.757809 0.035935
0.868223 0.796139 0.105425
1 0.8262 0.280339
0.0480201 1 0.17145
0.48864 1 0.346181
0.780957 0.98761 0.555245
0.933623 0.978592 0.769543
0.991592 0.989548 0.934493
0.0903029 0.0829175 0.172625
0.245121 0.0733349 0.194049
0.442954 0.0505379 0.199512
0.664286 0.0226444 0.198291
0.923476 0 0.190845
0.0324254 0.225116 0.202533
0.267124 0.203494 0.177768
0.539834 0.182895 0.154131
0.816236 0.172137 0.141146
1 0.170062 0.13817
0 0.469154 0.147509
0.239719 0.454673 0.128923
0.553079 0.450843 0.125078
0.831098 0.461921 0.136156
1 0.476814 0.151064
0 0.769772 0.150164
0.256275 0.765087 0.14548
0.590707 0.782315 0.162707
0.885695 0.817929 0.260639
1 0.842771 0.423362
0.12488 1 0.32314
0.548348 1 0.483345
0.817472 0.985931 0.66894
0.950088 0.982132 0.848188
0.996628 0.99585 0.977203
0.0951553 0.0869001 0.249104
0.25771 0.0725414 0.282872
0.462287 0.0465705 0.301671
0.689509 0.0166323 0.314336
0.955657 0 0.321874
0.0269322 0.228565 0.324483
0.271977 0.205798 0.314443
0.553307 0.185626 0.305852
0.830686 0.176883 0.304601
1 0.17847 0.307988
0 0.477394 0.313695
0.248875 0.463828 0.299504
0.563775 0.46154 0.297215
0.842634 0.473457 0.309133
1 0.488624 0.3243
0 0.781399 0.323217
0.270497 0.779293 0.321126
0.613474 0.803235 0.349462
0.89427 0.831571 0.450248
1 0.856199 0.583337
0.204028 1 0.504341
0.604669 1 0.630289
0.850843 0.984009 0.777722
0.964996 0.986007 0.913695
1 1 1
0.0975509 0.0884871 0.348516
0.267857 0.069688 0.398245
0.478614 0.0404822 0.432914
0.712871 0.00863661 0.463432
0.986053 0 0.48925
0.0194095 0.229725 0.480064
0.275044 0.206394 0.488426
0.563912 0.186831 0.495399
0.840284 0.180209 0.502876
1 0.185138 0.509255
0 0.483391 0.513664
0.256168 0.471122 0.501381
0.57232 0.470085 0.500343
0.851575 0.482383 0.512657
1 0.500145 0.530404
0 0.790677 0.527092
0.283986 0.792782 0.529198
0.636393 0.819501 0.56762
0.899489 0.842557 0.643397
1 0.868666 0.732998
0.281865 1 0.680491
0.659739 1 0.764385
0.882612 0.983368 0.867674
0.978073 0.990372 0.958984
1 1 1
0.098497 0.0886397 0.463096
0.276555 0.0657054 0.52874
0.494469 0.0335699 0.580362
0.735195 1.5259e-05 0.628885
1 0 0.674052
0.0115206 0.230686 0.652964
0.278096 0.207065 0.679469
0.572732 0.188037 0.697627
0.84715 0.184268 0.708827
1 0.191928 0.716594
0 0.489067 0.71989
0.263142 0.478096 0.708919
0.580804 0.478569 0.709377
0.86041 0.491234 0.722057
1 0.513146 0.743969
0 0.79968 0.736645
0.301427 0.810224 0.747204
0.660914 0.833112 0.776471
0.903365 0.852323 0.809628
1 0.881651 0.854154
0.36083 1 0.829587
0.714931 0.995407 0.870695
0.911772 0.984344 0.930983
0.990478 0.995575 0.987259
1 1 1
