All_In_One/addons/Enrich_Colormaster/colormanagement/luts/film_response/warm_hunny_709.cube
TITLE "Generate by Resolve"
LUT_3D_SIZE 9
0.0833143 0.0767987 0.125093
0.148043 0.076463 0.134539
0.229145 0.0713512 0.138949
0.321202 0.0624857 0.139071
0.42005 0.0516213 0.136873
0.524239 0.039353 0.132967
0.635081 0.0255589 0.12726
0.755642 0.010132 0.119875
0.887572 0 0.110674
0.0780652 0.140749 0.147127
0.162188 0.134569 0.141634
0.261295 0.124529 0.13225
0.369741 0.112322 0.120684
0.483207 0.099855 0.108858
0.601434 0.0875715 0.0972
0.726955 0.0751965 0.0854658
0.863142 0.062974 0.0738537
1 0.0510262 0.062501
0.0347906 0.218509 0.127977
0.1393 0.209628 0.112398
0.259174 0.198123 0.0942855
0.388281 0.186328 0.0759442
0.521584 0.176699 0.0598764
0.657694 0.169726 0.0469062
0.795605 0.16434 0.0365911
0.934997 0.160647 0.0292515
1 0.158816 0.0252384
0 0.320546 0.0841993
0.0971847 0.313756 0.0642405
0.242405 0.305653 0.0443275
0.39324 0.298268 0.0274662
0.539605 0.293767 0.0164034
0.678279 0.292683 0.0119936
0.810895 0.294789 0.0136873
0.942718 0.298939 0.0178378
1 0.304006 0.0229191
0 0.455848 0.0393225
0.0614328 0.449348 0.0245975
0.226825 0.441764 0.0137789
0.38851 0.436851 0.00881972
0.538811 0.436576 0.00856031
0.679225 0.439979 0.0119631
0.815335 0.446143 0.0181277
0.950347 0.453483 0.0254673
1 0.460746 0.0327306
0 0.600275 0.02533
0.0571756 0.594995 0.0200504
0.228901 0.590784 0.0158389
0.394141 0.58941 0.0144503
0.547356 0.592035 0.0170901
0.68986 0.597543 0.0225986
0.827237 0.604974 0.0300298
0.966903 0.616968 0.0420233
1 0.634501 0.059556
0 0.75404 0.032166
0.0664836 0.751232 0.0293584
0.240024 0.748821 0.0269474
0.40705 0.749233 0.0273594
0.566201 0.757809 0.035935
0.722164 0.776684 0.0559396
0.868223 0.796139 0.105425
0.988815 0.81268 0.186313
1 0.8262 0.280339
0 0.915801 0.047013
0.0896315 0.921309 0.0525063
0.282231 0.931197 0.0713512
0.479835 0.933471 0.127672
0.649287 0.930037 0.209506
0.782849 0.926619 0.306798
0.883162 0.92549 0.411704
0.954299 0.928008 0.520714
0.999588 0.93463 0.629221
0.0480201 1 0.17145
0.282979 1 0.253773
0.48864 1 0.346181
0.655314 1 0.447929
0.780957 0.98761 0.555245
0.87187 0.979843 0.665095
0.933623 0.978592 0.769543
0.971557 0.982391 0.861326
0.991592 0.989548 0.934493
0.0867018 0.0797742 0.147539
0.154269 0.0786755 0.159625
0.237247 0.0724193 0.165591
0.331197 0.0626841 0.16759
0.431617 0.051133 0.16733
0.537346 0.0383307 0.165484
0.649683 0.0241093 0.161868
0.771771 0.0083772 0.156695
0.905394 0 0.149798
0.0786908 0.143633 0.176669
0.165057 0.136584 0.173022
0.266209 0.12575 0.165423
0.377111 0.113115 0.156039
0.492699 0.100298 0.146395
0.612879 0.0878157 0.137087
0.74023 0.0754559 0.127825
0.878386 0.0635691 0.11902
1 0.0523537 0.110674
0.0336156 0.221805 0.164355
0.140627 0.212573 0.150958
0.263111 0.200778 0.135088
0.395056 0.189075 0.119326
0.530556 0.179614 0.105959
0.66772 0.172854 0.0956893
0.806195 0.168124 0.0881361
0.9449 0.165209 0.0832532
1 0.164401 0.0814221
0 0.326009 0.128878
0.0990921 0.319341 0.111666
0.246906 0.310994 0.0942855
0.39939 0.303532 0.0798505
0.546441 0.29929 0.0710918
0.68481 0.298695 0.0686961
0.817639 0.301534 0.0714885
0.949859 0.306081 0.0760357
1 0.311391 0.0813458
0 0.462562 0.0927901
0.0662242 0.45565 0.0801099
0.233143 0.448096 0.0711376
0.395315 0.443656 0.0666819
0.546029 0.443793 0.0668193
0.686854 0.447608 0.070634
0.823178 0.454002 0.0770275
0.958328 0.461479 0.0845197
1 0.468742 0.091783
0 0.607248 0.08336
0.0644388 0.602274 0.0783856
0.236576 0.598444 0.0745556
0.402075 0.59733 0.0734417
0.555184 0.599863 0.0759747
0.697932 0.605615 0.0817273
0.835996 0.613733 0.0898299
0.977234 0.627298 0.10341
1 0.647684 0.124422
0 0.761868 0.0910353
0.0745708 0.759319 0.0885023
0.248096 0.756893 0.0860761
0.41677 0.758938 0.0881208
0.577905 0.769512 0.0986954
0.735058 0.789166 0.12459
0.877684 0.807614 0.183658
0.990646 0.821576 0.262898
1 0.834455 0.353216
0 0.925566 0.10782
0.10251 0.934188 0.116442
0.301595 0.940948 0.143618
0.501045 0.939529 0.206409
0.666392 0.933974 0.287617
0.794186 0.929747 0.379644
0.889403 0.928817 0.47863
0.956008 0.931899 0.58027
0.99762 0.93959 0.682826
0.0847334 1 0.247654
0.318273 1 0.328695
0.518868 1 0.417243
0.678904 1 0.512703
0.799268 0.986664 0.614282
0.884855 0.980255 0.716152
0.942031 0.98027 0.811444
0.976349 0.985 0.893126
0.994095 0.992706 0.957702
0.0903029 0.0829175 0.172625
0.160052 0.0806592 0.186328
0.245121 0.0733349 0.194049
0.340963 0.0627756 0.197864
0.442954 0.0505379 0.199512
0.550042 0.0372168 0.199649
0.664286 0.0226444 0.198291
0.788144 0.00665293 0.195377
0.923476 0 0.190845
0.0791943 0.146349 0.207965
0.167834 0.138521 0.206149
0.271214 0.126986 0.200443
0.384298 0.113848 0.193103
0.502129 0.10074 0.185763
0.624186 0.0880903 0.178775
0.754025 0.0759594 0.172244
0.89366 0.0644541 0.166171
1 0.0538338 0.160464
0.0324254 0.225116 0.202533
0.141863 0.215351 0.191196
0.267124 0.203494 0.177768
0.401968 0.192004 0.164706
0.539834 0.182895 0.154131
0.677913 0.176394 0.14638
0.816236 0.172137 0.141146
0.953979 0.170016 0.138384
1 0.170062 0.13817
0 0.331411 0.175387
0.101061 0.324681 0.160769
0.251575 0.316442 0.145937
0.405631 0.308995 0.133715
0.553185 0.305043 0.126925
0.691173 0.305013 0.126177
0.82443 0.308309 0.129488
0.957107 0.313329 0.134493
1 0.318837 0.140002
0 0.469154 0.147509
0.071519 0.461936 0.136584
0.239719 0.454673 0.128923
0.402274 0.450599 0.124849
0.553079 0.450843 0.125078
0.694499 0.455268 0.129503
0.831098 0.461921 0.136156
0.966369 0.46952 0.143755
1 0.476814 0.151064
0 0.614404 0.141711
0.071931 0.609766 0.137072
0.244297 0.60618 0.133501
0.410025 0.60528 0.132601
0.563149 0.607828 0.135149
0.706004 0.613687 0.140993
0.84564 0.623377 0.150698
0.988739 0.638804 0.166125
1 0.661128 0.192401
0 0.769772 0.150164
0.0826276 0.767391 0.147784
0.256275 0.765087 0.14548
0.426764 0.768948 0.14934
0.590707 0.782315 0.162707
0.747707 0.801038 0.195926
0.885695 0.817929 0.260639
0.991791 0.830549 0.338445
1 0.842771 0.423362
0 0.936156 0.169635
0.116899 0.946761 0.181903
0.323888 0.949355 0.218189
0.521141 0.943877 0.281361
0.682658 0.937072 0.361013
0.805432 0.932677 0.448722
0.895689 0.932174 0.54165
0.957961 0.936065 0.636851
0.995956 0.94461 0.731655
0.12488 1 0.32314
0.353109 1 0.399283
0.548348 1 0.483345
0.702724 0.998474 0.573724
0.817472 0.985931 0.66894
0.897856 0.980972 0.763104
0.950088 0.982132 0.848188
0.980865 0.98761 0.919829
0.996628 0.99585 0.977203
0.0931411 0.0853132 0.206622
0.164904 0.0817426 0.22295
0.251865 0.0733349 0.233356
0.349569 0.0619211 0.240101
0.453132 0.0489815 0.244694
0.561395 0.0350958 0.24773
0.677424 0.0201114 0.249607
0.803174 0.00381476 0.25005
0.940414 0 0.24892
0.0787213 0.148043 0.25156
0.169528 0.139376 0.252583
0.275181 0.127184 0.249851
0.390356 0.113481 0.245548
0.51017 0.100008 0.241398
0.634333 0.0872663 0.237842
0.766567 0.0753796 0.235111
0.907759 0.0643473 0.232715
1 0.0542611 0.230121
0.0301518 0.227359 0.256519
0.142077 0.217136 0.248264
0.269932 0.205051 0.238163
0.407385 0.193606 0.228656
0.547326 0.184802 0.221653
0.686351 0.178729 0.21706
0.824384 0.175006 0.21442
0.960861 0.173663 0.213733
1 0.174762 0.21503
0 0.335668 0.240986
0.101946 0.328771 0.229603
0.254795 0.320348 0.217578
0.41033 0.313039 0.207782
0.558038 0.309224 0.202716
0.696178 0.310002 0.203342
0.829801 0.313695 0.207019
0.962631 0.318853 0.212177
1 0.324926 0.218265
0 0.473808 0.222156
0.0758526 0.466712 0.213153
0.244907 0.459861 0.206271
0.407874 0.456214 0.202609
0.558984 0.456748 0.203159
0.700679 0.461433 0.207843
0.837476 0.468299 0.21471
0.972564 0.4757 0.22211
1 0.483314 0.229725
0 0.619821 0.219303
0.0779889 0.615824 0.215305
0.250599 0.612482 0.211963
0.416464 0.611719 0.2112
0.56965 0.614343 0.213825
0.712612 0.620279 0.219776
0.85417 0.631907 0.231388
0.999756 0.649821 0.249317
1 0.673259 0.281483
0 0.77615 0.228717
0.0891432 0.773892 0.226444
0.263584 0.772396 0.224948
0.435477 0.777661 0.230213
0.602441 0.793713 0.247211
0.758785 0.811002 0.287602
0.890867 0.825544 0.350927
0.990936 0.837568 0.423987
1 0.849989 0.501945
0 0.946471 0.25211
0.133379 0.956191 0.26923
0.347341 0.95494 0.311528
0.541115 0.946303 0.371069
0.6972 0.938506 0.443565
0.815335 0.934432 0.524086
0.901198 0.934783 0.609018
0.959533 0.939818 0.695766
0.994263 0.949416 0.780911
0.165469 1 0.411093
0.388144 1 0.479881
0.576669 1 0.555566
0.7252 0.995865 0.637842
0.834485 0.984955 0.724178
0.909865 0.981674 0.808301
0.957946 0.984085 0.883436
0.985275 0.99025 0.944167
0.999222 0.998993 0.993759
0.0951553 0.0869001 0.249104
0.168734 0.0819562 0.268635
0.25771 0.0725414 0.282872
0.357137 0.0602121 0.293278
0.462287 0.0465705 0.301671
0.572045 0.0320897 0.308522
0.689509 0.0166323 0.314336
0.816815 1.5259e-05 0.318853
0.955657 0 0.321874
0.0773938 0.148836 0.306401
0.170214 0.139239 0.310948
0.278172 0.126452 0.312184
0.395544 0.1122 0.311803
0.517296 0.0983291 0.31162
0.643366 0.0854658 0.312261
0.777493 0.0737774 0.313954
0.92018 0.0633249 0.315953
1 0.0538643 0.316747
0.0269322 0.228565 0.324483
0.141375 0.218036 0.320317
0.271977 0.205798 0.314443
0.411826 0.194324 0.309071
0.553307 0.185626 0.305852
0.692988 0.17995 0.304601
0.830686 0.176883 0.304601
0.965759 0.176364 0.305669
1 0.17847 0.307988
0 0.338933 0.323232
0.10193 0.331762 0.315358
0.256916 0.323064 0.306142
0.413626 0.315831 0.298558
0.561685 0.312551 0.295155
0.700084 0.313909 0.296513
0.834119 0.318013 0.300603
0.967178 0.3234 0.306004
1 0.329809 0.312413
0 0.477394 0.313695
0.0793317 0.470237 0.305913
0.248875 0.463828 0.299504
0.4121 0.460426 0.296101
0.563775 0.46154 0.297215
0.705699 0.466453 0.302129
0.842634 0.473457 0.309133
0.977798 0.480949 0.316625
1 0.488624 0.3243
0 0.624323 0.313054
0.082826 0.620661 0.309392
0.255695 0.617578 0.306325
0.421347 0.616602 0.305348
0.574899 0.619577 0.308324
0.718578 0.626261 0.315007
0.861494 0.639231 0.327977
1 0.660166 0.349325
1 0.684596 0.386313
0 0.781399 0.323217
0.0943618 0.779126 0.320943
0.270497 0.779293 0.321126
0.444419 0.786603 0.32842
0.613474 0.803235 0.349462
0.768643 0.819394 0.393561
0.89427 0.831571 0.450248
0.988724 0.843168 0.514611
1 0.856199 0.583337
0 0.956542 0.351446
0.152239 0.962768 0.373053
0.370184 0.957656 0.415534
0.560906 0.947234 0.469291
0.711421 0.939055 0.532174
0.824628 0.935576 0.602457
0.906126 0.936934 0.67657
0.960922 0.943282 0.752972
0.992859 0.954009 0.826795
0.204028 1 0.504341
0.422431 1 0.564523
0.604669 1 0.630289
0.747341 0.993103 0.702525
0.850843 0.984009 0.777722
0.921019 0.982345 0.850004
0.964996 0.986007 0.913695
0.989593 0.992981 0.964996
1 1 1
0.0965896 0.0879377 0.296468
0.172168 0.0817884 0.320012
0.263035 0.0713054 0.338094
0.364126 0.0580758 0.352377
0.470512 0.0436713 0.364553
0.582284 0.0286717 0.375891
0.701396 0.0127871 0.386038
0.830304 0 0.394919
0.970718 0 0.402335
0.0756237 0.149187 0.367315
0.170535 0.13875 0.375738
0.280629 0.125246 0.381033
0.400244 0.110506 0.38497
0.523995 0.0962997 0.38909
0.65243 0.0834669 0.394491
0.788037 0.0719768 0.400626
0.930861 0.0618906 0.406409
1 0.0532998 0.410636
0.02327 0.229145 0.39913
0.140261 0.218463 0.399619
0.273701 0.206256 0.398428
0.416114 0.194919 0.397467
0.558862 0.186282 0.397757
0.698756 0.180911 0.399298
0.835874 0.178515 0.401404
0.969406 0.178882 0.403647
1 0.181933 0.406744
0 0.341695 0.413077
0.101747 0.334325 0.408576
0.258808 0.32549 0.401831
0.416526 0.318334 0.395911
0.564767 0.315602 0.393484
0.703593 0.317433 0.395331
0.838087 0.321981 0.399878
0.971511 0.327733 0.405631
1 0.334371 0.412268
0 0.480613 0.411658
0.0826429 0.473548 0.404517
0.252567 0.467521 0.398489
0.416037 0.464363 0.395331
0.568154 0.465919 0.396887
0.710338 0.471092 0.40206
0.847227 0.47805 0.409018
0.982589 0.48574 0.416709
1 0.494087 0.425055
0 0.628534 0.412573
0.0872816 0.625116 0.409155
0.260288 0.622156 0.40621
0.426139 0.621393 0.405432
0.579675 0.624369 0.408408
0.724987 0.63267 0.416709
0.869825 0.647562 0.431617
1 0.670268 0.456153
1 0.696025 0.494713
0 0.786191 0.423301
0.0993057 0.784054 0.42118
0.277028 0.78584 0.42295
0.454002 0.79617 0.433295
0.624643 0.811704 0.45745
0.777203 0.826291 0.500084
0.897276 0.837476 0.549371
0.986145 0.848722 0.603067
1 0.862333 0.660822
0 0.965789 0.457145
0.174685 0.967575 0.481544
0.391882 0.958511 0.517983
0.57966 0.947204 0.564111
0.725505 0.93933 0.617334
0.833768 0.93666 0.676356
0.911315 0.939315 0.73991
0.962539 0.946899 0.80473
0.991791 0.958556 0.866911
0.2421 1 0.594446
0.455741 1 0.644709
0.632517 1 0.700465
0.769284 0.9906 0.762081
0.86714 0.983459 0.826108
0.931838 0.983368 0.886259
0.971557 0.988052 0.93846
0.993805 0.995773 0.981537
1 1 1
0.0975509 0.0884871 0.348516
0.175097 0.081178 0.376135
0.267857 0.069688 0.398245
0.370703 0.0555886 0.416617
0.478614 0.0404822 0.432914
0.591928 0.024918 0.448646
0.712871 0.00863661 0.463432
0.84332 0 0.476829
0.986053 0 0.48925
0.0734569 0.149065 0.433127
0.17055 0.137942 0.446006
0.282795 0.123751 0.455512
0.404379 0.108431 0.463645
0.530434 0.0940261 0.472602
0.66125 0.0813306 0.48304
0.798505 0.0702068 0.493767
0.941253 0.0605936 0.503029
1 0.0527504 0.50985
0.0194095 0.229725 0.480064
0.138918 0.218677 0.485008
0.275044 0.206394 0.488426
0.419684 0.195102 0.491585
0.563912 0.186831 0.495399
0.70396 0.181888 0.499306
0.840284 0.180209 0.502876
0.972274 0.181582 0.505699
1 0.185138 0.509255
0 0.344167 0.508858
0.101457 0.336477 0.507164
0.260533 0.327657 0.502495
0.419104 0.320653 0.497581
0.567758 0.318593 0.495781
0.706966 0.320806 0.497993
0.84152 0.325414 0.502602
0.975586 0.331807 0.50901
1 0.33872 0.515923
0 0.483391 0.513664
0.0858167 0.476722 0.506996
0.256168 0.471122 0.501381
0.419944 0.468269 0.498543
0.57232 0.470085 0.500343
0.714702 0.475456 0.50573
0.851575 0.482383 0.512657
0.987076 0.490227 0.5205
1 0.500145 0.530404
0 0.632578 0.515923
0.0915694 0.629404 0.512749
0.264622 0.626505 0.50985
0.430625 0.625879 0.509224
0.584283 0.628977 0.512322
0.731472 0.639155 0.522499
0.879057 0.656794 0.540139
1 0.680278 0.566201
1 0.706722 0.60148
0 0.790677 0.527092
0.104646 0.789395 0.525811
0.283986 0.792782 0.529198
0.463951 0.805524 0.542412
0.636393 0.819501 0.56762
0.784283 0.831647 0.603067
0.899489 0.842557 0.643397
0.983398 0.854231 0.686534
1 0.868666 0.732998
0 0.973022 0.566979
0.200107 0.970642 0.590311
0.41561 0.958709 0.618708
0.59791 0.94667 0.653956
0.739162 0.939452 0.696574
0.843153 0.937972 0.744839
0.916747 0.941985 0.797192
0.964523 0.950851 0.85066
0.99118 0.963165 0.900908
0.281865 1 0.680491
0.488472 1 0.719173
0.659739 1 0.764385
0.790509 0.98851 0.814969
0.882612 0.983368 0.867674
0.942565 0.984787 0.91725
0.978073 0.990372 0.958984
0.998016 0.998703 0.994461
1 1 1
0.0981308 0.0886702 0.404257
0.177691 0.0802777 0.436011
0.272328 0.0677806 0.46215
0.376944 0.0528573 0.484642
0.486595 0.0370794 0.505287
0.601434 0.0209812 0.525399
0.723934 0.0043183 0.544747
0.856214 0 0.562905
1 0 0.58053
0.0710918 0.148745 0.502922
0.170367 0.136934 0.520226
0.284886 0.122118 0.534188
0.408606 0.106325 0.546685
0.536767 0.0916915 0.560265
0.669551 0.0791028 0.575494
0.80824 0.0684672 0.590616
0.950942 0.0594949 0.603037
1 0.0525368 0.611917
0.0154726 0.230259 0.565316
0.137682 0.219028 0.574975
0.276463 0.206607 0.582712
0.423209 0.195377 0.589548
0.568429 0.18732 0.596033
0.708614 0.182986 0.601801
0.843854 0.181949 0.605997
0.975158 0.184451 0.609216
1 0.188403 0.613153
0 0.346578 0.608225
0.10135 0.338552 0.608652
0.262089 0.329564 0.605127
0.421729 0.323156 0.600946
0.570825 0.32166 0.599496
0.710445 0.324285 0.602121
0.845319 0.329213 0.60705
0.979644 0.335866 0.613703
1 0.342992 0.620829
0 0.486091 0.616999
0.0889448 0.47985 0.610758
0.259434 0.474388 0.605295
0.42388 0.472221 0.603128
0.576501 0.474266 0.605173
0.71902 0.479774 0.610681
0.85597 0.486778 0.6177
0.991562 0.494713 0.62562
1 0.506554 0.637476
0 0.636576 0.620554
0.0958267 0.633661 0.617639
0.268833 0.630716 0.614694
0.435019 0.630274 0.614267
0.589456 0.63415 0.618128
0.737987 0.64567 0.629648
0.888228 0.666285 0.650294
1 0.690684 0.675334
1 0.716472 0.702541
0 0.795071 0.63212
0.110719 0.795483 0.632532
0.292149 0.800961 0.638025
0.475257 0.814084 0.65275
0.648829 0.826841 0.675471
0.79144 0.836881 0.701289
0.901289 0.847242 0.730358
0.980667 0.859617 0.762448
1 0.87512 0.797757
0 0.978485 0.6766
0.226719 0.97203 0.694347
0.440406 0.958373 0.713603
0.617075 0.946197 0.737697
0.752987 0.939742 0.768811
0.852537 0.939498 0.805798
0.922286 0.9449 0.846998
0.966873 0.955001 0.889357
0.991119 0.968048 0.929381
0.321767 1 0.759396
0.522835 1 0.78735
0.687388 0.998566 0.821469
0.81149 0.986923 0.860929
0.897154 0.983597 0.902266
0.952316 0.986419 0.941711
0.984436 0.99292 0.975174
1 1 1
1 1 1
0.098497 0.0886397 0.463096
0.180011 0.0791638 0.498711
0.276555 0.0657054 0.52874
0.382757 0.0499428 0.555016
0.494469 0.0335699 0.580362
0.611093 0.0169985 0.605035
0.735195 1.5259e-05 0.628885
0.869123 0 0.651637
1 0 0.674052
0.0685893 0.148318 0.575418
0.170001 0.13576 0.596933
0.286854 0.120409 0.615442
0.412955 0.10425 0.632563
0.543496 0.0895552 0.650996
0.677974 0.0771191 0.670527
0.817243 0.0668498 0.689052
0.959777 0.0586709 0.704112
1 0.0527657 0.714504
0.0115206 0.230686 0.652964
0.136553 0.219455 0.667597
0.278096 0.207065 0.679469
0.426749 0.195865 0.68925
0.572732 0.188037 0.697627
0.71281 0.184314 0.704463
0.84715 0.184268 0.708827
0.978271 0.187564 0.71223
1 0.191928 0.716594
0 0.349004 0.70901
0.101671 0.34078 0.710979
0.264042 0.331792 0.707942
0.42446 0.325872 0.703609
0.573999 0.324834 0.702586
0.713924 0.327764 0.705501
0.849302 0.333196 0.710948
0.983856 0.340078 0.71783
1 0.347356 0.725109
0 0.489067 0.71989
0.0923018 0.483207 0.714031
0.263142 0.478096 0.708919
0.427924 0.476265 0.707073
0.580804 0.478569 0.709377
0.72311 0.483879 0.714702
0.86041 0.491234 0.722057
0.996719 0.49987 0.730694
1 0.513146 0.743969
0 0.640696 0.72459
0.0999008 0.637736 0.72163
0.273289 0.635157 0.719051
0.43946 0.63473 0.718624
0.595575 0.640253 0.724147
0.746105 0.653788 0.737682
0.8963 0.67599 0.759152
1 0.701595 0.779782
1 0.726009 0.796139
0 0.79968 0.736645
0.116869 0.801633 0.738598
0.301427 0.810224 0.747204
0.48809 0.822034 0.760525
0.660914 0.833112 0.776471
0.798856 0.842206 0.792172
0.903365 0.852323 0.809628
0.978195 0.865293 0.830243
1 0.881651 0.854154
0.0230259 0.982605 0.782513
0.253574 0.972137 0.790738
0.464561 0.957519 0.79968
0.63653 0.9458 0.813046
0.767163 0.940368 0.832944
0.862394 0.941497 0.859098
0.928115 0.948196 0.889326
0.969421 0.959243 0.921126
0.99147 0.972778 0.951522
0.36083 1 0.829587
0.556725 1 0.847074
0.714931 0.995407 0.870695
0.832486 0.985885 0.899825
0.911772 0.984344 0.930983
0.961349 0.988281 0.960693
0.990478 0.995575 0.987259
1 1 1
1 1 1
