All_In_One/addons/Enrich_Colormaster/colormanagement/luts/film_response/warm_hunny.cube
TITLE "Generate by Resolve"
LUT_3D_SIZE 9
0.0488441 0.0472419 0.0831311
0.116548 0.0475166 0.0988022
0.218357 0.0367285 0.106111
0.34342 0.0190127 0.109819
0.497246 0 0.111406
0.679835 0 0.107286
0.891051 0 0.0973068
1 0 0.0821088
1 0 0.0621805
0.0271153 0.120516 0.122148
0.130159 0.112413 0.11873
0.280308 0.0913558 0.105653
0.454582 0.0639658 0.0889143
0.644678 0.0330968 0.0711833
0.862425 0 0.0499886
1 0 0.0249485
1 0 0
1 0 0
0 0.234089 0.0961318
0.0513008 0.219165 0.0717174
0.248432 0.190921 0.0381781
0.47454 0.15787 0.00289921
0.710597 0.126833 0
0.970336 0.0955062 0
1 0.0631876 0
1 0.0337377 0
1 0.0107576 0
0 0.398535 0.00886549
0 0.385443 0
0.145647 0.359899 0
0.429068 0.329137 0
0.694911 0.305623 0
0.950057 0.288289 0
1 0.272221 0
1 0.257527 0
1 0.243931 0
0 0.627604 0
0 0.609033 0
0.0397498 0.582177 0
0.350164 0.554269 0
0.632349 0.536812 0
0.895338 0.52575 0
1 0.514839 0
1 0.50901 0
1 0.516655 0
0 0.862608 0
0 0.849287 0
0 0.828611 0
0.283406 0.804761 0
0.589242 0.796811 0
0.872938 0.804105 0
1 0.808286 0.0410773
1 0.814893 0.21004
1 0.833799 0.394522
0 1 0
0 1 0
0 1 0
0.38471 1 0.0953841
0.681956 0.995911 0.26508
0.869703 0.970001 0.456519
0.97409 0.962539 0.648402
1 0.970932 0.818799
1 0.988464 0.945495
0 1 0.174182
0.166903 1 0.348913
0.526802 1 0.535546
0.781231 1 0.716777
0.92871 1 0.871992
0.994018 0.999741 0.984283
1 1 1
1 1 1
1 1 1
0.677256 1 0.785122
0.899184 1 0.921187
0.999969 1 1
1 1 1
1 1 1
1 1 1
1 1 1
1 1 1
1 1 1
0.0519112 0.0503548 0.106676
0.122744 0.0488746 0.12639
0.225574 0.0359655 0.136461
0.359594 0.0169528 0.146273
0.517128 0 0.1523
0.7028 0 0.152392
0.91783 0 0.147036
1 0 0.136461
1 0 0.121324
0.0250095 0.123583 0.160983
0.131899 0.113924 0.162066
0.286671 0.0911879 0.153216
0.465751 0.0622721 0.140505
0.659678 0.0302129 0.12723
0.881987 0 0.110918
1 0 0.0910964
1 0 0.0691234
1 0 0.0471656
0 0.23769 0.14992
0.0485542 0.221637 0.130068
0.250462 0.19234 0.101228
0.482353 0.15845 0.0708629
0.724056 0.127428 0.0461585
0.985779 0.0965896 0.0247959
1 0.0655375 0.00643931
1 0.0381476 0
1 0.0172885 0
0 0.405386 0.0797436
0 0.391806 0.0486458
0.147616 0.365591 0.0140841
0.434684 0.334142 0
0.701656 0.311437 0
0.956924 0.294728 0
1 0.279713 0
1 0.265583 0
1 0.252277 0
0 0.63473 0
0 0.61561 0
0.0460975 0.589578 0
0.357671 0.56231 0
0.640604 0.544839 0
0.904341 0.534325 0
1 0.523796 0
1 0.521813 0
1 0.535409 0.014313
0 0.870512 0
0 0.857954 0
0 0.837507 0
0.29366 0.815427 0
0.60473 0.811872 0
0.884092 0.817151 0.0286259
1 0.81912 0.164202
1 0.826871 0.323156
1 0.848035 0.493141
0 1 0
0 1 0
0.0390173 1 0.080827
0.422415 1 0.214267
0.706783 0.993164 0.37348
0.882124 0.970306 0.550072
0.975952 0.966201 0.7234
1 0.976837 0.87126
1 0.994842 0.977142
0 1 0.28986
0.247059 1 0.452491
0.586679 1 0.621424
0.820661 1 0.783047
0.94931 1 0.914961
1 1 0.998856
1 1 1
1 1 1
1 1 1
0.750484 1 0.843717
0.941985 1 0.957259
1 1 1
1 1 1
1 1 1
1 1 1
1 1 1
1 1 1
1 1 1
0.0538949 0.0525673 0.139086
0.127382 0.0492714 0.163516
0.234653 0.0348058 0.177569
0.374289 0.0141451 0.19234
0.535714 0 0.20296
0.724743 0 0.20798
0.94345 0 0.207431
1 0 0.202029
1 0 0.192416
0.0217899 0.125719 0.210727
0.132372 0.114519 0.216709
0.2916 0.0901656 0.212146
0.475303 0.059617 0.203815
0.673884 0.0264134 0.195468
0.900481 0 0.184375
1 0 0.170336
1 0 0.154849
1 0 0.13959
0 0.24036 0.215961
0.0446632 0.223301 0.201205
0.251514 0.193027 0.177523
0.489967 0.158511 0.152728
0.736614 0.127474 0.134371
0.999863 0.0970626 0.11902
1 0.0673228 0.10605
1 0.0421302 0.098085
1 0.0225834 0.0955978
0 0.410925 0.164508
0 0.397238 0.139849
0.147784 0.369985 0.110643
0.439094 0.338445 0.0851606
0.70692 0.316152 0.0757305
0.963592 0.30045 0.0750439
1 0.285817 0.0760662
1 0.272496 0.078645
1 0.259281 0.08159
0 0.640192 0.103212
0 0.621317 0.0895399
0.0509651 0.595789 0.0744335
0.363836 0.5691 0.0601816
0.648264 0.551888 0.0564431
0.912169 0.541192 0.0598917
1 0.532998 0.0662089
1 0.535058 0.0832074
1 0.554482 0.142077
0 0.877745 0.0817884
0 0.865217 0.0743114
0 0.845212 0.063798
0.303029 0.825956 0.0558328
0.619028 0.824567 0.0728466
0.89247 0.827466 0.160494
1 0.828183 0.287709
1 0.837324 0.431098
1 0.86128 0.585031
0 1 0.082536
0 1 0.116564
0.0859083 1 0.209979
0.458824 1 0.33312
0.730587 0.990127 0.478309
0.894255 0.970733 0.637858
0.978042 0.96997 0.789151
1 0.982086 0.912291
1 1 0.997406
0 1 0.402152
0.322591 1 0.549691
0.644068 1 0.700679
0.857298 1 0.841154
0.967758 1 0.950149
1 1 1
1 1 1
1 1 1
1 1 1
0.811322 1 0.890379
0.977752 1 0.984817
1 1 1
1 1 1
1 1 1
1 1 1
1 1 1
1 1 1
1 1 1
0.0542 0.053193 0.188327
0.12932 0.0477302 0.220783
0.242008 0.031632 0.244862
0.385809 0.0089723 0.268605
0.550744 0 0.287266
0.742992 0 0.299138
0.965362 0 0.304311
1 0 0.303548
1 0 0.297826
0.0158999 0.125032 0.292546
0.129564 0.112047 0.307515
0.292821 0.0859236 0.310811
0.481514 0.0537575 0.309392
0.684504 0.0193332 0.307027
0.915633 0 0.301457
1 0 0.291844
1 0 0.280324
1 0 0.266636
0 0.239704 0.324773
0.037171 0.221363 0.317601
0.248997 0.190417 0.300542
0.49395 0.155276 0.281086
0.74519 0.124254 0.266667
1 0.0948043 0.253468
1 0.0667277 0.239582
1 0.0446479 0.229023
1 0.0261997 0.221347
0 0.413504 0.292592
0 0.399344 0.274266
0.145556 0.371633 0.247684
0.440909 0.340307 0.221683
0.710613 0.318975 0.208774
0.96849 0.30428 0.203403
1 0.290806 0.200229
1 0.277958 0.19855
1 0.265553 0.198901
0 0.64332 0.234668
0 0.624842 0.219715
0.0542153 0.600687 0.202029
0.368399 0.574502 0.184146
0.654917 0.55787 0.177035
0.919478 0.547433 0.177661
1 0.541695 0.184131
1 0.548775 0.206119
1 0.574762 0.275029
0 0.883803 0.200671
0 0.871931 0.192813
0 0.852262 0.181079
0.312901 0.837095 0.175799
0.634104 0.835721 0.201862
0.898085 0.835157 0.289586
1 0.836179 0.404349
1 0.848295 0.533822
1 0.874998 0.669673
0 1 0.202548
0 1 0.248936
0.135378 1 0.337194
0.496361 1 0.44686
0.754269 0.987243 0.574975
0.90573 0.97145 0.714229
0.980453 0.973861 0.844602
1 0.987549 0.946624
1 1 1
0.000274662 1 0.507485
0.395315 1 0.637461
0.698283 1 0.769818
0.890303 1 0.888823
0.984543 1 0.978103
1 1 1
1 1 1
1 1 1
1 1 1
0.864622 1 0.927855
0.996811 1 0.9991
1 1 1
1 1 1
1 1 1
1 1 1
1 1 1
1 1 1
1 1 1
0.0534066 0.052842 0.247562
0.129397 0.0450446 0.287495
0.248295 0.0273747 0.327077
0.395972 0.00239567 0.36231
0.563836 0 0.392126
0.758816 0 0.414878
0.983658 0 0.430457
1 0 0.440406
1 0 0.445411
0.00859083 0.123079 0.391821
0.125185 0.108141 0.418341
0.292241 0.0800336 0.432654
0.485649 0.0458991 0.441901
0.692912 0.0099031 0.45066
0.927672 0 0.455802
1 0 0.457725
1 0 0.45626
1 0 0.449668
0 0.236606 0.46186
0.0272374 0.217121 0.466361
0.243458 0.185046 0.460609
0.494087 0.148806 0.451713
0.749737 0.117739 0.447318
1 0.088838 0.440436
1 0.0626383 0.430213
1 0.0424506 0.419181
1 0.0252079 0.410574
0 0.41297 0.467918
0 0.397375 0.458396
0.139513 0.369268 0.43772
0.437858 0.337682 0.413443
0.709804 0.31725 0.4
0.968566 0.303212 0.393591
1 0.2907 0.388922
1 0.278462 0.385061
1 0.266178 0.381308
0 0.641672 0.425544
0 0.624109 0.410788
0.0522164 0.600473 0.392309
0.367834 0.575113 0.373281
0.655924 0.558221 0.363485
0.921721 0.548516 0.361318
1 0.546548 0.367315
1 0.558556 0.390951
1 0.590051 0.449317
0 0.884886 0.386221
0 0.873182 0.377234
0 0.855726 0.364843
0.318944 0.84448 0.360006
0.645258 0.841062 0.388067
0.899565 0.839231 0.458946
1 0.842023 0.546166
1 0.857191 0.645914
1 0.887327 0.754421
0 1 0.38204
0 1 0.428367
0.181491 1 0.494331
0.529366 1 0.576288
0.775769 0.983444 0.677791
0.916869 0.972107 0.790738
0.983032 0.977844 0.894316
1 0.992691 0.973342
1 1 1
0.0852827 1 0.622568
0.466697 1 0.728191
0.747982 1 0.834058
0.917449 1 0.926863
0.998199 1 0.997497
1 1 1
1 1 1
1 1 1
1 1 1
0.912077 1 0.958251
1 1 1
1 1 1
1 1 1
1 1 1
1 1 1
1 1 1
1 1 1
1 1 1
0.0518196 0.0518196 0.313146
0.129778 0.0421302 0.362875
0.253697 0.0224308 0.418387
0.405264 0 0.465766
0.575967 0 0.508064
0.773449 0 0.543114
1 0 0.571267
1 0 0.594003
1 0 0.611994
0.00047303 0.120333 0.50074
0.119921 0.103471 0.539406
0.290639 0.0733349 0.566171
0.488746 0.0371252 0.587655
0.699702 0 0.608576
0.939025 0 0.627222
1 0 0.642344
1 0 0.651972
1 0 0.653513
0 0.232746 0.613153
0.0162356 0.211948 0.630518
0.236759 0.178714 0.637644
0.493645 0.14168 0.641505
0.752605 0.110292 0.646922
1 0.0820478 0.646647
1 0.0578622 0.639109
1 0.0391089 0.628504
1 0.0224613 0.619821
0 0.410758 0.662303
0 0.394141 0.661616
0.132082 0.365225 0.645869
0.433646 0.334173 0.623133
0.707454 0.31397 0.609522
0.967544 0.300969 0.603449
1 0.288701 0.598566
1 0.27715 0.5944
1 0.265095 0.590127
0 0.638575 0.635126
0 0.622034 0.621225
0.0488899 0.599069 0.602945
0.365301 0.573693 0.583368
0.655436 0.557031 0.573022
0.92285 0.548424 0.571298
1 0.551019 0.580865
1 0.568276 0.6038
1 0.603372 0.640299
0 0.884138 0.595834
0 0.872404 0.586404
0 0.857374 0.576059
0.32459 0.849897 0.575097
0.655177 0.843412 0.59707
0.898131 0.840513 0.639872
1 0.846098 0.694636
1 0.865171 0.761196
1 0.898604 0.836713
0 1 0.595605
0 1 0.625483
0.22536 1 0.662699
0.562646 1 0.71342
0.796338 0.979324 0.781781
0.926619 0.972671 0.861402
0.985412 0.981414 0.935286
1 0.997772 0.993255
1 1 1
0.167727 1 0.744961
0.531182 1 0.817472
0.793118 1 0.893034
0.942611 1 0.959213
1 1 1
1 1 1
1 1 1
1 1 1
1 1 1
0.953506 1 0.982071
1 1 1
1 1 1
1 1 1
1 1 1
1 1 1
1 1 1
1 1 1
1 1 1
0.0493629 0.0500496 0.383627
0.130556 0.0389105 0.448371
0.257801 0.016968 0.516442
0.413443 0 0.576654
0.586923 0 0.630701
0.787533 0 0.678248
1 0 0.719234
1 0 0.754833
1 0 0.785519
0 0.117021 0.617548
0.114 0.0982223 0.66836
0.28838 0.0661631 0.706981
0.490929 0.0278935 0.740078
0.706584 0 0.774212
0.950011 0 0.80618
1 0 0.833829
1 0 0.8542
1 0 0.861738
0 0.228656 0.772061
0.00514229 0.2065 0.802213
0.230015 0.172488 0.822705
0.492882 0.134569 0.838224
0.754177 0.102647 0.851179
1 0.0755932 0.855894
1 0.053315 0.849073
1 0.0358282 0.839658
1 0.019791 0.831861
0 0.408362 0.863066
0 0.390692 0.869245
0.125277 0.361563 0.856687
0.429633 0.330938 0.833997
0.705531 0.311147 0.821057
0.966171 0.298329 0.815503
1 0.286809 0.811551
1 0.275151 0.807691
1 0.264485 0.805035
0 0.635752 0.846693
0 0.619623 0.833249
0.0454261 0.597604 0.81622
0.362875 0.572427 0.797055
0.654276 0.555352 0.786587
0.924926 0.549249 0.787488
1 0.555474 0.800748
1 0.578912 0.813657
1 0.617807 0.821332
0 0.88275 0.809812
0 0.87158 0.801083
0 0.859785 0.794034
0.332662 0.853025 0.794018
0.66389 0.843824 0.797375
0.896361 0.841459 0.808392
1 0.850416 0.829206
1 0.873655 0.861936
1 0.910353 0.90515
0 1 0.811246
0 1 0.814878
0.270298 1 0.81883
0.595361 1 0.835843
0.816693 0.976135 0.870802
0.936568 0.974029 0.918791
0.98819 0.985245 0.96524
1 1 1
1 1 1
0.248325 1 0.853651
0.595895 1 0.893584
0.835081 1 0.939132
0.964828 1 0.981491
1 1 1
1 1 1
1 1 1
1 1 1
1 1 1
0.989685 1 0.997253
1 1 1
1 1 1
1 1 1
1 1 1
1 1 1
1 1 1
1 1 1
1 1 1
0.0460517 0.0475471 0.457801
0.130968 0.035111 0.542855
0.261677 0.0108034 0.623514
0.42089 0 0.69575
0.597833 0 0.762417
0.801236 0 0.822568
1 0 0.876387
1 0 0.92459
1 0 0.969345
0 0.113085 0.742824
0.107561 0.0923476 0.805997
0.285359 0.0583963 0.856825
0.493111 0.0181277 0.902831
0.713634 0 0.950286
0.960983 0 0.99588
1 0 1
1 0 1
1 0 1
0 0.223926 0.940566
0 0.200534 0.983719
0.222568 0.165743 1
0.490761 0.126925 1
0.755184 0.0950484 1
1 0.0693523 1
1 0.0493019 1
1 0.0323186 1
1 0.0172427 1
0 0.405539 1
0 0.386679 1
0.1187 0.357809 1
0.425147 0.327367 1
0.703471 0.308186 1
0.965026 0.295888 1
1 0.284749 1
1 0.273335 1
1 0.264576 1
0 0.632929 1
0 0.617563 1
0.0415656 0.595789 1
0.360189 0.571099 1
0.653208 0.553582 1
0.927062 0.550103 1
1 0.561517 1
1 0.590188 1
1 0.631281 0.981476
0 0.881559 1
0 0.871336 1
0 0.864042 1
0.345251 0.855528 1
0.67277 0.843839 0.979965
0.89543 0.843458 0.956954
1 0.85626 0.943603
1 0.883207 0.943221
1 0.921691 0.95613
0 1 1
0 1 0.984146
0.316457 1 0.954025
0.62829 0.994156 0.937682
0.836957 0.974258 0.940887
0.946685 0.976349 0.960708
0.991623 0.989685 0.98529
1 1 1
1 1 1
0.327642 1 0.942275
0.655833 1 0.951492
0.871672 1 0.970962
0.985489 1 0.995071
1 1 1
1 1 1
1 1 1
1 1 1
1 1 1
0.997543 1 1
1 1 1
1 1 1
1 1 1
1 1 1
1 1 1
1 1 1
1 1 1
1 1 1
0.0424811 0.0448157 0.540917
0.130648 0.0307012 0.645914
0.264775 0.0040589 0.739147
0.427893 0 0.823545
0.608057 0 0.902617
0.814771 0 0.975586
1 0 1
1 0 1
1 0 1
0 0.108537 0.876387
0.100282 0.085893 0.951614
0.281727 0.0501106 1
0.494804 0.00784314 1
0.720027 0 1
0.970993 0 1
1 0 1
1 0 1
1 0 1
0 0.218585 1
0 0.194293 1
0.21503 0.15877 1
0.488563 0.119265 1
0.755245 0.0876783 1
1 0.0634775 1
1 0.0452888 1
1 0.0290227 1
1 0.0142214 1
0 0.401877 1
0 0.382528 1
0.112383 0.353582 1
0.420783 0.324086 1
0.701289 0.304875 1
0.963897 0.293416 1
1 0.282353 1
1 0.271077 1
1 0.265354 1
0 0.629938 1
0 0.615473 1
0.0378729 0.594186 1
0.356847 0.569284 1
0.652781 0.55259 1
0.931167 0.552895 1
1 0.56846 1
1 0.601678 1
1 0.646616 1
0 0.880186 1
0 0.872374 1
0 0.868376 1
0.362066 0.857298 1
0.68304 0.844373 1
0.894926 0.845884 1
1 0.862364 1
1 0.893446 1
1 0.933791 0.993072
0 1 1
0 1 1
0.362371 1 1
0.662745 0.988144 1
0.857847 0.973663 0.994522
0.956359 0.979278 0.989456
0.995254 0.994217 0.996429
1 1 1
1 1 1
0.405875 1 1
0.712261 1 0.994018
0.904128 1 0.991745
0.998489 1 1
1 1 1
1 1 1
1 1 1
1 1 1
1 1 1
1 1 1
1 1 1
1 1 1
1 1 1
1 1 1
1 1 1
1 1 1
1 1 1
1 1 1
