All_In_One/addons/Enrich_Colormaster/colormanagement/luts/film_response/warm_hunny_709.cube
TITLE "Generate by Resolve"
LUT_3D_SIZE 33
0.0833143 0.0767987 0.125093
0.0974746 0.0769513 0.127504
0.113252 0.0771649 0.130251
0.130068 0.0769818 0.132555
0.148043 0.076463 0.134539
0.16701 0.0756237 0.136141
0.186862 0.0744335 0.137362
0.207553 0.0730297 0.138262
0.229145 0.0713512 0.138949
0.251347 0.0694133 0.1393
0.274174 0.067277 0.139437
0.297475 0.0649577 0.139345
0.321202 0.0624857 0.139071
0.345556 0.0599222 0.13875
0.370199 0.0572366 0.138247
0.39498 0.0544747 0.137606
0.42005 0.0516213 0.136873
0.445426 0.0486763 0.136034
0.471153 0.0456397 0.135073
0.497612 0.0425574 0.134112
0.524239 0.039353 0.132967
0.551278 0.0360418 0.131716
0.578775 0.032639 0.130343
0.606653 0.0291447 0.128847
0.635081 0.0255589 0.12726
0.664637 0.0218814 0.125658
0.694392 0.0180819 0.123873
0.724743 0.0141756 0.12195
0.755642 0.010132 0.119875
0.78735 0.00595102 0.117662
0.820493 0.00169375 0.115465
0.854002 0 0.113054
0.887572 0 0.110674
0.0861982 0.0915541 0.135027
0.102129 0.0917525 0.137194
0.119097 0.0914626 0.138781
0.137057 0.0908064 0.139895
0.156054 0.0898146 0.140688
0.176074 0.0885328 0.141192
0.197101 0.0870069 0.141451
0.219013 0.0852369 0.141451
0.241505 0.0831617 0.1411
0.264637 0.0808881 0.140505
0.288365 0.0784619 0.139742
0.312596 0.0758831 0.138827
0.33756 0.0732433 0.137896
0.36257 0.0704509 0.136736
0.3879 0.0675669 0.135454
0.413413 0.0646372 0.134112
0.439216 0.0616617 0.132723
0.465583 0.0586404 0.131319
0.492287 0.0555581 0.129824
0.519173 0.052369 0.128206
0.546395 0.0491035 0.126467
0.57409 0.0457618 0.124681
0.602365 0.042359 0.12282
0.631525 0.0389105 0.120958
0.660914 0.0353552 0.118929
0.690669 0.0316777 0.116777
0.721096 0.0279393 0.114534
0.752361 0.024094 0.112245
0.784405 0.0201724 0.109834
0.817578 0.016144 0.107378
0.850919 0.0119783 0.104707
0.885191 0.00772107 0.101946
0.91986 0.00357061 0.099321
0.0864271 0.107439 0.142351
0.103395 0.107027 0.143191
0.121508 0.106294 0.143694
0.140688 0.105241 0.143877
0.160891 0.103883 0.14374
0.182193 0.102312 0.143389
0.204227 0.100374 0.142641
0.22707 0.0982223 0.141649
0.25066 0.0958724 0.140459
0.274861 0.0933394 0.139071
0.299687 0.0906844 0.137575
0.325078 0.0879377 0.135973
0.350652 0.0850385 0.134188
0.376562 0.0820935 0.132342
0.402823 0.0790723 0.130434
0.429282 0.0760357 0.128496
0.456077 0.0729992 0.126574
0.483177 0.0699016 0.124575
0.510506 0.066743 0.122499
0.538293 0.0635386 0.120378
0.566476 0.0602884 0.118212
0.594995 0.0569619 0.115953
0.624262 0.0536202 0.11368
0.654002 0.0502022 0.111345
0.684306 0.0467231 0.108949
0.715175 0.0431678 0.106462
0.746471 0.0395361 0.103883
0.778424 0.0358282 0.101213
0.811856 0.032105 0.0986038
0.845792 0.0282597 0.0958267
0.8804 0.0243534 0.092958
0.915541 0.0203403 0.0899825
0.950851 0.0164492 0.087129
0.0835737 0.123766 0.146212
0.101747 0.122972 0.146105
0.121035 0.121843 0.145647
0.141375 0.120409 0.1449
0.16289 0.118807 0.143999
0.185214 0.116838 0.142687
0.208408 0.114626 0.141131
0.232395 0.1122 0.139345
0.257053 0.10959 0.137377
0.282383 0.106844 0.135286
0.3084 0.104036 0.133135
0.334691 0.101076 0.1308
0.361318 0.0980392 0.128389
0.38819 0.0949569 0.125933
0.415351 0.0918288 0.12343
0.443061 0.0888075 0.121035
0.470726 0.0857099 0.118563
0.49865 0.0825818 0.11606
0.526818 0.079408 0.113497
0.555383 0.0762036 0.110903
0.584634 0.0730297 0.108354
0.614542 0.0698558 0.105806
0.644572 0.0665751 0.103136
0.674998 0.0632486 0.100404
0.70605 0.0598917 0.0976425
0.737911 0.0565194 0.0948959
0.770794 0.0531624 0.0921645
0.804135 0.0497444 0.0893416
0.837827 0.0462043 0.0864118
0.872511 0.0426337 0.0834363
0.908278 0.0390936 0.0804913
0.944961 0.0355383 0.0775311
0.981857 0.0321965 0.0747997
0.0780652 0.140749 0.147127
0.0974441 0.13962 0.146166
0.118044 0.138308 0.145022
0.139605 0.136584 0.143465
0.162188 0.134569 0.141634
0.185687 0.132326 0.139544
0.210056 0.129854 0.137255
0.235233 0.127214 0.134768
0.261295 0.124529 0.13225
0.287739 0.121599 0.129473
0.314656 0.118547 0.126589
0.342 0.11545 0.123644
0.369741 0.112322 0.120684
0.397803 0.109194 0.117723
0.426307 0.106111 0.114794
0.454627 0.102968 0.111803
0.483207 0.099855 0.108858
0.512184 0.0967727 0.105943
0.541527 0.0937057 0.103029
0.571237 0.0906386 0.100114
0.601434 0.0875715 0.0972
0.631952 0.0844739 0.094255
0.663142 0.0814069 0.0913558
0.694865 0.0783246 0.088426
0.726955 0.0751965 0.0854658
0.759793 0.0721141 0.0825208
0.793545 0.0690623 0.0796368
0.827985 0.0660258 0.0767529
0.863142 0.062974 0.0738537
0.898787 0.0598459 0.0708782
0.935042 0.0567178 0.0678874
0.972793 0.0537881 0.0651102
1 0.0510262 0.062501
0.0702068 0.158572 0.145495
0.0908827 0.157259 0.143862
0.112612 0.155566 0.141848
0.135393 0.153582 0.139559
0.159213 0.151369 0.137041
0.183963 0.148913 0.134295
0.209552 0.146258 0.131319
0.236088 0.143542 0.128298
0.263157 0.140581 0.125048
0.290837 0.137545 0.121706
0.319005 0.134432 0.118288
0.347509 0.131258 0.114809
0.376318 0.128054 0.111315
0.405707 0.124987 0.107942
0.435172 0.121874 0.104524
0.464729 0.118807 0.101167
0.494331 0.115755 0.0978256
0.524224 0.112734 0.0945144
0.554955 0.109895 0.091371
0.58584 0.107027 0.0881971
0.617044 0.104158 0.0850385
0.648508 0.101259 0.0818647
0.680522 0.0984207 0.0787213
0.71339 0.0957046 0.0757153
0.747295 0.0931258 0.0728313
0.781247 0.0904555 0.0698863
0.815534 0.0877852 0.0669261
0.850492 0.0851606 0.0640269
0.886336 0.0826276 0.0612345
0.923201 0.0802319 0.0585641
0.96051 0.0778821 0.0559548
0.997742 0.0754253 0.0532692
1 0.073228 0.0508431
0.0602731 0.177462 0.14168
0.0821393 0.17583 0.139269
0.105119 0.173907 0.136584
0.129137 0.171725 0.133623
0.154192 0.169299 0.130449
0.180331 0.166812 0.127169
0.207294 0.164065 0.123659
0.234958 0.161151 0.119982
0.263249 0.158068 0.116152
0.292119 0.154925 0.112276
0.321538 0.151781 0.10837
0.351629 0.14876 0.104555
0.38175 0.145602 0.100649
0.411994 0.142458 0.0967727
0.442527 0.139376 0.092958
0.473274 0.136446 0.0892805
0.504265 0.133639 0.0857099
0.535729 0.130953 0.0822766
0.567071 0.128191 0.0787823
0.598917 0.125551 0.0754101
0.631373 0.123049 0.0721599
0.664332 0.120638 0.0690166
0.697597 0.118242 0.065919
0.731487 0.115999 0.0629435
0.765652 0.113741 0.0600137
0.800504 0.11165 0.0572366
0.835843 0.109651 0.0545663
0.871397 0.107652 0.0519265
0.907362 0.105699 0.0493782
0.943984 0.103883 0.0469825
0.980636 0.102037 0.0446021
1 0.100237 0.042298
1 0.0986801 0.0402838
0.0483864 0.197314 0.135698
0.0715038 0.195499 0.132662
0.0957656 0.193439 0.129381
0.121096 0.191165 0.125887
0.147555 0.188739 0.12221
0.174914 0.186038 0.118303
0.203113 0.183169 0.114229
0.232151 0.180224 0.110079
0.26186 0.177188 0.105837
0.292058 0.174044 0.101503
0.322911 0.170993 0.0972152
0.35404 0.167895 0.0929274
0.385534 0.164889 0.088716
0.417227 0.161959 0.0845808
0.449027 0.159045 0.0804913
0.480827 0.156268 0.0765545
0.513298 0.153826 0.0728923
0.545876 0.151446 0.0693217
0.578698 0.149157 0.0658579
0.611627 0.146883 0.0624552
0.644862 0.144717 0.0591897
0.679057 0.142901 0.0562142
0.713344 0.1411 0.0533303
0.747906 0.139376 0.0505684
0.782544 0.137667 0.0478676
0.817395 0.136034 0.0452888
0.852537 0.134508 0.0428779
0.88838 0.133257 0.0407568
0.923903 0.131868 0.0385901
0.959579 0.130465 0.0364843
0.995377 0.129168 0.0345464
1 0.128008 0.0327764
1 0.12723 0.0314794
0.0347906 0.218509 0.127977
0.059205 0.216556 0.124361
0.0847486 0.214359 0.120531
0.111513 0.212161 0.116609
0.1393 0.209628 0.112398
0.168048 0.206928 0.108034
0.19762 0.204013 0.103487
0.22797 0.201007 0.0988632
0.259174 0.198123 0.0942855
0.29099 0.195209 0.0896925
0.323156 0.192218 0.0850538
0.355566 0.189212 0.0804456
0.388281 0.186328 0.0759442
0.421347 0.183658 0.0716564
0.454978 0.181292 0.0676127
0.48835 0.178973 0.0636759
0.521584 0.176699 0.0598764
0.555062 0.174624 0.0562753
0.588922 0.172793 0.0529183
0.623102 0.17113 0.0497749
0.657694 0.169726 0.0469062
0.691966 0.1682 0.0440528
0.726345 0.166781 0.0413672
0.760922 0.165499 0.03888
0.795605 0.16434 0.0365911
0.830274 0.16321 0.0344396
0.865309 0.162356 0.0326085
0.900069 0.16144 0.030808
0.934997 0.160647 0.0292515
0.970031 0.15993 0.0278477
1 0.159289 0.0266117
1 0.158755 0.0255894
1 0.158816 0.0252384
0.0196689 0.241077 0.118624
0.0454566 0.239231 0.114626
0.0724651 0.237171 0.110399
0.100526 0.23473 0.105913
0.129686 0.232166 0.101259
0.159899 0.229541 0.0965133
0.191028 0.226825 0.0916915
0.22298 0.224048 0.0868086
0.255573 0.221195 0.0818799
0.288716 0.218357 0.0769665
0.322438 0.215656 0.0721904
0.356558 0.213077 0.0675517
0.390753 0.210529 0.0629892
0.425223 0.208225 0.0586862
0.459846 0.206088 0.0545815
0.494438 0.204196 0.050782
0.52903 0.202518 0.0472419
0.56347 0.200916 0.0438849
0.597879 0.19942 0.0407263
0.632685 0.198306 0.0379492
0.667185 0.197131 0.0352941
0.70164 0.196078 0.0328374
0.735958 0.195087 0.0305791
0.770214 0.194202 0.0285344
0.804822 0.193683 0.0269169
0.839155 0.193164 0.025452
0.87332 0.192721 0.0241855
0.907347 0.192355 0.0231022
0.941299 0.192096 0.0222782
0.975326 0.191989 0.0217136
1 0.19234 0.0217136
1 0.192538 0.0217136
1 0.193072 0.0221714
0.00329595 0.2654 0.107988
0.0305028 0.263645 0.103609
0.0589456 0.261601 0.0990005
0.0885328 0.259373 0.0942092
0.119203 0.256886 0.0892348
0.150896 0.254292 0.0841688
0.183719 0.251926 0.0791943
0.217288 0.249409 0.0741436
0.25153 0.246876 0.0691234
0.286183 0.244266 0.0641184
0.321263 0.241749 0.0592355
0.356863 0.239536 0.0546426
0.392782 0.237598 0.0503395
0.428504 0.235676 0.0461891
0.464088 0.233829 0.0422522
0.499367 0.232181 0.0386206
0.534478 0.230777 0.0353246
0.569665 0.229694 0.0324254
0.604578 0.228672 0.0297551
0.639109 0.227665 0.0272526
0.673503 0.226825 0.0250401
0.707835 0.2262 0.0231632
0.742031 0.225727 0.0216068
0.776242 0.225559 0.0204471
0.810025 0.22536 0.0194553
0.84358 0.225284 0.0187381
0.877012 0.225422 0.0183566
0.910231 0.225711 0.0183108
0.943221 0.226108 0.0185245
0.976318 0.226871 0.0192264
1 0.227481 0.019852
1 0.228183 0.0205539
1 0.229145 0.0215152
0 0.291966 0.0964675
0.0146639 0.290105 0.0916915
0.0446174 0.288106 0.0867628
0.0758221 0.286091 0.0817884
0.108232 0.284047 0.0767529
0.141772 0.281971 0.0716869
0.176043 0.279561 0.0664836
0.211139 0.277195 0.0613413
0.246967 0.274968 0.0563516
0.283345 0.272847 0.051545
0.320058 0.270817 0.0469062
0.356909 0.268879 0.0425116
0.393591 0.266957 0.0382849
0.430167 0.265263 0.0344091
0.466545 0.263722 0.0308537
0.502388 0.262364 0.0276188
0.537957 0.261295 0.0248264
0.573266 0.260456 0.0224002
0.608209 0.259739 0.0202792
0.642847 0.25919 0.0185092
0.677119 0.258762 0.0170291
0.71107 0.258503 0.0158846
0.745098 0.258717 0.0153658
0.778576 0.2589 0.0150301
0.811719 0.259236 0.0150301
0.84448 0.259709 0.0153506
0.876982 0.260319 0.0159457
0.909804 0.261265 0.0168917
0.942718 0.262211 0.0178531
0.975799 0.263066 0.0187076
1 0.263935 0.0195621
1 0.26482 0.0204623
1 0.266026 0.0216526
0 0.320546 0.0841993
0 0.319097 0.0793622
0.0301366 0.317357 0.0743572
0.0629892 0.315465 0.0692454
0.0971847 0.313756 0.0642405
0.132387 0.311864 0.0591897
0.168475 0.309895 0.0541695
0.205203 0.30779 0.0491951
0.242405 0.305653 0.0443275
0.280217 0.303838 0.039826
0.318013 0.301885 0.0354314
0.355764 0.300038 0.0313115
0.39324 0.298268 0.0274662
0.430396 0.296681 0.0239872
0.467323 0.295415 0.0209812
0.503868 0.294575 0.018555
0.539605 0.293767 0.0164034
0.574838 0.293111 0.0146334
0.609644 0.292668 0.0132601
0.644099 0.2925 0.0123445
0.678279 0.292683 0.0119936
0.712047 0.29308 0.0120699
0.745174 0.293462 0.0123598
0.778042 0.294026 0.0129397
0.810895 0.294789 0.0136873
0.843732 0.295674 0.0145724
0.876722 0.296788 0.0156863
0.909697 0.297887 0.0167849
0.942718 0.298939 0.0178378
0.976043 0.300053 0.0189517
1 0.301228 0.0201267
1 0.302388 0.0213016
1 0.304006 0.0229191
0 0.351583 0.0718242
0 0.350332 0.0669718
0.0160525 0.349264 0.0622416
0.0507973 0.347723 0.0573281
0.0866255 0.345922 0.0523384
0.123384 0.343999 0.0473793
0.160937 0.342031 0.0425422
0.1991 0.340063 0.0378729
0.237827 0.338293 0.0335241
0.276478 0.336248 0.029221
0.31516 0.33434 0.0252537
0.353735 0.332631 0.0216678
0.391989 0.331136 0.0185092
0.429755 0.329854 0.0157778
0.46717 0.328923 0.0136263
0.503655 0.328115 0.011841
0.539513 0.327626 0.010605
0.574807 0.327398 0.00987259
0.609461 0.327352 0.00956741
0.643656 0.327596 0.00976577
0.677607 0.328176 0.0103456
0.711177 0.328801 0.0109712
0.744549 0.329564 0.0117342
0.777691 0.330419 0.0125887
0.810758 0.33138 0.01355
0.844114 0.332784 0.0149538
0.877211 0.334005 0.0161746
0.910369 0.335286 0.0174563
0.943618 0.336583 0.0187533
0.977127 0.337865 0.0200351
1 0.339376 0.0215457
1 0.340948 0.0231174
1 0.342565 0.0247349
0 0.385229 0.0600137
0 0.384222 0.0554208
0.00276188 0.382818 0.0506752
0.0392309 0.381247 0.0459754
0.0767071 0.379507 0.0413062
0.114992 0.377569 0.0366979
0.153872 0.375525 0.0322118
0.193454 0.373785 0.0281529
0.233127 0.371862 0.0242161
0.272831 0.370001 0.0205997
0.312352 0.368215 0.017319
0.351522 0.366583 0.0144503
0.390539 0.365499 0.0123293
0.428702 0.364446 0.010544
0.466209 0.363638 0.00927749
0.50277 0.363088 0.00852979
0.538537 0.362829 0.00827039
0.573816 0.362905 0.00834669
0.608927 0.3635 0.00894179
0.643336 0.364004 0.00944533
0.677348 0.364645 0.0100862
0.711116 0.365454 0.0108949
0.744717 0.366461 0.011902
0.778256 0.367697 0.013138
0.811826 0.369177 0.0146181
0.84509 0.370489 0.0159304
0.878355 0.371878 0.017319
0.911711 0.373373 0.0187991
0.94522 0.374914 0.0203555
0.97908 0.376547 0.0219883
1 0.378241 0.023682
1 0.379767 0.0252079
1 0.381552 0.0269932
0 0.420356 0.0490883
0 0.419074 0.0446937
0 0.417517 0.0402686
0.0289921 0.415778 0.0359197
0.0679789 0.413947 0.0317235
0.107881 0.412299 0.0278782
0.14815 0.410376 0.0241093
0.188617 0.408347 0.0205539
0.229206 0.406409 0.0173342
0.269734 0.404639 0.0145724
0.310002 0.403067 0.0122835
0.350027 0.401923 0.0107271
0.389105 0.400717 0.00941482
0.427466 0.399832 0.00852979
0.465187 0.399283 0.00799573
0.502037 0.3991 0.00779736
0.538125 0.399145 0.0078584
0.573907 0.399725 0.00843824
0.608942 0.400244 0.00895705
0.64361 0.401022 0.00972
0.677943 0.401968 0.0106813
0.711971 0.403037 0.0117494
0.7458 0.404273 0.0129854
0.77969 0.405875 0.0145876
0.81326 0.407355 0.0160678
0.846784 0.408911 0.0176242
0.880232 0.410498 0.0191958
0.913741 0.412116 0.0208286
0.947692 0.414115 0.0228122
0.981582 0.415778 0.0244907
1 0.417472 0.0261845
1 0.41912 0.0278325
1 0.420966 0.0296788
0 0.455848 0.0393225
0 0.454475 0.0354314
0 0.452903 0.0316625
0.0209201 0.451102 0.0279698
0.0614328 0.449348 0.0245975
0.102464 0.447456 0.0214084
0.143847 0.445518 0.0184939
0.185397 0.443626 0.0159609
0.226825 0.441764 0.0137789
0.267964 0.440024 0.0119936
0.308934 0.438849 0.0108339
0.349081 0.43772 0.00968948
0.38851 0.436851 0.00881972
0.427146 0.43624 0.00820935
0.465049 0.435889 0.00787366
0.502403 0.436179 0.00816358
0.538811 0.436576 0.00856031
0.574609 0.437156 0.00914015
0.609857 0.437903 0.00988785
0.644709 0.438849 0.0108186
0.679225 0.439979 0.0119631
0.713817 0.441611 0.0135958
0.747829 0.443046 0.0150301
0.781643 0.444556 0.0165255
0.815335 0.446143 0.0181277
0.848981 0.447837 0.0198215
0.882628 0.449622 0.0215915
0.916594 0.451713 0.0236973
0.950347 0.453483 0.0254673
0.984298 0.455238 0.0272068
1 0.456992 0.0289769
1 0.458732 0.0307164
1 0.460746 0.0327306
0 0.491844 0.0317082
0 0.490227 0.0284886
0 0.488624 0.0256046
0.0158846 0.486976 0.0230106
0.0576028 0.485039 0.0205081
0.0996872 0.483009 0.0182498
0.141924 0.481025 0.0162661
0.18407 0.47924 0.0144961
0.226169 0.477852 0.0130922
0.267765 0.476555 0.0117952
0.30869 0.475334 0.0105898
0.349035 0.474403 0.0096437
0.388708 0.473777 0.00901808
0.427649 0.473472 0.00872816
0.466087 0.473671 0.00891127
0.503426 0.473945 0.00918593
0.539971 0.474464 0.00972
0.575982 0.475257 0.0104982
0.61149 0.476265 0.0115053
0.64654 0.477409 0.012665
0.681529 0.479011 0.0142672
0.715923 0.480461 0.0157015
0.750103 0.482048 0.0172885
0.784085 0.483726 0.018967
0.817914 0.485466 0.0207065
0.851652 0.487251 0.0224918
0.885695 0.489403 0.0246586
0.919432 0.491279 0.0265202
0.953262 0.493141 0.0283818
0.987289 0.494957 0.0301976
1 0.496742 0.0319982
1 0.498817 0.0340734
1 0.500755 0.035996
0 0.52781 0.0269169
0 0.526192 0.0248112
0 0.524468 0.0229801
0.013962 0.522591 0.0211032
0.0564126 0.520775 0.0192874
0.0990005 0.519051 0.0175631
0.141527 0.517372 0.0158846
0.184054 0.515953 0.0144656
0.226307 0.514733 0.0132448
0.26807 0.513603 0.0121157
0.309316 0.512703 0.0112154
0.349905 0.512001 0.0105135
0.389761 0.511559 0.010071
0.429191 0.511742 0.0102541
0.467613 0.511925 0.0104372
0.50515 0.512383 0.0109102
0.541878 0.5131 0.0116121
0.578012 0.514015 0.0125277
0.61387 0.515373 0.0138857
0.649195 0.516793 0.0153048
0.684031 0.518257 0.0167697
0.718547 0.519814 0.0183261
0.752804 0.521477 0.0199893
0.786862 0.523232 0.0217441
0.821073 0.525353 0.0238651
0.854932 0.52726 0.0257725
0.888685 0.529137 0.0276493
0.922454 0.531029 0.0295415
0.956283 0.532891 0.0314031
0.990311 0.534707 0.0332189
1 0.536828 0.0353399
1 0.53872 0.037232
1 0.541192 0.039704
0 0.563775 0.0255436
0 0.562219 0.0240024
0 0.560632 0.0224155
0.0136568 0.559014 0.020798
0.0563058 0.557397 0.0191806
0.0991989 0.555978 0.0177615
0.14226 0.554833 0.0166018
0.184924 0.553552 0.0153353
0.227253 0.552407 0.0141909
0.269184 0.551431 0.0132143
0.310628 0.550729 0.0125124
0.351598 0.550423 0.0122072
0.391867 0.550393 0.0121767
0.431144 0.550423 0.0122072
0.469688 0.550729 0.0125124
0.507362 0.551339 0.0131228
0.544274 0.552224 0.0140078
0.580758 0.553506 0.0152895
0.616632 0.554864 0.0166476
0.651926 0.556252 0.0180362
0.686839 0.557794 0.0195773
0.721447 0.559442 0.0212253
0.755764 0.561181 0.0229648
0.790127 0.563241 0.0250248
0.82414 0.565148 0.0269322
0.857954 0.56701 0.0287938
0.891707 0.568887 0.0306706
0.92549 0.570809 0.0325933
0.959579 0.572915 0.0347143
0.994675 0.575799 0.0375982
1 0.57879 0.040589
1 0.58201 0.0437934
1 0.585489 0.0472725
0 0.600275 0.02533
0 0.598917 0.0239719
0 0.597589 0.0226444
0.0141909 0.596277 0.0213321
0.0571756 0.594995 0.0200504
0.100435 0.593942 0.0189975
0.143435 0.592737 0.0177768
0.186313 0.591684 0.0167239
0.228901 0.590784 0.0158389
0.271031 0.590021 0.0150759
0.312734 0.589578 0.0146181
0.353902 0.589456 0.0145113
0.394141 0.58941 0.0144503
0.4336 0.589624 0.0146792
0.472297 0.590051 0.0151064
0.510048 0.590753 0.0158083
0.547356 0.592035 0.0170901
0.583719 0.593194 0.0182498
0.619562 0.594522 0.0195773
0.654917 0.595972 0.0210269
0.68986 0.597543 0.0225986
0.724636 0.599374 0.0244297
0.759121 0.601267 0.0263218
0.79321 0.603052 0.0281071
0.827237 0.604974 0.0300298
0.861463 0.607248 0.0323033
0.896117 0.610025 0.0350805
0.931456 0.613504 0.0385595
0.966903 0.616968 0.0420233
1 0.620447 0.0455024
1 0.62443 0.049485
1 0.629099 0.0541543
1 0.634501 0.059556
0 0.637659 0.0259861
0 0.636545 0.0248569
0 0.635386 0.0237125
0.0157473 0.634577 0.0228885
0.0589151 0.633478 0.0217899
0.102174 0.63241 0.0207218
0.145342 0.631373 0.0196994
0.188357 0.630457 0.0187686
0.231098 0.629709 0.0180362
0.273701 0.629419 0.0177462
0.315465 0.629023 0.0173495
0.356527 0.628824 0.0171511
0.396857 0.62884 0.0171664
0.436377 0.629129 0.0174563
0.475242 0.62974 0.0180514
0.513329 0.630762 0.019089
0.550362 0.631769 0.0200961
0.58674 0.632959 0.0212711
0.622583 0.634272 0.0225986
0.657938 0.635737 0.0240482
0.693034 0.637446 0.0257725
0.727993 0.63946 0.0277867
0.762905 0.641779 0.0301061
0.798077 0.644648 0.0329747
0.833432 0.647898 0.0362249
0.868772 0.651286 0.0396124
0.904585 0.655222 0.0435492
0.940963 0.659739 0.0480507
0.977966 0.664775 0.0530861
1 0.670176 0.0584878
1 0.675669 0.0647593
1 0.681224 0.0731823
1 0.68751 0.0846723
0 0.675715 0.0272984
0 0.674846 0.0264439
0 0.674235 0.0258335
0.0177157 0.673274 0.0248569
0.0610056 0.672297 0.0238804
0.104402 0.671366 0.0229648
0.147768 0.670527 0.0221103
0.190921 0.669749 0.0213321
0.234073 0.669413 0.0209964
0.276448 0.668894 0.0204776
0.318273 0.668574 0.0201572
0.359442 0.668452 0.0200504
0.399832 0.668559 0.0201419
0.43946 0.66894 0.0205234
0.478508 0.669734 0.0213321
0.51635 0.670512 0.0221103
0.553384 0.671519 0.0231174
0.589807 0.67274 0.0243229
0.625925 0.674342 0.0259403
0.662409 0.676936 0.0285191
0.698589 0.679728 0.0313268
0.734661 0.682857 0.0344396
0.770565 0.686168 0.0377661
0.806668 0.689967 0.0415503
0.843473 0.694667 0.0462654
0.880964 0.700221 0.0518044
0.918349 0.705745 0.0574044
0.955154 0.711299 0.0645762
0.990875 0.716793 0.0739757
1 0.72221 0.0855116
1 0.727932 0.099794
1 0.733837 0.11664
1 0.739849 0.135546
0 0.714458 0.0293126
0 0.714031 0.0289006
0 0.713268 0.0281224
0.0201877 0.712474 0.0273289
0.0635996 0.711635 0.0264897
0.107088 0.710796 0.0256504
0.15082 0.710307 0.0251774
0.194095 0.709651 0.024506
0.237003 0.709072 0.0239261
0.279438 0.708614 0.0234684
0.321294 0.708324 0.0231785
0.362463 0.708217 0.0230716
0.403189 0.708629 0.0234989
0.442741 0.708965 0.0238193
0.481636 0.70959 0.024445
0.519921 0.710826 0.0256809
0.5579 0.712779 0.0276341
0.595651 0.715328 0.0301823
0.633341 0.718502 0.0333562
0.670405 0.72166 0.0365148
0.707607 0.725475 0.0403449
0.74519 0.730114 0.0449836
0.783032 0.735363 0.0502327
0.820844 0.740932 0.056199
0.858198 0.746639 0.0645609
0.894194 0.751873 0.0748455
0.928939 0.757015 0.0873426
0.96231 0.762188 0.102266
0.994125 0.767483 0.119753
1 0.772824 0.13962
1 0.777737 0.160479
1 0.781888 0.180957
1 0.786068 0.20238
0 0.75404 0.032166
0 0.753414 0.0315404
0 0.752712 0.0308385
0.0229801 0.751995 0.0301213
0.0664836 0.751232 0.0293584
0.110323 0.750759 0.0288853
0.153857 0.750088 0.0282139
0.197116 0.749401 0.0275273
0.240024 0.748821 0.0269474
0.28246 0.748363 0.0264897
0.324331 0.748089 0.026215
0.366033 0.748501 0.0266423
0.40705 0.749233 0.0273594
0.44773 0.750683 0.028809
0.487953 0.752636 0.0307622
0.527321 0.754955 0.0330816
0.566201 0.757809 0.035935
0.605539 0.761929 0.0400549
0.644587 0.766476 0.0446021
0.683558 0.771542 0.0496834
0.722164 0.776684 0.0559396
0.760128 0.781628 0.0645457
0.79762 0.786847 0.076173
0.833539 0.791485 0.0895247
0.868223 0.796139 0.105425
0.901427 0.800809 0.123873
0.932662 0.805173 0.143908
0.96173 0.809033 0.164614
0.988815 0.81268 0.186313
1 0.815961 0.208331
1 0.819455 0.232029
1 0.822889 0.256306
1 0.8262 0.280339
0 0.793591 0.0349889
0 0.793057 0.0344549
0 0.792432 0.0338293
0.0260014 0.791745 0.0331426
0.0698405 0.791318 0.0327153
0.113405 0.79057 0.0319677
0.156878 0.789837 0.0312352
0.200183 0.789197 0.0305943
0.243412 0.788952 0.0303502
0.286931 0.789563 0.0309606
0.330159 0.790646 0.0320439
0.372793 0.792004 0.033402
0.414801 0.793713 0.035111
0.456428 0.796094 0.0374914
0.497993 0.79942 0.0408179
0.539666 0.804028 0.0454261
0.580423 0.808713 0.0502632
0.620722 0.81326 0.0569924
0.660441 0.817563 0.0661326
0.699336 0.821637 0.0776532
0.737224 0.825589 0.0916609
0.774456 0.829908 0.10927
0.80972 0.833707 0.128405
0.842939 0.837034 0.14873
0.87393 0.839811 0.169375
0.902876 0.842268 0.190616
0.930083 0.844831 0.213489
0.955596 0.847776 0.238788
0.978912 0.850233 0.263172
1 0.85243 0.287037
1 0.854582 0.310964
1 0.857008 0.335958
1 0.859892 0.362219
0 0.833341 0.0380102
0 0.832807 0.0374762
0 0.832334 0.0370031
0.0293431 0.83183 0.0364843
0.0729839 0.831205 0.0358587
0.117037 0.83093 0.0355993
0.161517 0.831205 0.0358587
0.206134 0.831891 0.0365606
0.250797 0.833066 0.0377203
0.295109 0.834485 0.0391394
0.339284 0.836515 0.0411688
0.383505 0.839445 0.0441138
0.427451 0.843091 0.0477455
0.470863 0.846967 0.0522774
0.514519 0.85095 0.0596475
0.557137 0.854383 0.0691997
0.598779 0.857511 0.081178
0.639506 0.860517 0.0957961
0.679179 0.863462 0.113176
0.717235 0.866133 0.132647
0.753521 0.868589 0.154025
0.78703 0.870207 0.174685
0.818601 0.871687 0.196368
0.848478 0.873304 0.219867
0.876417 0.874922 0.244358
0.902403 0.8766 0.26981
0.926101 0.877852 0.293736
0.948013 0.879179 0.318166
0.968261 0.880796 0.343771
0.986816 0.882551 0.369863
1 0.884367 0.395773
1 0.886519 0.422644
1 0.888808 0.448981
0 0.873106 0.0410468
0 0.872923 0.0408637
0 0.873198 0.0411383
